luts/bw/ilford_delta_400.cube
# Created by: G'MIC (https://gmic.eu)
TITLE "ilford_delta_400"
# LUT size
LUT_3D_SIZE 7
# Data domain
DOMAIN_MIN 0.0 0.0 0.0
DOMAIN_MAX 1.0 1.0 1.0
# LUT data points
0.026017237454652786 0.026017237454652786 0.026017237454652786
0.048892691731452942 0.048892691731452942 0.048892691731452942
0.081352546811103821 0.081352546811103821 0.081352546811103821
0.11989305913448334 0.11989305913448334 0.11989305913448334
0.17951878905296326 0.17951878905296326 0.17951878905296326
0.27724277973175049 0.27724277973175049 0.27724277973175049
0.38992825150489807 0.38992825150489807 0.38992825150489807
0.089708752930164337 0.089708752930164337 0.089708752930164337
0.10772243142127991 0.10772243142127991 0.10772243142127991
0.13614381849765778 0.13614381849765778 0.13614381849765778
0.17555877566337585 0.17555877566337585 0.17555877566337585
0.23715150356292725 0.23715150356292725 0.23715150356292725
0.32671210169792175 0.32671210169792175 0.32671210169792175
0.43005037307739258 0.43005037307739258 0.43005037307739258
0.16726107895374298 0.16726107895374298 0.16726107895374298
0.18029843270778656 0.18029843270778656 0.18029843270778656
0.20423372089862823 0.20423372089862823 0.20423372089862823
0.24360314011573792 0.24360314011573792 0.24360314011573792
0.30555728077888489 0.30555728077888489 0.30555728077888489
0.38747864961624146 0.38747864961624146 0.38747864961624146
0.4803231954574585 0.4803231954574585 0.4803231954574585
0.26207131147384644 0.26207131147384644 0.26207131147384644
0.27287688851356506 0.27287688851356506 0.27287688851356506
0.2951909601688385 0.2951909601688385 0.2951909601688385
0.3325439989566803 0.3325439989566803 0.3325439989566803
0.38981276750564575 0.38981276750564575 0.38981276750564575
0.4625818133354187 0.4625818133354187 0.4625818133354187
0.54527783393859863 0.54527783393859863 0.54527783393859863
0.37681877613067627 0.37681877613067627 0.37681877613067627
0.38893857598304749 0.38893857598304749 0.38893857598304749
0.41115325689315796 0.41115325689315796 0.41115325689315796
0.44468474388122559 0.44468474388122559 0.44468474388122559
0.49255523085594177 0.49255523085594177 0.49255523085594177
0.55362683534622192 0.55362683534622192 0.55362683534622192
0.62549436092376709 0.62549436092376709 0.62549436092376709
0.51722735166549683 0.51722735166549683 0.51722735166549683
0.52870696783065796 0.52870696783065796 0.52870696783065796
0.54660290479660034 0.54660290479660034 0.54660290479660034
0.57233142852783203 0.57233142852783203 0.57233142852783203
0.60939013957977295 0.60939013957977295 0.60939013957977295
0.65872496366500854 0.65872496366500854 0.65872496366500854
0.71968883275985718 0.71968883275985718 0.71968883275985718
0.68478786945343018 0.68478786945343018 0.68478786945343018
0.6849372386932373 0.6849372386932373 0.6849372386932373
0.69238471984863281 0.69238471984863281 0.69238471984863281
0.70858323574066162 0.70858323574066162 0.70858323574066162
0.73533493280410767 0.73533493280410767 0.73533493280410767
0.77426904439926147 0.77426904439926147 0.77426904439926147
0.82612383365631104 0.82612383365631104 0.82612383365631104
0.063118785619735718 0.063118785619735718 0.063118785619735718
0.090489394962787628 0.090489394962787628 0.090489394962787628
0.12995254993438721 0.12995254993438721 0.12995254993438721
0.16912940144538879 0.16912940144538879 0.16912940144538879
0.22532537579536438 0.22532537579536438 0.22532537579536438
0.3115684986114502 0.3115684986114502 0.3115684986114502
0.41292989253997803 0.41292989253997803 0.41292989253997803
0.12610936164855957 0.12610936164855957 0.12610936164855957
0.14745998382568359 0.14745998382568359 0.14745998382568359
0.17940413951873779 0.17940413951873779 0.17940413951873779
0.21849609911441803 0.21849609911441803 0.21849609911441803
0.27586561441421509 0.27586561441421509 0.27586561441421509
0.35798352956771851 0.35798352956771851 0.35798352956771851
0.4536813497543335 0.4536813497543335 0.4536813497543335
0.20214720070362091 0.20214720070362091 0.20214720070362091
0.21655271947383881 0.21655271947383881 0.21655271947383881
0.24095718562602997 0.24095718562602997 0.24095718562602997
0.27852621674537659 0.27852621674537659 0.27852621674537659
0.33775171637535095 0.33775171637535095 0.33775171637535095
0.41466537117958069 0.41466537117958069 0.41466537117958069
0.50224417448043823 0.50224417448043823 0.50224417448043823
0.29418718814849854 0.29418718814849854 0.29418718814849854
0.30555254220962524 0.30555254220962524 0.30555254220962524
0.32698941230773926 0.32698941230773926 0.32698941230773926
0.36204579472541809 0.36204579472541809 0.36204579472541809
0.41680684685707092 0.41680684685707092 0.41680684685707092
0.48533898591995239 0.48533898591995239 0.48533898591995239
0.56358069181442261 0.56358069181442261 0.56358069181442261
0.40442746877670288 0.40442746877670288 0.40442746877670288
0.41701400279998779 0.41701400279998779 0.41701400279998779
0.43908414244651794 0.43908414244651794 0.43908414244651794
0.47111237049102783 0.47111237049102783 0.47111237049102783
0.515034019947052 0.515034019947052 0.515034019947052
0.57179790735244751 0.57179790735244751 0.57179790735244751
0.63925421237945557 0.63925421237945557 0.63925421237945557
0.5377962589263916 0.5377962589263916 0.5377962589263916
0.5508769154548645 0.5508769154548645 0.5508769154548645
0.5696110725402832 0.5696110725402832 0.5696110725402832
0.5937846302986145 0.5937846302986145 0.5937846302986145
0.62707775831222534 0.62707775831222534 0.62707775831222534
0.67197072505950928 0.67197072505950928 0.67197072505950928
0.72853899002075195 0.72853899002075195 0.72853899002075195
0.69301301240921021 0.69301301240921021 0.69301301240921021
0.69944041967391968 0.69944041967391968 0.69944041967391968
0.70981895923614502 0.70981895923614502 0.70981895923614502
0.72473013401031494 0.72473013401031494 0.72473013401031494
0.74788159132003784 0.74788159132003784 0.74788159132003784
0.78282183408737183 0.78282183408737183 0.78282183408737183
0.83029347658157349 0.83029347658157349 0.83029347658157349
0.11117345839738846 0.11117345839738846 0.11117345839738846
0.1396925300359726 0.1396925300359726 0.1396925300359726
0.17892244458198547 0.17892244458198547 0.17892244458198547
0.2217181921005249 0.2217181921005249 0.2217181921005249
0.27805450558662415 0.27805450558662415 0.27805450558662415
0.35579738020896912 0.35579738020896912 0.35579738020896912
0.44678309559822083 0.44678309559822083 0.44678309559822083
0.17671225965023041 0.17671225965023041 0.17671225965023041
0.1992756575345993 0.1992756575345993 0.1992756575345993
0.23213297128677368 0.23213297128677368 0.23213297128677368
0.27230179309844971 0.27230179309844971 0.27230179309844971
0.32697412371635437 0.32697412371635437 0.32697412371635437
0.40070638060569763 0.40070638060569763 0.40070638060569763
0.48671004176139832 0.48671004176139832 0.48671004176139832
0.2550295889377594 0.2550295889377594 0.2550295889377594
0.27098658680915833 0.27098658680915833 0.27098658680915833
0.29698845744132996 0.29698845744132996 0.29698845744132996
0.33394119143486023 0.33394119143486023 0.33394119143486023
0.38686135411262512 0.38686135411262512 0.38686135411262512
0.45504164695739746 0.45504164695739746 0.45504164695739746
0.53431099653244019 0.53431099653244019 0.53431099653244019
0.34703338146209717 0.34703338146209717 0.34703338146209717
0.35930928587913513 0.35930928587913513 0.35930928587913513
0.38135364651679993 0.38135364651679993 0.38135364651679993
0.41440775990486145 0.41440775990486145 0.41440775990486145
0.46182668209075928 0.46182668209075928 0.46182668209075928
0.52181774377822876 0.52181774377822876 0.52181774377822876
0.59210121631622314 0.59210121631622314 0.59210121631622314
0.45469507575035095 0.45469507575035095 0.45469507575035095
0.4662284255027771 0.4662284255027771 0.4662284255027771
0.48663872480392456 0.48663872480392456 0.48663872480392456
0.51472055912017822 0.51472055912017822 0.51472055912017822
0.55276763439178467 0.55276763439178467 0.55276763439178467
0.60193532705307007 0.60193532705307007 0.60193532705307007
0.66220623254776001 0.66220623254776001 0.66220623254776001
0.57946223020553589 0.57946223020553589 0.57946223020553589
0.59083461761474609 0.59083461761474609 0.59083461761474609
0.60811996459960938 0.60811996459960938 0.60811996459960938
0.6286810040473938 0.6286810040473938 0.6286810040473938
0.65621805191040039 0.65621805191040039 0.65621805191040039
0.69450670480728149 0.69450670480728149 0.69450670480728149
0.74506330490112305 0.74506330490112305 0.74506330490112305
0.71757704019546509 0.71757704019546509 0.71757704019546509
0.72669708728790283 0.72669708728790283 0.72669708728790283
0.73861175775527954 0.73861175775527954 0.73861175775527954
0.75034981966018677 0.75034981966018677 0.75034981966018677
0.76846069097518921 0.76846069097518921 0.76846069097518921
0.79764598608016968 0.79764598608016968 0.79764598608016968
0.84074580669403076 0.84074580669403076 0.84074580669403076
0.17272971570491791 0.17272971570491791 0.17272971570491791
0.20020155608654022 0.20020155608654022 0.20020155608654022
0.23704235255718231 0.23704235255718231 0.23704235255718231
0.27975571155548096 0.27975571155548096 0.27975571155548096
0.33680534362792969 0.33680534362792969 0.33680534362792969
0.40996617078781128 0.40996617078781128 0.40996617078781128
0.49298575520515442 0.49298575520515442 0.49298575520515442
0.24308808147907257 0.24308808147907257 0.24308808147907257
0.26443180441856384 0.26443180441856384 0.26443180441856384
0.29581379890441895 0.29581379890441895 0.29581379890441895
0.33511462807655334 0.33511462807655334 0.33511462807655334
0.3872285783290863 0.3872285783290863 0.3872285783290863
0.45416566729545593 0.45416566729545593 0.45416566729545593
0.53183490037918091 0.53183490037918091 0.53183490037918091
0.32499897480010986 0.32499897480010986 0.32499897480010986
0.34084349870681763 0.34084349870681763 0.34084349870681763
0.36609968543052673 0.36609968543052673 0.36609968543052673
0.40074419975280762 0.40074419975280762 0.40074419975280762
0.44753849506378174 0.44753849506378174 0.44753849506378174
0.5067514181137085 0.5067514181137085 0.5067514181137085
0.57684844732284546 0.57684844732284546 0.57684844732284546
0.41658297181129456 0.41658297181129456 0.41658297181129456
0.42895036935806274 0.42895036935806274 0.42895036935806274
0.44996023178100586 0.44996023178100586 0.44996023178100586
0.47973781824111938 0.47973781824111938 0.47973781824111938
0.5190233588218689 0.5190233588218689 0.5190233588218689
0.56917524337768555 0.56917524337768555 0.56917524337768555
0.63025903701782227 0.63025903701782227 0.63025903701782227
0.51828742027282715 0.51828742027282715 0.51828742027282715
0.52921801805496216 0.52921801805496216 0.52921801805496216
0.54721200466156006 0.54721200466156006 0.54721200466156006
0.57124108076095581 0.57124108076095581 0.57124108076095581
0.60195887088775635 0.60195887088775635 0.60195887088775635
0.64170295000076294 0.64170295000076294 0.64170295000076294
0.69370043277740479 0.69370043277740479 0.69370043277740479
0.63088876008987427 0.63088876008987427 0.63088876008987427
0.64109128713607788 0.64109128713607788 0.64109128713607788
0.65575319528579712 0.65575319528579712 0.65575319528579712
0.67259949445724487 0.67259949445724487 0.67259949445724487
0.69413304328918457 0.69413304328918457 0.69413304328918457
0.72453141212463379 0.72453141212463379 0.72453141212463379
0.76865369081497192 0.76865369081497192 0.76865369081497192
0.7528451681137085 0.7528451681137085 0.7528451681137085
0.76137411594390869 0.76137411594390869 0.76137411594390869
0.77229046821594238 0.77229046821594238 0.77229046821594238
0.78126066923141479 0.78126066923141479 0.78126066923141479
0.79496198892593384 0.79496198892593384 0.79496198892593384
0.81869614124298096 0.81869614124298096 0.81869614124298096
0.85677623748779297 0.85677623748779297 0.85677623748779297
0.25626096129417419 0.25626096129417419 0.25626096129417419
0.28102666139602661 0.28102666139602661 0.28102666139602661
0.31417989730834961 0.31417989730834961 0.31417989730834961
0.35486036539077759 0.35486036539077759 0.35486036539077759
0.40889397263526917 0.40889397263526917 0.40889397263526917
0.47633373737335205 0.47633373737335205 0.47633373737335205
0.55229645967483521 0.55229645967483521 0.55229645967483521
0.32865944504737854 0.32865944504737854 0.32865944504737854
0.34739437699317932 0.34739437699317932 0.34739437699317932
0.37514218688011169 0.37514218688011169 0.37514218688011169
0.41103911399841309 0.41103911399841309 0.41103911399841309
0.45871123671531677 0.45871123671531677 0.45871123671531677
0.51887136697769165 0.51887136697769165 0.51887136697769165
0.58845007419586182 0.58845007419586182 0.58845007419586182
0.41092309355735779 0.41092309355735779 0.41092309355735779
0.42489215731620789 0.42489215731620789 0.42489215731620789
0.44686675071716309 0.44686675071716309 0.44686675071716309
0.47709453105926514 0.47709453105926514 0.47709453105926514
0.51724886894226074 0.51724886894226074 0.51724886894226074
0.56808269023895264 0.56808269023895264 0.56808269023895264
0.62963509559631348 0.62963509559631348 0.62963509559631348
0.49911695718765259 0.49911695718765259 0.49911695718765259
0.5096932053565979 0.5096932053565979 0.5096932053565979
0.52726942300796509 0.52726942300796509 0.52726942300796509
0.55211025476455688 0.55211025476455688 0.55211025476455688
0.5840575098991394 0.5840575098991394 0.5840575098991394
0.62466174364089966 0.62466174364089966 0.62466174364089966
0.67712008953094482 0.67712008953094482 0.67712008953094482
0.59144443273544312 0.59144443273544312 0.59144443273544312
0.60005176067352295 0.60005176067352295 0.60005176067352295
0.61458897590637207 0.61458897590637207 0.61458897590637207
0.63461416959762573 0.63461416959762573 0.63461416959762573
0.65822005271911621 0.65822005271911621 0.65822005271911621
0.68873792886734009 0.68873792886734009 0.68873792886734009
0.73262220621109009 0.73262220621109009 0.73262220621109009
0.6891244649887085 0.6891244649887085 0.6891244649887085
0.69640177488327026 0.69640177488327026 0.69640177488327026
0.70771890878677368 0.70771890878677368 0.70771890878677368
0.72139674425125122 0.72139674425125122 0.72139674425125122
0.73750698566436768 0.73750698566436768 0.73750698566436768
0.76086145639419556 0.76086145639419556 0.76086145639419556
0.79826170206069946 0.79826170206069946 0.79826170206069946
0.79460012912750244 0.79460012912750244 0.79460012912750244
0.79976028203964233 0.79976028203964233 0.79976028203964233
0.80774438381195068 0.80774438381195068 0.80774438381195068
0.81570911407470703 0.81570911407470703 0.81570911407470703
0.82607424259185791 0.82607424259185791 0.82607424259185791
0.84467816352844238 0.84467816352844238 0.84467816352844238
0.87839728593826294 0.87839728593826294 0.87839728593826294
0.36223423480987549 0.36223423480987549 0.36223423480987549
0.38083910942077637 0.38083910942077637 0.38083910942077637
0.4078446626663208 0.4078446626663208 0.4078446626663208
0.44448292255401611 0.44448292255401611 0.44448292255401611
0.49317485094070435 0.49317485094070435 0.49317485094070435
0.55378860235214233 0.55378860235214233 0.55378860235214233
0.6230815052986145 0.6230815052986145 0.6230815052986145
0.43098732829093933 0.43098732829093933 0.43098732829093933
0.44563049077987671 0.44563049077987671 0.44563049077987671
0.46748143434524536 0.46748143434524536 0.46748143434524536
0.49817574024200439 0.49817574024200439 0.49817574024200439
0.53991377353668213 0.53991377353668213 0.53991377353668213
0.59307968616485596 0.59307968616485596 0.59307968616485596
0.65566188097000122 0.65566188097000122 0.65566188097000122
0.50904369354248047 0.50904369354248047 0.50904369354248047
0.51936489343643188 0.51936489343643188 0.51936489343643188
0.53564417362213135 0.53564417362213135 0.53564417362213135
0.55992382764816284 0.55992382764816284 0.55992382764816284
0.59347492456436157 0.59347492456436157 0.59347492456436157
0.63690471649169922 0.63690471649169922 0.63690471649169922
0.69139945507049561 0.69139945507049561 0.69139945507049561
0.59108465909957886 0.59108465909957886 0.59108465909957886
0.59755980968475342 0.59755980968475342 0.59755980968475342
0.60911089181900024 0.60911089181900024 0.60911089181900024
0.6277616024017334 0.6277616024017334 0.6277616024017334
0.65283185243606567 0.65283185243606567 0.65283185243606567
0.68609261512756348 0.68609261512756348 0.68609261512756348
0.73218083381652832 0.73218083381652832 0.73218083381652832
0.67130452394485474 0.67130452394485474 0.67130452394485474
0.676155686378479 0.676155686378479 0.676155686378479
0.68512779474258423 0.68512779474258423 0.68512779474258423
0.69964587688446045 0.69964587688446045 0.69964587688446045
0.71696794033050537 0.71696794033050537 0.71696794033050537
0.7408071756362915 0.7408071756362915 0.7408071756362915
0.77919465303421021 0.77919465303421021 0.77919465303421021
0.75288987159729004 0.75288987159729004 0.75288987159729004
0.75658959150314331 0.75658959150314331 0.75658959150314331
0.76405268907546997 0.76405268907546997 0.76405268907546997
0.77361983060836792 0.77361983060836792 0.77361983060836792
0.78491270542144775 0.78491270542144775 0.78491270542144775
0.80258077383041382 0.80258077383041382 0.80258077383041382
0.83545994758605957 0.83545994758605957 0.83545994758605957
0.84245532751083374 0.84245532751083374 0.84245532751083374
0.84482228755950928 0.84482228755950928 0.84482228755950928
0.85025173425674438 0.85025173425674438 0.85025173425674438
0.85617941617965698 0.85617941617965698 0.85617941617965698
0.86349964141845703 0.86349964141845703 0.86349964141845703
0.87764745950698853 0.87764745950698853 0.87764745950698853
0.90741312503814697 0.90741312503814697 0.90741312503814697
0.47447562217712402 0.47447562217712402 0.47447562217712402
0.48777484893798828 0.48777484893798828 0.48777484893798828
0.50908964872360229 0.50908964872360229 0.50908964872360229
0.54025477170944214 0.54025477170944214 0.54025477170944214
0.58341807126998901 0.58341807126998901 0.58341807126998901
0.63797503709793091 0.63797503709793091 0.63797503709793091
0.70173877477645874 0.70173877477645874 0.70173877477645874
0.53859513998031616 0.53859513998031616 0.53859513998031616
0.54918462038040161 0.54918462038040161 0.54918462038040161
0.56541377305984497 0.56541377305984497 0.56541377305984497
0.59029203653335571 0.59029203653335571 0.59029203653335571
0.62629240751266479 0.62629240751266479 0.62629240751266479
0.67333817481994629 0.67333817481994629 0.67333817481994629
0.73019564151763916 0.73019564151763916 0.73019564151763916
0.61043143272399902 0.61043143272399902 0.61043143272399902
0.61682432889938354 0.61682432889938354 0.61682432889938354
0.62744319438934326 0.62744319438934326 0.62744319438934326
0.64563316106796265 0.64563316106796265 0.64563316106796265
0.67341905832290649 0.67341905832290649 0.67341905832290649
0.71189028024673462 0.71189028024673462 0.71189028024673462
0.76106590032577515 0.76106590032577515 0.76106590032577515
0.68647080659866333 0.68647080659866333 0.68647080659866333
0.68730729818344116 0.68730729818344116 0.68730729818344116
0.69246357679367065 0.69246357679367065 0.69246357679367065
0.70469683408737183 0.70469683408737183 0.70469683408737183
0.72456330060958862 0.72456330060958862 0.72456330060958862
0.75370556116104126 0.75370556116104126 0.75370556116104126
0.79608887434005737 0.79608887434005737 0.79608887434005737
0.75560688972473145 0.75560688972473145 0.75560688972473145
0.75497448444366455 0.75497448444366455 0.75497448444366455
0.75803393125534058 0.75803393125534058 0.75803393125534058
0.76613432168960571 0.76613432168960571 0.76613432168960571
0.77933698892593384 0.77933698892593384 0.77933698892593384
0.80043840408325195 0.80043840408325195 0.80043840408325195
0.83628123998641968 0.83628123998641968 0.83628123998641968
0.82229119539260864 0.82229119539260864 0.82229119539260864
0.82271462678909302 0.82271462678909302 0.82271462678909302
0.82596945762634277 0.82596945762634277 0.82596945762634277
0.83137792348861694 0.83137792348861694 0.83137792348861694
0.83944970369338989 0.83944970369338989 0.83944970369338989
0.85474389791488647 0.85474389791488647 0.85474389791488647
0.88519918918609619 0.88519918918609619 0.88519918918609619
0.89879775047302246 0.89879775047302246 0.89879775047302246
0.89949685335159302 0.89949685335159302 0.89949685335159302
0.90268975496292114 0.90268975496292114 0.90268975496292114
0.9064706563949585 0.9064706563949585 0.9064706563949585
0.91188126802444458 0.91188126802444458 0.91188126802444458
0.92358160018920898 0.92358160018920898 0.92358160018920898
0.94977647066116333 0.94977647066116333 0.94977647066116333
