luts/bw/ilford_pan_f_plus_50.cube
# Created by: G'MIC (https://gmic.eu)
TITLE "ilford_pan_f_plus_50"
# LUT size
LUT_3D_SIZE 7
# Data domain
DOMAIN_MIN 0.0 0.0 0.0
DOMAIN_MAX 1.0 1.0 1.0
# LUT data points
0.024610003456473351 0.024610003456473351 0.024610003456473351
0.034588579088449478 0.034588579088449478 0.034588579088449478
0.050770629197359085 0.050770629197359085 0.050770629197359085
0.074100121855735779 0.074100121855735779 0.074100121855735779
0.11278535425662994 0.11278535425662994 0.11278535425662994
0.18397179245948792 0.18397179245948792 0.18397179245948792
0.29347118735313416 0.29347118735313416 0.29347118735313416
0.12262056767940521 0.12262056767940521 0.12262056767940521
0.14364352822303772 0.14364352822303772 0.14364352822303772
0.16681452095508575 0.16681452095508575 0.16681452095508575
0.19241218268871307 0.19241218268871307 0.19241218268871307
0.23104840517044067 0.23104840517044067 0.23104840517044067
0.29680675268173218 0.29680675268173218 0.29680675268173218
0.38499942421913147 0.38499942421913147 0.38499942421913147
0.26091152429580688 0.26091152429580688 0.26091152429580688
0.28094035387039185 0.28094035387039185 0.28094035387039185
0.3030337393283844 0.3030337393283844 0.3030337393283844
0.32696723937988281 0.32696723937988281 0.32696723937988281
0.36146211624145508 0.36146211624145508 0.36146211624145508
0.4138125479221344 0.4138125479221344 0.4138125479221344
0.48132216930389404 0.48132216930389404 0.48132216930389404
0.43551510572433472 0.43551510572433472 0.43551510572433472
0.44433426856994629 0.44433426856994629 0.44433426856994629
0.45470157265663147 0.45470157265663147 0.45470157265663147
0.46977543830871582 0.46977543830871582 0.46977543830871582
0.49475067853927612 0.49475067853927612 0.49475067853927612
0.53281813859939575 0.53281813859939575 0.53281813859939575
0.58294451236724854 0.58294451236724854 0.58294451236724854
0.60907232761383057 0.60907232761383057 0.60907232761383057
0.60737073421478271 0.60737073421478271 0.60737073421478271
0.60589921474456787 0.60589921474456787 0.60589921474456787
0.61114025115966797 0.61114025115966797 0.61114025115966797
0.62539100646972656 0.62539100646972656 0.62539100646972656
0.65076011419296265 0.65076011419296265 0.65076011419296265
0.68708515167236328 0.68708515167236328 0.68708515167236328
0.74958318471908569 0.74958318471908569 0.74958318471908569
0.74802792072296143 0.74802792072296143 0.74802792072296143
0.74299889802932739 0.74299889802932739 0.74299889802932739
0.74211466312408447 0.74211466312408447 0.74211466312408447
0.74879324436187744 0.74879324436187744 0.74879324436187744
0.76502954959869385 0.76502954959869385 0.76502954959869385
0.79137855768203735 0.79137855768203735 0.79137855768203735
0.86502587795257568 0.86502587795257568 0.86502587795257568
0.86650866270065308 0.86650866270065308 0.86650866270065308
0.86293745040893555 0.86293745040893555 0.86293745040893555
0.86057913303375244 0.86057913303375244 0.86057913303375244
0.8637547492980957 0.8637547492980957 0.8637547492980957
0.87472349405288696 0.87472349405288696 0.87472349405288696
0.89448297023773193 0.89448297023773193 0.89448297023773193
0.047552939504384995 0.047552939504384995 0.047552939504384995
0.065258875489234924 0.065258875489234924 0.065258875489234924
0.087671525776386261 0.087671525776386261 0.087671525776386261
0.11503002792596817 0.11503002792596817 0.11503002792596817
0.16281089186668396 0.16281089186668396 0.16281089186668396
0.24372534453868866 0.24372534453868866 0.24372534453868866
0.3496381938457489 0.3496381938457489 0.3496381938457489
0.15833531320095062 0.15833531320095062 0.15833531320095062
0.17866124212741852 0.17866124212741852 0.17866124212741852
0.20317767560482025 0.20317767560482025 0.20317767560482025
0.23072442412376404 0.23072442412376404 0.23072442412376404
0.27369600534439087 0.27369600534439087 0.27369600534439087
0.34270164370536804 0.34270164370536804 0.34270164370536804
0.43078038096427917 0.43078038096427917 0.43078038096427917
0.2975180447101593 0.2975180447101593 0.2975180447101593
0.31521952152252197 0.31521952152252197 0.31521952152252197
0.33694857358932495 0.33694857358932495 0.33694857358932495
0.36152410507202148 0.36152410507202148 0.36152410507202148
0.39676001667976379 0.39676001667976379 0.39676001667976379
0.44921875 0.44921875 0.44921875
0.51633459329605103 0.51633459329605103 0.51633459329605103
0.46138760447502136 0.46138760447502136 0.46138760447502136
0.47219517827033997 0.47219517827033997 0.47219517827033997
0.48449742794036865 0.48449742794036865 0.48449742794036865
0.50067430734634399 0.50067430734634399 0.50067430734634399
0.52482086420059204 0.52482086420059204 0.52482086420059204
0.56128948926925659 0.56128948926925659 0.56128948926925659
0.61006420850753784 0.61006420850753784 0.61006420850753784
0.62337958812713623 0.62337958812713623 0.62337958812713623
0.62763673067092896 0.62763673067092896 0.62763673067092896
0.63059055805206299 0.63059055805206299 0.63059055805206299
0.63713455200195312 0.63713455200195312 0.63713455200195312
0.6504402756690979 0.6504402756690979 0.6504402756690979
0.67376816272735596 0.67376816272735596 0.67376816272735596
0.70797300338745117 0.70797300338745117 0.70797300338745117
0.76160752773284912 0.76160752773284912 0.76160752773284912
0.76380187273025513 0.76380187273025513 0.76380187273025513
0.76216381788253784 0.76216381788253784 0.76216381788253784
0.7625962495803833 0.7625962495803833 0.7625962495803833
0.76823091506958008 0.76823091506958008 0.76823091506958008
0.78239572048187256 0.78239572048187256 0.78239572048187256
0.80696797370910645 0.80696797370910645 0.80696797370910645
0.87716364860534668 0.87716364860534668 0.87716364860534668
0.87964296340942383 0.87964296340942383 0.87964296340942383
0.87733751535415649 0.87733751535415649 0.87733751535415649
0.8753974437713623 0.8753974437713623 0.8753974437713623
0.87756025791168213 0.87756025791168213 0.87756025791168213
0.8866572380065918 0.8866572380065918 0.8866572380065918
0.90535032749176025 0.90535032749176025 0.90535032749176025
0.076553165912628174 0.076553165912628174 0.076553165912628174
0.098901025950908661 0.098901025950908661 0.098901025950908661
0.12695026397705078 0.12695026397705078 0.12695026397705078
0.15811017155647278 0.15811017155647278 0.15811017155647278
0.21461410820484161 0.21461410820484161 0.21461410820484161
0.29791900515556335 0.29791900515556335 0.29791900515556335
0.39475551247596741 0.39475551247596741 0.39475551247596741
0.19756090641021729 0.19756090641021729 0.19756090641021729
0.21792614459991455 0.21792614459991455 0.21792614459991455
0.24333100020885468 0.24333100020885468 0.24333100020885468
0.27293205261230469 0.27293205261230469 0.27293205261230469
0.31951361894607544 0.31951361894607544 0.31951361894607544
0.38759428262710571 0.38759428262710571 0.38759428262710571
0.46914345026016235 0.46914345026016235 0.46914345026016235
0.33845233917236328 0.33845233917236328 0.33845233917236328
0.35501289367675781 0.35501289367675781 0.35501289367675781
0.37608218193054199 0.37608218193054199 0.37608218193054199
0.40118199586868286 0.40118199586868286 0.40118199586868286
0.43564388155937195 0.43564388155937195 0.43564388155937195
0.48543480038642883 0.48543480038642883 0.48543480038642883
0.54825484752655029 0.54825484752655029 0.54825484752655029
0.4911004900932312 0.4911004900932312 0.4911004900932312
0.50375103950500488 0.50375103950500488 0.50375103950500488
0.51852905750274658 0.51852905750274658 0.51852905750274658
0.53526240587234497 0.53526240587234497 0.53526240587234497
0.5580182671546936 0.5580182671546936 0.5580182671546936
0.5910608172416687 0.5910608172416687 0.5910608172416687
0.63653856515884399 0.63653856515884399 0.63653856515884399
0.63923782110214233 0.63923782110214233 0.63923782110214233
0.64822149276733398 0.64822149276733398 0.64822149276733398
0.65641433000564575 0.65641433000564575 0.65641433000564575
0.66549646854400635 0.66549646854400635 0.66549646854400635
0.67716199159622192 0.67716199159622192 0.67716199159622192
0.69700831174850464 0.69700831174850464 0.69700831174850464
0.72863078117370605 0.72863078117370605 0.72863078117370605
0.77037101984024048 0.77037101984024048 0.77037101984024048
0.77631080150604248 0.77631080150604248 0.77631080150604248
0.77944612503051758 0.77944612503051758 0.77944612503051758
0.78235453367233276 0.78235453367233276 0.78235453367233276
0.78723335266113281 0.78723335266113281 0.78723335266113281
0.79876923561096191 0.79876923561096191 0.79876923561096191
0.82107275724411011 0.82107275724411011 0.82107275724411011
0.88351500034332275 0.88351500034332275 0.88351500034332275
0.88740307092666626 0.88740307092666626 0.88740307092666626
0.88795024156570435 0.88795024156570435 0.88795024156570435
0.88732385635375977 0.88732385635375977 0.88732385635375977
0.88896864652633667 0.88896864652633667 0.88896864652633667
0.89662027359008789 0.89662027359008789 0.89662027359008789
0.91384458541870117 0.91384458541870117 0.91384458541870117
0.11701724678277969 0.11701724678277969 0.11701724678277969
0.14092588424682617 0.14092588424682617 0.14092588424682617
0.16872741281986237 0.16872741281986237 0.16872741281986237
0.20518755912780762 0.20518755912780762 0.20518755912780762
0.26913094520568848 0.26913094520568848 0.26913094520568848
0.34946170449256897 0.34946170449256897 0.34946170449256897
0.43604591488838196 0.43604591488838196 0.43604591488838196
0.24502649903297424 0.24502649903297424 0.24502649903297424
0.26423954963684082 0.26423954963684082 0.26423954963684082
0.28878962993621826 0.28878962993621826 0.28878962993621826
0.32079434394836426 0.32079434394836426 0.32079434394836426
0.36935758590698242 0.36935758590698242 0.36935758590698242
0.43305468559265137 0.43305468559265137 0.43305468559265137
0.50699162483215332 0.50699162483215332 0.50699162483215332
0.38632315397262573 0.38632315397262573 0.38632315397262573
0.40175536274909973 0.40175536274909973 0.40175536274909973
0.42182245850563049 0.42182245850563049 0.42182245850563049
0.44676870107650757 0.44676870107650757 0.44676870107650757
0.47998955845832825 0.47998955845832825 0.47998955845832825
0.52464371919631958 0.52464371919631958 0.52464371919631958
0.58180654048919678 0.58180654048919678 0.58180654048919678
0.52933508157730103 0.52933508157730103 0.52933508157730103
0.5421450138092041 0.5421450138092041 0.5421450138092041
0.557952880859375 0.557952880859375 0.557952880859375
0.57532298564910889 0.57532298564910889 0.57532298564910889
0.5952683687210083 0.5952683687210083 0.5952683687210083
0.62361341714859009 0.62361341714859009 0.62361341714859009
0.66491901874542236 0.66491901874542236 0.66491901874542236
0.66370141506195068 0.66370141506195068 0.66370141506195068
0.67428290843963623 0.67428290843963623 0.67428290843963623
0.6859317421913147 0.6859317421913147 0.6859317421913147
0.69735372066497803 0.69735372066497803 0.69735372066497803
0.70575833320617676 0.70575833320617676 0.70575833320617676
0.72144728899002075 0.72144728899002075 0.72144728899002075
0.74987518787384033 0.74987518787384033 0.74987518787384033
0.78343325853347778 0.78343325853347778 0.78343325853347778
0.79113399982452393 0.79113399982452393 0.79113399982452393
0.79776275157928467 0.79776275157928467 0.79776275157928467
0.80241888761520386 0.80241888761520386 0.80241888761520386
0.80569195747375488 0.80569195747375488 0.80569195747375488
0.81443154811859131 0.81443154811859131 0.81443154811859131
0.83477491140365601 0.83477491140365601 0.83477491140365601
0.8899836540222168 0.8899836540222168 0.8899836540222168
0.89461660385131836 0.89461660385131836 0.89461660385131836
0.8972356915473938 0.8972356915473938 0.8972356915473938
0.8980371356010437 0.8980371356010437 0.8980371356010437
0.89889544248580933 0.89889544248580933 0.89889544248580933
0.90504056215286255 0.90504056215286255 0.90504056215286255
0.9211767315864563 0.9211767315864563 0.9211767315864563
0.1903713196516037 0.1903713196516037 0.1903713196516037
0.21279524266719818 0.21279524266719818 0.21279524266719818
0.24110129475593567 0.24110129475593567 0.24110129475593567
0.28033027052879333 0.28033027052879333 0.28033027052879333
0.33970427513122559 0.33970427513122559 0.33970427513122559
0.41226047277450562 0.41226047277450562 0.41226047277450562
0.48939812183380127 0.48939812183380127 0.48939812183380127
0.31602081656455994 0.31602081656455994 0.31602081656455994
0.33270353078842163 0.33270353078842163 0.33270353078842163
0.35540086030960083 0.35540086030960083 0.35540086030960083
0.3867928683757782 0.3867928683757782 0.3867928683757782
0.43288987874984741 0.43288987874984741 0.43288987874984741
0.49107822775840759 0.49107822775840759 0.49107822775840759
0.55730271339416504 0.55730271339416504 0.55730271339416504
0.44986918568611145 0.44986918568611145 0.44986918568611145
0.46277394890785217 0.46277394890785217 0.46277394890785217
0.48010498285293579 0.48010498285293579 0.48010498285293579
0.50289422273635864 0.50289422273635864 0.50289422273635864
0.53385752439498901 0.53385752439498901 0.53385752439498901
0.57480084896087646 0.57480084896087646 0.57480084896087646
0.62653607130050659 0.62653607130050659 0.62653607130050659
0.57965087890625 0.57965087890625 0.57965087890625
0.5905919075012207 0.5905919075012207 0.5905919075012207
0.6037563681602478 0.6037563681602478 0.6037563681602478
0.61894029378890991 0.61894029378890991 0.61894029378890991
0.63668417930603027 0.63668417930603027 0.63668417930603027
0.66239923238754272 0.66239923238754272 0.66239923238754272
0.69982641935348511 0.69982641935348511 0.69982641935348511
0.69795119762420654 0.69795119762420654 0.69795119762420654
0.7074660062789917 0.7074660062789917 0.7074660062789917
0.71761780977249146 0.71761780977249146 0.71761780977249146
0.72713369131088257 0.72713369131088257 0.72713369131088257
0.73458254337310791 0.73458254337310791 0.73458254337310791
0.74836832284927368 0.74836832284927368 0.74836832284927368
0.77464091777801514 0.77464091777801514 0.77464091777801514
0.80329430103302002 0.80329430103302002 0.80329430103302002
0.8103100061416626 0.8103100061416626 0.8103100061416626
0.81691986322402954 0.81691986322402954 0.81691986322402954
0.82125067710876465 0.82125067710876465 0.82125067710876465
0.82367569208145142 0.82367569208145142 0.82367569208145142
0.83091109991073608 0.83091109991073608 0.83091109991073608
0.84988796710968018 0.84988796710968018 0.84988796710968018
0.89988493919372559 0.89988493919372559 0.89988493919372559
0.90423256158828735 0.90423256158828735 0.90423256158828735
0.90738648176193237 0.90738648176193237 0.90738648176193237
0.90847122669219971 0.90847122669219971 0.90847122669219971
0.90890461206436157 0.90890461206436157 0.90890461206436157
0.91362649202346802 0.91362649202346802 0.91362649202346802
0.92912250757217407 0.92912250757217407 0.92912250757217407
0.30005675554275513 0.30005675554275513 0.30005675554275513
0.31541764736175537 0.31541764736175537 0.31541764736175537
0.33823254704475403 0.33823254704475403 0.33823254704475403
0.37345701456069946 0.37345701456069946 0.37345701456069946
0.4242231547832489 0.4242231547832489 0.4242231547832489
0.48730763792991638 0.48730763792991638 0.48730763792991638
0.5551522970199585 0.5551522970199585 0.5551522970199585
0.41225740313529968 0.41225740313529968 0.41225740313529968
0.42435231804847717 0.42435231804847717 0.42435231804847717
0.44189870357513428 0.44189870357513428 0.44189870357513428
0.46887746453285217 0.46887746453285217 0.46887746453285217
0.50888627767562866 0.50888627767562866 0.50888627767562866
0.56026077270507812 0.56026077270507812 0.56026077270507812
0.61834913492202759 0.61834913492202759 0.61834913492202759
0.5296587347984314 0.5296587347984314 0.5296587347984314
0.53909260034561157 0.53909260034561157 0.53909260034561157
0.55102449655532837 0.55102449655532837 0.55102449655532837
0.56935966014862061 0.56935966014862061 0.56935966014862061
0.59649574756622314 0.59649574756622314 0.59649574756622314
0.63376897573471069 0.63376897573471069 0.63376897573471069
0.67987000942230225 0.67987000942230225 0.67987000942230225
0.64249062538146973 0.64249062538146973 0.64249062538146973
0.6493915319442749 0.6493915319442749 0.6493915319442749
0.65719145536422729 0.65719145536422729 0.65719145536422729
0.66817063093185425 0.66817063093185425 0.66817063093185425
0.68394321203231812 0.68394321203231812 0.68394321203231812
0.70776820182800293 0.70776820182800293 0.70776820182800293
0.74217486381530762 0.74217486381530762 0.74217486381530762
0.74216139316558838 0.74216139316558838 0.74216139316558838
0.74811303615570068 0.74811303615570068 0.74811303615570068
0.75382941961288452 0.75382941961288452 0.75382941961288452
0.75957083702087402 0.75957083702087402 0.75957083702087402
0.76670652627944946 0.76670652627944946 0.76670652627944946
0.78023254871368408 0.78023254871368408 0.78023254871368408
0.80515819787979126 0.80515819787979126 0.80515819787979126
0.8305237889289856 0.8305237889289856 0.8305237889289856
0.83565336465835571 0.83565336465835571 0.83565336465835571
0.84016901254653931 0.84016901254653931 0.84016901254653931
0.84296703338623047 0.84296703338623047 0.84296703338623047
0.84479355812072754 0.84479355812072754 0.84479355812072754
0.85160642862319946 0.85160642862319946 0.85160642862319946
0.8699151873588562 0.8699151873588562 0.8699151873588562
0.91532939672470093 0.91532939672470093 0.91532939672470093
0.91911786794662476 0.91911786794662476 0.91911786794662476
0.92233085632324219 0.92233085632324219 0.92233085632324219
0.92316365242004395 0.92316365242004395 0.92316365242004395
0.92316365242004395 0.92316365242004395 0.92316365242004395
0.926444411277771 0.926444411277771 0.926444411277771
0.9410630464553833 0.9410630464553833 0.9410630464553833
0.41575706005096436 0.41575706005096436 0.41575706005096436
0.42523080110549927 0.42523080110549927 0.42523080110549927
0.44129273295402527 0.44129273295402527 0.44129273295402527
0.46977934241294861 0.46977934241294861 0.46977934241294861
0.51216453313827515 0.51216453313827515 0.51216453313827515
0.56638288497924805 0.56638288497924805 0.56638288497924805
0.62609809637069702 0.62609809637069702 0.62609809637069702
0.51380407810211182 0.51380407810211182 0.51380407810211182
0.52252769470214844 0.52252769470214844 0.52252769470214844
0.53431349992752075 0.53431349992752075 0.53431349992752075
0.55542123317718506 0.55542123317718506 0.55542123317718506
0.5883675217628479 0.5883675217628479 0.5883675217628479
0.63298457860946655 0.63298457860946655 0.63298457860946655
0.6836625337600708 0.6836625337600708 0.6836625337600708
0.6145399808883667 0.6145399808883667 0.6145399808883667
0.62062525749206543 0.62062525749206543 0.62062525749206543
0.62759679555892944 0.62759679555892944 0.62759679555892944
0.64128750562667847 0.64128750562667847 0.64128750562667847
0.66413670778274536 0.66413670778274536 0.66413670778274536
0.69671225547790527 0.69671225547790527 0.69671225547790527
0.73756176233291626 0.73756176233291626 0.73756176233291626
0.71125227212905884 0.71125227212905884 0.71125227212905884
0.71367770433425903 0.71367770433425903 0.71367770433425903
0.71654468774795532 0.71654468774795532 0.71654468774795532
0.7237359881401062 0.7237359881401062 0.7237359881401062
0.73723059892654419 0.73723059892654419 0.73723059892654419
0.75909382104873657 0.75909382104873657 0.75909382104873657
0.790641188621521 0.790641188621521 0.790641188621521
0.79304420948028564 0.79304420948028564 0.79304420948028564
0.79591447114944458 0.79591447114944458 0.79591447114944458
0.79750114679336548 0.79750114679336548 0.79750114679336548
0.80052971839904785 0.80052971839904785 0.80052971839904785
0.80706405639648438 0.80706405639648438 0.80706405639648438
0.82019376754760742 0.82019376754760742 0.82019376754760742
0.84407401084899902 0.84407401084899902 0.84407401084899902
0.865764319896698 0.865764319896698 0.865764319896698
0.86910241842269897 0.86910241842269897 0.86910241842269897
0.87216311693191528 0.87216311693191528 0.87216311693191528
0.87310945987701416 0.87310945987701416 0.87310945987701416
0.87527203559875488 0.87527203559875488 0.87527203559875488
0.88188868761062622 0.88188868761062622 0.88188868761062622
0.89948314428329468 0.89948314428329468 0.89948314428329468
0.93933659791946411 0.93933659791946411 0.93933659791946411
0.94334548711776733 0.94334548711776733 0.94334548711776733
0.94665700197219849 0.94665700197219849 0.94665700197219849
0.94710254669189453 0.94710254669189453 0.94710254669189453
0.9470372200012207 0.9470372200012207 0.9470372200012207
0.95000350475311279 0.95000350475311279 0.95000350475311279
0.96295547485351562 0.96295547485351562 0.96295547485351562
