luts/bw/ilford_delta_100.cube
# Created by: G'MIC (https://gmic.eu)
TITLE "ilford_delta_100"
# LUT size
LUT_3D_SIZE 5
# Data domain
DOMAIN_MIN 0.0 0.0 0.0
DOMAIN_MAX 1.0 1.0 1.0
# LUT data points
0.02321777306497097 0.02321777306497097 0.02321777306497097
0.038054462522268295 0.038054462522268295 0.038054462522268295
0.053657308220863342 0.053657308220863342 0.053657308220863342
0.10430505871772766 0.10430505871772766 0.10430505871772766
0.20843870937824249 0.20843870937824249 0.20843870937824249
0.17102900147438049 0.17102900147438049 0.17102900147438049
0.20363055169582367 0.20363055169582367 0.20363055169582367
0.22592191398143768 0.22592191398143768 0.22592191398143768
0.28526732325553894 0.28526732325553894 0.28526732325553894
0.39346468448638916 0.39346468448638916 0.39346468448638916
0.42911767959594727 0.42911767959594727 0.42911767959594727
0.4259192943572998 0.4259192943572998 0.4259192943572998
0.43554699420928955 0.43554699420928955 0.43554699420928955
0.47412824630737305 0.47412824630737305 0.47412824630737305
0.53966373205184937 0.53966373205184937 0.53966373205184937
0.64982277154922485 0.64982277154922485 0.64982277154922485
0.64642441272735596 0.64642441272735596 0.64642441272735596
0.64667493104934692 0.64667493104934692 0.64667493104934692
0.66644901037216187 0.66644901037216187 0.66644901037216187
0.70525538921356201 0.70525538921356201 0.70525538921356201
0.84943187236785889 0.84943187236785889 0.84943187236785889
0.84617841243743896 0.84617841243743896 0.84617841243743896
0.84513545036315918 0.84513545036315918 0.84513545036315918
0.85608410835266113 0.85608410835266113 0.85608410835266113
0.88086259365081787 0.88086259365081787 0.88086259365081787
0.071498170495033264 0.071498170495033264 0.071498170495033264
0.093694694340229034 0.093694694340229034 0.093694694340229034
0.12849152088165283 0.12849152088165283 0.12849152088165283
0.18495157361030579 0.18495157361030579 0.18495157361030579
0.31971082091331482 0.31971082091331482 0.31971082091331482
0.25638911128044128 0.25638911128044128 0.25638911128044128
0.27292540669441223 0.27292540669441223 0.27292540669441223
0.29919201135635376 0.29919201135635376 0.29919201135635376
0.35462629795074463 0.35462629795074463 0.35462629795074463
0.45335960388183594 0.45335960388183594 0.45335960388183594
0.46934440732002258 0.46934440732002258 0.46934440732002258
0.47432318329811096 0.47432318329811096 0.47432318329811096
0.48760917782783508 0.48760917782783508 0.48760917782783508
0.5216374397277832 0.5216374397277832 0.5216374397277832
0.5777888298034668 0.5777888298034668 0.5777888298034668
0.66291618347167969 0.66291618347167969 0.66291618347167969
0.66911798715591431 0.66911798715591431 0.66911798715591431
0.67740112543106079 0.67740112543106079 0.67740112543106079
0.69665241241455078 0.69665241241455078 0.69665241241455078
0.73149776458740234 0.73149776458740234 0.73149776458740234
0.84954303503036499 0.84954303503036499 0.84954303503036499
0.85545927286148071 0.85545927286148071 0.85545927286148071
0.86231911182403564 0.86231911182403564 0.86231911182403564
0.87453418970108032 0.87453418970108032 0.87453418970108032
0.89666318893432617 0.89666318893432617 0.89666318893432617
0.16629976034164429 0.16629976034164429 0.16629976034164429
0.19791057705879211 0.19791057705879211 0.19791057705879211
0.25597923994064331 0.25597923994064331 0.25597923994064331
0.31547734141349792 0.31547734141349792 0.31547734141349792
0.40725207328796387 0.40725207328796387 0.40725207328796387
0.379362553358078 0.379362553358078 0.379362553358078
0.38414135575294495 0.38414135575294495 0.38414135575294495
0.41104689240455627 0.41104689240455627 0.41104689240455627
0.45536953210830688 0.45536953210830688 0.45536953210830688
0.52546042203903198 0.52546042203903198 0.52546042203903198
0.54720818996429443 0.54720818996429443 0.54720818996429443
0.55068957805633545 0.55068957805633545 0.55068957805633545
0.5642474889755249 0.5642474889755249 0.5642474889755249
0.59163028001785278 0.59163028001785278 0.59163028001785278
0.63674986362457275 0.63674986362457275 0.63674986362457275
0.7047770619392395 0.7047770619392395 0.7047770619392395
0.71024584770202637 0.71024584770202637 0.71024584770202637
0.72200369834899902 0.72200369834899902 0.72200369834899902
0.73917555809020996 0.73917555809020996 0.73917555809020996
0.76691722869873047 0.76691722869873047 0.76691722869873047
0.86917245388031006 0.86917245388031006 0.86917245388031006
0.87515103816986084 0.87515103816986084 0.87515103816986084
0.8866388201713562 0.8866388201713562 0.8866388201713562
0.89882051944732666 0.89882051944732666 0.89882051944732666
0.91490238904953003 0.91490238904953003 0.91490238904953003
0.35121574997901917 0.35121574997901917 0.35121574997901917
0.38276061415672302 0.38276061415672302 0.38276061415672302
0.4348335862159729 0.4348335862159729 0.4348335862159729
0.47293591499328613 0.47293591499328613 0.47293591499328613
0.52497208118438721 0.52497208118438721 0.52497208118438721
0.516826331615448 0.516826331615448 0.516826331615448
0.52311283349990845 0.52311283349990845 0.52311283349990845
0.54880863428115845 0.54880863428115845 0.54880863428115845
0.57813698053359985 0.57813698053359985 0.57813698053359985
0.61927968263626099 0.61927968263626099 0.61927968263626099
0.63707345724105835 0.63707345724105835 0.63707345724105835
0.64091497659683228 0.64091497659683228 0.64091497659683228
0.65617746114730835 0.65617746114730835 0.65617746114730835
0.6764644980430603 0.6764644980430603 0.6764644980430603
0.70671278238296509 0.70671278238296509 0.70671278238296509
0.76292127370834351 0.76292127370834351 0.76292127370834351
0.7667728066444397 0.7667728066444397 0.7667728066444397
0.7786250114440918 0.7786250114440918 0.7786250114440918
0.79118889570236206 0.79118889570236206 0.79118889570236206
0.81086212396621704 0.81086212396621704 0.81086212396621704
0.90501117706298828 0.90501117706298828 0.90501117706298828
0.90862369537353516 0.90862369537353516 0.90862369537353516
0.91958034038543701 0.91958034038543701 0.91958034038543701
0.92822813987731934 0.92822813987731934 0.92822813987731934
0.93668234348297119 0.93668234348297119 0.93668234348297119
0.5348200798034668 0.5348200798034668 0.5348200798034668
0.55090415477752686 0.55090415477752686 0.55090415477752686
0.57855761051177979 0.57855761051177979 0.57855761051177979
0.60963422060012817 0.60963422060012817 0.60963422060012817
0.64684981107711792 0.64684981107711792 0.64684981107711792
0.63841348886489868 0.63841348886489868 0.63841348886489868
0.64948278665542603 0.64948278665542603 0.64948278665542603
0.67132115364074707 0.67132115364074707 0.67132115364074707
0.6946035623550415 0.6946035623550415 0.6946035623550415
0.7237323522567749 0.7237323522567749 0.7237323522567749
0.72896599769592285 0.72896599769592285 0.72896599769592285
0.73473703861236572 0.73473703861236572 0.73473703861236572
0.75110363960266113 0.75110363960266113 0.75110363960266113
0.7676994800567627 0.7676994800567627 0.7676994800567627
0.79121881723403931 0.79121881723403931 0.79121881723403931
0.83428865671157837 0.83428865671157837 0.83428865671157837
0.8362310528755188 0.8362310528755188 0.8362310528755188
0.84541678428649902 0.84541678428649902 0.84541678428649902
0.85377293825149536 0.85377293825149536 0.85377293825149536
0.86938142776489258 0.86938142776489258 0.86938142776489258
0.95679318904876709 0.95679318904876709 0.95679318904876709
0.95840942859649658 0.95840942859649658 0.95840942859649658
0.96362781524658203 0.96362781524658203 0.96362781524658203
0.96546638011932373 0.96546638011932373 0.96546638011932373
0.97038847208023071 0.97038847208023071 0.97038847208023071
