luts/bw/ilford_delta_100.cube
# Created by: G'MIC (https://gmic.eu)
TITLE "ilford_delta_100"
# LUT size
LUT_3D_SIZE 13
# Data domain
DOMAIN_MIN 0.0 0.0 0.0
DOMAIN_MAX 1.0 1.0 1.0
# LUT data points
0.02321777306497097 0.02321777306497097 0.02321777306497097
0.026039931923151016 0.026039931923151016 0.026039931923151016
0.031031260266900063 0.031031260266900063 0.031031260266900063
0.038054462522268295 0.038054462522268295 0.038054462522268295
0.04455997422337532 0.04455997422337532 0.04455997422337532
0.04916069284081459 0.04916069284081459 0.04916069284081459
0.053657308220863342 0.053657308220863342 0.053657308220863342
0.062600426375865936 0.062600426375865936 0.062600426375865936
0.079329140484333038 0.079329140484333038 0.079329140484333038
0.10430505871772766 0.10430505871772766 0.10430505871772766
0.13613611459732056 0.13613611459732056 0.13613611459732056
0.17202554643154144 0.17202554643154144 0.17202554643154144
0.20843870937824249 0.20843870937824249 0.20843870937824249
0.065186820924282074 0.065186820924282074 0.065186820924282074
0.071122325956821442 0.071122325956821442 0.071122325956821442
0.07945677638053894 0.07945677638053894 0.07945677638053894
0.088174499571323395 0.088174499571323395 0.088174499571323395
0.095869995653629303 0.095869995653629303 0.095869995653629303
0.10104890912771225 0.10104890912771225 0.10104890912771225
0.10605967044830322 0.10605967044830322 0.10605967044830322
0.11563152074813843 0.11563152074813843 0.11563152074813843
0.13428273797035217 0.13428273797035217 0.13428273797035217
0.16235241293907166 0.16235241293907166 0.16235241293907166
0.19750146567821503 0.19750146567821503 0.19750146567821503
0.23686006665229797 0.23686006665229797 0.23686006665229797
0.27644079923629761 0.27644079923629761 0.27644079923629761
0.11118047684431076 0.11118047684431076 0.11118047684431076
0.12046104669570923 0.12046104669570923 0.12046104669570923
0.13187471032142639 0.13187471032142639 0.13187471032142639
0.142317995429039 0.142317995429039 0.142317995429039
0.15042221546173096 0.15042221546173096 0.15042221546173096
0.15671069920063019 0.15671069920063019 0.15671069920063019
0.16293284296989441 0.16293284296989441 0.16293284296989441
0.17363505065441132 0.17363505065441132 0.17363505065441132
0.1936306357383728 0.1936306357383728 0.1936306357383728
0.22300547361373901 0.22300547361373901 0.22300547361373901
0.25913205742835999 0.25913205742835999 0.25913205742835999
0.29945695400238037 0.29945695400238037 0.29945695400238037
0.34003284573554993 0.34003284573554993 0.34003284573554993
0.17102900147438049 0.17102900147438049 0.17102900147438049
0.18152043223381042 0.18152043223381042 0.18152043223381042
0.19338096678256989 0.19338096678256989 0.19338096678256989
0.20363055169582367 0.20363055169582367 0.20363055169582367
0.21177485585212708 0.21177485585212708 0.21177485585212708
0.21827486157417297 0.21827486157417297 0.21827486157417297
0.22592191398143768 0.22592191398143768 0.22592191398143768
0.2377866804599762 0.2377866804599762 0.2377866804599762
0.25746345520019531 0.25746345520019531 0.25746345520019531
0.28526732325553894 0.28526732325553894 0.28526732325553894
0.31959301233291626 0.31959301233291626 0.31959301233291626
0.35656145215034485 0.35656145215034485 0.35656145215034485
0.39346468448638916 0.39346468448638916 0.39346468448638916
0.24996955692768097 0.24996955692768097 0.24996955692768097
0.25736328959465027 0.25736328959465027 0.25736328959465027
0.26578447222709656 0.26578447222709656 0.26578447222709656
0.27316367626190186 0.27316367626190186 0.27316367626190186
0.27954754233360291 0.27954754233360291 0.27954754233360291
0.28579840064048767 0.28579840064048767 0.28579840064048767
0.29365476965904236 0.29365476965904236 0.29365476965904236
0.30560165643692017 0.30560165643692017 0.30560165643692017
0.32373148202896118 0.32373148202896118 0.32373148202896118
0.34791696071624756 0.34791696071624756 0.34791696071624756
0.37725362181663513 0.37725362181663513 0.37725362181663513
0.4095211923122406 0.4095211923122406 0.4095211923122406
0.44162693619728088 0.44162693619728088 0.44162693619728088
0.33936846256256104 0.33936846256256104 0.33936846256256104
0.34236857295036316 0.34236857295036316 0.34236857295036316
0.34545665979385376 0.34545665979385376 0.34545665979385376
0.34859681129455566 0.34859681129455566 0.34859681129455566
0.35230609774589539 0.35230609774589539 0.35230609774589539
0.35703536868095398 0.35703536868095398 0.35703536868095398
0.36404743790626526 0.36404743790626526 0.36404743790626526
0.37489068508148193 0.37489068508148193 0.37489068508148193
0.39051979780197144 0.39051979780197144 0.39051979780197144
0.41092762351036072 0.41092762351036072 0.41092762351036072
0.43528729677200317 0.43528729677200317 0.43528729677200317
0.46214562654495239 0.46214562654495239 0.46214562654495239
0.48945468664169312 0.48945468664169312 0.48945468664169312
0.42911767959594727 0.42911767959594727 0.42911767959594727
0.42856791615486145 0.42856791615486145 0.42856791615486145
0.4269002377986908 0.4269002377986908 0.4269002377986908
0.4259192943572998 0.4259192943572998 0.4259192943572998
0.42710816860198975 0.42710816860198975 0.42710816860198975
0.43012791872024536 0.43012791872024536 0.43012791872024536
0.43554699420928955 0.43554699420928955 0.43554699420928955
0.44451987743377686 0.44451987743377686 0.44451987743377686
0.45744544267654419 0.45744544267654419 0.45744544267654419
0.47412824630737305 0.47412824630737305 0.47412824630737305
0.49424833059310913 0.49424833059310913 0.49424833059310913
0.51631873846054077 0.51631873846054077 0.51631873846054077
0.53966373205184937 0.53966373205184937 0.53966373205184937
0.51046735048294067 0.51046735048294067 0.51046735048294067
0.50879162549972534 0.50879162549972534 0.50879162549972534
0.50528419017791748 0.50528419017791748 0.50528419017791748
0.50262993574142456 0.50262993574142456 0.50262993574142456
0.50172388553619385 0.50172388553619385 0.50172388553619385
0.50294816493988037 0.50294816493988037 0.50294816493988037
0.50703990459442139 0.50703990459442139 0.50703990459442139
0.51407700777053833 0.51407700777053833 0.51407700777053833
0.52438068389892578 0.52438068389892578 0.52438068389892578
0.53796565532684326 0.53796565532684326 0.53796565532684326
0.55428075790405273 0.55428075790405273 0.55428075790405273
0.57316440343856812 0.57316440343856812 0.57316440343856812
0.59283459186553955 0.59283459186553955 0.59283459186553955
0.58222901821136475 0.58222901821136475 0.58222901821136475
0.581595778465271 0.581595778465271 0.581595778465271
0.57878214120864868 0.57878214120864868 0.57878214120864868
0.5759885311126709 0.5759885311126709 0.5759885311126709
0.57447803020477295 0.57447803020477295 0.57447803020477295
0.57479619979858398 0.57479619979858398 0.57479619979858398
0.57742273807525635 0.57742273807525635 0.57742273807525635
0.58292979001998901 0.58292979001998901 0.58292979001998901
0.5909082293510437 0.5909082293510437 0.5909082293510437
0.60216361284255981 0.60216361284255981 0.60216361284255981
0.61553376913070679 0.61553376913070679 0.61553376913070679
0.63125091791152954 0.63125091791152954 0.63125091791152954
0.64786732196807861 0.64786732196807861 0.64786732196807861
0.64982277154922485 0.64982277154922485 0.64982277154922485
0.65007686614990234 0.65007686614990234 0.65007686614990234
0.64849585294723511 0.64849585294723511 0.64849585294723511
0.64642441272735596 0.64642441272735596 0.64642441272735596
0.64481997489929199 0.64481997489929199 0.64481997489929199
0.64478343725204468 0.64478343725204468 0.64478343725204468
0.64667493104934692 0.64667493104934692 0.64667493104934692
0.65079653263092041 0.65079653263092041 0.65079653263092041
0.65747004747390747 0.65747004747390747 0.65747004747390747
0.66644901037216187 0.66644901037216187 0.66644901037216187
0.67756146192550659 0.67756146192550659 0.67756146192550659
0.6906355619430542 0.6906355619430542 0.6906355619430542
0.70525538921356201 0.70525538921356201 0.70525538921356201
0.71645557880401611 0.71645557880401611 0.71645557880401611
0.71702766418457031 0.71702766418457031 0.71702766418457031
0.71613419055938721 0.71613419055938721 0.71613419055938721
0.7146114706993103 0.7146114706993103 0.7146114706993103
0.71337682008743286 0.71337682008743286 0.71337682008743286
0.71295422315597534 0.71295422315597534 0.71295422315597534
0.71438491344451904 0.71438491344451904 0.71438491344451904
0.71753627061843872 0.71753627061843872 0.71753627061843872
0.72287148237228394 0.72287148237228394 0.72287148237228394
0.73022067546844482 0.73022067546844482 0.73022067546844482
0.73962950706481934 0.73962950706481934 0.73962950706481934
0.75081741809844971 0.75081741809844971 0.75081741809844971
0.76335960626602173 0.76335960626602173 0.76335960626602173
0.78298115730285645 0.78298115730285645 0.78298115730285645
0.78339481353759766 0.78339481353759766 0.78339481353759766
0.78254830837249756 0.78254830837249756 0.78254830837249756
0.78117144107818604 0.78117144107818604 0.78117144107818604
0.77990907430648804 0.77990907430648804 0.77990907430648804
0.77968680858612061 0.77968680858612061 0.77968680858612061
0.78059256076812744 0.78059256076812744 0.78059256076812744
0.78303420543670654 0.78303420543670654 0.78303420543670654
0.78741317987442017 0.78741317987442017 0.78741317987442017
0.79358381032943726 0.79358381032943726 0.79358381032943726
0.80154228210449219 0.80154228210449219 0.80154228210449219
0.81116771697998047 0.81116771697998047 0.81116771697998047
0.82220363616943359 0.82220363616943359 0.82220363616943359
0.84943187236785889 0.84943187236785889 0.84943187236785889
0.84916818141937256 0.84916818141937256 0.84916818141937256
0.8478243350982666 0.8478243350982666 0.8478243350982666
0.84617841243743896 0.84617841243743896 0.84617841243743896
0.84497666358947754 0.84497666358947754 0.84497666358947754
0.8445402979850769 0.8445402979850769 0.8445402979850769
0.84513545036315918 0.84513545036315918 0.84513545036315918
0.84721368551254272 0.84721368551254272 0.84721368551254272
0.85073637962341309 0.85073637962341309 0.85073637962341309
0.85608410835266113 0.85608410835266113 0.85608410835266113
0.86279487609863281 0.86279487609863281 0.86279487609863281
0.87115991115570068 0.87115991115570068 0.87115991115570068
0.88086259365081787 0.88086259365081787 0.88086259365081787
0.036896035075187683 0.036896035075187683 0.036896035075187683
0.041142139583826065 0.041142139583826065 0.041142139583826065
0.048198789358139038 0.048198789358139038 0.048198789358139038
0.057303335517644882 0.057303335517644882 0.057303335517644882
0.06661350280046463 0.06661350280046463 0.06661350280046463
0.072082668542861938 0.072082668542861938 0.072082668542861938
0.076818473637104034 0.076818473637104034 0.076818473637104034
0.086238861083984375 0.086238861083984375 0.086238861083984375
0.1031956821680069 0.1031956821680069 0.1031956821680069
0.12944647669792175 0.12944647669792175 0.12944647669792175
0.16436237096786499 0.16436237096786499 0.16436237096786499
0.20518004894256592 0.20518004894256592 0.20518004894256592
0.24782386422157288 0.24782386422157288 0.24782386422157288
0.0832175612449646 0.0832175612449646 0.0832175612449646
0.08936232328414917 0.08936232328414917 0.08936232328414917
0.097931504249572754 0.097931504249572754 0.097931504249572754
0.10811622440814972 0.10811622440814972 0.10811622440814972
0.11719351261854172 0.11719351261854172 0.11719351261854172
0.12343919277191162 0.12343919277191162 0.12343919277191162
0.12929512560367584 0.12929512560367584 0.12929512560367584
0.13952872157096863 0.13952872157096863 0.13952872157096863
0.15835998952388763 0.15835998952388763 0.15835998952388763
0.18663774430751801 0.18663774430751801 0.18663774430751801
0.22341100871562958 0.22341100871562958 0.22341100871562958
0.26607528328895569 0.26607528328895569 0.26607528328895569
0.30895835161209106 0.30895835161209106 0.30895835161209106
0.13399359583854675 0.13399359583854675 0.13399359583854675
0.14152270555496216 0.14152270555496216 0.14152270555496216
0.15196877717971802 0.15196877717971802 0.15196877717971802
0.16237473487854004 0.16237473487854004 0.16237473487854004
0.17123048007488251 0.17123048007488251 0.17123048007488251
0.17826239764690399 0.17826239764690399 0.17826239764690399
0.18554815649986267 0.18554815649986267 0.18554815649986267
0.19703628122806549 0.19703628122806549 0.19703628122806549
0.21687944233417511 0.21687944233417511 0.21687944233417511
0.24569915235042572 0.24569915235042572 0.24569915235042572
0.28217455744743347 0.28217455744743347 0.28217455744743347
0.32368272542953491 0.32368272542953491 0.32368272542953491
0.36479294300079346 0.36479294300079346 0.36479294300079346
0.19583988189697266 0.19583988189697266 0.19583988189697266
0.203740194439888 0.203740194439888 0.203740194439888
0.21382960677146912 0.21382960677146912 0.21382960677146912
0.22339515388011932 0.22339515388011932 0.22339515388011932
0.23152540624141693 0.23152540624141693 0.23152540624141693
0.23868559300899506 0.23868559300899506 0.23868559300899506
0.24691437184810638 0.24691437184810638 0.24691437184810638
0.25931712985038757 0.25931712985038757 0.25931712985038757
0.27867805957794189 0.27867805957794189 0.27867805957794189
0.30586251616477966 0.30586251616477966 0.30586251616477966
0.33914154767990112 0.33914154767990112 0.33914154767990112
0.37648016214370728 0.37648016214370728 0.37648016214370728
0.41331595182418823 0.41331595182418823 0.41331595182418823
0.27147173881530762 0.27147173881530762 0.27147173881530762
0.27729719877243042 0.27729719877243042 0.27729719877243042
0.2845800518989563 0.2845800518989563 0.2845800518989563
0.29155692458152771 0.29155692458152771 0.29155692458152771
0.29792779684066772 0.29792779684066772 0.29792779684066772
0.30453017354011536 0.30453017354011536 0.30453017354011536
0.3126729428768158 0.3126729428768158 0.3126729428768158
0.3247133195400238 0.3247133195400238 0.3247133195400238
0.34240263700485229 0.34240263700485229 0.34240263700485229
0.36603930592536926 0.36603930592536926 0.36603930592536926
0.39451071619987488 0.39451071619987488 0.39451071619987488
0.42613616585731506 0.42613616585731506 0.42613616585731506
0.45781657099723816 0.45781657099723816 0.45781657099723816
0.35536384582519531 0.35536384582519531 0.35536384582519531
0.35821032524108887 0.35821032524108887 0.35821032524108887
0.36138412356376648 0.36138412356376648 0.36138412356376648
0.36504918336868286 0.36504918336868286 0.36504918336868286
0.36880570650100708 0.36880570650100708 0.36880570650100708
0.37378329038619995 0.37378329038619995 0.37378329038619995
0.38081470131874084 0.38081470131874084 0.38081470131874084
0.39166757464408875 0.39166757464408875 0.39166757464408875
0.40681177377700806 0.40681177377700806 0.40681177377700806
0.42666423320770264 0.42666423320770264 0.42666423320770264
0.45015805959701538 0.45015805959701538 0.45015805959701538
0.4759121835231781 0.4759121835231781 0.4759121835231781
0.50264590978622437 0.50264590978622437 0.50264590978622437
0.43934661149978638 0.43934661149978638 0.43934661149978638
0.44009378552436829 0.44009378552436829 0.44009378552436829
0.43973928689956665 0.43973928689956665 0.43973928689956665
0.43999210000038147 0.43999210000038147 0.43999210000038147
0.44147855043411255 0.44147855043411255 0.44147855043411255
0.44467654824256897 0.44467654824256897 0.44467654824256897
0.45036190748214722 0.45036190748214722 0.45036190748214722
0.45916393399238586 0.45916393399238586 0.45916393399238586
0.47171717882156372 0.47171717882156372 0.47171717882156372
0.48780205845832825 0.48780205845832825 0.48780205845832825
0.50684934854507446 0.50684934854507446 0.50684934854507446
0.52825284004211426 0.52825284004211426 0.52825284004211426
0.55095332860946655 0.55095332860946655 0.55095332860946655
0.51721972227096558 0.51721972227096558 0.51721972227096558
0.5167921781539917 0.5167921781539917 0.5167921781539917
0.51512503623962402 0.51512503623962402 0.51512503623962402
0.51364976167678833 0.51364976167678833 0.51364976167678833
0.51364576816558838 0.51364576816558838 0.51364576816558838
0.51552879810333252 0.51552879810333252 0.51552879810333252
0.51978343725204468 0.51978343725204468 0.51978343725204468
0.52671456336975098 0.52671456336975098 0.52671456336975098
0.53696203231811523 0.53696203231811523 0.53696203231811523
0.54994386434555054 0.54994386434555054 0.54994386434555054
0.56555867195129395 0.56555867195129395 0.56555867195129395
0.58328920602798462 0.58328920602798462 0.58328920602798462
0.60284024477005005 0.60284024477005005 0.60284024477005005
0.58734297752380371 0.58734297752380371 0.58734297752380371
0.58752495050430298 0.58752495050430298 0.58752495050430298
0.58631700277328491 0.58631700277328491 0.58631700277328491
0.58478361368179321 0.58478361368179321 0.58478361368179321
0.5840948224067688 0.5840948224067688 0.5840948224067688
0.58533263206481934 0.58533263206481934 0.58533263206481934
0.58836501836776733 0.58836501836776733 0.58836501836776733
0.59386163949966431 0.59386163949966431 0.59386163949966431
0.60204493999481201 0.60204493999481201 0.60204493999481201
0.61261969804763794 0.61261969804763794 0.61261969804763794
0.6255916953086853 0.6255916953086853 0.6255916953086853
0.6405327320098877 0.6405327320098877 0.6405327320098877
0.6573980450630188 0.6573980450630188 0.6573980450630188
0.6530957818031311 0.6530957818031311 0.6530957818031311
0.65432310104370117 0.65432310104370117 0.65432310104370117
0.65397506952285767 0.65397506952285767 0.65397506952285767
0.65323895215988159 0.65323895215988159 0.65323895215988159
0.65298259258270264 0.65298259258270264 0.65298259258270264
0.65352940559387207 0.65352940559387207 0.65352940559387207
0.65593838691711426 0.65593838691711426 0.65593838691711426
0.66024184226989746 0.66024184226989746 0.66024184226989746
0.66681545972824097 0.66681545972824097 0.66681545972824097
0.67560648918151855 0.67560648918151855 0.67560648918151855
0.68629026412963867 0.68629026412963867 0.68629026412963867
0.69910216331481934 0.69910216331481934 0.69910216331481934
0.71357464790344238 0.71357464790344238 0.71357464790344238
0.71790671348571777 0.71790671348571777 0.71790671348571777
0.71930146217346191 0.71930146217346191 0.71930146217346191
0.71996599435806274 0.71996599435806274 0.71996599435806274
0.71980148553848267 0.71980148553848267 0.71980148553848267
0.71960943937301636 0.71960943937301636 0.71960943937301636
0.72026211023330688 0.72026211023330688 0.72026211023330688
0.7222406268119812 0.7222406268119812 0.7222406268119812
0.7256961464881897 0.7256961464881897 0.7256961464881897
0.73108994960784912 0.73108994960784912 0.73108994960784912
0.73821353912353516 0.73821353912353516 0.73821353912353516
0.74739402532577515 0.74739402532577515 0.74739402532577515
0.75827938318252563 0.75827938318252563 0.75827938318252563
0.77082377672195435 0.77082377672195435 0.77082377672195435
0.78330516815185547 0.78330516815185547 0.78330516815185547
0.78460013866424561 0.78460013866424561 0.78460013866424561
0.78516197204589844 0.78516197204589844 0.78516197204589844
0.78525209426879883 0.78525209426879883 0.78525209426879883
0.78518116474151611 0.78518116474151611 0.78518116474151611
0.78561460971832275 0.78561460971832275 0.78561460971832275
0.78720980882644653 0.78720980882644653 0.78720980882644653
0.78998744487762451 0.78998744487762451 0.78998744487762451
0.7944800853729248 0.7944800853729248 0.7944800853729248
0.80044049024581909 0.80044049024581909 0.80044049024581909
0.80836361646652222 0.80836361646652222 0.80836361646652222
0.81767076253890991 0.81767076253890991 0.81767076253890991
0.82854890823364258 0.82854890823364258 0.82854890823364258
0.84914249181747437 0.84914249181747437 0.84914249181747437
0.84978371858596802 0.84978371858596802 0.84978371858596802
0.84965497255325317 0.84965497255325317 0.84965497255325317
0.84945613145828247 0.84945613145828247 0.84945613145828247
0.84911876916885376 0.84911876916885376 0.84911876916885376
0.84954702854156494 0.84954702854156494 0.84954702854156494
0.85075533390045166 0.85075533390045166 0.85075533390045166
0.8531450629234314 0.8531450629234314 0.8531450629234314
0.85681736469268799 0.85681736469268799 0.85681736469268799
0.86206269264221191 0.86206269264221191 0.86206269264221191
0.86868542432785034 0.86868542432785034 0.86868542432785034
0.87681037187576294 0.87681037187576294 0.87681037187576294
0.88610196113586426 0.88610196113586426 0.88610196113586426
0.052362643182277679 0.052362643182277679 0.052362643182277679
0.057350669056177139 0.057350669056177139 0.057350669056177139
0.064910233020782471 0.064910233020782471 0.064910233020782471
0.07515290379524231 0.07515290379524231 0.07515290379524231
0.085775218904018402 0.085775218904018402 0.085775218904018402
0.093800820410251617 0.093800820410251617 0.093800820410251617
0.10132870823144913 0.10132870823144913 0.10132870823144913
0.11250802129507065 0.11250802129507065 0.11250802129507065
0.12999969720840454 0.12999969720840454 0.12999969720840454
0.15604296326637268 0.15604296326637268 0.15604296326637268
0.19257937371730804 0.19257937371730804 0.19257937371730804
0.23853397369384766 0.23853397369384766 0.23853397369384766
0.28703612089157104 0.28703612089157104 0.28703612089157104
0.10415303707122803 0.10415303707122803 0.10415303707122803
0.10971494019031525 0.10971494019031525 0.10971494019031525
0.11821772158145905 0.11821772158145905 0.11821772158145905
0.12813468277454376 0.12813468277454376 0.12813468277454376
0.13809424638748169 0.13809424638748169 0.13809424638748169
0.14636313915252686 0.14636313915252686 0.14636313915252686
0.15454241633415222 0.15454241633415222 0.15454241633415222
0.16638867557048798 0.16638867557048798 0.16638867557048798
0.1850951761007309 0.1850951761007309 0.1850951761007309
0.21269293129444122 0.21269293129444122 0.21269293129444122
0.24996539950370789 0.24996539950370789 0.24996539950370789
0.29534056782722473 0.29534056782722473 0.29534056782722473
0.34197536110877991 0.34197536110877991 0.34197536110877991
0.16061125695705414 0.16061125695705414 0.16061125695705414
0.16642200946807861 0.16642200946807861 0.16642200946807861
0.17502328753471375 0.17502328753471375 0.17502328753471375
0.18470491468906403 0.18470491468906403 0.18470491468906403
0.19375661015510559 0.19375661015510559 0.19375661015510559
0.20204396545886993 0.20204396545886993 0.20204396545886993
0.21104562282562256 0.21104562282562256 0.21104562282562256
0.22372204065322876 0.22372204065322876 0.22372204065322876
0.24309815466403961 0.24309815466403961 0.24309815466403961
0.27074819803237915 0.27074819803237915 0.27074819803237915
0.30643525719642639 0.30643525719642639 0.30643525719642639
0.34799578785896301 0.34799578785896301 0.34799578785896301
0.38978159427642822 0.38978159427642822 0.38978159427642822
0.22473429143428802 0.22473429143428802 0.22473429143428802
0.23031362891197205 0.23031362891197205 0.23031362891197205
0.23807273805141449 0.23807273805141449 0.23807273805141449
0.24631507694721222 0.24631507694721222 0.24631507694721222
0.25429385900497437 0.25429385900497437 0.25429385900497437
0.26215970516204834 0.26215970516204834 0.26215970516204834
0.27136692404747009 0.27136692404747009 0.27136692404747009
0.28427201509475708 0.28427201509475708 0.28427201509475708
0.30305972695350647 0.30305972695350647 0.30305972695350647
0.32876241207122803 0.32876241207122803 0.32876241207122803
0.36071771383285522 0.36071771383285522 0.36071771383285522
0.39672818779945374 0.39672818779945374 0.39672818779945374
0.43311265110969543 0.43311265110969543 0.43311265110969543
0.29728910326957703 0.29728910326957703 0.29728910326957703
0.3015308678150177 0.3015308678150177 0.3015308678150177
0.30722680687904358 0.30722680687904358 0.30722680687904358
0.31337994337081909 0.31337994337081909 0.31337994337081909
0.31956514716148376 0.31956514716148376 0.31956514716148376
0.32643476128578186 0.32643476128578186 0.32643476128578186
0.33511987328529358 0.33511987328529358 0.33511987328529358
