luts/bw/ilford_xp_2.cube
# Created by: G'MIC (https://gmic.eu)
TITLE "ilford_xp_2"
# LUT size
LUT_3D_SIZE 5
# Data domain
DOMAIN_MIN 0.0 0.0 0.0
DOMAIN_MAX 1.0 1.0 1.0
# LUT data points
0.01669941283762455 0.01669941283762455 0.01669941283762455
0.018032282590866089 0.018032282590866089 0.018032282590866089
0.047663655132055283 0.047663655132055283 0.047663655132055283
0.11970964074134827 0.11970964074134827 0.11970964074134827
0.23906360566616058 0.23906360566616058 0.23906360566616058
0.11737756431102753 0.11737756431102753 0.11737756431102753
0.12202558666467667 0.12202558666467667 0.12202558666467667
0.15326535701751709 0.15326535701751709 0.15326535701751709
0.21835550665855408 0.21835550665855408 0.21835550665855408
0.3186744749546051 0.3186744749546051 0.3186744749546051
0.25144466757774353 0.25144466757774353 0.25144466757774353
0.26176607608795166 0.26176607608795166 0.26176607608795166
0.29289606213569641 0.29289606213569641 0.29289606213569641
0.34435644745826721 0.34435644745826721 0.34435644745826721
0.42668157815933228 0.42668157815933228 0.42668157815933228
0.43113055825233459 0.43113055825233459 0.43113055825233459
0.44528797268867493 0.44528797268867493 0.44528797268867493
0.46957585215568542 0.46957585215568542 0.46957585215568542
0.50822269916534424 0.50822269916534424 0.50822269916534424
0.57526171207427979 0.57526171207427979 0.57526171207427979
0.67410910129547119 0.67410910129547119 0.67410910129547119
0.66751796007156372 0.66751796007156372 0.66751796007156372
0.67536407709121704 0.67536407709121704 0.67536407709121704
0.70345169305801392 0.70345169305801392 0.70345169305801392
0.7589535117149353 0.7589535117149353 0.7589535117149353
0.079977609217166901 0.079977609217166901 0.079977609217166901
0.091817624866962433 0.091817624866962433 0.091817624866962433
0.13094030320644379 0.13094030320644379 0.13094030320644379
0.20279799401760101 0.20279799401760101 0.20279799401760101
0.30495923757553101 0.30495923757553101 0.30495923757553101
0.18378907442092896 0.18378907442092896 0.18378907442092896
0.19485688209533691 0.19485688209533691 0.19485688209533691
0.23012590408325195 0.23012590408325195 0.23012590408325195
0.29154255986213684 0.29154255986213684 0.29154255986213684
0.38081523776054382 0.38081523776054382 0.38081523776054382
0.31683775782585144 0.31683775782585144 0.31683775782585144
0.33022394776344299 0.33022394776344299 0.33022394776344299
0.36088833212852478 0.36088833212852478 0.36088833212852478
0.4067898690700531 0.4067898690700531 0.4067898690700531
0.47943598031997681 0.47943598031997681 0.47943598031997681
0.48814979195594788 0.48814979195594788 0.48814979195594788
0.50245958566665649 0.50245958566665649 0.50245958566665649
0.52430564165115356 0.52430564165115356 0.52430564165115356
0.55547302961349487 0.55547302961349487 0.55547302961349487
0.61305111646652222 0.61305111646652222 0.61305111646652222
0.70319771766662598 0.70319771766662598 0.70319771766662598
0.70725089311599731 0.70725089311599731 0.70725089311599731
0.71405839920043945 0.71405839920043945 0.71405839920043945
0.73380929231643677 0.73380929231643677 0.73380929231643677
0.7797277569770813 0.7797277569770813 0.7797277569770813
0.18332700431346893 0.18332700431346893 0.18332700431346893
0.20644932985305786 0.20644932985305786 0.20644932985305786
0.25135204195976257 0.25135204195976257 0.25135204195976257
0.31707307696342468 0.31707307696342468 0.31707307696342468
0.40258419513702393 0.40258419513702393 0.40258419513702393
0.29333829879760742 0.29333829879760742 0.29333829879760742
0.31028604507446289 0.31028604507446289 0.31028604507446289
0.34654882550239563 0.34654882550239563 0.34654882550239563
0.39975598454475403 0.39975598454475403 0.39975598454475403
0.47323256731033325 0.47323256731033325 0.47323256731033325
0.42544081807136536 0.42544081807136536 0.42544081807136536
0.43952259421348572 0.43952259421348572 0.43952259421348572
0.46662771701812744 0.46662771701812744 0.46662771701812744
0.50323915481567383 0.50323915481567383 0.50323915481567383
0.56103706359863281 0.56103706359863281 0.56103706359863281
0.57944345474243164 0.57944345474243164 0.57944345474243164
0.59108984470367432 0.59108984470367432 0.59108984470367432
0.60784852504730225 0.60784852504730225 0.60784852504730225
0.62984609603881836 0.62984609603881836 0.62984609603881836
0.67420738935470581 0.67420738935470581 0.67420738935470581
0.75786375999450684 0.75786375999450684 0.75786375999450684
0.76452797651290894 0.76452797651290894 0.76452797651290894
0.76840066909790039 0.76840066909790039 0.76840066909790039
0.78077167272567749 0.78077167272567749 0.78077167272567749
0.81756961345672607 0.81756961345672607 0.81756961345672607
0.3392297625541687 0.3392297625541687 0.3392297625541687
0.35933735966682434 0.35933735966682434 0.35933735966682434
0.39806842803955078 0.39806842803955078 0.39806842803955078
0.45388749241828918 0.45388749241828918 0.45388749241828918
0.52581793069839478 0.52581793069839478 0.52581793069839478
0.44330066442489624 0.44330066442489624 0.44330066442489624
0.45832890272140503 0.45832890272140503 0.45832890272140503
0.48700582981109619 0.48700582981109619 0.48700582981109619
0.52868866920471191 0.52868866920471191 0.52868866920471191
0.5880197286605835 0.5880197286605835 0.5880197286605835
0.56171393394470215 0.56171393394470215 0.56171393394470215
0.57287698984146118 0.57287698984146118 0.57287698984146118
0.59261214733123779 0.59261214733123779 0.59261214733123779
0.61675667762756348 0.61675667762756348 0.61675667762756348
0.66071754693984985 0.66071754693984985 0.66071754693984985
0.68571376800537109 0.68571376800537109 0.68571376800537109
0.69372153282165527 0.69372153282165527 0.69372153282165527
0.70620280504226685 0.70620280504226685 0.70620280504226685
0.71786123514175415 0.71786123514175415 0.71786123514175415
0.75118482112884521 0.75118482112884521 0.75118482112884521
0.82616806030273438 0.82616806030273438 0.82616806030273438
0.82909256219863892 0.82909256219863892 0.82909256219863892
0.83394128084182739 0.83394128084182739 0.83394128084182739
0.84132057428359985 0.84132057428359985 0.84132057428359985
0.87103438377380371 0.87103438377380371 0.87103438377380371
0.51798528432846069 0.51798528432846069 0.51798528432846069
0.52888739109039307 0.52888739109039307 0.52888739109039307
0.55589419603347778 0.55589419603347778 0.55589419603347778
0.60152983665466309 0.60152983665466309 0.60152983665466309
0.6648719310760498 0.6648719310760498 0.6648719310760498
0.60956263542175293 0.60956263542175293 0.60956263542175293
0.61718469858169556 0.61718469858169556 0.61718469858169556
0.63443022966384888 0.63443022966384888 0.63443022966384888
0.66645735502243042 0.66645735502243042 0.66645735502243042
0.7168048620223999 0.7168048620223999 0.7168048620223999
0.7113538384437561 0.7113538384437561 0.7113538384437561
0.71222490072250366 0.71222490072250366 0.71222490072250366
0.72004139423370361 0.72004139423370361 0.72004139423370361
0.7374764084815979 0.7374764084815979 0.7374764084815979
0.77521157264709473 0.77521157264709473 0.77521157264709473
0.80463653802871704 0.80463653802871704 0.80463653802871704
0.80543482303619385 0.80543482303619385 0.80543482303619385
0.81003427505493164 0.81003427505493164 0.81003427505493164
0.81811016798019409 0.81811016798019409 0.81811016798019409
0.84772759675979614 0.84772759675979614 0.84772759675979614
0.91270774602890015 0.91270774602890015 0.91270774602890015
0.91401636600494385 0.91401636600494385 0.91401636600494385
0.91780376434326172 0.91780376434326172 0.91780376434326172
0.92304718494415283 0.92304718494415283 0.92304718494415283
0.9479718804359436 0.9479718804359436 0.9479718804359436
