luts/bw/ilford_delta_100.cube
# Created by: G'MIC (https://gmic.eu)
TITLE "ilford_delta_100"
# LUT size
LUT_3D_SIZE 7
# Data domain
DOMAIN_MIN 0.0 0.0 0.0
DOMAIN_MAX 1.0 1.0 1.0
# LUT data points
0.02321777306497097 0.02321777306497097 0.02321777306497097
0.031031260266900063 0.031031260266900063 0.031031260266900063
0.04455997422337532 0.04455997422337532 0.04455997422337532
0.053657308220863342 0.053657308220863342 0.053657308220863342
0.079329140484333038 0.079329140484333038 0.079329140484333038
0.13613611459732056 0.13613611459732056 0.13613611459732056
0.20843870937824249 0.20843870937824249 0.20843870937824249
0.11118047684431076 0.11118047684431076 0.11118047684431076
0.13187471032142639 0.13187471032142639 0.13187471032142639
0.15042221546173096 0.15042221546173096 0.15042221546173096
0.16293284296989441 0.16293284296989441 0.16293284296989441
0.1936306357383728 0.1936306357383728 0.1936306357383728
0.25913205742835999 0.25913205742835999 0.25913205742835999
0.34003284573554993 0.34003284573554993 0.34003284573554993
0.24996955692768097 0.24996955692768097 0.24996955692768097
0.26578447222709656 0.26578447222709656 0.26578447222709656
0.27954754233360291 0.27954754233360291 0.27954754233360291
0.29365476965904236 0.29365476965904236 0.29365476965904236
0.32373148202896118 0.32373148202896118 0.32373148202896118
0.37725362181663513 0.37725362181663513 0.37725362181663513
0.44162693619728088 0.44162693619728088 0.44162693619728088
0.42911767959594727 0.42911767959594727 0.42911767959594727
0.4269002377986908 0.4269002377986908 0.4269002377986908
0.42710816860198975 0.42710816860198975 0.42710816860198975
0.43554699420928955 0.43554699420928955 0.43554699420928955
0.45744544267654419 0.45744544267654419 0.45744544267654419
0.49424833059310913 0.49424833059310913 0.49424833059310913
0.53966373205184937 0.53966373205184937 0.53966373205184937
0.58222901821136475 0.58222901821136475 0.58222901821136475
0.57878214120864868 0.57878214120864868 0.57878214120864868
0.57447803020477295 0.57447803020477295 0.57447803020477295
0.57742273807525635 0.57742273807525635 0.57742273807525635
0.5909082293510437 0.5909082293510437 0.5909082293510437
0.61553376913070679 0.61553376913070679 0.61553376913070679
0.64786732196807861 0.64786732196807861 0.64786732196807861
0.71645557880401611 0.71645557880401611 0.71645557880401611
0.71613419055938721 0.71613419055938721 0.71613419055938721
0.71337682008743286 0.71337682008743286 0.71337682008743286
0.71438491344451904 0.71438491344451904 0.71438491344451904
0.72287148237228394 0.72287148237228394 0.72287148237228394
0.73962950706481934 0.73962950706481934 0.73962950706481934
0.76335960626602173 0.76335960626602173 0.76335960626602173
0.84943187236785889 0.84943187236785889 0.84943187236785889
0.8478243350982666 0.8478243350982666 0.8478243350982666
0.84497666358947754 0.84497666358947754 0.84497666358947754
0.84513545036315918 0.84513545036315918 0.84513545036315918
0.85073637962341309 0.85073637962341309 0.85073637962341309
0.86279487609863281 0.86279487609863281 0.86279487609863281
0.88086259365081787 0.88086259365081787 0.88086259365081787
0.052362643182277679 0.052362643182277679 0.052362643182277679
0.064910233020782471 0.064910233020782471 0.064910233020782471
0.085775218904018402 0.085775218904018402 0.085775218904018402
0.10132870823144913 0.10132870823144913 0.10132870823144913
0.12999969720840454 0.12999969720840454 0.12999969720840454
0.19257937371730804 0.19257937371730804 0.19257937371730804
0.28703612089157104 0.28703612089157104 0.28703612089157104
0.16061125695705414 0.16061125695705414 0.16061125695705414
0.17502328753471375 0.17502328753471375 0.17502328753471375
0.19375661015510559 0.19375661015510559 0.19375661015510559
0.21104562282562256 0.21104562282562256 0.21104562282562256
0.24309815466403961 0.24309815466403961 0.24309815466403961
0.30643525719642639 0.30643525719642639 0.30643525719642639
0.38978159427642822 0.38978159427642822 0.38978159427642822
0.29728910326957703 0.29728910326957703 0.29728910326957703
0.30722680687904358 0.30722680687904358 0.30722680687904358
0.31956514716148376 0.31956514716148376 0.31956514716148376
0.33511987328529358 0.33511987328529358 0.33511987328529358
0.36418560147285461 0.36418560147285461 0.36418560147285461
0.41344746947288513 0.41344746947288513 0.41344746947288513
0.47394004464149475 0.47394004464149475 0.47394004464149475
0.45199432969093323 0.45199432969093323 0.45199432969093323
0.45407643914222717 0.45407643914222717 0.45407643914222717
0.45782458782196045 0.45782458782196045 0.45782458782196045
0.46754783391952515 0.46754783391952515 0.46754783391952515
0.4883330762386322 0.4883330762386322 0.4883330762386322
0.52150255441665649 0.52150255441665649 0.52150255441665649
0.56298172473907471 0.56298172473907471 0.56298172473907471
0.59278994798660278 0.59278994798660278 0.59278994798660278
0.59376347064971924 0.59376347064971924 0.59376347064971924
0.59502089023590088 0.59502089023590088 0.59502089023590088
0.60064852237701416 0.60064852237701416 0.60064852237701416
0.61411094665527344 0.61411094665527344 0.61411094665527344
0.63656020164489746 0.63656020164489746 0.63656020164489746
0.66719460487365723 0.66719460487365723 0.66719460487365723
0.71870332956314087 0.71870332956314087 0.71870332956314087
0.72359305620193481 0.72359305620193481 0.72359305620193481
0.7263074517250061 0.7263074517250061 0.7263074517250061
0.73043888807296753 0.73043888807296753 0.73043888807296753
0.73961806297302246 0.73961806297302246 0.73961806297302246
0.75542110204696655 0.75542110204696655 0.75542110204696655
0.7779921293258667 0.7779921293258667 0.7779921293258667
0.84831881523132324 0.84831881523132324 0.84831881523132324
0.85086500644683838 0.85086500644683838 0.85086500644683838
0.85312783718109131 0.85312783718109131 0.85312783718109131
0.85628926753997803 0.85628926753997803 0.85628926753997803
0.86300814151763916 0.86300814151763916 0.86300814151763916
0.87449938058853149 0.87449938058853149 0.87449938058853149
0.89144235849380493 0.89144235849380493 0.89144235849380493
0.095438264310359955 0.095438264310359955 0.095438264310359955
0.10762303322553635 0.10762303322553635 0.10762303322553635
0.13016052544116974 0.13016052544116974 0.13016052544116974
0.16167145967483521 0.16167145967483521 0.16167145967483521
0.19687721133232117 0.19687721133232117 0.19687721133232117
0.2536962628364563 0.2536962628364563 0.2536962628364563
0.345662921667099 0.345662921667099 0.345662921667099
0.22421348094940186 0.22421348094940186 0.22421348094940186
0.23267097771167755 0.23267097771167755 0.23267097771167755
0.24929803609848022 0.24929803609848022 0.24929803609848022
0.27303707599639893 0.27303707599639893 0.27303707599639893
0.30635479092597961 0.30635479092597961 0.30635479092597961
0.36127066612243652 0.36127066612243652 0.36127066612243652
0.43625679612159729 0.43625679612159729 0.43625679612159729
0.35949718952178955 0.35949718952178955 0.35949718952178955
0.36460193991661072 0.36460193991661072 0.36460193991661072
0.37433919310569763 0.37433919310569763 0.37433919310569763
0.39073002338409424 0.39073002338409424 0.39073002338409424
0.41769224405288696 0.41769224405288696 0.41769224405288696
0.45961207151412964 0.45961207151412964 0.45961207151412964
0.51337713003158569 0.51337713003158569 0.51337713003158569
0.491668701171875 0.491668701171875 0.491668701171875
0.49442443251609802 0.49442443251609802 0.49442443251609802
0.49970495700836182 0.49970495700836182 0.49970495700836182
0.51040661334991455 0.51040661334991455 0.51040661334991455
0.52937859296798706 0.52937859296798706 0.52937859296798706
0.55808854103088379 0.55808854103088379 0.55808854103088379
0.59580898284912109 0.59580898284912109 0.59580898284912109
0.61510854959487915 0.61510854959487915 0.61510854959487915
0.61828279495239258 0.61828279495239258 0.61828279495239258
0.62279260158538818 0.62279260158538818 0.62279260158538818
0.63050836324691772 0.63050836324691772 0.63050836324691772
0.64365184307098389 0.64365184307098389 0.64365184307098389
0.66358613967895508 0.66358613967895508 0.66358613967895508
0.69121164083480835 0.69121164083480835 0.69121164083480835
0.73260670900344849 0.73260670900344849 0.73260670900344849
0.73748981952667236 0.73748981952667236 0.73748981952667236
0.74335217475891113 0.74335217475891113 0.74335217475891113
0.75040900707244873 0.75040900707244873 0.75040900707244873
0.76019412279129028 0.76019412279129028 0.76019412279129028
0.77430075407028198 0.77430075407028198 0.77430075407028198
0.79471087455749512 0.79471087455749512 0.79471087455749512
0.8538399338722229 0.8538399338722229 0.8538399338722229
0.85769069194793701 0.85769069194793701 0.85769069194793701
0.86308163404464722 0.86308163404464722 0.86308163404464722
0.86924970149993896 0.86924970149993896 0.86924970149993896
0.87698101997375488 0.87698101997375488 0.87698101997375488
0.88722890615463257 0.88722890615463257 0.88722890615463257
0.90226936340332031 0.90226936340332031 0.90226936340332031
0.16629976034164429 0.16629976034164429 0.16629976034164429
0.18559247255325317 0.18559247255325317 0.18559247255325317
0.21389946341514587 0.21389946341514587 0.21389946341514587
0.25597923994064331 0.25597923994064331 0.25597923994064331
0.29398295283317566 0.29398295283317566 0.29398295283317566
0.34212589263916016 0.34212589263916016 0.34212589263916016
0.40725207328796387 0.40725207328796387 0.40725207328796387
0.31305155158042908 0.31305155158042908 0.31305155158042908
0.31754988431930542 0.31754988431930542 0.31754988431930542
0.33242228627204895 0.33242228627204895 0.33242228627204895
0.35949075222015381 0.35949075222015381 0.35949075222015381
0.39053595066070557 0.39053595066070557 0.39053595066070557
0.4328901469707489 0.4328901469707489 0.4328901469707489
0.48881441354751587 0.48881441354751587 0.48881441354751587
0.4387652575969696 0.4387652575969696 0.4387652575969696
0.43953683972358704 0.43953683972358704 0.43953683972358704
0.44627690315246582 0.44627690315246582 0.44627690315246582
0.46219485998153687 0.46219485998153687 0.46219485998153687
0.48540636897087097 0.48540636897087097 0.48540636897087097
0.51824343204498291 0.51824343204498291 0.51824343204498291
0.56123083829879761 0.56123083829879761 0.56123083829879761
0.54720818996429443 0.54720818996429443 0.54720818996429443
0.54890257120132446 0.54890257120132446 0.54890257120132446
0.55383563041687012 0.55383563041687012 0.55383563041687012
0.5642474889755249 0.5642474889755249 0.5642474889755249
0.58062124252319336 0.58062124252319336 0.58062124252319336
0.60420364141464233 0.60420364141464233 0.60420364141464233
0.63674986362457275 0.63674986362457275 0.63674986362457275
0.65202581882476807 0.65202581882476807 0.65202581882476807
0.65449613332748413 0.65449613332748413 0.65449613332748413
0.65990203619003296 0.65990203619003296 0.65990203619003296
0.66857033967971802 0.66857033967971802 0.66857033967971802
0.68062257766723633 0.68062257766723633 0.68062257766723633
0.69709795713424683 0.69709795713424683 0.69709795713424683
0.7210465669631958 0.7210465669631958 0.7210465669631958
0.75836783647537231 0.75836783647537231 0.75836783647537231
0.7615540623664856 0.7615540623664856 0.7615540623664856
0.76787847280502319 0.76787847280502319 0.76787847280502319
0.77632266283035278 0.77632266283035278 0.77632266283035278
0.78603023290634155 0.78603023290634155 0.78603023290634155
0.79761987924575806 0.79761987924575806 0.79761987924575806
0.81484436988830566 0.81484436988830566 0.81484436988830566
0.86917245388031006 0.86917245388031006 0.86917245388031006
0.87235939502716064 0.87235939502716064 0.87235939502716064
0.87856471538543701 0.87856471538543701 0.87856471538543701
0.8866388201713562 0.8866388201713562 0.8866388201713562
0.894950270652771 0.894950270652771 0.894950270652771
0.90288865566253662 0.90288865566253662 0.90288865566253662
0.91490238904953003 0.91490238904953003 0.91490238904953003
0.28449934720993042 0.28449934720993042 0.28449934720993042
0.30517688393592834 0.30517688393592834 0.30517688393592834
0.33768144249916077 0.33768144249916077 0.33768144249916077
0.37781223654747009 0.37781223654747009 0.37781223654747009
0.40618816018104553 0.40618816018104553 0.40618816018104553
0.43995192646980286 0.43995192646980286 0.43995192646980286
0.48409983515739441 0.48409983515739441 0.48409983515739441
0.4210420548915863 0.4210420548915863 0.4210420548915863
0.42296051979064941 0.42296051979064941 0.42296051979064941
0.43774598836898804 0.43774598836898804 0.43774598836898804
0.4634263813495636 0.4634263813495636 0.4634263813495636
0.48712709546089172 0.48712709546089172 0.48712709546089172
0.51620316505432129 0.51620316505432129 0.51620316505432129
0.55422335863113403 0.55422335863113403 0.55422335863113403
0.52166599035263062 0.52166599035263062 0.52166599035263062
0.52157217264175415 0.52157217264175415 0.52157217264175415
0.52825582027435303 0.52825582027435303 0.52825582027435303
0.54340213537216187 0.54340213537216187 0.54340213537216187
0.5622178316116333 0.5622178316116333 0.5622178316116333
0.58545750379562378 0.58545750379562378 0.58545750379562378
0.61640214920043945 0.61640214920043945 0.61640214920043945
0.60774296522140503 0.60774296522140503 0.60774296522140503
0.60876333713531494 0.60876333713531494 0.60876333713531494
0.61441951990127563 0.61441951990127563 0.61441951990127563
0.62504446506500244 0.62504446506500244 0.62504446506500244
0.63901066780090332 0.63901066780090332 0.63901066780090332
0.6567196249961853 0.6567196249961853 0.6567196249961853
0.68141895532608032 0.68141895532608032 0.68141895532608032
0.69612348079681396 0.69612348079681396 0.69612348079681396
0.69779795408248901 0.69779795408248901 0.69779795408248901
0.703502357006073 0.703502357006073 0.703502357006073
0.71231043338775635 0.71231043338775635 0.71231043338775635
0.72292816638946533 0.72292816638946533 0.72292816638946533
0.73580008745193481 0.73580008745193481 0.73580008745193481
0.75497651100158691 0.75497651100158691 0.75497651100158691
0.79061406850814819 0.79061406850814819 0.79061406850814819
0.79231148958206177 0.79231148958206177 0.79231148958206177
0.79845398664474487 0.79845398664474487 0.79845398664474487
0.80708771944046021 0.80708771944046021 0.80708771944046021
0.81588315963745117 0.81588315963745117 0.81588315963745117
0.82411634922027588 0.82411634922027588 0.82411634922027588
0.83747464418411255 0.83747464418411255 0.83747464418411255
0.89171504974365234 0.89171504974365234 0.89171504974365234
0.89346003532409668 0.89346003532409668 0.89346003532409668
0.89950472116470337 0.89950472116470337 0.89950472116470337
0.90795588493347168 0.90795588493347168 0.90795588493347168
0.91633081436157227 0.91633081436157227 0.91633081436157227
0.92048197984695435 0.92048197984695435 0.92048197984695435
0.92899018526077271 0.92899018526077271 0.92899018526077271
0.4159662127494812 0.4159662127494812 0.4159662127494812
0.43196523189544678 0.43196523189544678 0.43196523189544678
0.45657059550285339 0.45657059550285339 0.45657059550285339
0.48604303598403931 0.48604303598403931 0.48604303598403931
0.50950443744659424 0.50950443744659424 0.50950443744659424
0.53513604402542114 0.53513604402542114 0.53513604402542114
0.56658130884170532 0.56658130884170532 0.56658130884170532
0.51545590162277222 0.51545590162277222 0.51545590162277222
0.52300256490707397 0.52300256490707397 0.52300256490707397
0.53821259737014771 0.53821259737014771 0.53821259737014771
0.55970489978790283 0.55970489978790283 0.55970489978790283
0.57873064279556274 0.57873064279556274 0.57873064279556274
0.60005253553390503 0.60005253553390503 0.60005253553390503
0.62731850147247314 0.62731850147247314 0.62731850147247314
0.59397882223129272 0.59397882223129272 0.59397882223129272
0.59640800952911377 0.59640800952911377 0.59640800952911377
0.60757851600646973 0.60757851600646973 0.60757851600646973
0.62296289205551147 0.62296289205551147 0.62296289205551147
0.63865530490875244 0.63865530490875244 0.63865530490875244
0.65646708011627197 0.65646708011627197 0.65646708011627197
0.67946881055831909 0.67946881055831909 0.67946881055831909
0.66635739803314209 0.66635739803314209 0.66635739803314209
0.66749954223632812 0.66749954223632812 0.66749954223632812
0.67597109079360962 0.67597109079360962 0.67597109079360962
0.6877557635307312 0.6877557635307312 0.6877557635307312
0.69997304677963257 0.69997304677963257 0.69997304677963257
0.71377217769622803 0.71377217769622803 0.71377217769622803
0.73342907428741455 0.73342907428741455 0.73342907428741455
0.74365085363388062 0.74365085363388062 0.74365085363388062
0.74468469619750977 0.74468469619750977 0.74468469619750977
0.75091671943664551 0.75091671943664551 0.75091671943664551
0.75969511270523071 0.75969511270523071 0.75969511270523071
0.76862472295761108 0.76862472295761108 0.76862472295761108
0.77859604358673096 0.77859604358673096 0.77859604358673096
0.79453229904174805 0.79453229904174805 0.79453229904174805
0.82768702507019043 0.82768702507019043 0.82768702507019043
0.82849740982055664 0.82849740982055664 0.82849740982055664
0.83411192893981934 0.83411192893981934 0.83411192893981934
0.84138721227645874 0.84138721227645874 0.84138721227645874
0.84776294231414795 0.84776294231414795 0.84776294231414795
0.85327941179275513 0.85327941179275513 0.85327941179275513
0.86412268877029419 0.86412268877029419 0.86412268877029419
0.91997122764587402 0.91997122764587402 0.91997122764587402
0.92069727182388306 0.92069727182388306 0.92069727182388306
0.92579764127731323 0.92579764127731323 0.92579764127731323
0.93233352899551392 0.93233352899551392 0.93233352899551392
0.93716639280319214 0.93716639280319214 0.93716639280319214
0.93877166509628296 0.93877166509628296 0.93877166509628296
0.94532924890518188 0.94532924890518188 0.94532924890518188
0.5348200798034668 0.5348200798034668 0.5348200798034668
0.54455333948135376 0.54455333948135376 0.54455333948135376
0.55908286571502686 0.55908286571502686 0.55908286571502686
0.57855761051177979 0.57855761051177979 0.57855761051177979
0.59883815050125122 0.59883815050125122 0.59883815050125122
0.62125831842422485 0.62125831842422485 0.62125831842422485
0.64684981107711792 0.64684981107711792 0.64684981107711792
0.60774332284927368 0.60774332284927368 0.60774332284927368
0.61517083644866943 0.61517083644866943 0.61517083644866943
0.62738913297653198 0.62738913297653198 0.62738913297653198
0.64367270469665527 0.64367270469665527 0.64367270469665527
0.66016221046447754 0.66016221046447754 0.66016221046447754
0.67875313758850098 0.67875313758850098 0.67875313758850098
0.70063143968582153 0.70063143968582153 0.70063143968582153
0.66789215803146362 0.66789215803146362 0.66789215803146362
0.6714470386505127 0.6714470386505127 0.6714470386505127
0.68338650465011597 0.68338650465011597 0.68338650465011597
0.69747895002365112 0.69747895002365112 0.69747895002365112
0.71146070957183838 0.71146070957183838 0.71146070957183838
0.72674983739852905 0.72674983739852905 0.72674983739852905
0.74607455730438232 0.74607455730438232 0.74607455730438232
0.72896599769592285 0.72896599769592285 0.72896599769592285
0.73063564300537109 0.73063564300537109 0.73063564300537109
0.73977464437484741 0.73977464437484741 0.73977464437484741
0.75110363960266113 0.75110363960266113 0.75110363960266113
0.76188951730728149 0.76188951730728149 0.76188951730728149
0.77412855625152588 0.77412855625152588 0.77412855625152588
0.79121881723403931 0.79121881723403931 0.79121881723403931
0.79764771461486816 0.79764771461486816 0.79764771461486816
0.79808211326599121 0.79808211326599121 0.79808211326599121
0.80375736951828003 0.80375736951828003 0.80375736951828003
0.81147521734237671 0.81147521734237671 0.81147521734237671
0.81901282072067261 0.81901282072067261 0.81901282072067261
0.82736635208129883 0.82736635208129883 0.82736635208129883
0.84146547317504883 0.84146547317504883 0.84146547317504883
0.87291610240936279 0.87291610240936279 0.87291610240936279
0.87281757593154907 0.87281757593154907 0.87281757593154907
0.87687593698501587 0.87687593698501587 0.87687593698501587
0.88217294216156006 0.88217294216156006 0.88217294216156006
0.88587021827697754 0.88587021827697754 0.88587021827697754
0.88967126607894897 0.88967126607894897 0.88967126607894897
0.89972764253616333 0.89972764253616333 0.89972764253616333
0.95679318904876709 0.95679318904876709 0.95679318904876709
0.95666348934173584 0.95666348934173584 0.95666348934173584
0.95999288558959961 0.95999288558959961 0.95999288558959961
0.96362781524658203 0.96362781524658203 0.96362781524658203
0.9655340313911438 0.9655340313911438 0.9655340313911438
0.96535652875900269 0.96535652875900269 0.96535652875900269
0.97038847208023071 0.97038847208023071 0.97038847208023071
