luts/bw/ilford_fp_4_plus_125.cube
# Created by: G'MIC (https://gmic.eu)
TITLE "ilford_fp_4_plus_125"
# LUT size
LUT_3D_SIZE 13
# Data domain
DOMAIN_MIN 0.0 0.0 0.0
DOMAIN_MAX 1.0 1.0 1.0
# LUT data points
0.049583330750465393 0.049583330750465393 0.049583330750465393
0.063152715563774109 0.063152715563774109 0.063152715563774109
0.076067887246608734 0.076067887246608734 0.076067887246608734
0.088128015398979187 0.088128015398979187 0.088128015398979187
0.10083343088626862 0.10083343088626862 0.10083343088626862
0.11534471809864044 0.11534471809864044 0.11534471809864044
0.13330367207527161 0.13330367207527161 0.13330367207527161
0.15612335503101349 0.15612335503101349 0.15612335503101349
0.18547192215919495 0.18547192215919495 0.18547192215919495
0.22171187400817871 0.22171187400817871 0.22171187400817871
0.26396548748016357 0.26396548748016357 0.26396548748016357
0.30743792653083801 0.30743792653083801 0.30743792653083801
0.35010746121406555 0.35010746121406555 0.35010746121406555
0.098793447017669678 0.098793447017669678 0.098793447017669678
0.11016935110092163 0.11016935110092163 0.11016935110092163
0.12155604362487793 0.12155604362487793 0.12155604362487793
0.13283964991569519 0.13283964991569519 0.13283964991569519
0.14475631713867188 0.14475631713867188 0.14475631713867188
0.15901488065719604 0.15901488065719604 0.15901488065719604
0.17647147178649902 0.17647147178649902 0.17647147178649902
0.1988421231508255 0.1988421231508255 0.1988421231508255
0.22727635502815247 0.22727635502815247 0.22727635502815247
0.26204192638397217 0.26204192638397217 0.26204192638397217
0.30221566557884216 0.30221566557884216 0.30221566557884216
0.34277558326721191 0.34277558326721191 0.34277558326721191
0.38370448350906372 0.38370448350906372 0.38370448350906372
0.15018008649349213 0.15018008649349213 0.15018008649349213
0.15953470766544342 0.15953470766544342 0.15953470766544342
0.16952504217624664 0.16952504217624664 0.16952504217624664
0.18002001941204071 0.18002001941204071 0.18002001941204071
0.19180437922477722 0.19180437922477722 0.19180437922477722
0.20570993423461914 0.20570993423461914 0.20570993423461914
0.22294814884662628 0.22294814884662628 0.22294814884662628
0.24440738558769226 0.24440738558769226 0.24440738558769226
0.27153930068016052 0.27153930068016052 0.27153930068016052
0.30385801196098328 0.30385801196098328 0.30385801196098328
0.34105393290519714 0.34105393290519714 0.34105393290519714
0.37955588102340698 0.37955588102340698 0.37955588102340698
0.41754454374313354 0.41754454374313354 0.41754454374313354
0.20415689051151276 0.20415689051151276 0.20415689051151276
0.2115425169467926 0.2115425169467926 0.2115425169467926
0.22035439312458038 0.22035439312458038 0.22035439312458038
0.23037797212600708 0.23037797212600708 0.23037797212600708
0.24191126227378845 0.24191126227378845 0.24191126227378845
0.25556203722953796 0.25556203722953796 0.25556203722953796
0.27204889059066772 0.27204889059066772 0.27204889059066772
0.29257944226264954 0.29257944226264954 0.29257944226264954
0.31765428185462952 0.31765428185462952 0.31765428185462952
0.34754630923271179 0.34754630923271179 0.34754630923271179
0.38109812140464783 0.38109812140464783 0.38109812140464783
0.41720029711723328 0.41720029711723328 0.41720029711723328
0.45279121398925781 0.45279121398925781 0.45279121398925781
0.26170670986175537 0.26170670986175537 0.26170670986175537
0.26774200797080994 0.26774200797080994 0.26774200797080994
0.27501663565635681 0.27501663565635681 0.27501663565635681
0.28480446338653564 0.28480446338653564 0.28480446338653564
0.29565209150314331 0.29565209150314331 0.29565209150314331
0.3088301420211792 0.3088301420211792 0.3088301420211792
0.32429385185241699 0.32429385185241699 0.32429385185241699
0.343182772397995 0.343182772397995 0.343182772397995
0.36593714356422424 0.36593714356422424 0.36593714356422424
0.39326611161231995 0.39326611161231995 0.39326611161231995
0.42388969659805298 0.42388969659805298 0.42388969659805298
0.45684993267059326 0.45684993267059326 0.45684993267059326
0.49042722582817078 0.49042722582817078 0.49042722582817078
0.32370999455451965 0.32370999455451965 0.32370999455451965
0.32824957370758057 0.32824957370758057 0.32824957370758057
0.33486434817314148 0.33486434817314148 0.33486434817314148
0.34341821074485779 0.34341821074485779 0.34341821074485779
0.35354140400886536 0.35354140400886536 0.35354140400886536
0.36553886532783508 0.36553886532783508 0.36553886532783508
0.37970072031021118 0.37970072031021118 0.37970072031021118
0.39646804332733154 0.39646804332733154 0.39646804332733154
0.41686660051345825 0.41686660051345825 0.41686660051345825
0.44141289591789246 0.44141289591789246 0.44141289591789246
0.46926838159561157 0.46926838159561157 0.46926838159561157
0.49938014149665833 0.49938014149665833 0.49938014149665833
0.53030198812484741 0.53030198812484741 0.53030198812484741
0.38971841335296631 0.38971841335296631 0.38971841335296631
0.39367011189460754 0.39367011189460754 0.39367011189460754
0.39921200275421143 0.39921200275421143 0.39921200275421143
0.40638378262519836 0.40638378262519836 0.40638378262519836
0.41516625881195068 0.41516625881195068 0.41516625881195068
0.42569148540496826 0.42569148540496826 0.42569148540496826
0.43806180357933044 0.43806180357933044 0.43806180357933044
0.45291230082511902 0.45291230082511902 0.45291230082511902
0.4711621105670929 0.4711621105670929 0.4711621105670929
0.49256458878517151 0.49256458878517151 0.49256458878517151
0.51753687858581543 0.51753687858581543 0.51753687858581543
0.5444720983505249 0.5444720983505249 0.5444720983505249
0.5726398229598999 0.5726398229598999 0.5726398229598999
0.45943319797515869 0.45943319797515869 0.45943319797515869
0.46278980374336243 0.46278980374336243 0.46278980374336243
0.46721178293228149 0.46721178293228149 0.46721178293228149
0.47272637486457825 0.47272637486457825 0.47272637486457825
0.47983747720718384 0.47983747720718384 0.47983747720718384
0.48850342631340027 0.48850342631340027 0.48850342631340027
0.49902021884918213 0.49902021884918213 0.49902021884918213
0.51188826560974121 0.51188826560974121 0.51188826560974121
0.52756690979003906 0.52756690979003906 0.52756690979003906
0.5463072657585144 0.5463072657585144 0.5463072657585144
0.56804585456848145 0.56804585456848145 0.56804585456848145
0.5920373797416687 0.5920373797416687 0.5920373797416687
0.61720472574234009 0.61720472574234009 0.61720472574234009
0.53167057037353516 0.53167057037353516 0.53167057037353516
0.53448259830474854 0.53448259830474854 0.53448259830474854
0.53751844167709351 0.53751844167709351 0.53751844167709351
0.54141360521316528 0.54141360521316528 0.54141360521316528
0.5465046763420105 0.5465046763420105 0.5465046763420105
0.55310589075088501 0.55310589075088501 0.55310589075088501
0.56169706583023071 0.56169706583023071 0.56169706583023071
0.57228118181228638 0.57228118181228638 0.57228118181228638
0.58560705184936523 0.58560705184936523 0.58560705184936523
0.60174024105072021 0.60174024105072021 0.60174024105072021
0.62035268545150757 0.62035268545150757 0.62035268545150757
0.64124369621276855 0.64124369621276855 0.64124369621276855
0.6638299822807312 0.6638299822807312 0.6638299822807312
0.60525935888290405 0.60525935888290405 0.60525935888290405
0.60720854997634888 0.60720854997634888 0.60720854997634888
0.60889720916748047 0.60889720916748047 0.60889720916748047
0.61101961135864258 0.61101961135864258 0.61101961135864258
0.61406898498535156 0.61406898498535156 0.61406898498535156
0.61867904663085938 0.61867904663085938 0.61867904663085938
0.62499707937240601 0.62499707937240601 0.62499707937240601
0.63343578577041626 0.63343578577041626 0.63343578577041626
0.64435487985610962 0.64435487985610962 0.64435487985610962
0.65788334608078003 0.65788334608078003 0.65788334608078003
0.6737980842590332 0.6737980842590332 0.6737980842590332
0.69199937582015991 0.69199937582015991 0.69199937582015991
0.71181660890579224 0.71181660890579224 0.71181660890579224
0.67884784936904907 0.67884784936904907 0.67884784936904907
0.67992353439331055 0.67992353439331055 0.67992353439331055
0.68009883165359497 0.68009883165359497 0.68009883165359497
0.68035441637039185 0.68035441637039185 0.68035441637039185
0.68139749765396118 0.68139749765396118 0.68139749765396118
0.68381297588348389 0.68381297588348389 0.68381297588348389
0.6880607008934021 0.6880607008934021 0.6880607008934021
0.69443327188491821 0.69443327188491821 0.69443327188491821
0.70354682207107544 0.70354682207107544 0.70354682207107544
0.71441978216171265 0.71441978216171265 0.71441978216171265
0.72795921564102173 0.72795921564102173 0.72795921564102173
0.74370712041854858 0.74370712041854858 0.74370712041854858
0.76132196187973022 0.76132196187973022 0.76132196187973022
0.75115996599197388 0.75115996599197388 0.75115996599197388
0.75112247467041016 0.75112247467041016 0.75112247467041016
0.74976480007171631 0.74976480007171631 0.74976480007171631
0.74820220470428467 0.74820220470428467 0.74820220470428467
0.74742132425308228 0.74742132425308228 0.74742132425308228
0.74812167882919312 0.74812167882919312 0.74812167882919312
0.75053983926773071 0.75053983926773071 0.75053983926773071
0.75504809617996216 0.75504809617996216 0.75504809617996216
0.76186662912368774 0.76186662912368774 0.76186662912368774
0.77103942632675171 0.77103942632675171 0.77103942632675171
0.78240364789962769 0.78240364789962769 0.78240364789962769
0.79601836204528809 0.79601836204528809 0.79601836204528809
0.81153357028961182 0.81153357028961182 0.81153357028961182
0.82070630788803101 0.82070630788803101 0.82070630788803101
0.81942552328109741 0.81942552328109741 0.81942552328109741
0.81663990020751953 0.81663990020751953 0.81663990020751953
0.81371891498565674 0.81371891498565674 0.81371891498565674
0.81152158975601196 0.81152158975601196 0.81152158975601196
0.81070625782012939 0.81070625782012939 0.81070625782012939
0.81178957223892212 0.81178957223892212 0.81178957223892212
0.81458139419555664 0.81458139419555664 0.81458139419555664
0.81981396675109863 0.81981396675109863 0.81981396675109863
0.82708263397216797 0.82708263397216797 0.82708263397216797
0.8368222713470459 0.8368222713470459 0.8368222713470459
0.84867686033248901 0.84867686033248901 0.84867686033248901
0.86236870288848877 0.86236870288848877 0.86236870288848877
0.086110085248947144 0.086110085248947144 0.086110085248947144
0.099076606333255768 0.099076606333255768 0.099076606333255768
0.10986139625310898 0.10986139625310898 0.10986139625310898
0.11905568093061447 0.11905568093061447 0.11905568093061447
0.12919417023658752 0.12919417023658752 0.12919417023658752
0.14193932712078094 0.14193932712078094 0.14193932712078094
0.15870927274227142 0.15870927274227142 0.15870927274227142
0.18077085912227631 0.18077085912227631 0.18077085912227631
0.2094837874174118 0.2094837874174118 0.2094837874174118
0.24503438174724579 0.24503438174724579 0.24503438174724579
0.28467795252799988 0.28467795252799988 0.28467795252799988
0.3267204761505127 0.3267204761505127 0.3267204761505127
0.36799803376197815 0.36799803376197815 0.36799803376197815
0.13184072077274323 0.13184072077274323 0.13184072077274323
0.14306241273880005 0.14306241273880005 0.14306241273880005
0.15284478664398193 0.15284478664398193 0.15284478664398193
0.16172654926776886 0.16172654926776886 0.16172654926776886
0.17159642279148102 0.17159642279148102 0.17159642279148102
0.1841551661491394 0.1841551661491394 0.1841551661491394
0.20044323801994324 0.20044323801994324 0.20044323801994324
0.22196251153945923 0.22196251153945923 0.22196251153945923
0.24957460165023804 0.24957460165023804 0.24957460165023804
0.28345182538032532 0.28345182538032532 0.28345182538032532
0.32175609469413757 0.32175609469413757 0.32175609469413757
0.36152404546737671 0.36152404546737671 0.36152404546737671
0.40134647488594055 0.40134647488594055 0.40134647488594055
0.17920880019664764 0.17920880019664764 0.17920880019664764
0.18839071691036224 0.18839071691036224 0.18839071691036224
0.19709059596061707 0.19709059596061707 0.19709059596061707
0.20626159012317657 0.20626159012317657 0.20626159012317657
0.21661818027496338 0.21661818027496338 0.21661818027496338
0.22918534278869629 0.22918534278869629 0.22918534278869629
0.24543644487857819 0.24543644487857819 0.24543644487857819
0.26599019765853882 0.26599019765853882 0.26599019765853882
0.2922380268573761 0.2922380268573761 0.2922380268573761
0.32364651560783386 0.32364651560783386 0.32364651560783386
0.36032605171203613 0.36032605171203613 0.36032605171203613
0.39731648564338684 0.39731648564338684 0.39731648564338684
0.43504774570465088 0.43504774570465088 0.43504774570465088
0.22944337129592896 0.22944337129592896 0.22944337129592896
0.23642989993095398 0.23642989993095398 0.23642989993095398
0.24461966753005981 0.24461966753005981 0.24461966753005981
0.25383976101875305 0.25383976101875305 0.25383976101875305
0.26457369327545166 0.26457369327545166 0.26457369327545166
0.27732118964195251 0.27732118964195251 0.27732118964195251
0.29313915967941284 0.29313915967941284 0.29313915967941284
0.31270459294319153 0.31270459294319153 0.31270459294319153
0.33694088459014893 0.33694088459014893 0.33694088459014893
0.36612758040428162 0.36612758040428162 0.36612758040428162
0.39932602643966675 0.39932602643966675 0.39932602643966675
0.43383234739303589 0.43383234739303589 0.43383234739303589
0.469728022813797 0.469728022813797 0.469728022813797
0.28376051783561707 0.28376051783561707 0.28376051783561707
0.28891003131866455 0.28891003131866455 0.28891003131866455
0.29634535312652588 0.29634535312652588 0.29634535312652588
0.30562126636505127 0.30562126636505127 0.30562126636505127
0.31635719537734985 0.31635719537734985 0.31635719537734985
0.3289082944393158 0.3289082944393158 0.3289082944393158
0.34382230043411255 0.34382230043411255 0.34382230043411255
0.36174207925796509 0.36174207925796509 0.36174207925796509
0.38388684391975403 0.38388684391975403 0.38388684391975403
0.41041389107704163 0.41041389107704163 0.41041389107704163
0.44073045253753662 0.44073045253753662 0.44073045253753662
0.47324404120445251 0.47324404120445251 0.47324404120445251
0.50621592998504639 0.50621592998504639 0.50621592998504639
0.34302350878715515 0.34302350878715515 0.34302350878715515
0.3469407856464386 0.3469407856464386 0.3469407856464386
0.35356318950653076 0.35356318950653076 0.35356318950653076
0.362111896276474 0.362111896276474 0.362111896276474
0.37244167923927307 0.37244167923927307 0.37244167923927307
0.3841114342212677 0.3841114342212677 0.3841114342212677
0.39788207411766052 0.39788207411766052 0.39788207411766052
0.41393139958381653 0.41393139958381653 0.41393139958381653
0.43342301249504089 0.43342301249504089 0.43342301249504089
0.45741382241249084 0.45741382241249084 0.45741382241249084
0.48502230644226074 0.48502230644226074 0.48502230644226074
0.51460891962051392 0.51460891962051392 0.51460891962051392
0.545188307762146 0.545188307762146 0.545188307762146
0.40743181109428406 0.40743181109428406 0.40743181109428406
0.41078957915306091 0.41078957915306091 0.41078957915306091
0.41630464792251587 0.41630464792251587 0.41630464792251587
0.42359483242034912 0.42359483242034912 0.42359483242034912
0.43248429894447327 0.43248429894447327 0.43248429894447327
0.44278377294540405 0.44278377294540405 0.44278377294540405
0.45503824949264526 0.45503824949264526 0.45503824949264526
0.46926605701446533 0.46926605701446533 0.46926605701446533
0.48641914129257202 0.48641914129257202 0.48641914129257202
0.50763440132141113 0.50763440132141113 0.50763440132141113
0.53213250637054443 0.53213250637054443 0.53213250637054443
0.55865925550460815 0.55865925550460815 0.55865925550460815
0.58635050058364868 0.58635050058364868 0.58635050058364868
0.47563129663467407 0.47563129663467407 0.47563129663467407
0.4786495566368103 0.4786495566368103 0.4786495566368103
0.4829622209072113 0.4829622209072113 0.4829622209072113
0.48861300945281982 0.48861300945281982 0.48861300945281982
0.49583059549331665 0.49583059549331665 0.49583059549331665
0.50434970855712891 0.50434970855712891 0.50434970855712891
0.51461118459701538 0.51461118459701538 0.51461118459701538
0.52692884206771851 0.52692884206771851 0.52692884206771851
0.54215037822723389 0.54215037822723389 0.54215037822723389
0.56044751405715942 0.56044751405715942 0.56044751405715942
0.58153444528579712 0.58153444528579712 0.58153444528579712
0.60487353801727295 0.60487353801727295 0.60487353801727295
0.62984031438827515 0.62984031438827515 0.62984031438827515
0.54632240533828735 0.54632240533828735 0.54632240533828735
0.54882031679153442 0.54882031679153442 0.54882031679153442
0.55192792415618896 0.55192792415618896 0.55192792415618896
0.55587023496627808 0.55587023496627808 0.55587023496627808
0.56102949380874634 0.56102949380874634 0.56102949380874634
0.56765776872634888 0.56765776872634888 0.56765776872634888
0.57587438821792603 0.57587438821792603 0.57587438821792603
0.58614063262939453 0.58614063262939453 0.58614063262939453
0.5989614725112915 0.5989614725112915 0.5989614725112915
0.61449819803237915 0.61449819803237915 0.61449819803237915
0.63273763656616211 0.63273763656616211 0.63273763656616211
0.65301060676574707 0.65301060676574707 0.65301060676574707
0.67510086297988892 0.67510086297988892 0.67510086297988892
0.61823606491088867 0.61823606491088867 0.61823606491088867
0.62001180648803711 0.62001180648803711 0.62001180648803711
0.62185168266296387 0.62185168266296387 0.62185168266296387
0.62399578094482422 0.62399578094482422 0.62399578094482422
0.62714534997940063 0.62714534997940063 0.62714534997940063
0.6316525936126709 0.6316525936126709 0.6316525936126709
0.6377938985824585 0.6377938985824585 0.6377938985824585
0.64589965343475342 0.64589965343475342 0.64589965343475342
0.65626329183578491 0.65626329183578491 0.65626329183578491
0.66929298639297485 0.66929298639297485 0.66929298639297485
0.68477773666381836 0.68477773666381836 0.68477773666381836
0.70228022336959839 0.70228022336959839 0.70228022336959839
0.72162210941314697 0.72162210941314697 0.72162210941314697
0.69001603126525879 0.69001603126525879 0.69001603126525879
0.69103652238845825 0.69103652238845825 0.69103652238845825
0.691364586353302 0.691364586353302 0.691364586353302
0.69174462556838989 0.69174462556838989 0.69174462556838989
0.69292134046554565 0.69292134046554565 0.69292134046554565
0.69543659687042236 0.69543659687042236 0.69543659687042236
0.6994594931602478 0.6994594931602478 0.6994594931602478
0.70562851428985596 0.70562851428985596 0.70562851428985596
0.71369385719299316 0.71369385719299316 0.71369385719299316
0.72443705797195435 0.72443705797195435 0.72443705797195435
0.73741501569747925 0.73741501569747925 0.73741501569747925
0.75277948379516602 0.75277948379516602 0.75277948379516602
0.76967823505401611 0.76967823505401611 0.76967823505401611
0.76033347845077515 0.76033347845077515 0.76033347845077515
0.76079678535461426 0.76079678535461426 0.76079678535461426
0.75928664207458496 0.75928664207458496 0.75928664207458496
0.75828385353088379 0.75828385353088379 0.75828385353088379
0.75757902860641479 0.75757902860641479 0.75757902860641479
0.75814568996429443 0.75814568996429443 0.75814568996429443
0.76057034730911255 0.76057034730911255 0.76057034730911255
0.76465076208114624 0.76465076208114624 0.76465076208114624
0.77105933427810669 0.77105933427810669 0.77105933427810669
0.77974504232406616 0.77974504232406616 0.77974504232406616
0.79067760705947876 0.79067760705947876 0.79067760705947876
0.80380368232727051 0.80380368232727051 0.80380368232727051
0.81900614500045776 0.81900614500045776 0.81900614500045776
0.82766538858413696 0.82766538858413696 0.82766538858413696
0.82718169689178467 0.82718169689178467 0.82718169689178467
0.82495969533920288 0.82495969533920288 0.82495969533920288
0.82238656282424927 0.82238656282424927 0.82238656282424927
0.82037252187728882 0.82037252187728882 0.82037252187728882
0.81969678401947021 0.81969678401947021 0.81969678401947021
0.82032054662704468 0.82032054662704468 0.82032054662704468
0.82292699813842773 0.82292699813842773 0.82292699813842773
0.82766348123550415 0.82766348123550415 0.82766348123550415
0.83455955982208252 0.83455955982208252 0.83455955982208252
0.84375464916229248 0.84375464916229248 0.84375464916229248
0.85536843538284302 0.85536843538284302 0.85536843538284302
0.86875027418136597 0.86875027418136597 0.86875027418136597
0.12293614447116852 0.12293614447116852 0.12293614447116852
0.13604637980461121 0.13604637980461121 0.13604637980461121
0.14426574110984802 0.14426574110984802 0.14426574110984802
0.15080501139163971 0.15080501139163971 0.15080501139163971
0.15902087092399597 0.15902087092399597 0.15902087092399597
0.17054063081741333 0.17054063081741333 0.17054063081741333
0.18612900376319885 0.18612900376319885 0.18612900376319885
0.2078208327293396 0.2078208327293396 0.2078208327293396
0.23570877313613892 0.23570877313613892 0.23570877313613892
0.26938501000404358 0.26938501000404358 0.26938501000404358
0.30727288126945496 0.30727288126945496 0.30727288126945496
0.34710147976875305 0.34710147976875305 0.34710147976875305
0.3866361677646637 0.3866361677646637 0.3866361677646637
0.16593359410762787 0.16593359410762787 0.16593359410762787
0.17677448689937592 0.17677448689937592 0.17677448689937592
0.18493478000164032 0.18493478000164032 0.18493478000164032
0.19189640879631042 0.19189640879631042 0.19189640879631042
0.20025736093521118 0.20025736093521118 0.20025736093521118
0.21147370338439941 0.21147370338439941 0.21147370338439941
0.22704893350601196 0.22704893350601196 0.22704893350601196
0.24769759178161621 0.24769759178161621 0.24769759178161621
0.2744176983833313 0.2744176983833313 0.2744176983833313
0.3065914511680603 0.3065914511680603 0.3065914511680603
0.34290865063667297 0.34290865063667297 0.34290865063667297
0.38147640228271484 0.38147640228271484 0.38147640228271484
0.41993755102157593 0.41993755102157593 0.41993755102157593
0.20963047444820404 0.20963047444820404 0.20963047444820404
0.21828792989253998 0.21828792989253998 0.21828792989253998
0.22630028426647186 0.22630028426647186 0.22630028426647186
0.23426355421543121 0.23426355421543121 0.23426355421543121
0.2434736043214798 0.2434736043214798 0.2434736043214798
0.25517016649246216 0.25517016649246216 0.25517016649246216
0.27043280005455017 0.27043280005455017 0.27043280005455017
0.29038271307945251 0.29038271307945251 0.29038271307945251
0.31572851538658142 0.31572851538658142 0.31572851538658142
0.3459588885307312 0.3459588885307312 0.3459588885307312
0.38013726472854614 0.38013726472854614 0.38013726472854614
0.41675320267677307 0.41675320267677307 0.41675320267677307
0.45318934321403503 0.45318934321403503 0.45318934321403503
0.25657206773757935 0.25657206773757935 0.25657206773757935
0.26325610280036926 0.26325610280036926 0.26325610280036926
0.27084994316101074 0.27084994316101074 0.27084994316101074
0.27974027395248413 0.27974027395248413 0.27974027395248413
0.28976637125015259 0.28976637125015259 0.28976637125015259
0.30186218023300171 0.30186218023300171 0.30186218023300171
0.31695413589477539 0.31695413589477539 0.31695413589477539
0.33578899502754211 0.33578899502754211 0.33578899502754211
0.35929694771766663 0.35929694771766663 0.35929694771766663
0.38733571767807007 0.38733571767807007 0.38733571767807007
0.41925054788589478 0.41925054788589478 0.41925054788589478
0.45280897617340088 0.45280897617340088 0.45280897617340088
0.48732700943946838 0.48732700943946838 0.48732700943946838
0.30788522958755493 0.30788522958755493 0.30788522958755493
0.31291869282722473 0.31291869282722473 0.31291869282722473
0.31994026899337769 0.31994026899337769 0.31994026899337769
0.329154372215271 0.329154372215271 0.329154372215271
0.33977079391479492 0.33977079391479492 0.33977079391479492
0.351857990026474 0.351857990026474 0.351857990026474
0.36639592051506042 0.36639592051506042 0.36639592051506042
0.38384076952934265 0.38384076952934265 0.38384076952934265
0.40520292520523071 0.40520292520523071 0.40520292520523071
