luts/bw/ilford_hps_800.cube
# Created by: G'MIC (https://gmic.eu)
TITLE "ilford_hps_800"
# LUT size
LUT_3D_SIZE 7
# Data domain
DOMAIN_MIN 0.0 0.0 0.0
DOMAIN_MAX 1.0 1.0 1.0
# LUT data points
0.011487339623272419 0.011487339623272419 0.011487339623272419
0.012896833010017872 0.012896833010017872 0.012896833010017872
0.033688325434923172 0.033688325434923172 0.033688325434923172
0.078475236892700195 0.078475236892700195 0.078475236892700195
0.15161231160163879 0.15161231160163879 0.15161231160163879
0.27567446231842041 0.27567446231842041 0.27567446231842041
0.41563689708709717 0.41563689708709717 0.41563689708709717
0.059628341346979141 0.059628341346979141 0.059628341346979141
0.066633604466915131 0.066633604466915131 0.066633604466915131
0.093501083552837372 0.093501083552837372 0.093501083552837372
0.1449882835149765 0.1449882835149765 0.1449882835149765
0.2237359881401062 0.2237359881401062 0.2237359881401062
0.33363085985183716 0.33363085985183716 0.33363085985183716
0.45788699388504028 0.45788699388504028 0.45788699388504028
0.13305802643299103 0.13305802643299103 0.13305802643299103
0.1459953784942627 0.1459953784942627 0.1459953784942627
0.17668995261192322 0.17668995261192322 0.17668995261192322
0.22923600673675537 0.22923600673675537 0.22923600673675537
0.30643892288208008 0.30643892288208008 0.30643892288208008
0.4035341739654541 0.4035341739654541 0.4035341739654541
0.51168173551559448 0.51168173551559448 0.51168173551559448
0.25440692901611328 0.25440692901611328 0.25440692901611328
0.26456186175346375 0.26456186175346375 0.26456186175346375
0.29223057627677917 0.29223057627677917 0.29223057627677917
0.33903241157531738 0.33903241157531738 0.33903241157531738
0.40626728534698486 0.40626728534698486 0.40626728534698486
0.48941177129745483 0.48941177129745483 0.48941177129745483
0.58224815130233765 0.58224815130233765 0.58224815130233765
0.41190364956855774 0.41190364956855774 0.41190364956855774
0.41591921448707581 0.41591921448707581 0.41591921448707581
0.43452301621437073 0.43452301621437073 0.43452301621437073
0.4699760377407074 0.4699760377407074 0.4699760377407074
0.52303934097290039 0.52303934097290039 0.52303934097290039
0.59088695049285889 0.59088695049285889 0.59088695049285889
0.66896182298660278 0.66896182298660278 0.66896182298660278
0.5835566520690918 0.5835566520690918 0.5835566520690918
0.58095788955688477 0.58095788955688477 0.58095788955688477
0.58819317817687988 0.58819317817687988 0.58819317817687988
0.61079394817352295 0.61079394817352295 0.61079394817352295
0.64962625503540039 0.64962625503540039 0.64962625503540039
0.7029719352722168 0.7029719352722168 0.7029719352722168
0.7673841118812561 0.7673841118812561 0.7673841118812561
0.75291460752487183 0.75291460752487183 0.75291460752487183
0.7430884838104248 0.7430884838104248 0.7430884838104248
0.74061167240142822 0.74061167240142822 0.74061167240142822
0.75230097770690918 0.75230097770690918 0.75230097770690918
0.77902448177337646 0.77902448177337646 0.77902448177337646
0.8202328085899353 0.8202328085899353 0.8202328085899353
0.87335491180419922 0.87335491180419922 0.87335491180419922
0.03288206085562706 0.03288206085562706 0.03288206085562706
0.046828102320432663 0.046828102320432663 0.046828102320432663
0.083054482936859131 0.083054482936859131 0.083054482936859131
0.14518770575523376 0.14518770575523376 0.14518770575523376
0.22740061581134796 0.22740061581134796 0.22740061581134796
0.32992762327194214 0.32992762327194214 0.32992762327194214
0.44979047775268555 0.44979047775268555 0.44979047775268555
0.091634191572666168 0.091634191572666168 0.091634191572666168
0.10544101148843765 0.10544101148843765 0.10544101148843765
0.14142777025699615 0.14142777025699615 0.14142777025699615
0.20158354938030243 0.20158354938030243 0.20158354938030243
0.28167524933815002 0.28167524933815002 0.28167524933815002
0.37939903140068054 0.37939903140068054 0.37939903140068054
0.49023893475532532 0.49023893475532532 0.49023893475532532
0.1756245493888855 0.1756245493888855 0.1756245493888855
0.18846605718135834 0.18846605718135834 0.18846605718135834
0.22122769057750702 0.22122769057750702 0.22122769057750702
0.27571636438369751 0.27571636438369751 0.27571636438369751
0.35041049122810364 0.35041049122810364 0.35041049122810364
0.44008803367614746 0.44008803367614746 0.44008803367614746
0.54059571027755737 0.54059571027755737 0.54059571027755737
0.29571723937988281 0.29571723937988281 0.29571723937988281
0.30517920851707458 0.30517920851707458 0.30517920851707458
0.33229279518127441 0.33229279518127441 0.33229279518127441
0.37822142243385315 0.37822142243385315 0.37822142243385315
0.4422035813331604 0.4422035813331604 0.4422035813331604
0.51975375413894653 0.51975375413894653 0.51975375413894653
0.60702550411224365 0.60702550411224365 0.60702550411224365
0.44400468468666077 0.44400468468666077 0.44400468468666077
0.44942745566368103 0.44942745566368103 0.44942745566368103
0.46795931458473206 0.46795931458473206 0.46795931458473206
0.50228047370910645 0.50228047370910645 0.50228047370910645
0.55246150493621826 0.55246150493621826 0.55246150493621826
0.61562299728393555 0.61562299728393555 0.61562299728393555
0.68900793790817261 0.68900793790817261 0.68900793790817261
0.60527372360229492 0.60527372360229492 0.60527372360229492
0.60452920198440552 0.60452920198440552 0.60452920198440552
0.61320531368255615 0.61320531368255615 0.61320531368255615
0.63553982973098755 0.63553982973098755 0.63553982973098755
0.67189896106719971 0.67189896106719971 0.67189896106719971
0.72138404846191406 0.72138404846191406 0.72138404846191406
0.78138834238052368 0.78138834238052368 0.78138834238052368
0.76267391443252563 0.76267391443252563 0.76267391443252563
0.7569158673286438 0.7569158673286438 0.7569158673286438
0.75703173875808716 0.75703173875808716 0.75703173875808716
0.76866191625595093 0.76866191625595093 0.76866191625595093
0.79382455348968506 0.79382455348968506 0.79382455348968506
0.83144336938858032 0.83144336938858032 0.83144336938858032
0.88041681051254272 0.88041681051254272 0.88041681051254272
0.071248985826969147 0.071248985826969147 0.071248985826969147
0.097301200032234192 0.097301200032234192 0.097301200032234192
0.14613327383995056 0.14613327383995056 0.14613327383995056
0.21372170746326447 0.21372170746326447 0.21372170746326447
0.29471728205680847 0.29471728205680847 0.29471728205680847
0.38793948292732239 0.38793948292732239 0.38793948292732239
0.49098461866378784 0.49098461866378784 0.49098461866378784
0.14322938024997711 0.14322938024997711 0.14322938024997711
0.16458764672279358 0.16458764672279358 0.16458764672279358
0.20815327763557434 0.20815327763557434 0.20815327763557434
0.27001166343688965 0.27001166343688965 0.27001166343688965
0.3452548086643219 0.3452548086643219 0.3452548086643219
0.43190494179725647 0.43190494179725647 0.43190494179725647
0.53020668029785156 0.53020668029785156 0.53020668029785156
0.23892019689083099 0.23892019689083099 0.23892019689083099
0.25483050942420959 0.25483050942420959 0.25483050942420959
0.29040569067001343 0.29040569067001343 0.29040569067001343
0.34320583939552307 0.34320583939552307 0.34320583939552307
0.40945631265640259 0.40945631265640259 0.40945631265640259
0.48702016472816467 0.48702016472816467 0.48702016472816467
0.57764708995819092 0.57764708995819092 0.57764708995819092
0.35776233673095703 0.35776233673095703 0.35776233673095703
0.36858049035072327 0.36858049035072327 0.36858049035072327
0.39623832702636719 0.39623832702636719 0.39623832702636719
0.43921282887458801 0.43921282887458801 0.43921282887458801
0.49550074338912964 0.49550074338912964 0.49550074338912964
0.56300705671310425 0.56300705671310425 0.56300705671310425
0.64188688993453979 0.64188688993453979 0.64188688993453979
0.49400448799133301 0.49400448799133301 0.49400448799133301
0.50044173002243042 0.50044173002243042 0.50044173002243042
0.51986843347549438 0.51986843347549438 0.51986843347549438
0.55245667695999146 0.55245667695999146 0.55245667695999146
0.59766530990600586 0.59766530990600586 0.59766530990600586
0.65339285135269165 0.65339285135269165 0.65339285135269165
0.71883594989776611 0.71883594989776611 0.71883594989776611
0.63788670301437378 0.63788670301437378 0.63788670301437378
0.63963180780410767 0.63963180780410767 0.63963180780410767
0.6507335901260376 0.6507335901260376 0.6507335901260376
0.67296069860458374 0.67296069860458374 0.67296069860458374
0.70643466711044312 0.70643466711044312 0.70643466711044312
0.75035077333450317 0.75035077333450317 0.75035077333450317
0.80358046293258667 0.80358046293258667 0.80358046293258667
0.77937573194503784 0.77937573194503784 0.77937573194503784
0.7769157886505127 0.7769157886505127 0.7769157886505127
0.7803645133972168 0.7803645133972168 0.7803645133972168
0.79323464632034302 0.79323464632034302 0.79323464632034302
0.81656312942504883 0.81656312942504883 0.81656312942504883
0.85006004571914673 0.85006004571914673 0.85006004571914673
0.89367401599884033 0.89367401599884033 0.89367401599884033
0.13653624057769775 0.13653624057769775 0.13653624057769775
0.17207248508930206 0.17207248508930206 0.17207248508930206
0.22643789649009705 0.22643789649009705 0.22643789649009705
0.29312708973884583 0.29312708973884583 0.29312708973884583
0.36915063858032227 0.36915063858032227 0.36915063858032227
0.453727126121521 0.453727126121521 0.453727126121521
0.54520189762115479 0.54520189762115479 0.54520189762115479
0.22059483826160431 0.22059483826160431 0.22059483826160431
0.24683405458927155 0.24683405458927155 0.24683405458927155
0.29280132055282593 0.29280132055282593 0.29280132055282593
0.35185277462005615 0.35185277462005615 0.35185277462005615
0.41970008611679077 0.41970008611679077 0.41970008611679077
0.49648526310920715 0.49648526310920715 0.49648526310920715
0.58294641971588135 0.58294641971588135 0.58294641971588135
0.32311150431632996 0.32311150431632996 0.32311150431632996
0.3415323793888092 0.3415323793888092 0.3415323793888092
0.37697866559028625 0.37697866559028625 0.37697866559028625
0.4257543683052063 0.4257543683052063 0.4257543683052063
0.48341116309165955 0.48341116309165955 0.48341116309165955
0.54968702793121338 0.54968702793121338 0.54968702793121338
0.62896347045898438 0.62896347045898438 0.62896347045898438
0.43753403425216675 0.43753403425216675 0.43753403425216675
0.45019435882568359 0.45019435882568359 0.45019435882568359
0.47724589705467224 0.47724589705467224 0.47724589705467224
0.51648104190826416 0.51648104190826416 0.51648104190826416
0.56474167108535767 0.56474167108535767 0.56474167108535767
0.62177157402038574 0.62177157402038574 0.62177157402038574
0.68934065103530884 0.68934065103530884 0.68934065103530884
0.55913430452346802 0.55913430452346802 0.55913430452346802
0.56746947765350342 0.56746947765350342 0.56746947765350342
0.58734774589538574 0.58734774589538574 0.58734774589538574
0.61804616451263428 0.61804616451263428 0.61804616451263428
0.65739542245864868 0.65739542245864868 0.65739542245864868
0.70440101623535156 0.70440101623535156 0.70440101623535156
0.7597191333770752 0.7597191333770752 0.7597191333770752
0.68378573656082153 0.68378573656082153 0.68378573656082153
0.68761879205703735 0.68761879205703735 0.68761879205703735
0.7005380392074585 0.7005380392074585 0.7005380392074585
0.72233915328979492 0.72233915328979492 0.72233915328979492
0.7525632381439209 0.7525632381439209 0.7525632381439209
0.79002904891967773 0.79002904891967773 0.79002904891967773
0.83482486009597778 0.83482486009597778 0.83482486009597778
0.80733615159988403 0.80733615159988403 0.80733615159988403
0.80659812688827515 0.80659812688827515 0.80659812688827515
0.81279259920120239 0.81279259920120239 0.81279259920120239
0.82640558481216431 0.82640558481216431 0.82640558481216431
0.84756314754486084 0.84756314754486084 0.84756314754486084
0.87621575593948364 0.87621575593948364 0.87621575593948364
0.91325855255126953 0.91325855255126953 0.91325855255126953
0.24527901411056519 0.24527901411056519 0.24527901411056519
0.27802747488021851 0.27802747488021851 0.27802747488021851
0.32745042443275452 0.32745042443275452 0.32745042443275452
0.38745346665382385 0.38745346665382385 0.38745346665382385
0.45566490292549133 0.45566490292549133 0.45566490292549133
0.53071737289428711 0.53071737289428711 0.53071737289428711
0.61163550615310669 0.61163550615310669 0.61163550615310669
0.32960161566734314 0.32960161566734314 0.32960161566734314
0.3548491895198822 0.3548491895198822 0.3548491895198822
0.39561593532562256 0.39561593532562256 0.39561593532562256
0.44757157564163208 0.44757157564163208 0.44757157564163208
0.50729721784591675 0.50729721784591675 0.50729721784591675
0.57462549209594727 0.57462549209594727 0.57462549209594727
0.64943581819534302 0.64943581819534302 0.64943581819534302
0.42932328581809998 0.42932328581809998 0.42932328581809998
0.44712176918983459 0.44712176918983459 0.44712176918983459
0.4782961905002594 0.4782961905002594 0.4782961905002594
0.52023541927337646 0.52023541927337646 0.52023541927337646
0.57010072469711304 0.57010072469711304 0.57010072469711304
0.62760943174362183 0.62760943174362183 0.62760943174362183
0.69386476278305054 0.69386476278305054 0.69386476278305054
0.53395688533782959 0.53395688533782959 0.53395688533782959
0.54636663198471069 0.54636663198471069 0.54636663198471069
0.56995987892150879 0.56995987892150879 0.56995987892150879
0.60420525074005127 0.60420525074005127 0.60420525074005127
0.64543181657791138 0.64543181657791138 0.64543181657791138
0.69258815050125122 0.69258815050125122 0.69258815050125122
0.74814820289611816 0.74814820289611816 0.74814820289611816
0.63840866088867188 0.63840866088867188 0.63840866088867188
0.64677411317825317 0.64677411317825317 0.64677411317825317
0.6651235818862915 0.6651235818862915 0.6651235818862915
0.69322782754898071 0.69322782754898071 0.69322782754898071
0.72692191600799561 0.72692191600799561 0.72692191600799561
0.76510655879974365 0.76510655879974365 0.76510655879974365
0.80977898836135864 0.80977898836135864 0.80977898836135864
0.7417951226234436 0.7417951226234436 0.7417951226234436
0.74638772010803223 0.74638772010803223 0.74638772010803223
0.75927597284317017 0.75927597284317017 0.75927597284317017
0.77997976541519165 0.77997976541519165 0.77997976541519165
0.80646044015884399 0.80646044015884399 0.80646044015884399
0.83747285604476929 0.83747285604476929 0.83747285604476929
0.87334990501403809 0.87334990501403809 0.87334990501403809
0.84656810760498047 0.84656810760498047 0.84656810760498047
0.84673905372619629 0.84673905372619629 0.84673905372619629
0.85348629951477051 0.85348629951477051 0.85348629951477051
0.8664858341217041 0.8664858341217041 0.8664858341217041
0.88492852449417114 0.88492852449417114 0.88492852449417114
0.90808326005935669 0.90808326005935669 0.90808326005935669
0.9371039867401123 0.9371039867401123 0.9371039867401123
0.37976694107055664 0.37976694107055664 0.37976694107055664
0.40469950437545776 0.40469950437545776 0.40469950437545776
0.44316992163658142 0.44316992163658142 0.44316992163658142
0.49264055490493774 0.49264055490493774 0.49264055490493774
0.55110663175582886 0.55110663175582886 0.55110663175582886
0.61706364154815674 0.61706364154815674 0.61706364154815674
0.68809539079666138 0.68809539079666138 0.68809539079666138
0.45919862389564514 0.45919862389564514 0.45919862389564514
0.47914695739746094 0.47914695739746094 0.47914695739746094
0.50984495878219604 0.50984495878219604 0.50984495878219604
0.55186206102371216 0.55186206102371216 0.55186206102371216
0.60205942392349243 0.60205942392349243 0.60205942392349243
0.66008526086807251 0.66008526086807251 0.66008526086807251
0.72417664527893066 0.72417664527893066 0.72417664527893066
0.55034905672073364 0.55034905672073364 0.55034905672073364
0.56402599811553955 0.56402599811553955 0.56402599811553955
0.58691126108169556 0.58691126108169556 0.58691126108169556
0.61974573135375977 0.61974573135375977 0.61974573135375977
0.66092789173126221 0.66092789173126221 0.66092789173126221
0.70932012796401978 0.70932012796401978 0.70932012796401978
0.76467978954315186 0.76467978954315186 0.76467978954315186
0.64232718944549561 0.64232718944549561 0.64232718944549561
0.65092647075653076 0.65092647075653076 0.65092647075653076
0.66735172271728516 0.66735172271728516 0.66735172271728516
0.69382303953170776 0.69382303953170776 0.69382303953170776
0.72708630561828613 0.72708630561828613 0.72708630561828613
0.76605522632598877 0.76605522632598877 0.76605522632598877
0.81144857406616211 0.81144857406616211 0.81144857406616211
0.7271876335144043 0.7271876335144043 0.7271876335144043
0.73313248157501221 0.73313248157501221 0.73313248157501221
0.74643599987030029 0.74643599987030029 0.74643599987030029
0.7686116099357605 0.7686116099357605 0.7686116099357605
0.79610365629196167 0.79610365629196167 0.79610365629196167
0.82742959260940552 0.82742959260940552 0.82742959260940552
0.86300665140151978 0.86300665140151978 0.86300665140151978
0.80841147899627686 0.80841147899627686 0.80841147899627686
0.8122791051864624 0.8122791051864624 0.8122791051864624
0.8226742148399353 0.8226742148399353 0.8226742148399353
0.83961206674575806 0.83961206674575806 0.83961206674575806
0.86124593019485474 0.86124593019485474 0.86124593019485474
0.88778436183929443 0.88778436183929443 0.88778436183929443
0.91522127389907837 0.91522127389907837 0.91522127389907837
0.89468950033187866 0.89468950033187866 0.89468950033187866
0.89441525936126709 0.89441525936126709 0.89441525936126709
0.90037351846694946 0.90037351846694946 0.90037351846694946
0.9107469916343689 0.9107469916343689 0.9107469916343689
0.92447352409362793 0.92447352409362793 0.92447352409362793
0.94195473194122314 0.94195473194122314 0.94195473194122314
0.96199315786361694 0.96199315786361694 0.96199315786361694
0.51601290702819824 0.51601290702819824 0.51601290702819824
0.53407013416290283 0.53407013416290283 0.53407013416290283
0.5619736909866333 0.5619736909866333 0.5619736909866333
0.60082954168319702 0.60082954168319702 0.60082954168319702
0.64950579404830933 0.64950579404830933 0.64950579404830933
0.70637065172195435 0.70637065172195435 0.70637065172195435
0.76949119567871094 0.76949119567871094 0.76949119567871094
0.58960080146789551 0.58960080146789551 0.58960080146789551
0.60399532318115234 0.60399532318115234 0.60399532318115234
0.62550908327102661 0.62550908327102661 0.62550908327102661
0.65676784515380859 0.65676784515380859 0.65676784515380859
0.69762551784515381 0.69762551784515381 0.69762551784515381
0.74661743640899658 0.74661743640899658 0.74661743640899658
0.80198162794113159 0.80198162794113159 0.80198162794113159
0.67164450883865356 0.67164450883865356 0.67164450883865356
0.68003547191619873 0.68003547191619873 0.68003547191619873
0.69406294822692871 0.69406294822692871 0.69406294822692871
0.71752774715423584 0.71752774715423584 0.71752774715423584
0.74985116720199585 0.74985116720199585 0.74985116720199585
0.78994196653366089 0.78994196653366089 0.78994196653366089
0.83646523952484131 0.83646523952484131 0.83646523952484131
0.75234580039978027 0.75234580039978027 0.75234580039978027
0.75429701805114746 0.75429701805114746 0.75429701805114746
0.76246923208236694 0.76246923208236694 0.76246923208236694
0.7800058126449585 0.7800058126449585 0.7800058126449585
0.80521661043167114 0.80521661043167114 0.80521661043167114
0.83667171001434326 0.83667171001434326 0.83667171001434326
0.87466204166412354 0.87466204166412354 0.87466204166412354
0.81854689121246338 0.81854689121246338 0.81854689121246338
0.82017415761947632 0.82017415761947632 0.82017415761947632
0.82694482803344727 0.82694482803344727 0.82694482803344727
0.84077733755111694 0.84077733755111694 0.84077733755111694
0.86072105169296265 0.86072105169296265 0.86072105169296265
0.88538789749145508 0.88538789749145508 0.88538789749145508
0.91455048322677612 0.91455048322677612 0.91455048322677612
0.88156008720397949 0.88156008720397949 0.88156008720397949
0.88236212730407715 0.88236212730407715 0.88236212730407715
0.8883897066116333 0.8883897066116333 0.8883897066116333
0.89884275197982788 0.89884275197982788 0.89884275197982788
0.91345810890197754 0.91345810890197754 0.91345810890197754
0.93231093883514404 0.93231093883514404 0.93231093883514404
0.95241045951843262 0.95241045951843262 0.95241045951843262
0.95120096206665039 0.95120096206665039 0.95120096206665039
0.95032930374145508 0.95032930374145508 0.95032930374145508
0.95377254486083984 0.95377254486083984 0.95377254486083984
0.95942515134811401 0.95942515134811401 0.95942515134811401
0.96659272909164429 0.96659272909164429 0.96659272909164429
0.97474002838134766 0.97474002838134766 0.97474002838134766
0.9834437370300293 0.9834437370300293 0.9834437370300293
