luts/bw/ilford_xp_2.cube
# Created by: G'MIC (https://gmic.eu)
TITLE "ilford_xp_2"
# LUT size
LUT_3D_SIZE 7
# Data domain
DOMAIN_MIN 0.0 0.0 0.0
DOMAIN_MAX 1.0 1.0 1.0
# LUT data points
0.01669941283762455 0.01669941283762455 0.01669941283762455
0.015147504396736622 0.015147504396736622 0.015147504396736622
0.024261593818664551 0.024261593818664551 0.024261593818664551
0.047663655132055283 0.047663655132055283 0.047663655132055283
0.089015036821365356 0.089015036821365356 0.089015036821365356
0.15662285685539246 0.15662285685539246 0.15662285685539246
0.23906360566616058 0.23906360566616058 0.23906360566616058
0.080678559839725494 0.080678559839725494 0.080678559839725494
0.080037042498588562 0.080037042498588562 0.080037042498588562
0.090616814792156219 0.090616814792156219 0.090616814792156219
0.11427413672208786 0.11427413672208786 0.11427413672208786
0.15446282923221588 0.15446282923221588 0.15446282923221588
0.21525980532169342 0.21525980532169342 0.21525980532169342
0.28948405385017395 0.28948405385017395 0.28948405385017395
0.15811984241008759 0.15811984241008759 0.15811984241008759
0.15947023034095764 0.15947023034095764 0.15947023034095764
0.17205415666103363 0.17205415666103363 0.17205415666103363
0.19592501223087311 0.19592501223087311 0.19592501223087311
0.23284268379211426 0.23284268379211426 0.23284268379211426
0.28508102893829346 0.28508102893829346 0.28508102893829346
0.35103863477706909 0.35103863477706909 0.35103863477706909
0.25144466757774353 0.25144466757774353 0.25144466757774353
0.25548070669174194 0.25548070669174194 0.25548070669174194
0.27016523480415344 0.27016523480415344 0.27016523480415344
0.29289606213569641 0.29289606213569641 0.29289606213569641
0.32438305020332336 0.32438305020332336 0.32438305020332336
0.36785316467285156 0.36785316467285156 0.36785316467285156
0.42668157815933228 0.42668157815933228 0.42668157815933228
0.36420109868049622 0.36420109868049622 0.36420109868049622
0.37166011333465576 0.37166011333465576 0.37166011333465576
0.38678589463233948 0.38678589463233948 0.38678589463233948
0.40656560659408569 0.40656560659408569 0.40656560659408569
0.43236130475997925 0.43236130475997925 0.43236130475997925
0.46854075789451599 0.46854075789451599 0.46854075789451599
0.52071666717529297 0.52071666717529297 0.52071666717529297
0.50766676664352417 0.50766676664352417 0.50766676664352417
0.51235866546630859 0.51235866546630859 0.51235866546630859
0.52197718620300293 0.52197718620300293 0.52197718620300293
0.53610014915466309 0.53610014915466309 0.53610014915466309
0.55677449703216553 0.55677449703216553 0.55677449703216553
0.58850443363189697 0.58850443363189697 0.58850443363189697
0.63382643461227417 0.63382643461227417 0.63382643461227417
0.67410910129547119 0.67410910129547119 0.67410910129547119
0.66819983720779419 0.66819983720779419 0.66819983720779419
0.66828668117523193 0.66828668117523193 0.66828668117523193
0.67536407709121704 0.67536407709121704 0.67536407709121704
0.69116503000259399 0.69116503000259399 0.69116503000259399
0.71880030632019043 0.71880030632019043 0.71880030632019043
0.7589535117149353 0.7589535117149353 0.7589535117149353
0.05503782257437706 0.05503782257437706 0.05503782257437706
0.057460546493530273 0.057460546493530273 0.057460546493530273
0.071588881313800812 0.071588881313800812 0.071588881313800812
0.098438635468482971 0.098438635468482971 0.098438635468482971
0.14199382066726685 0.14199382066726685 0.14199382066726685
0.20478720963001251 0.20478720963001251 0.20478720963001251
0.27956125140190125 0.27956125140190125 0.27956125140190125
0.11986449360847473 0.11986449360847473 0.11986449360847473
0.12226089835166931 0.12226089835166931 0.12226089835166931
0.13623233139514923 0.13623233139514923 0.13623233139514923
0.16213086247444153 0.16213086247444153 0.16213086247444153
0.20262309908866882 0.20262309908866882 0.20262309908866882
0.25982749462127686 0.25982749462127686 0.25982749462127686
0.32892224192619324 0.32892224192619324 0.32892224192619324
0.19765408337116241 0.19765408337116241 0.19765408337116241
0.20110869407653809 0.20110869407653809 0.20110869407653809
0.21590794622898102 0.21590794622898102 0.21590794622898102
0.24048246443271637 0.24048246443271637 0.24048246443271637
0.27623164653778076 0.27623164653778076 0.27623164653778076
0.32528695464134216 0.32528695464134216 0.32528695464134216
0.38701775670051575 0.38701775670051575 0.38701775670051575
0.28960570693016052 0.28960570693016052 0.28960570693016052
0.29527738690376282 0.29527738690376282 0.29527738690376282
0.31103348731994629 0.31103348731994629 0.31103348731994629
0.33340632915496826 0.33340632915496826 0.33340632915496826
0.36287635564804077 0.36287635564804077 0.36287635564804077
0.403085857629776 0.403085857629776 0.403085857629776
0.45786115527153015 0.45786115527153015 0.45786115527153015
0.39876243472099304 0.39876243472099304 0.39876243472099304
0.40741512179374695 0.40741512179374695 0.40741512179374695
0.42345428466796875 0.42345428466796875 0.42345428466796875
0.4420773983001709 0.4420773983001709 0.4420773983001709
0.46532750129699707 0.46532750129699707 0.46532750129699707
0.49774569272994995 0.49774569272994995 0.49774569272994995
0.54603075981140137 0.54603075981140137 0.54603075981140137
0.53554940223693848 0.53554940223693848 0.53554940223693848
0.54179197549819946 0.54179197549819946 0.54179197549819946
0.55298411846160889 0.55298411846160889 0.55298411846160889
0.56581324338912964 0.56581324338912964 0.56581324338912964
0.58340787887573242 0.58340787887573242 0.58340787887573242
0.61104726791381836 0.61104726791381836 0.61104726791381836
0.65244764089584351 0.65244764089584351 0.65244764089584351
0.69009804725646973 0.69009804725646973 0.69009804725646973
0.69025999307632446 0.69025999307632446 0.69025999307632446
0.69309490919113159 0.69309490919113159 0.69309490919113159
0.69892925024032593 0.69892925024032593 0.69892925024032593
0.71148973703384399 0.71148973703384399 0.71148973703384399
0.73495566844940186 0.73495566844940186 0.73495566844940186
0.77099835872650146 0.77099835872650146 0.77099835872650146
0.10941030830144882 0.10941030830144882 0.10941030830144882
0.11699045449495316 0.11699045449495316 0.11699045449495316
0.13657818734645844 0.13657818734645844 0.13657818734645844
0.1673557460308075 0.1673557460308075 0.1673557460308075
0.21090877056121826 0.21090877056121826 0.21090877056121826
0.26784154772758484 0.26784154772758484 0.26784154772758484
0.33413678407669067 0.33413678407669067 0.33413678407669067
0.17690056562423706 0.17690056562423706 0.17690056562423706
0.18313126266002655 0.18313126266002655 0.18313126266002655
0.20113635063171387 0.20113635063171387 0.20113635063171387
0.22923517227172852 0.22923517227172852 0.22923517227172852
0.2686735987663269 0.2686735987663269 0.2686735987663269
0.32011610269546509 0.32011610269546509 0.32011610269546509
0.38185465335845947 0.38185465335845947 0.38185465335845947
0.25698965787887573 0.25698965787887573 0.25698965787887573
0.26308116316795349 0.26308116316795349 0.26308116316795349
0.27956974506378174 0.27956974506378174 0.27956974506378174
0.30447974801063538 0.30447974801063538 0.30447974801063538
0.33805888891220093 0.33805888891220093 0.33805888891220093
0.38234183192253113 0.38234183192253113 0.38234183192253113
0.43753421306610107 0.43753421306610107 0.43753421306610107
0.34921863675117493 0.34921863675117493 0.34921863675117493
0.35581809282302856 0.35581809282302856 0.35581809282302856
0.37157738208770752 0.37157738208770752 0.37157738208770752
0.39264854788780212 0.39264854788780212 0.39264854788780212
0.4195687472820282 0.4195687472820282 0.4195687472820282
0.45571574568748474 0.45571574568748474 0.45571574568748474
0.50407487154006958 0.50407487154006958 0.50407487154006958
0.45622137188911438 0.45622137188911438 0.45622137188911438
0.46339038014411926 0.46339038014411926 0.46339038014411926
0.47757843136787415 0.47757843136787415 0.47757843136787415
0.49407282471656799 0.49407282471656799 0.49407282471656799
0.51439255475997925 0.51439255475997925 0.51439255475997925
0.54299509525299072 0.54299509525299072 0.54299509525299072
0.5850713849067688 0.5850713849067688 0.5850713849067688
0.58121603727340698 0.58121603727340698 0.58121603727340698
0.58773303031921387 0.58773303031921387 0.58773303031921387
0.59776932001113892 0.59776932001113892 0.59776932001113892
0.60817009210586548 0.60817009210586548 0.60817009210586548
0.62215471267700195 0.62215471267700195 0.62215471267700195
0.64507830142974854 0.64507830142974854 0.64507830142974854
0.68143624067306519 0.68143624067306519 0.68143624067306519
0.71901929378509521 0.71901929378509521 0.71901929378509521
0.72294288873672485 0.72294288873672485 0.72294288873672485
0.72745299339294434 0.72745299339294434 0.72745299339294434
0.73103046417236328 0.73103046417236328 0.73103046417236328
0.73990339040756226 0.73990339040756226 0.73990339040756226
0.75884556770324707 0.75884556770324707 0.75884556770324707
0.79051017761230469 0.79051017761230469 0.79051017761230469
0.18332700431346893 0.18332700431346893 0.18332700431346893
0.19589492678642273 0.19589492678642273 0.19589492678642273
0.21920302510261536 0.21920302510261536 0.21920302510261536
0.25135204195976257 0.25135204195976257 0.25135204195976257
0.29281219840049744 0.29281219840049744 0.29281219840049744
0.34368285536766052 0.34368285536766052 0.34368285536766052
0.40258419513702393 0.40258419513702393 0.40258419513702393
0.25388053059577942 0.25388053059577942 0.25388053059577942
0.26340073347091675 0.26340073347091675 0.26340073347091675
0.28356903791427612 0.28356903791427612 0.28356903791427612
0.31195187568664551 0.31195187568664551 0.31195187568664551
0.34835165739059448 0.34835165739059448 0.34835165739059448
0.39389106631278992 0.39389106631278992 0.39389106631278992
0.44809773564338684 0.44809773564338684 0.44809773564338684
0.33525320887565613 0.33525320887565613 0.33525320887565613
0.3432270884513855 0.3432270884513855 0.3432270884513855
0.36033159494400024 0.36033159494400024 0.36033159494400024
0.3839510977268219 0.3839510977268219 0.3839510977268219
0.41395172476768494 0.41395172476768494 0.41395172476768494
0.45198389887809753 0.45198389887809753 0.45198389887809753
0.50014519691467285 0.50014519691467285 0.50014519691467285
0.42544081807136536 0.42544081807136536 0.42544081807136536
0.43279409408569336 0.43279409408569336 0.43279409408569336
0.44754648208618164 0.44754648208618164 0.44754648208618164
0.46662771701812744 0.46662771701812744 0.46662771701812744
0.4893723726272583 0.4893723726272583 0.4893723726272583
0.51971817016601562 0.51971817016601562 0.51971817016601562
0.56103706359863281 0.56103706359863281 0.56103706359863281
0.52530866861343384 0.52530866861343384 0.52530866861343384
0.53216111660003662 0.53216111660003662 0.53216111660003662
0.54458963871002197 0.54458963871002197 0.54458963871002197
0.55858558416366577 0.55858558416366577 0.55858558416366577
0.57464653253555298 0.57464653253555298 0.57464653253555298
0.59781986474990845 0.59781986474990845 0.59781986474990845
0.63330274820327759 0.63330274820327759 0.63330274820327759
0.63649338483810425 0.63649338483810425 0.63649338483810425
0.64253968000411987 0.64253968000411987 0.64253968000411987
0.65118813514709473 0.65118813514709473 0.65118813514709473
0.6594473123550415 0.6594473123550415 0.6594473123550415
0.6695854663848877 0.6695854663848877 0.6695854663848877
0.68763881921768188 0.68763881921768188 0.68763881921768188
0.7188030481338501 0.7188030481338501 0.7188030481338501
0.75786375999450684 0.75786375999450684 0.75786375999450684
0.761971116065979 0.761971116065979 0.761971116065979
0.76693820953369141 0.76693820953369141 0.76693820953369141
0.76840066909790039 0.76840066909790039 0.76840066909790039
0.77487677335739136 0.77487677335739136 0.77487677335739136
0.78957313299179077 0.78957313299179077 0.78957313299179077
0.81756961345672607 0.81756961345672607 0.81756961345672607
0.28220543265342712 0.28220543265342712 0.28220543265342712
0.29495081305503845 0.29495081305503845 0.29495081305503845
0.31723624467849731 0.31723624467849731 0.31723624467849731
0.34711015224456787 0.34711015224456787 0.34711015224456787
0.38467711210250854 0.38467711210250854 0.38467711210250854
0.43013724684715271 0.43013724684715271 0.43013724684715271
0.48250478506088257 0.48250478506088257 0.48250478506088257
0.35130524635314941 0.35130524635314941 0.35130524635314941
0.3614543080329895 0.3614543080329895 0.3614543080329895
0.38041946291923523 0.38041946291923523 0.38041946291923523
0.40574711561203003 0.40574711561203003 0.40574711561203003
0.43777087330818176 0.43777087330818176 0.43777087330818176
0.47742089629173279 0.47742089629173279 0.47742089629173279
0.52495092153549194 0.52495092153549194 0.52495092153549194
0.43002223968505859 0.43002223968505859 0.43002223968505859
0.43806049227714539 0.43806049227714539 0.43806049227714539
0.45389273762702942 0.45389273762702942 0.45389273762702942
0.47366568446159363 0.47366568446159363 0.47366568446159363
0.49879288673400879 0.49879288673400879 0.49879288673400879
0.53063911199569702 0.53063911199569702 0.53063911199569702
0.57206541299819946 0.57206541299819946 0.57206541299819946
0.51399046182632446 0.51399046182632446 0.51399046182632446
0.52102160453796387 0.52102160453796387 0.52102160453796387
0.53387343883514404 0.53387343883514404 0.53387343883514404
0.54977893829345703 0.54977893829345703 0.54977893829345703
0.56737643480300903 0.56737643480300903 0.56737643480300903
0.59096014499664307 0.59096014499664307 0.59096014499664307
0.62583965063095093 0.62583965063095093 0.62583965063095093
0.60240143537521362 0.60240143537521362 0.60240143537521362
0.60848879814147949 0.60848879814147949 0.60848879814147949
0.61909377574920654 0.61909377574920654 0.61909377574920654
0.63096404075622559 0.63096404075622559 0.63096404075622559
0.64188510179519653 0.64188510179519653 0.64188510179519653
0.65872937440872192 0.65872937440872192 0.65872937440872192
0.68845772743225098 0.68845772743225098 0.68845772743225098
0.69742482900619507 0.69742482900619507 0.69742482900619507
0.70186483860015869 0.70186483860015869 0.70186483860015869
0.7092740535736084 0.7092740535736084 0.7092740535736084
0.71617448329925537 0.71617448329925537 0.71617448329925537
0.72296935319900513 0.72296935319900513 0.72296935319900513
0.7361147403717041 0.7361147403717041 0.7361147403717041
0.76251280307769775 0.76251280307769775 0.76251280307769775
0.80217313766479492 0.80217313766479492 0.80217313766479492
0.8036767840385437 0.8036767840385437 0.8036767840385437
0.80782091617584229 0.80782091617584229 0.80782091617584229
0.8108668327331543 0.8108668327331543 0.8108668327331543
0.81515419483184814 0.81515419483184814 0.81515419483184814
0.82665300369262695 0.82665300369262695 0.82665300369262695
0.85126888751983643 0.85126888751983643 0.85126888751983643
0.39846301078796387 0.39846301078796387 0.39846301078796387
0.40772554278373718 0.40772554278373718 0.40772554278373718
0.42512571811676025 0.42512571811676025 0.42512571811676025
0.45018565654754639 0.45018565654754639 0.45018565654754639
0.48317724466323853 0.48317724466323853 0.48317724466323853
0.52377033233642578 0.52377033233642578 0.52377033233642578
0.57102125883102417 0.57102125883102417 0.57102125883102417
0.46313813328742981 0.46313813328742981 0.46313813328742981
0.47108575701713562 0.47108575701713562 0.47108575701713562
0.48529961705207825 0.48529961705207825 0.48529961705207825
0.50579822063446045 0.50579822063446045 0.50579822063446045
0.53278416395187378 0.53278416395187378 0.53278416395187378
0.56733208894729614 0.56733208894729614 0.56733208894729614
0.60969620943069458 0.60969620943069458 0.60969620943069458
0.5354277491569519 0.5354277491569519 0.5354277491569519
0.54178708791732788 0.54178708791732788 0.54178708791732788
0.55245262384414673 0.55245262384414673 0.55245262384414673
0.56781971454620361 0.56781971454620361 0.56781971454620361
0.58779561519622803 0.58779561519622803 0.58779561519622803
0.61472147703170776 0.61472147703170776 0.61472147703170776
0.65096336603164673 0.65096336603164673 0.65096336603164673
0.61102443933486938 0.61102443933486938 0.61102443933486938
0.61569875478744507 0.61569875478744507 0.61569875478744507
0.62395000457763672 0.62395000457763672 0.62395000457763672
0.63516229391098022 0.63516229391098022 0.63516229391098022
0.64788061380386353 0.64788061380386353 0.64788061380386353
0.6668846607208252 0.6668846607208252 0.6668846607208252
0.69708889722824097 0.69708889722824097 0.69708889722824097
0.68605887889862061 0.68605887889862061 0.68605887889862061
0.68969261646270752 0.68969261646270752 0.68969261646270752
0.69650900363922119 0.69650900363922119 0.69650900363922119
0.70477879047393799 0.70477879047393799 0.70477879047393799
0.7117576003074646 0.7117576003074646 0.7117576003074646
0.72444659471511841 0.72444659471511841 0.72444659471511841
0.75039172172546387 0.75039172172546387 0.75039172172546387
0.76411533355712891 0.76411533355712891 0.76411533355712891
0.7660142183303833 0.7660142183303833 0.7660142183303833
0.77155834436416626 0.77155834436416626 0.77155834436416626
0.77661871910095215 0.77661871910095215 0.77661871910095215
0.78090304136276245 0.78090304136276245 0.78090304136276245
0.79051762819290161 0.79051762819290161 0.79051762819290161
0.81380045413970947 0.81380045413970947 0.81380045413970947
0.85229712724685669 0.85229712724685669 0.85229712724685669
0.85272663831710815 0.85272663831710815 0.85272663831710815
0.8563457727432251 0.8563457727432251 0.8563457727432251
0.85919201374053955 0.85919201374053955 0.85919201374053955
0.86224102973937988 0.86224102973937988 0.86224102973937988
0.87088465690612793 0.87088465690612793 0.87088465690612793
0.89295732975006104 0.89295732975006104 0.89295732975006104
0.51798528432846069 0.51798528432846069 0.51798528432846069
0.5238000750541687 0.5238000750541687 0.5238000750541687
0.53590631484985352 0.53590631484985352 0.53590631484985352
0.55589419603347778 0.55589419603347778 0.55589419603347778
0.58419305086135864 0.58419305086135864 0.58419305086135864
0.62109094858169556 0.62109094858169556 0.62109094858169556
0.6648719310760498 0.6648719310760498 0.6648719310760498
0.57744663953781128 0.57744663953781128 0.57744663953781128
0.58263242244720459 0.58263242244720459 0.58263242244720459
0.59189552068710327 0.59189552068710327 0.59189552068710327
0.60739225149154663 0.60739225149154663 0.60739225149154663
0.62995392084121704 0.62995392084121704 0.62995392084121704
0.66048288345336914 0.66048288345336914 0.66048288345336914
0.69927132129669189 0.69927132129669189 0.69927132129669189
0.64303326606750488 0.64303326606750488 0.64303326606750488
0.64635682106018066 0.64635682106018066 0.64635682106018066
0.65203839540481567 0.65203839540481567 0.65203839540481567
0.66234713792800903 0.66234713792800903 0.66234713792800903
0.67846232652664185 0.67846232652664185 0.67846232652664185
0.70212376117706299 0.70212376117706299 0.70212376117706299
0.73488438129425049 0.73488438129425049 0.73488438129425049
0.7113538384437561 0.7113538384437561 0.7113538384437561
0.71157419681549072 0.71157419681549072 0.71157419681549072
0.71391743421554565 0.71391743421554565 0.71391743421554565
0.72004139423370361 0.72004139423370361 0.72004139423370361
0.72997629642486572 0.72997629642486572 0.72997629642486572
0.74708884954452515 0.74708884954452515 0.74708884954452515
0.77521157264709473 0.77521157264709473 0.77521157264709473
0.77371877431869507 0.77371877431869507 0.77371877431869507
0.77377748489379883 0.77377748489379883 0.77377748489379883
0.77537620067596436 0.77537620067596436 0.77537620067596436
0.7791144847869873 0.7791144847869873 0.7791144847869873
0.78482389450073242 0.78482389450073242 0.78482389450073242
0.79671847820281982 0.79671847820281982 0.79671847820281982
0.82144379615783691 0.82144379615783691 0.82144379615783691
0.83738166093826294 0.83738166093826294 0.83738166093826294
0.83734947443008423 0.83734947443008423 0.83734947443008423
0.8398892879486084 0.8398892879486084 0.8398892879486084
0.84278148412704468 0.84278148412704468 0.84278148412704468
0.84605729579925537 0.84605729579925537 0.84605729579925537
0.85470324754714966 0.85470324754714966 0.85470324754714966
0.87685400247573853 0.87685400247573853 0.87685400247573853
0.91270774602890015 0.91270774602890015 0.91270774602890015
0.91252028942108154 0.91252028942108154 0.91252028942108154
0.91563409566879272 0.91563409566879272 0.91563409566879272
0.91780376434326172 0.91780376434326172 0.91780376434326172
0.92041665315628052 0.92041665315628052 0.92041665315628052
0.92776185274124146 0.92776185274124146 0.92776185274124146
0.9479718804359436 0.9479718804359436 0.9479718804359436
