luts/bw/kodak_t-max_3200.cube
# Created by: G'MIC (https://gmic.eu)
TITLE "kodak_t-max_3200"
# LUT size
LUT_3D_SIZE 13
# Data domain
DOMAIN_MIN 0.0 0.0 0.0
DOMAIN_MAX 1.0 1.0 1.0
# LUT data points
0.010094287805259228 0.010094287805259228 0.010094287805259228
0.013206242583692074 0.013206242583692074 0.013206242583692074
0.017705580219626427 0.017705580219626427 0.017705580219626427
0.021793993189930916 0.021793993189930916 0.021793993189930916
0.025928812101483345 0.025928812101483345 0.025928812101483345
0.032120048999786377 0.032120048999786377 0.032120048999786377
0.041959036141633987 0.041959036141633987 0.041959036141633987
0.056239977478981018 0.056239977478981018 0.056239977478981018
0.073036700487136841 0.073036700487136841 0.073036700487136841
0.09326045960187912 0.09326045960187912 0.09326045960187912
0.12337728589773178 0.12337728589773178 0.12337728589773178
0.1641089916229248 0.1641089916229248 0.1641089916229248
0.21323564648628235 0.21323564648628235 0.21323564648628235
0.055973052978515625 0.055973052978515625 0.055973052978515625
0.057850152254104614 0.057850152254104614 0.057850152254104614
0.060818750411272049 0.060818750411272049 0.060818750411272049
0.065069429576396942 0.065069429576396942 0.065069429576396942
0.07087312638759613 0.07087312638759613 0.07087312638759613
0.079386800527572632 0.079386800527572632 0.079386800527572632
0.090355828404426575 0.090355828404426575 0.090355828404426575
0.10538647323846817 0.10538647323846817 0.10538647323846817
0.12367960810661316 0.12367960810661316 0.12367960810661316
0.14758315682411194 0.14758315682411194 0.14758315682411194
0.18075448274612427 0.18075448274612427 0.18075448274612427
0.22403536736965179 0.22403536736965179 0.22403536736965179
0.27426370978355408 0.27426370978355408 0.27426370978355408
0.11031697690486908 0.11031697690486908 0.11031697690486908
0.10852381587028503 0.10852381587028503 0.10852381587028503
0.10955638438463211 0.10955638438463211 0.10955638438463211
0.11330186575651169 0.11330186575651169 0.11330186575651169
0.12030778825283051 0.12030778825283051 0.12030778825283051
0.13060544431209564 0.13060544431209564 0.13060544431209564
0.14353479444980621 0.14353479444980621 0.14353479444980621
0.1593364030122757 0.1593364030122757 0.1593364030122757
0.17951412498950958 0.17951412498950958 0.17951412498950958
0.20644214749336243 0.20644214749336243 0.20644214749336243
0.2424648106098175 0.2424648106098175 0.2424648106098175
0.28695827722549438 0.28695827722549438 0.28695827722549438
0.33615827560424805 0.33615827560424805 0.33615827560424805
0.17312280833721161 0.17312280833721161 0.17312280833721161
0.16941770911216736 0.16941770911216736 0.16941770911216736
0.16803978383541107 0.16803978383541107 0.16803978383541107
0.17042797803878784 0.17042797803878784 0.17042797803878784
0.17823246121406555 0.17823246121406555 0.17823246121406555
0.19062551856040955 0.19062551856040955 0.19062551856040955
0.20523382723331451 0.20523382723331451 0.20523382723331451
0.22226233780384064 0.22226233780384064 0.22226233780384064
0.24334251880645752 0.24334251880645752 0.24334251880645752
0.27151340246200562 0.27151340246200562 0.27151340246200562
0.30868262052536011 0.30868262052536011 0.30868262052536011
0.3520539402961731 0.3520539402961731 0.3520539402961731
0.3977510929107666 0.3977510929107666 0.3977510929107666
0.24691855907440186 0.24691855907440186 0.24691855907440186
0.24223135411739349 0.24223135411739349 0.24223135411739349
0.23917578160762787 0.23917578160762787 0.23917578160762787
0.24018198251724243 0.24018198251724243 0.24018198251724243
0.24852906167507172 0.24852906167507172 0.24852906167507172
0.26264861226081848 0.26264861226081848 0.26264861226081848
0.27793547511100769 0.27793547511100769 0.27793547511100769
0.29538425803184509 0.29538425803184509 0.29538425803184509
0.31726774573326111 0.31726774573326111 0.31726774573326111
0.34507802128791809 0.34507802128791809 0.34507802128791809
0.38003402948379517 0.38003402948379517 0.38003402948379517
0.41891053318977356 0.41891053318977356 0.41891053318977356
0.45885080099105835 0.45885080099105835 0.45885080099105835
0.33104169368743896 0.33104169368743896 0.33104169368743896
0.3271697461605072 0.3271697461605072 0.3271697461605072
0.32534658908843994 0.32534658908843994 0.32534658908843994
0.32706525921821594 0.32706525921821594 0.32706525921821594
0.33547332882881165 0.33547332882881165 0.33547332882881165
0.34851968288421631 0.34851968288421631 0.34851968288421631
0.36244603991508484 0.36244603991508484 0.36244603991508484
0.37875109910964966 0.37875109910964966 0.37875109910964966
0.3995724618434906 0.3995724618434906 0.3995724618434906
0.42492237687110901 0.42492237687110901 0.42492237687110901
0.45476019382476807 0.45476019382476807 0.45476019382476807
0.48751729726791382 0.48751729726791382 0.48751729726791382
0.52105778455734253 0.52105778455734253 0.52105778455734253
0.42322474718093872 0.42322474718093872 0.42322474718093872
0.42127302289009094 0.42127302289009094 0.42127302289009094
0.42169314622879028 0.42169314622879028 0.42169314622879028
0.42581829428672791 0.42581829428672791 0.42581829428672791
0.43409901857376099 0.43409901857376099 0.43409901857376099
0.44363582134246826 0.44363582134246826 0.44363582134246826
0.45446902513504028 0.45446902513504028 0.45446902513504028
0.46779307723045349 0.46779307723045349 0.46779307723045349
0.48536068201065063 0.48536068201065063 0.48536068201065063
0.50611966848373413 0.50611966848373413 0.50611966848373413
0.52996057271957397 0.52996057271957397 0.52996057271957397
0.55574357509613037 0.55574357509613037 0.55574357509613037
0.58273279666900635 0.58273279666900635 0.58273279666900635
0.52005219459533691 0.52005219459533691 0.52005219459533691
0.51867163181304932 0.51867163181304932 0.51867163181304932
0.51951545476913452 0.51951545476913452 0.51951545476913452
0.52386564016342163 0.52386564016342163 0.52386564016342163
0.5307956337928772 0.5307956337928772 0.5307956337928772
0.53736644983291626 0.53736644983291626 0.53736644983291626
0.54456090927124023 0.54456090927124023 0.54456090927124023
0.55469995737075806 0.55469995737075806 0.55469995737075806
0.56902247667312622 0.56902247667312622 0.56902247667312622
0.58430379629135132 0.58430379629135132 0.58430379629135132
0.6023252010345459 0.6023252010345459 0.6023252010345459
0.62172108888626099 0.62172108888626099 0.62172108888626099
0.64261943101882935 0.64261943101882935 0.64261943101882935
0.61432772874832153 0.61432772874832153 0.61432772874832153
0.61158806085586548 0.61158806085586548 0.61158806085586548
0.61034125089645386 0.61034125089645386 0.61034125089645386
0.61206591129302979 0.61206591129302979 0.61206591129302979
0.61597329378128052 0.61597329378128052 0.61597329378128052
0.62067323923110962 0.62067323923110962 0.62067323923110962
0.62651920318603516 0.62651920318603516 0.62651920318603516
0.63467520475387573 0.63467520475387573 0.63467520475387573
0.6454893946647644 0.6454893946647644 0.6454893946647644
0.65739065408706665 0.65739065408706665 0.65739065408706665
0.67008477449417114 0.67008477449417114 0.67008477449417114
0.68430721759796143 0.68430721759796143 0.68430721759796143
0.70038622617721558 0.70038622617721558 0.70038622617721558
0.69849002361297607 0.69849002361297607 0.69849002361297607
0.69513911008834839 0.69513911008834839 0.69513911008834839
0.6915733814239502 0.6915733814239502 0.6915733814239502
0.69010114669799805 0.69010114669799805 0.69010114669799805
0.69122976064682007 0.69122976064682007 0.69122976064682007
0.69466197490692139 0.69466197490692139 0.69466197490692139
0.69992154836654663 0.69992154836654663 0.69992154836654663
0.70665860176086426 0.70665860176086426 0.70665860176086426
0.71468877792358398 0.71468877792358398 0.71468877792358398
0.72327667474746704 0.72327667474746704 0.72327667474746704
0.73264801502227783 0.73264801502227783 0.73264801502227783
0.74337238073348999 0.74337238073348999 0.74337238073348999
0.75623255968093872 0.75623255968093872 0.75623255968093872
0.77182871103286743 0.77182871103286743 0.77182871103286743
0.76850754022598267 0.76850754022598267 0.76850754022598267
0.76457405090332031 0.76457405090332031 0.76457405090332031
0.76186484098434448 0.76186484098434448 0.76186484098434448
0.76161044836044312 0.76161044836044312 0.76161044836044312
0.7635953426361084 0.7635953426361084 0.7635953426361084
0.7675931453704834 0.7675931453704834 0.7675931453704834
0.77278292179107666 0.77278292179107666 0.77278292179107666
0.7785499095916748 0.7785499095916748 0.7785499095916748
0.78470706939697266 0.78470706939697266 0.78470706939697266
0.79169785976409912 0.79169785976409912 0.79169785976409912
0.79985040426254272 0.79985040426254272 0.79985040426254272
0.81032866239547729 0.81032866239547729 0.81032866239547729
0.83814173936843872 0.83814173936843872 0.83814173936843872
0.83517450094223022 0.83517450094223022 0.83517450094223022
0.83134359121322632 0.83134359121322632 0.83134359121322632
0.82880508899688721 0.82880508899688721 0.82880508899688721
0.8281981348991394 0.8281981348991394 0.8281981348991394
0.82940638065338135 0.82940638065338135 0.82940638065338135
0.83186501264572144 0.83186501264572144 0.83186501264572144
0.83523041009902954 0.83523041009902954 0.83523041009902954
0.83914428949356079 0.83914428949356079 0.83914428949356079
0.84347856044769287 0.84347856044769287 0.84347856044769287
0.84856754541397095 0.84856754541397095 0.84856754541397095
0.85505807399749756 0.85505807399749756 0.85505807399749756
0.86389786005020142 0.86389786005020142 0.86389786005020142
0.90024930238723755 0.90024930238723755 0.90024930238723755
0.89739036560058594 0.89739036560058594 0.89739036560058594
0.89411014318466187 0.89411014318466187 0.89411014318466187
0.89205026626586914 0.89205026626586914 0.89205026626586914
0.89173346757888794 0.89173346757888794 0.89173346757888794
0.89236009120941162 0.89236009120941162 0.89236009120941162
0.89367926120758057 0.89367926120758057 0.89367926120758057
0.89553582668304443 0.89553582668304443 0.89553582668304443
0.89791452884674072 0.89791452884674072 0.89791452884674072
0.90088063478469849 0.90088063478469849 0.90088063478469849
0.90474122762680054 0.90474122762680054 0.90474122762680054
0.91007262468338013 0.91007262468338013 0.91007262468338013
0.91764271259307861 0.91764271259307861 0.91764271259307861
0.013744354248046875 0.013744354248046875 0.013744354248046875
0.016970077529549599 0.016970077529549599 0.016970077529549599
0.021994497627019882 0.021994497627019882 0.021994497627019882
0.027530461549758911 0.027530461549758911 0.027530461549758911
0.034072577953338623 0.034072577953338623 0.034072577953338623
0.042027328163385391 0.042027328163385391 0.042027328163385391
0.053352639079093933 0.053352639079093933 0.053352639079093933
0.069669298827648163 0.069669298827648163 0.069669298827648163
0.088917702436447144 0.088917702436447144 0.088917702436447144
0.11076712608337402 0.11076712608337402 0.11076712608337402
0.14184057712554932 0.14184057712554932 0.14184057712554932
0.18456819653511047 0.18456819653511047 0.18456819653511047
0.23712299764156342 0.23712299764156342 0.23712299764156342
0.059816427528858185 0.059816427528858185 0.059816427528858185
0.061596948653459549 0.061596948653459549 0.061596948653459549
0.065268635749816895 0.065268635749816895 0.065268635749816895
0.070906035602092743 0.070906035602092743 0.070906035602092743
0.078697264194488525 0.078697264194488525 0.078697264194488525
0.089078314602375031 0.089078314602375031 0.089078314602375031
0.10225526243448257 0.10225526243448257 0.10225526243448257
0.1192454919219017 0.1192454919219017 0.1192454919219017
0.13973845541477203 0.13973845541477203 0.13973845541477203
0.16465049982070923 0.16465049982070923 0.16465049982070923
0.19925443828105927 0.19925443828105927 0.19925443828105927
0.24385520815849304 0.24385520815849304 0.24385520815849304
0.29749199748039246 0.29749199748039246 0.29749199748039246
0.11301197856664658 0.11301197856664658 0.11301197856664658
0.11238599568605423 0.11238599568605423 0.11238599568605423
0.11430170387029648 0.11430170387029648 0.11430170387029648
0.11926906555891037 0.11926906555891037 0.11926906555891037
0.12836292386054993 0.12836292386054993 0.12836292386054993
0.14089506864547729 0.14089506864547729 0.14089506864547729
0.15618927776813507 0.15618927776813507 0.15618927776813507
0.17430654168128967 0.17430654168128967 0.17430654168128967
0.19626757502555847 0.19626757502555847 0.19626757502555847
0.224175825715065 0.224175825715065 0.224175825715065
0.2605762779712677 0.2605762779712677 0.2605762779712677
0.30619156360626221 0.30619156360626221 0.30619156360626221
0.35700821876525879 0.35700821876525879 0.35700821876525879
0.17667551338672638 0.17667551338672638 0.17667551338672638
0.1736816018819809 0.1736816018819809 0.1736816018819809
0.17317968606948853 0.17317968606948853 0.17317968606948853
0.17658178508281708 0.17658178508281708 0.17658178508281708
0.18668302893638611 0.18668302893638611 0.18668302893638611
0.20214244723320007 0.20214244723320007 0.20214244723320007
0.21920943260192871 0.21920943260192871 0.21920943260192871
0.23831158876419067 0.23831158876419067 0.23831158876419067
0.26143863797187805 0.26143863797187805 0.26143863797187805
0.29072666168212891 0.29072666168212891 0.29072666168212891
0.32776385545730591 0.32776385545730591 0.32776385545730591
0.37099620699882507 0.37099620699882507 0.37099620699882507
0.41719689965248108 0.41719689965248108 0.41719689965248108
0.25268155336380005 0.25268155336380005 0.25268155336380005
0.24823591113090515 0.24823591113090515 0.24823591113090515
0.24558945000171661 0.24558945000171661 0.24558945000171661
0.24669502675533295 0.24669502675533295 0.24669502675533295
0.25767984986305237 0.25767984986305237 0.25767984986305237
0.27578532695770264 0.27578532695770264 0.27578532695770264
0.2941230833530426 0.2941230833530426 0.2941230833530426
0.31360721588134766 0.31360721588134766 0.31360721588134766
0.33613938093185425 0.33613938093185425 0.33613938093185425
0.36474961042404175 0.36474961042404175 0.36474961042404175
0.39913436770439148 0.39913436770439148 0.39913436770439148
0.43783089518547058 0.43783089518547058 0.43783089518547058
0.47779378294944763 0.47779378294944763 0.47779378294944763
0.33977046608924866 0.33977046608924866 0.33977046608924866
0.3358670175075531 0.3358670175075531 0.3358670175075531
0.33440837264060974 0.33440837264060974 0.33440837264060974
0.33636289834976196 0.33636289834976196 0.33636289834976196
0.34760394692420959 0.34760394692420959 0.34760394692420959
0.36369115114212036 0.36369115114212036 0.36369115114212036
0.38035488128662109 0.38035488128662109 0.38035488128662109
0.39765331149101257 0.39765331149101257 0.39765331149101257
0.41887414455413818 0.41887414455413818 0.41887414455413818
0.44426646828651428 0.44426646828651428 0.44426646828651428
0.47371065616607666 0.47371065616607666 0.47371065616607666
0.50577652454376221 0.50577652454376221 0.50577652454376221
0.53873473405838013 0.53873473405838013 0.53873473405838013
0.4343019425868988 0.4343019425868988 0.4343019425868988
0.43245208263397217 0.43245208263397217 0.43245208263397217
0.43377536535263062 0.43377536535263062 0.43377536535263062
0.44013839960098267 0.44013839960098267 0.44013839960098267
0.45126029849052429 0.45126029849052429 0.45126029849052429
0.46231293678283691 0.46231293678283691 0.46231293678283691
0.47333583235740662 0.47333583235740662 0.47333583235740662
0.48699867725372314 0.48699867725372314 0.48699867725372314
0.50469011068344116 0.50469011068344116 0.50469011068344116
0.52531242370605469 0.52531242370605469 0.52531242370605469
0.54797112941741943 0.54797112941741943 0.54797112941741943
0.57297784090042114 0.57297784090042114 0.57297784090042114
0.59887868165969849 0.59887868165969849 0.59887868165969849
0.53108274936676025 0.53108274936676025 0.53108274936676025
0.53069460391998291 0.53069460391998291 0.53069460391998291
0.53281569480895996 0.53281569480895996 0.53281569480895996
0.54045408964157104 0.54045408964157104 0.54045408964157104
0.55112314224243164 0.55112314224243164 0.55112314224243164
0.55722540616989136 0.55722540616989136 0.55722540616989136
0.56347620487213135 0.56347620487213135 0.56347620487213135
0.57355213165283203 0.57355213165283203 0.57355213165283203
0.58762276172637939 0.58762276172637939 0.58762276172637939
0.60283142328262329 0.60283142328262329 0.60283142328262329
0.61912262439727783 0.61912262439727783 0.61912262439727783
0.63718855381011963 0.63718855381011963 0.63718855381011963
0.65702062845230103 0.65702062845230103 0.65702062845230103
0.62381851673126221 0.62381851673126221 0.62381851673126221
0.62233096361160278 0.62233096361160278 0.62233096361160278
0.62282717227935791 0.62282717227935791 0.62282717227935791
0.62637507915496826 0.62637507915496826 0.62637507915496826
0.63223028182983398 0.63223028182983398 0.63223028182983398
0.63732922077178955 0.63732922077178955 0.63732922077178955
0.64310818910598755 0.64310818910598755 0.64310818910598755
0.65144473314285278 0.65144473314285278 0.65144473314285278
0.66219055652618408 0.66219055652618408 0.66219055652618408
0.6733630895614624 0.6733630895614624 0.6733630895614624
0.68424081802368164 0.68424081802368164 0.68424081802368164
0.69695401191711426 0.69695401191711426 0.69695401191711426
0.71216779947280884 0.71216779947280884 0.71216779947280884
0.7069016695022583 0.7069016695022583 0.7069016695022583
0.70454961061477661 0.70454961061477661 0.70454961061477661
0.70211875438690186 0.70211875438690186 0.70211875438690186
0.7011837363243103 0.7011837363243103 0.7011837363243103
0.70234423875808716 0.70234423875808716 0.70234423875808716
0.70689201354980469 0.70689201354980469 0.70689201354980469
0.71325439214706421 0.71325439214706421 0.71325439214706421
0.72036385536193848 0.72036385536193848 0.72036385536193848
0.72813349962234497 0.72813349962234497 0.72813349962234497
0.73613268136978149 0.73613268136978149 0.73613268136978149
0.74389392137527466 0.74389392137527466 0.74389392137527466
0.75338339805603027 0.75338339805603027 0.75338339805603027
0.76534938812255859 0.76534938812255859 0.76534938812255859
0.78006112575531006 0.78006112575531006 0.78006112575531006
0.77707600593566895 0.77707600593566895 0.77707600593566895
0.77336615324020386 0.77336615324020386 0.77336615324020386
0.77059924602508545 0.77059924602508545 0.77059924602508545
0.77039128541946411 0.77039128541946411 0.77039128541946411
0.77342510223388672 0.77342510223388672 0.77342510223388672
0.77828657627105713 0.77828657627105713 0.77828657627105713
0.78366553783416748 0.78366553783416748 0.78366553783416748
0.78913241624832153 0.78913241624832153 0.78913241624832153
0.79474407434463501 0.79474407434463501 0.79474407434463501
0.80050927400588989 0.80050927400588989 0.80050927400588989
0.80761057138442993 0.80761057138442993 0.80761057138442993
0.81725478172302246 0.81725478172302246 0.81725478172302246
0.84575027227401733 0.84575027227401733 0.84575027227401733
0.84255075454711914 0.84255075454711914 0.84255075454711914
0.83893001079559326 0.83893001079559326 0.83893001079559326
0.83635431528091431 0.83635431528091431 0.83635431528091431
0.83607697486877441 0.83607697486877441 0.83607697486877441
0.83764797449111938 0.83764797449111938 0.83764797449111938
0.84054452180862427 0.84054452180862427 0.84054452180862427
0.84395349025726318 0.84395349025726318 0.84395349025726318
0.84753751754760742 0.84753751754760742 0.84753751754760742
0.85133254528045654 0.85133254528045654 0.85133254528045654
0.85546094179153442 0.85546094179153442 0.85546094179153442
0.8608250617980957 0.8608250617980957 0.8608250617980957
0.86894053220748901 0.86894053220748901 0.86894053220748901
0.90714418888092041 0.90714418888092041 0.90714418888092041
0.90380281209945679 0.90380281209945679 0.90380281209945679
0.90038150548934937 0.90038150548934937 0.90038150548934937
0.89852559566497803 0.89852559566497803 0.89852559566497803
0.89852786064147949 0.89852786064147949 0.89852786064147949
0.89957058429718018 0.89957058429718018 0.89957058429718018
0.900615394115448 0.900615394115448 0.900615394115448
0.90261387825012207 0.90261387825012207 0.90261387825012207
0.9046475887298584 0.9046475887298584 0.9046475887298584
0.9070778489112854 0.9070778489112854 0.9070778489112854
0.91008418798446655 0.91008418798446655 0.91008418798446655
0.91438388824462891 0.91438388824462891 0.91438388824462891
0.92125034332275391 0.92125034332275391 0.92125034332275391
0.020379174500703812 0.020379174500703812 0.020379174500703812
0.024036630988121033 0.024036630988121033 0.024036630988121033
0.029131706804037094 0.029131706804037094 0.029131706804037094
0.03558126837015152 0.03558126837015152 0.03558126837015152
0.043776180595159531 0.043776180595159531 0.043776180595159531
0.053403429687023163 0.053403429687023163 0.053403429687023163
0.065990060567855835 0.065990060567855835 0.065990060567855835
0.08300674706697464 0.08300674706697464 0.08300674706697464
0.10352977365255356 0.10352977365255356 0.10352977365255356
0.12825316190719604 0.12825316190719604 0.12825316190719604
0.16158397495746613 0.16158397495746613 0.16158397495746613
0.20765681564807892 0.20765681564807892 0.20765681564807892
0.26170599460601807 0.26170599460601807 0.26170599460601807
0.066495589911937714 0.066495589911937714 0.066495589911937714
0.068765275180339813 0.068765275180339813 0.068765275180339813
0.073251642286777496 0.073251642286777496 0.073251642286777496
0.080143436789512634 0.080143436789512634 0.080143436789512634
0.08948015421628952 0.08948015421628952 0.08948015421628952
0.10121835768222809 0.10121835768222809 0.10121835768222809
0.11596676707267761 0.11596676707267761 0.11596676707267761
0.13432742655277252 0.13432742655277252 0.13432742655277252
0.15634964406490326 0.15634964406490326 0.15634964406490326
0.1834418773651123 0.1834418773651123 0.1834418773651123
0.21969731152057648 0.21969731152057648 0.21969731152057648
0.26687890291213989 0.26687890291213989 0.26687890291213989
0.32158374786376953 0.32158374786376953 0.32158374786376953
0.11898227781057358 0.11898227781057358 0.11898227781057358
0.11978272348642349 0.11978272348642349 0.11978272348642349
0.12332793325185776 0.12332793325185776 0.12332793325185776
0.13002327084541321 0.13002327084541321 0.13002327084541321
0.14050672948360443 0.14050672948360443 0.14050672948360443
0.15466426312923431 0.15466426312923431 0.15466426312923431
0.17149727046489716 0.17149727046489716 0.17149727046489716
0.19122067093849182 0.19122067093849182 0.19122067093849182
0.21494181454181671 0.21494181454181671 0.21494181454181671
0.244436115026474 0.244436115026474 0.244436115026474
0.2818208634853363 0.2818208634853363 0.2818208634853363
0.32779288291931152 0.32779288291931152 0.32779288291931152
0.3785170316696167 0.3785170316696167 0.3785170316696167
0.18404494225978851 0.18404494225978851 0.18404494225978851
0.18271574378013611 0.18271574378013611 0.18271574378013611
0.18435975909233093 0.18435975909233093 0.18435975909233093
0.1898663192987442 0.1898663192987442 0.1898663192987442
0.20143276453018188 0.20143276453018188 0.20143276453018188
0.2177392989397049 0.2177392989397049 0.2177392989397049
0.23629987239837646 0.23629987239837646 0.23629987239837646
0.25705346465110779 0.25705346465110779 0.25705346465110779
0.28157880902290344 0.28157880902290344 0.28157880902290344
0.31177550554275513 0.31177550554275513 0.31177550554275513
0.34858974814414978 0.34858974814414978 0.34858974814414978
0.39146363735198975 0.39146363735198975 0.39146363735198975
0.43691295385360718 0.43691295385360718 0.43691295385360718
0.26297655701637268 0.26297655701637268 0.26297655701637268
0.25991803407669067 0.25991803407669067 0.25991803407669067
0.25962039828300476 0.25962039828300476 0.25962039828300476
0.26357159018516541 0.26357159018516541 0.26357159018516541
0.27581870555877686 0.27581870555877686 0.27581870555877686
0.29323455691337585 0.29323455691337585 0.29323455691337585
0.3123200535774231 0.3123200535774231 0.3123200535774231
