luts/bw/kodak_t-max_400.cube
# Created by: G'MIC (https://gmic.eu)
TITLE "kodak_t-max_400"
# LUT size
LUT_3D_SIZE 13
# Data domain
DOMAIN_MIN 0.0 0.0 0.0
DOMAIN_MAX 1.0 1.0 1.0
# LUT data points
0.013094658963382244 0.013094658963382244 0.013094658963382244
0.010590796358883381 0.010590796358883381 0.010590796358883381
0.009317765012383461 0.009317765012383461 0.009317765012383461
0.0094046946614980698 0.0094046946614980698 0.0094046946614980698
0.010964187793433666 0.010964187793433666 0.010964187793433666
0.014107394032180309 0.014107394032180309 0.014107394032180309
0.015441176481544971 0.015441176481544971 0.015441176481544971
0.014933986589312553 0.014933986589312553 0.014933986589312553
0.013312066905200481 0.013312066905200481 0.013312066905200481
0.012370419688522816 0.012370419688522816 0.012370419688522816
0.012178832665085793 0.012178832665085793 0.012178832665085793
0.012426847591996193 0.012426847591996193 0.012426847591996193
0.014745151624083519 0.014745151624083519 0.014745151624083519
0.047447159886360168 0.047447159886360168 0.047447159886360168
0.048006020486354828 0.048006020486354828 0.048006020486354828
0.048684768378734589 0.048684768378734589 0.048684768378734589
0.048957616090774536 0.048957616090774536 0.048957616090774536
0.049634777009487152 0.049634777009487152 0.049634777009487152
0.051793940365314484 0.051793940365314484 0.051793940365314484
0.054865144193172455 0.054865144193172455 0.054865144193172455
0.056914117187261581 0.056914117187261581 0.056914117187261581
0.057540249079465866 0.057540249079465866 0.057540249079465866
0.056601282209157944 0.056601282209157944 0.056601282209157944
0.054470706731081009 0.054470706731081009 0.054470706731081009
0.051969759166240692 0.051969759166240692 0.051969759166240692
0.050655979663133621 0.050655979663133621 0.050655979663133621
0.09295547753572464 0.09295547753572464 0.09295547753572464
0.095839604735374451 0.095839604735374451 0.095839604735374451
0.098415255546569824 0.098415255546569824 0.098415255546569824
0.098434582352638245 0.098434582352638245 0.098434582352638245
0.096679896116256714 0.096679896116256714 0.096679896116256714
0.096281789243221283 0.096281789243221283 0.096281789243221283
0.10085001587867737 0.10085001587867737 0.10085001587867737
0.10650184750556946 0.10650184750556946 0.10650184750556946
0.10937948524951935 0.10937948524951935 0.10937948524951935
0.1088285893201828 0.1088285893201828 0.1088285893201828
0.10477432608604431 0.10477432608604431 0.10477432608604431
0.098291821777820587 0.098291821777820587 0.098291821777820587
0.092229388654232025 0.092229388654232025 0.092229388654232025
0.15803875029087067 0.15803875029087067 0.15803875029087067
0.16007848083972931 0.16007848083972931 0.16007848083972931
0.16224667429924011 0.16224667429924011 0.16224667429924011
0.16170498728752136 0.16170498728752136 0.16170498728752136
0.15870019793510437 0.15870019793510437 0.15870019793510437
0.15729857981204987 0.15729857981204987 0.15729857981204987
0.16186599433422089 0.16186599433422089 0.16186599433422089
0.1686374694108963 0.1686374694108963 0.1686374694108963
0.17263072729110718 0.17263072729110718 0.17263072729110718
0.17210914194583893 0.17210914194583893 0.17210914194583893
0.16692847013473511 0.16692847013473511 0.16692847013473511
0.15833878517150879 0.15833878517150879 0.15833878517150879
0.15009213984012604 0.15009213984012604 0.15009213984012604
0.23634083569049835 0.23634083569049835 0.23634083569049835
0.2382151186466217 0.2382151186466217 0.2382151186466217
0.24027626216411591 0.24027626216411591 0.24027626216411591
0.23980355262756348 0.23980355262756348 0.23980355262756348
0.23744502663612366 0.23744502663612366 0.23744502663612366
0.23635172843933105 0.23635172843933105 0.23635172843933105
0.2394239753484726 0.2394239753484726 0.2394239753484726
0.24461372196674347 0.24461372196674347 0.24461372196674347
0.24814851582050323 0.24814851582050323 0.24814851582050323
0.24780175089836121 0.24780175089836121 0.24780175089836121
0.24275283515453339 0.24275283515453339 0.24275283515453339
0.23445835709571838 0.23445835709571838 0.23445835709571838
0.22655534744262695 0.22655534744262695 0.22655534744262695
0.32180145382881165 0.32180145382881165 0.32180145382881165
0.32543230056762695 0.32543230056762695 0.32543230056762695
0.32857391238212585 0.32857391238212585 0.32857391238212585
0.32888922095298767 0.32888922095298767 0.32888922095298767
0.32700937986373901 0.32700937986373901 0.32700937986373901
0.32595279812812805 0.32595279812812805 0.32595279812812805
0.32747682929039001 0.32747682929039001 0.32747682929039001
0.33096164464950562 0.33096164464950562 0.33096164464950562
0.33398881554603577 0.33398881554603577 0.33398881554603577
0.33402213454246521 0.33402213454246521 0.33402213454246521
0.32957583665847778 0.32957583665847778 0.32957583665847778
0.321756511926651 0.321756511926651 0.321756511926651
0.31371518969535828 0.31371518969535828 0.31371518969535828
0.41009443998336792 0.41009443998336792 0.41009443998336792
0.41649049520492554 0.41649049520492554 0.41649049520492554
0.42165172100067139 0.42165172100067139 0.42165172100067139
0.42276439070701599 0.42276439070701599 0.42276439070701599
0.42089623212814331 0.42089623212814331 0.42089623212814331
0.41933691501617432 0.41933691501617432 0.41933691501617432
0.41988030076026917 0.41988030076026917 0.41988030076026917
0.42237859964370728 0.42237859964370728 0.42237859964370728
0.42521050572395325 0.42521050572395325 0.42521050572395325
0.42615824937820435 0.42615824937820435 0.42615824937820435
0.42253890633583069 0.42253890633583069 0.42253890633583069
0.41406309604644775 0.41406309604644775 0.41406309604644775
0.40503606200218201 0.40503606200218201 0.40503606200218201
0.49707624316215515 0.49707624316215515 0.49707624316215515
0.50579601526260376 0.50579601526260376 0.50579601526260376
0.51286166906356812 0.51286166906356812 0.51286166906356812
0.51485294103622437 0.51485294103622437 0.51485294103622437
0.51306521892547607 0.51306521892547607 0.51306521892547607
0.51150703430175781 0.51150703430175781 0.51150703430175781
0.5117030143737793 0.5117030143737793 0.5117030143737793
0.51372694969177246 0.51372694969177246 0.51372694969177246
0.51639682054519653 0.51639682054519653 0.51639682054519653
0.51777410507202148 0.51777410507202148 0.51777410507202148
0.5147174596786499 0.5147174596786499 0.5147174596786499
0.50570428371429443 0.50570428371429443 0.50570428371429443
0.49601930379867554 0.49601930379867554 0.49601930379867554
0.58024615049362183 0.58024615049362183 0.58024615049362183
0.58937919139862061 0.58937919139862061 0.58937919139862061
0.59681451320648193 0.59681451320648193 0.59681451320648193
0.60005718469619751 0.60005718469619751 0.60005718469619751
0.60004180669784546 0.60004180669784546 0.60004180669784546
0.59943085908889771 0.59943085908889771 0.59943085908889771
0.59987962245941162 0.59987962245941162 0.59987962245941162
0.60152393579483032 0.60152393579483032 0.60152393579483032
0.60348999500274658 0.60348999500274658 0.60348999500274658
0.60412770509719849 0.60412770509719849 0.60412770509719849
0.6010933518409729 0.6010933518409729 0.6010933518409729
0.59334838390350342 0.59334838390350342 0.59334838390350342
0.58397334814071655 0.58397334814071655 0.58397334814071655
0.65926754474639893 0.65926754474639893 0.65926754474639893
0.66784572601318359 0.66784572601318359 0.66784572601318359
0.67503547668457031 0.67503547668457031 0.67503547668457031
0.67940276861190796 0.67940276861190796 0.67940276861190796
0.68115466833114624 0.68115466833114624 0.68115466833114624
0.68202590942382812 0.68202590942382812 0.68202590942382812
0.68312293291091919 0.68312293291091919 0.68312293291091919
0.68450289964675903 0.68450289964675903 0.68450289964675903
0.68581587076187134 0.68581587076187134 0.68581587076187134
0.6856415867805481 0.6856415867805481 0.6856415867805481
0.68262499570846558 0.68262499570846558 0.68262499570846558
0.67645758390426636 0.67645758390426636 0.67645758390426636
0.66845130920410156 0.66845130920410156 0.66845130920410156
0.73411518335342407 0.73411518335342407 0.73411518335342407
0.74238938093185425 0.74238938093185425 0.74238938093185425
0.74943399429321289 0.74943399429321289 0.74943399429321289
0.75440526008605957 0.75440526008605957 0.75440526008605957
0.75759673118591309 0.75759673118591309 0.75759673118591309
0.75969535112380981 0.75969535112380981 0.75969535112380981
0.76151973009109497 0.76151973009109497 0.76151973009109497
0.76276814937591553 0.76276814937591553 0.76276814937591553
0.76380866765975952 0.76380866765975952 0.76380866765975952
0.76327019929885864 0.76327019929885864 0.76327019929885864
0.7608335018157959 0.7608335018157959 0.7608335018157959
0.75575143098831177 0.75575143098831177 0.75575143098831177
0.74906563758850098 0.74906563758850098 0.74906563758850098
0.80618369579315186 0.80618369579315186 0.80618369579315186
0.81408435106277466 0.81408435106277466 0.81408435106277466
0.82086038589477539 0.82086038589477539 0.82086038589477539
0.82637351751327515 0.82637351751327515 0.82637351751327515
0.83027410507202148 0.83027410507202148 0.83027410507202148
0.83330768346786499 0.83330768346786499 0.83330768346786499
0.83562755584716797 0.83562755584716797 0.83562755584716797
0.83731138706207275 0.83731138706207275 0.83731138706207275
0.83797317743301392 0.83797317743301392 0.83797317743301392
0.83774840831756592 0.83774840831756592 0.83774840831756592
0.83574444055557251 0.83574444055557251 0.83574444055557251
0.83199781179428101 0.83199781179428101 0.83199781179428101
0.82635766267776489 0.82635766267776489 0.82635766267776489
0.87592566013336182 0.87592566013336182 0.87592566013336182
0.88334947824478149 0.88334947824478149 0.88334947824478149
0.89004397392272949 0.89004397392272949 0.89004397392272949
0.89557433128356934 0.89557433128356934 0.89557433128356934
0.90012443065643311 0.90012443065643311 0.90012443065643311
0.90366601943969727 0.90366601943969727 0.90366601943969727
0.90637630224227905 0.90637630224227905 0.90637630224227905
0.90832149982452393 0.90832149982452393 0.90832149982452393
0.90942186117172241 0.90942186117172241 0.90942186117172241
0.90931624174118042 0.90931624174118042 0.90931624174118042
0.907967209815979 0.907967209815979 0.907967209815979
0.90503901243209839 0.90503901243209839 0.90503901243209839
0.90072846412658691 0.90072846412658691 0.90072846412658691
0.016143186017870903 0.016143186017870903 0.016143186017870903
0.014271365478634834 0.014271365478634834 0.014271365478634834
0.013332531787455082 0.013332531787455082 0.013332531787455082
0.013392055407166481 0.013392055407166481 0.013392055407166481
0.014536434784531593 0.014536434784531593 0.014536434784531593
0.016314607113599777 0.016314607113599777 0.016314607113599777
0.017345234751701355 0.017345234751701355 0.017345234751701355
0.016895249485969543 0.016895249485969543 0.016895249485969543
0.015768447890877724 0.015768447890877724 0.015768447890877724
0.014562898315489292 0.014562898315489292 0.014562898315489292
0.014093855395913124 0.014093855395913124 0.014093855395913124
0.014303797855973244 0.014303797855973244 0.014303797855973244
0.015543859452009201 0.015543859452009201 0.015543859452009201
0.057437539100646973 0.057437539100646973 0.057437539100646973
0.05658307671546936 0.05658307671546936 0.05658307671546936
0.056654326617717743 0.056654326617717743 0.056654326617717743
0.056801337748765945 0.056801337748765945 0.056801337748765945
0.057502329349517822 0.057502329349517822 0.057502329349517822
0.059104140847921371 0.059104140847921371 0.059104140847921371
0.061314214020967484 0.061314214020967484 0.061314214020967484
0.062733970582485199 0.062733970582485199 0.062733970582485199
0.063069365918636322 0.063069365918636322 0.063069365918636322
0.061874181032180786 0.061874181032180786 0.061874181032180786
0.059997528791427612 0.059997528791427612 0.059997528791427612
0.057928137481212616 0.057928137481212616 0.057928137481212616
0.056833676993846893 0.056833676993846893 0.056833676993846893
0.10752132534980774 0.10752132534980774 0.10752132534980774
0.10820154100656509 0.10820154100656509 0.10820154100656509
0.10927345603704453 0.10927345603704453 0.10927345603704453
0.10926618427038193 0.10926618427038193 0.10926618427038193
0.1083744540810585 0.1083744540810585 0.1083744540810585
0.10859186202287674 0.10859186202287674 0.10859186202287674
0.11173616349697113 0.11173616349697113 0.11173616349697113
0.1154450923204422 0.1154450923204422 0.1154450923204422
0.11769576370716095 0.11769576370716095 0.11769576370716095
0.11673461645841599 0.11673461645841599 0.11673461645841599
0.11333242803812027 0.11333242803812027 0.11333242803812027
0.1085490807890892 0.1085490807890892 0.1085490807890892
0.10472187399864197 0.10472187399864197 0.10472187399864197
0.17295102775096893 0.17295102775096893 0.17295102775096893
0.17341089248657227 0.17341089248657227 0.17341089248657227
0.17442798614501953 0.17442798614501953 0.17442798614501953
0.17404437065124512 0.17404437065124512 0.17404437065124512
0.17245139181613922 0.17245139181613922 0.17245139181613922
0.17202550172805786 0.17202550172805786 0.17202550172805786
0.17493219673633575 0.17493219673633575 0.17493219673633575
0.17961820960044861 0.17961820960044861 0.17961820960044861
0.18274496495723724 0.18274496495723724 0.18274496495723724
0.1821170300245285 0.1821170300245285 0.1821170300245285
0.17796778678894043 0.17796778678894043 0.17796778678894043
0.17130352556705475 0.17130352556705475 0.17130352556705475
0.16561888158321381 0.16561888158321381 0.16561888158321381
0.25007891654968262 0.25007891654968262 0.25007891654968262
0.25116068124771118 0.25116068124771118 0.25116068124771118
0.25238946080207825 0.25238946080207825 0.25238946080207825
0.25201249122619629 0.25201249122619629 0.25201249122619629
0.25044378638267517 0.25044378638267517 0.25044378638267517
0.25000894069671631 0.25000894069671631 0.25000894069671631
0.25223487615585327 0.25223487615585327 0.25223487615585327
0.25611183047294617 0.25611183047294617 0.25611183047294617
0.25916066765785217 0.25916066765785217 0.25916066765785217
0.25872617959976196 0.25872617959976196 0.25872617959976196
0.25440651178359985 0.25440651178359985 0.25440651178359985
0.24763895571231842 0.24763895571231842 0.24763895571231842
0.24143819510936737 0.24143819510936737 0.24143819510936737
0.3342420756816864 0.3342420756816864 0.3342420756816864
0.33714359998703003 0.33714359998703003 0.33714359998703003
0.33941483497619629 0.33941483497619629 0.33941483497619629
0.33962127566337585 0.33962127566337585 0.33962127566337585
0.33826875686645508 0.33826875686645508 0.33826875686645508
0.33756551146507263 0.33756551146507263 0.33756551146507263
0.33899369835853577 0.33899369835853577 0.33899369835853577
0.34194853901863098 0.34194853901863098 0.34194853901863098
0.34447118639945984 0.34447118639945984 0.34447118639945984
0.34455028176307678 0.34455028176307678 0.34455028176307678
0.34079119563102722 0.34079119563102722 0.34079119563102722
0.33404639363288879 0.33404639363288879 0.33404639363288879
0.32714006304740906 0.32714006304740906 0.32714006304740906
0.42121988534927368 0.42121988534927368 0.42121988534927368
0.42629364132881165 0.42629364132881165 0.42629364132881165
0.43031963706016541 0.43031963706016541 0.43031963706016541
0.43132072687149048 0.43132072687149048 0.43132072687149048
0.43024948239326477 0.43024948239326477 0.43024948239326477
0.42926904559135437 0.42926904559135437 0.42926904559135437
0.42996615171432495 0.42996615171432495 0.42996615171432495
0.43223690986633301 0.43223690986633301 0.43223690986633301
0.43468379974365234 0.43468379974365234 0.43468379974365234
0.43529781699180603 0.43529781699180603 0.43529781699180603
0.43198361992835999 0.43198361992835999 0.43198361992835999
0.42499217391014099 0.42499217391014099 0.42499217391014099
0.41708660125732422 0.41708660125732422 0.41708660125732422
0.50698214769363403 0.50698214769363403 0.50698214769363403
0.51415330171585083 0.51415330171585083 0.51415330171585083
0.51954001188278198 0.51954001188278198 0.51954001188278198
0.52167010307312012 0.52167010307312012 0.52167010307312012
0.52090567350387573 0.52090567350387573 0.52090567350387573
0.52007240056991577 0.52007240056991577 0.52007240056991577
0.52053046226501465 0.52053046226501465 0.52053046226501465
0.52239668369293213 0.52239668369293213 0.52239668369293213
0.52477610111236572 0.52477610111236572 0.52477610111236572
0.52566760778427124 0.52566760778427124 0.52566760778427124
0.52276939153671265 0.52276939153671265 0.52276939153671265
0.5154610276222229 0.5154610276222229 0.5154610276222229
0.50692230463027954 0.50692230463027954 0.50692230463027954
0.58935290575027466 0.58935290575027466 0.58935290575027466
0.59721279144287109 0.59721279144287109 0.59721279144287109
0.60338151454925537 0.60338151454925537 0.60338151454925537
0.60637223720550537 0.60637223720550537 0.60637223720550537
0.60692793130874634 0.60692793130874634 0.60692793130874634
0.60692292451858521 0.60692292451858521 0.60692292451858521
0.60766315460205078 0.60766315460205078 0.60766315460205078
0.60922038555145264 0.60922038555145264 0.60922038555145264
0.61111283302307129 0.61111283302307129 0.61111283302307129
0.6117246150970459 0.6117246150970459 0.6117246150970459
0.60887390375137329 0.60887390375137329 0.60887390375137329
0.60211694240570068 0.60211694240570068 0.60211694240570068
0.59409278631210327 0.59409278631210327 0.59409278631210327
0.66729450225830078 0.66729450225830078 0.66729450225830078
0.67524731159210205 0.67524731159210205 0.67524731159210205
0.68167436122894287 0.68167436122894287 0.68167436122894287
0.68555492162704468 0.68555492162704468 0.68555492162704468
0.6878851056098938 0.6878851056098938 0.6878851056098938
0.68871802091598511 0.68871802091598511 0.68871802091598511
0.68993169069290161 0.68993169069290161 0.68993169069290161
0.69153577089309692 0.69153577089309692 0.69153577089309692
0.69259935617446899 0.69259935617446899 0.69259935617446899
0.69253790378570557 0.69253790378570557 0.69253790378570557
0.68998301029205322 0.68998301029205322 0.68998301029205322
0.68443042039871216 0.68443042039871216 0.68443042039871216
0.67708170413970947 0.67708170413970947 0.67708170413970947
0.7416347861289978 0.7416347861289978 0.7416347861289978
0.74927014112472534 0.74927014112472534 0.74927014112472534
0.75573182106018066 0.75573182106018066 0.75573182106018066
0.76042026281356812 0.76042026281356812 0.76042026281356812
0.76353359222412109 0.76353359222412109 0.76353359222412109
0.76565808057785034 0.76565808057785034 0.76565808057785034
0.76740169525146484 0.76740169525146484 0.76740169525146484
0.76906102895736694 0.76906102895736694 0.76906102895736694
0.76987183094024658 0.76987183094024658 0.76987183094024658
0.76959002017974854 0.76959002017974854 0.76959002017974854
0.76733982563018799 0.76733982563018799 0.76733982563018799
0.7629929780960083 0.7629929780960083 0.7629929780960083
0.75673794746398926 0.75673794746398926 0.75673794746398926
0.81288015842437744 0.81288015842437744 0.81288015842437744
0.82028299570083618 0.82028299570083618 0.82028299570083618
0.82659196853637695 0.82659196853637695 0.82659196853637695
0.83167606592178345 0.83167606592178345 0.83167606592178345
0.8355327844619751 0.8355327844619751 0.8355327844619751
0.83841925859451294 0.83841925859451294 0.83841925859451294
0.84076416492462158 0.84076416492462158 0.84076416492462158
0.84251159429550171 0.84251159429550171 0.84251159429550171
0.84349918365478516 0.84349918365478516 0.84349918365478516
0.84320056438446045 0.84320056438446045 0.84320056438446045
0.84145140647888184 0.84145140647888184 0.84145140647888184
0.83786821365356445 0.83786821365356445 0.83786821365356445
0.83269375562667847 0.83269375562667847 0.83269375562667847
0.88185632228851318 0.88185632228851318 0.88185632228851318
0.88873577117919922 0.88873577117919922 0.88873577117919922
0.89507460594177246 0.89507460594177246 0.89507460594177246
0.90042352676391602 0.90042352676391602 0.90042352676391602
0.90467780828475952 0.90467780828475952 0.90467780828475952
0.90811741352081299 0.90811741352081299 0.90811741352081299
0.91075640916824341 0.91075640916824341 0.91075640916824341
0.91269642114639282 0.91269642114639282 0.91269642114639282
0.91386038064956665 0.91386038064956665 0.91386038064956665
0.91388052701950073 0.91388052701950073 0.91388052701950073
0.9127277135848999 0.9127277135848999 0.9127277135848999
0.90989142656326294 0.90989142656326294 0.90989142656326294
0.90561836957931519 0.90561836957931519 0.90561836957931519
0.021957920864224434 0.021957920864224434 0.021957920864224434
0.020313054323196411 0.020313054323196411 0.020313054323196411
0.019791383296251297 0.019791383296251297 0.019791383296251297
0.019953947514295578 0.019953947514295578 0.019953947514295578
0.02043965645134449 0.02043965645134449 0.02043965645134449
0.021858857944607735 0.021858857944607735 0.021858857944607735
0.022100051864981651 0.022100051864981651 0.022100051864981651
0.021196851506829262 0.021196851506829262 0.021196851506829262
0.019736630842089653 0.019736630842089653 0.019736630842089653
0.018484991043806076 0.018484991043806076 0.018484991043806076
0.017555894330143929 0.017555894330143929 0.017555894330143929
0.017395034432411194 0.017395034432411194 0.017395034432411194
0.017783146351575851 0.017783146351575851 0.017783146351575851
0.070342123508453369 0.070342123508453369 0.070342123508453369
0.068941704928874969 0.068941704928874969 0.068941704928874969
0.068595051765441895 0.068595051765441895 0.068595051765441895
0.068738587200641632 0.068738587200641632 0.068738587200641632
0.069105260074138641 0.069105260074138641 0.069105260074138641
0.070024974644184113 0.070024974644184113 0.070024974644184113
0.071086809039115906 0.071086809039115906 0.071086809039115906
0.071689203381538391 0.071689203381538391 0.071689203381538391
0.071366250514984131 0.071366250514984131 0.071366250514984131
0.070134170353412628 0.070134170353412628 0.070134170353412628
0.068384416401386261 0.068384416401386261 0.068384416401386261
0.066847629845142365 0.066847629845142365 0.066847629845142365
0.066447645425796509 0.066447645425796509 0.066447645425796509
0.12639173865318298 0.12639173865318298 0.12639173865318298
0.12519240379333496 0.12519240379333496 0.12519240379333496
0.12498296052217484 0.12498296052217484 0.12498296052217484
0.12482232600450516 0.12482232600450516 0.12482232600450516
0.12460237741470337 0.12460237741470337 0.12460237741470337
0.12526731193065643 0.12526731193065643 0.12526731193065643
0.12674263119697571 0.12674263119697571 0.12674263119697571
0.12864474952220917 0.12864474952220917 0.12864474952220917
0.12953485548496246 0.12953485548496246 0.12953485548496246
0.12873895466327667 0.12873895466327667 0.12873895466327667
0.12625263631343842 0.12625263631343842 0.12625263631343842
0.12312693893909454 0.12312693893909454 0.12312693893909454
0.12118735164403915 0.12118735164403915 0.12118735164403915
0.19255164265632629 0.19255164265632629 0.19255164265632629
0.19218409061431885 0.19218409061431885 0.19218409061431885
0.19215686619281769 0.19215686619281769 0.19215686619281769
0.19211135804653168 0.19211135804653168 0.19211135804653168
0.1907239556312561 0.1907239556312561 0.1907239556312561
0.19085915386676788 0.19085915386676788 0.19085915386676788
0.19264434278011322 0.19264434278011322 0.19264434278011322
0.19521751999855042 0.19521751999855042 0.19521751999855042
0.19676727056503296 0.19676727056503296 0.19676727056503296
0.19636532664299011 0.19636532664299011 0.19636532664299011
0.19337177276611328 0.19337177276611328 0.19337177276611328
0.18913677334785461 0.18913677334785461 0.18913677334785461
0.18567413091659546 0.18567413091659546 0.18567413091659546
0.26840701699256897 0.26840701699256897 0.26840701699256897
0.26886337995529175 0.26886337995529175 0.26886337995529175
0.2691502571105957 0.2691502571105957 0.2691502571105957
0.26901119947433472 0.26901119947433472 0.26901119947433472
