luts/bw/kodak_hie_hs_infra.cube
# Created by: G'MIC (https://gmic.eu)
TITLE "kodak_hie_hs_infra"
# LUT size
LUT_3D_SIZE 5
# Data domain
DOMAIN_MIN 0.0 0.0 0.0
DOMAIN_MAX 1.0 1.0 1.0
# LUT data points
0.067384533584117889 0.067384533584117889 0.067384533584117889
0.23629684746265411 0.23629684746265411 0.23629684746265411
0.50582635402679443 0.50582635402679443 0.50582635402679443
0.7850458025932312 0.7850458025932312 0.7850458025932312
0.96557211875915527 0.96557211875915527 0.96557211875915527
0.24725551903247833 0.24725551903247833 0.24725551903247833
0.32897883653640747 0.32897883653640747 0.32897883653640747
0.53038173913955688 0.53038173913955688 0.53038173913955688
0.77788114547729492 0.77788114547729492 0.77788114547729492
0.96029859781265259 0.96029859781265259 0.96029859781265259
0.50048261880874634 0.50048261880874634 0.50048261880874634
0.51323032379150391 0.51323032379150391 0.51323032379150391
0.60494011640548706 0.60494011640548706 0.60494011640548706
0.7966616153717041 0.7966616153717041 0.7966616153717041
0.95782804489135742 0.95782804489135742 0.95782804489135742
0.91750544309616089 0.91750544309616089 0.91750544309616089
0.89736384153366089 0.89736384153366089 0.89736384153366089
0.76315999031066895 0.76315999031066895 0.76315999031066895
0.84435606002807617 0.84435606002807617 0.84435606002807617
0.96542882919311523 0.96542882919311523 0.96542882919311523
0.89193379878997803 0.89193379878997803 0.89193379878997803
0.98902988433837891 0.98902988433837891 0.98902988433837891
0.99674564599990845 0.99674564599990845 0.99674564599990845
0.96273773908615112 0.96273773908615112 0.96273773908615112
0.95347970724105835 0.95347970724105835 0.95347970724105835
0.029459321871399879 0.029459321871399879 0.029459321871399879
0.22988225519657135 0.22988225519657135 0.22988225519657135
0.53042310476303101 0.53042310476303101 0.53042310476303101
0.80759537220001221 0.80759537220001221 0.80759537220001221
0.98394250869750977 0.98394250869750977 0.98394250869750977
0.20965823531150818 0.20965823531150818 0.20965823531150818
0.31828734278678894 0.31828734278678894 0.31828734278678894
0.54618889093399048 0.54618889093399048 0.54618889093399048
0.79875683784484863 0.79875683784484863 0.79875683784484863
0.97603970766067505 0.97603970766067505 0.97603970766067505
0.4280838668346405 0.4280838668346405 0.4280838668346405
0.4797053337097168 0.4797053337097168 0.4797053337097168
0.60419833660125732 0.60419833660125732 0.60419833660125732
0.8111419677734375 0.8111419677734375 0.8111419677734375
0.96878880262374878 0.96878880262374878 0.96878880262374878
0.85702711343765259 0.85702711343765259 0.85702711343765259
0.79631173610687256 0.79631173610687256 0.79631173610687256
0.73567140102386475 0.73567140102386475 0.73567140102386475
0.84705054759979248 0.84705054759979248 0.84705054759979248
0.97573721408843994 0.97573721408843994 0.97573721408843994
0.9507327675819397 0.9507327675819397 0.9507327675819397
0.99549204111099243 0.99549204111099243 0.99549204111099243
0.99999654293060303 0.99999654293060303 0.99999654293060303
0.96239393949508667 0.96239393949508667 0.96239393949508667
0.98029690980911255 0.98029690980911255 0.98029690980911255
0.045903779566287994 0.045903779566287994 0.045903779566287994
0.29146558046340942 0.29146558046340942 0.29146558046340942
0.59417140483856201 0.59417140483856201 0.59417140483856201
0.84268069267272949 0.84268069267272949 0.84268069267272949
0.99010741710662842 0.99010741710662842 0.99010741710662842
0.20581594109535217 0.20581594109535217 0.20581594109535217
0.35881191492080688 0.35881191492080688 0.35881191492080688
0.60477209091186523 0.60477209091186523 0.60477209091186523
0.83614450693130493 0.83614450693130493 0.83614450693130493
0.98818337917327881 0.98818337917327881 0.98818337917327881
0.40494135022163391 0.40494135022163391 0.40494135022163391
0.48869863152503967 0.48869863152503967 0.48869863152503967
0.66169530153274536 0.66169530153274536 0.66169530153274536
0.84668022394180298 0.84668022394180298 0.84668022394180298
0.98371416330337524 0.98371416330337524 0.98371416330337524
0.66771185398101807 0.66771185398101807 0.66771185398101807
0.66571086645126343 0.66571086645126343 0.66571086645126343
0.74547660350799561 0.74547660350799561 0.74547660350799561
0.88147979974746704 0.88147979974746704 0.88147979974746704
0.99174147844314575 0.99174147844314575 0.99174147844314575
0.99666601419448853 0.99666601419448853 0.99666601419448853
0.99859523773193359 0.99859523773193359 0.99859523773193359
0.98805421590805054 0.98805421590805054 0.98805421590805054
0.9223751425743103 0.9223751425743103 0.9223751425743103
0.98777425289154053 0.98777425289154053 0.98777425289154053
0.12259380519390106 0.12259380519390106 0.12259380519390106
0.42445370554924011 0.42445370554924011 0.42445370554924011
0.66409522294998169 0.66409522294998169 0.66409522294998169
0.87172877788543701 0.87172877788543701 0.87172877788543701
0.99302679300308228 0.99302679300308228 0.99302679300308228
0.30117696523666382 0.30117696523666382 0.30117696523666382
0.47524893283843994 0.47524893283843994 0.47524893283843994
0.68865162134170532 0.68865162134170532 0.68865162134170532
0.88221460580825806 0.88221460580825806 0.88221460580825806
0.99626100063323975 0.99626100063323975 0.99626100063323975
0.48072275519371033 0.48072275519371033 0.48072275519371033
0.57461148500442505 0.57461148500442505 0.57461148500442505
0.73907613754272461 0.73907613754272461 0.73907613754272461
0.89377093315124512 0.89377093315124512 0.89377093315124512
0.99392610788345337 0.99392610788345337 0.99392610788345337
0.62546378374099731 0.62546378374099731 0.62546378374099731
0.688068687915802 0.688068687915802 0.688068687915802
0.80479282140731812 0.80479282140731812 0.80479282140731812
0.91496002674102783 0.91496002674102783 0.91496002674102783
0.99930137395858765 0.99930137395858765 0.99930137395858765
0.98025965690612793 0.98025965690612793 0.98025965690612793
0.95747578144073486 0.95747578144073486 0.95747578144073486
0.92016202211380005 0.92016202211380005 0.92016202211380005
0.92695659399032593 0.92695659399032593 0.92695659399032593
0.99066829681396484 0.99066829681396484 0.99066829681396484
0.37118583917617798 0.37118583917617798 0.37118583917617798
0.59510898590087891 0.59510898590087891 0.59510898590087891
0.75860816240310669 0.75860816240310669 0.75860816240310669
0.93102538585662842 0.93102538585662842 0.93102538585662842
0.99963051080703735 0.99963051080703735 0.99963051080703735
0.53490805625915527 0.53490805625915527 0.53490805625915527
0.64624249935150146 0.64624249935150146 0.64624249935150146
0.80041903257369995 0.80041903257369995 0.80041903257369995
0.95029568672180176 0.95029568672180176 0.95029568672180176
1 1 1
0.66544616222381592 0.66544616222381592 0.66544616222381592
0.72068160772323608 0.72068160772323608 0.72068160772323608
0.8359190821647644 0.8359190821647644 0.8359190821647644
0.95914173126220703 0.95914173126220703 0.95914173126220703
0.9993775486946106 0.9993775486946106 0.9993775486946106
0.77201539278030396 0.77201539278030396 0.77201539278030396
0.79978764057159424 0.79978764057159424 0.79978764057159424
0.87372595071792603 0.87372595071792603 0.87372595071792603
0.96483904123306274 0.96483904123306274 0.96483904123306274
1 1 1
0.84441369771957397 0.84441369771957397 0.84441369771957397
0.87088680267333984 0.87088680267333984 0.87088680267333984
0.9051135778427124 0.9051135778427124 0.9051135778427124
0.95877474546432495 0.95877474546432495 0.95877474546432495
0.99859839677810669 0.99859839677810669 0.99859839677810669
