luts/bw/kodak_bw_400_cn.cube
# Created by: G'MIC (https://gmic.eu)
TITLE "kodak_bw_400_cn"
# LUT size
LUT_3D_SIZE 7
# Data domain
DOMAIN_MIN 0.0 0.0 0.0
DOMAIN_MAX 1.0 1.0 1.0
# LUT data points
0.03259684145450592 0.03259684145450592 0.03259684145450592
0.055541377514600754 0.055541377514600754 0.055541377514600754
0.081796072423458099 0.081796072423458099 0.081796072423458099
0.11508177220821381 0.11508177220821381 0.11508177220821381
0.16584265232086182 0.16584265232086182 0.16584265232086182
0.24469126760959625 0.24469126760959625 0.24469126760959625
0.33642488718032837 0.33642488718032837 0.33642488718032837
0.13210371136665344 0.13210371136665344 0.13210371136665344
0.14843492209911346 0.14843492209911346 0.14843492209911346
0.16931328177452087 0.16931328177452087 0.16931328177452087
0.19839067757129669 0.19839067757129669 0.19839067757129669
0.2460770457983017 0.2460770457983017 0.2460770457983017
0.3168160617351532 0.3168160617351532 0.3168160617351532
0.39925608038902283 0.39925608038902283 0.39925608038902283
0.243726447224617 0.243726447224617 0.243726447224617
0.25453543663024902 0.25453543663024902 0.25453543663024902
0.2712017297744751 0.2712017297744751 0.2712017297744751
0.29623064398765564 0.29623064398765564 0.29623064398765564
0.33820149302482605 0.33820149302482605 0.33820149302482605
0.3980725109577179 0.3980725109577179 0.3980725109577179
0.46976539492607117 0.46976539492607117 0.46976539492607117
0.36923915147781372 0.36923915147781372 0.36923915147781372
0.37687438726425171 0.37687438726425171 0.37687438726425171
0.39025884866714478 0.39025884866714478 0.39025884866714478
0.41117396950721741 0.41117396950721741 0.41117396950721741
0.44457137584686279 0.44457137584686279 0.44457137584686279
0.49268501996994019 0.49268501996994019 0.49268501996994019
0.55249142646789551 0.55249142646789551 0.55249142646789551
0.5107606053352356 0.5107606053352356 0.5107606053352356
0.51522701978683472 0.51522701978683472 0.51522701978683472
0.52416443824768066 0.52416443824768066 0.52416443824768066
0.53923749923706055 0.53923749923706055 0.53923749923706055
0.56370896100997925 0.56370896100997925 0.56370896100997925
0.60015887022018433 0.60015887022018433 0.60015887022018433
0.64831370115280151 0.64831370115280151 0.64831370115280151
0.66511374711990356 0.66511374711990356 0.66511374711990356
0.66460734605789185 0.66460734605789185 0.66460734605789185
0.66657453775405884 0.66657453775405884 0.66657453775405884
0.67424964904785156 0.67424964904785156 0.67424964904785156
0.69016724824905396 0.69016724824905396 0.69016724824905396
0.71665275096893311 0.71665275096893311 0.71665275096893311
0.75517314672470093 0.75517314672470093 0.75517314672470093
0.82009804248809814 0.82009804248809814 0.82009804248809814
0.81460088491439819 0.81460088491439819 0.81460088491439819
0.81021451950073242 0.81021451950073242 0.81021451950073242
0.81155496835708618 0.81155496835708618 0.81155496835708618
0.8206106424331665 0.8206106424331665 0.8206106424331665
0.83948332071304321 0.83948332071304321 0.83948332071304321
0.87107843160629272 0.87107843160629272 0.87107843160629272
0.071077458560466766 0.071077458560466766 0.071077458560466766
0.094846956431865692 0.094846956431865692 0.094846956431865692
0.11705543845891953 0.11705543845891953 0.11705543845891953
0.14644560217857361 0.14644560217857361 0.14644560217857361
0.19775649905204773 0.19775649905204773 0.19775649905204773
0.2736683189868927 0.2736683189868927 0.2736683189868927
0.36250048875808716 0.36250048875808716 0.36250048875808716
0.16344174742698669 0.16344174742698669 0.16344174742698669
0.18005967140197754 0.18005967140197754 0.18005967140197754
0.19813334941864014 0.19813334941864014 0.19813334941864014
0.22403255105018616 0.22403255105018616 0.22403255105018616
0.26956596970558167 0.26956596970558167 0.26956596970558167
0.33824551105499268 0.33824551105499268 0.33824551105499268
0.42008039355278015 0.42008039355278015 0.42008039355278015
0.26663249731063843 0.26663249731063843 0.26663249731063843
0.27757519483566284 0.27757519483566284 0.27757519483566284
0.2928776741027832 0.2928776741027832 0.2928776741027832
0.31531509757041931 0.31531509757041931 0.31531509757041931
0.35485255718231201 0.35485255718231201 0.35485255718231201
0.41297891736030579 0.41297891736030579 0.41297891736030579
0.48385456204414368 0.48385456204414368 0.48385456204414368
0.38441529870033264 0.38441529870033264 0.38441529870033264
0.39331367611885071 0.39331367611885071 0.39331367611885071
0.40724217891693115 0.40724217891693115 0.40724217891693115
0.42702332139015198 0.42702332139015198 0.42702332139015198
0.45810660719871521 0.45810660719871521 0.45810660719871521
0.503398597240448 0.503398597240448 0.503398597240448
0.56199020147323608 0.56199020147323608 0.56199020147323608
0.51951366662979126 0.51951366662979126 0.51951366662979126
0.52678799629211426 0.52678799629211426 0.52678799629211426
0.53802073001861572 0.53802073001861572 0.53802073001861572
0.55321449041366577 0.55321449041366577 0.55321449041366577
0.57552474737167358 0.57552474737167358 0.57552474737167358
0.60863226652145386 0.60863226652145386 0.60863226652145386
0.65484648942947388 0.65484648942947388 0.65484648942947388
0.66977787017822266 0.66977787017822266 0.66977787017822266
0.67196035385131836 0.67196035385131836 0.67196035385131836
0.67714941501617432 0.67714941501617432 0.67714941501617432
0.68580293655395508 0.68580293655395508 0.68580293655395508
0.70003128051757812 0.70003128051757812 0.70003128051757812
0.72336536645889282 0.72336536645889282 0.72336536645889282
0.75932085514068604 0.75932085514068604 0.75932085514068604
0.8200373649597168 0.8200373649597168 0.8200373649597168
0.81803619861602783 0.81803619861602783 0.81803619861602783
0.81686890125274658 0.81686890125274658 0.81686890125274658
0.81924295425415039 0.81924295425415039 0.81924295425415039
0.82718700170516968 0.82718700170516968 0.82718700170516968
0.84376317262649536 0.84376317262649536 0.84376317262649536
0.87231326103210449 0.87231326103210449 0.87231326103210449
0.11232350766658783 0.11232350766658783 0.11232350766658783
0.13245421648025513 0.13245421648025513 0.13245421648025513
0.15343435108661652 0.15343435108661652 0.15343435108661652
0.18338951468467712 0.18338951468467712 0.18338951468467712
0.23385466635227203 0.23385466635227203 0.23385466635227203
0.30708116292953491 0.30708116292953491 0.30708116292953491
0.39384692907333374 0.39384692907333374 0.39384692907333374
0.19979645311832428 0.19979645311832428 0.19979645311832428
0.21423040330410004 0.21423040330410004 0.21423040330410004
0.23144704103469849 0.23144704103469849 0.23144704103469849
0.25728115439414978 0.25728115439414978 0.25728115439414978
0.30063769221305847 0.30063769221305847 0.30063769221305847
0.36562612652778625 0.36562612652778625 0.36562612652778625
0.44487401843070984 0.44487401843070984 0.44487401843070984
0.29774463176727295 0.29774463176727295 0.29774463176727295
0.30766671895980835 0.30766671895980835 0.30766671895980835
0.32292264699935913 0.32292264699935913 0.32292264699935913
0.34549766778945923 0.34549766778945923 0.34549766778945923
0.3809790313243866 0.3809790313243866 0.3809790313243866
0.43354314565658569 0.43354314565658569 0.43354314565658569
0.50237739086151123 0.50237739086151123 0.50237739086151123
0.41042646765708923 0.41042646765708923 0.41042646765708923
0.41922652721405029 0.41922652721405029 0.41922652721405029
0.43416982889175415 0.43416982889175415 0.43416982889175415
0.45381984114646912 0.45381984114646912 0.45381984114646912
0.48083674907684326 0.48083674907684326 0.48083674907684326
0.5205378532409668 0.5205378532409668 0.5205378532409668
0.57646530866622925 0.57646530866622925 0.57646530866622925
0.53968626260757446 0.53968626260757446 0.53968626260757446
0.54784303903579712 0.54784303903579712 0.54784303903579712
0.56141126155853271 0.56141126155853271 0.56141126155853271
0.57757633924484253 0.57757633924484253 0.57757633924484253
0.59650760889053345 0.59650760889053345 0.59650760889053345
0.62450116872787476 0.62450116872787476 0.62450116872787476
0.66728508472442627 0.66728508472442627 0.66728508472442627
0.68114525079727173 0.68114525079727173 0.68114525079727173
0.6860617995262146 0.6860617995262146 0.6860617995262146
0.69513273239135742 0.69513273239135742 0.69513273239135742
0.70569002628326416 0.70569002628326416 0.70569002628326416
0.71768105030059814 0.71768105030059814 0.71768105030059814
0.73663830757141113 0.73663830757141113 0.73663830757141113
0.76911753416061401 0.76911753416061401 0.76911753416061401
0.82357168197631836 0.82357168197631836 0.82357168197631836
0.8246687650680542 0.8246687650680542 0.8246687650680542
0.82764190435409546 0.82764190435409546 0.82764190435409546
0.83231949806213379 0.83231949806213379 0.83231949806213379
0.83921945095062256 0.83921945095062256 0.83921945095062256
0.85306602716445923 0.85306602716445923 0.85306602716445923
0.87948119640350342 0.87948119640350342 0.87948119640350342
0.1547054648399353 0.1547054648399353 0.1547054648399353
0.16962914168834686 0.16962914168834686 0.16962914168834686
0.19046808779239655 0.19046808779239655 0.19046808779239655
0.22123165428638458 0.22123165428638458 0.22123165428638458
0.27068781852722168 0.27068781852722168 0.27068781852722168
0.34150031208992004 0.34150031208992004 0.34150031208992004
0.42427375912666321 0.42427375912666321 0.42427375912666321
0.23952145874500275 0.23952145874500275 0.23952145874500275
0.25011733174324036 0.25011733174324036 0.25011733174324036
0.26699542999267578 0.26699542999267578 0.26699542999267578
0.29332780838012695 0.29332780838012695 0.29332780838012695
0.33591559529304504 0.33591559529304504 0.33591559529304504
0.39731937646865845 0.39731937646865845 0.39731937646865845
0.47336450219154358 0.47336450219154358 0.47336450219154358
0.33514761924743652 0.33514761924743652 0.33514761924743652
0.34252196550369263 0.34252196550369263 0.34252196550369263
0.35802671313285828 0.35802671313285828 0.35802671313285828
0.38106265664100647 0.38106265664100647 0.38106265664100647
0.41385653614997864 0.41385653614997864 0.41385653614997864
0.46141377091407776 0.46141377091407776 0.46141377091407776
0.52754002809524536 0.52754002809524536 0.52754002809524536
0.44700378179550171 0.44700378179550171 0.44700378179550171
0.45253092050552368 0.45253092050552368 0.45253092050552368
0.4676397442817688 0.4676397442817688 0.4676397442817688
0.48807233572006226 0.48807233572006226 0.48807233572006226
0.51175200939178467 0.51175200939178467 0.51175200939178467
0.54571783542633057 0.54571783542633057 0.54571783542633057
0.59851086139678955 0.59851086139678955 0.59851086139678955
0.5703204870223999 0.5703204870223999 0.5703204870223999
0.57727599143981934 0.57727599143981934 0.57727599143981934
0.5924605131149292 0.5924605131149292 0.5924605131149292
0.61027902364730835 0.61027902364730835 0.61027902364730835
0.6251494288444519 0.6251494288444519 0.6251494288444519
0.64740324020385742 0.64740324020385742 0.64740324020385742
0.68599182367324829 0.68599182367324829 0.68599182367324829
0.70224654674530029 0.70224654674530029 0.70224654674530029
0.70782232284545898 0.70782232284545898 0.70782232284545898
0.71976763010025024 0.71976763010025024 0.71976763010025024
0.7329065203666687 0.7329065203666687 0.7329065203666687
0.74124276638031006 0.74124276638031006 0.74124276638031006
0.7548980712890625 0.7548980712890625 0.7548980712890625
0.78373163938522339 0.78373163938522339 0.78373163938522339
0.83492648601531982 0.83492648601531982 0.83492648601531982
0.83722299337387085 0.83722299337387085 0.83722299337387085
0.84305286407470703 0.84305286407470703 0.84305286407470703
0.84956175088882446 0.84956175088882446 0.84956175088882446
0.85503876209259033 0.85503876209259033 0.85503876209259033
0.86590409278869629 0.86590409278869629 0.86590409278869629
0.88974899053573608 0.88974899053573608 0.88974899053573608
0.20350773632526398 0.20350773632526398 0.20350773632526398
0.21515056490898132 0.21515056490898132 0.21515056490898132
0.23477852344512939 0.23477852344512939 0.23477852344512939
0.26527819037437439 0.26527819037437439 0.26527819037437439
0.31262224912643433 0.31262224912643433 0.31262224912643433
0.38175457715988159 0.38175457715988159 0.38175457715988159
0.460225909948349 0.460225909948349 0.460225909948349
0.28572472929954529 0.28572472929954529 0.28572472929954529
0.29272431135177612 0.29272431135177612 0.29272431135177612
0.30944573879241943 0.30944573879241943 0.30944573879241943
0.33682957291603088 0.33682957291603088 0.33682957291603088
0.37875139713287354 0.37875139713287354 0.37875139713287354
0.43802699446678162 0.43802699446678162 0.43802699446678162
0.50951725244522095 0.50951725244522095 0.50951725244522095
0.37906068563461304 0.37906068563461304 0.37906068563461304
0.38251259922981262 0.38251259922981262 0.38251259922981262
0.39813825488090515 0.39813825488090515 0.39813825488090515
0.42271867394447327 0.42271867394447327 0.42271867394447327
0.45616328716278076 0.45616328716278076 0.45616328716278076
0.5026208758354187 0.5026208758354187 0.5026208758354187
0.5640760064125061 0.5640760064125061 0.5640760064125061
0.48817560076713562 0.48817560076713562 0.48817560076713562
0.49057471752166748 0.49057471752166748 0.49057471752166748
0.50551468133926392 0.50551468133926392 0.50551468133926392
0.5258028507232666 0.5258028507232666 0.5258028507232666
0.54977124929428101 0.54977124929428101 0.54977124929428101
0.58235085010528564 0.58235085010528564 0.58235085010528564
0.63141590356826782 0.63141590356826782 0.63141590356826782
0.6088416576385498 0.6088416576385498 0.6088416576385498
0.61211830377578735 0.61211830377578735 0.61211830377578735
0.62553364038467407 0.62553364038467407 0.62553364038467407
0.64300471544265747 0.64300471544265747 0.64300471544265747
0.65647083520889282 0.65647083520889282 0.65647083520889282
0.67621773481369019 0.67621773481369019 0.67621773481369019
0.71206718683242798 0.71206718683242798 0.71206718683242798
0.73122507333755493 0.73122507333755493 0.73122507333755493
0.73488056659698486 0.73488056659698486 0.73488056659698486
0.74578273296356201 0.74578273296356201 0.74578273296356201
0.75846385955810547 0.75846385955810547 0.75846385955810547
0.76484590768814087 0.76484590768814087 0.76484590768814087
0.77610456943511963 0.77610456943511963 0.77610456943511963
0.80282443761825562 0.80282443761825562 0.80282443761825562
0.85349559783935547 0.85349559783935547 0.85349559783935547
0.85505408048629761 0.85505408048629761 0.85505408048629761
0.86090046167373657 0.86090046167373657 0.86090046167373657
0.86730176210403442 0.86730176210403442 0.86730176210403442
0.87173819541931152 0.87173819541931152 0.87173819541931152
0.88069766759872437 0.88069766759872437 0.88069766759872437
0.9032941460609436 0.9032941460609436 0.9032941460609436
0.2617085874080658 0.2617085874080658 0.2617085874080658
0.27129924297332764 0.27129924297332764 0.27129924297332764
0.29031124711036682 0.29031124711036682 0.29031124711036682
0.32164472341537476 0.32164472341537476 0.32164472341537476
0.36908072233200073 0.36908072233200073 0.36908072233200073
0.4342094361782074 0.4342094361782074 0.4342094361782074
0.50817668437957764 0.50817668437957764 0.50817668437957764
0.34228113293647766 0.34228113293647766 0.34228113293647766
0.34659481048583984 0.34659481048583984 0.34659481048583984
0.36276710033416748 0.36276710033416748 0.36276710033416748
0.39089655876159668 0.39089655876159668 0.39089655876159668
0.43296396732330322 0.43296396732330322 0.43296396732330322
0.48989191651344299 0.48989191651344299 0.48989191651344299
0.5570756196975708 0.5570756196975708 0.5570756196975708
0.4333929717540741 0.4333929717540741 0.4333929717540741
0.43218159675598145 0.43218159675598145 0.43218159675598145
0.44749027490615845 0.44749027490615845 0.44749027490615845
0.4726044237613678 0.4726044237613678 0.4726044237613678
0.50686019659042358 0.50686019659042358 0.50686019659042358
0.55254238843917847 0.55254238843917847 0.55254238843917847
0.60987710952758789 0.60987710952758789 0.60987710952758789
0.54139620065689087 0.54139620065689087 0.54139620065689087
0.53711104393005371 0.53711104393005371 0.53711104393005371
0.54885786771774292 0.54885786771774292 0.54885786771774292
0.56832677125930786 0.56832677125930786 0.56832677125930786
0.59281909465789795 0.59281909465789795 0.59281909465789795
0.62608981132507324 0.62608981132507324 0.62608981132507324
0.67216187715530396 0.67216187715530396 0.67216187715530396
0.65802395343780518 0.65802395343780518 0.65802395343780518
0.65470534563064575 0.65470534563064575 0.65470534563064575
0.66136938333511353 0.66136938333511353 0.66136938333511353
0.6742205023765564 0.6742205023765564 0.6742205023765564
0.6886439323425293 0.6886439323425293 0.6886439323425293
0.70998793840408325 0.70998793840408325 0.70998793840408325
0.74482762813568115 0.74482762813568115 0.74482762813568115
0.76859396696090698 0.76859396696090698 0.76859396696090698
0.76762610673904419 0.76762610673904419 0.76762610673904419
0.77294641733169556 0.77294641733169556 0.77294641733169556
0.78095269203186035 0.78095269203186035 0.78095269203186035
0.78828912973403931 0.78828912973403931 0.78828912973403931
0.80098116397857666 0.80098116397857666 0.80098116397857666
0.82783019542694092 0.82783019542694092 0.82783019542694092
0.87855684757232666 0.87855684757232666 0.87855684757232666
0.87816053628921509 0.87816053628921509 0.87816053628921509
0.88205194473266602 0.88205194473266602 0.88205194473266602
0.88647466897964478 0.88647466897964478 0.88647466897964478
0.89063316583633423 0.89063316583633423 0.89063316583633423
0.89954572916030884 0.89954572916030884 0.89954572916030884
0.92184746265411377 0.92184746265411377 0.92184746265411377
0.32833749055862427 0.32833749055862427 0.32833749055862427
0.33721455931663513 0.33721455931663513 0.33721455931663513
0.3559781014919281 0.3559781014919281 0.3559781014919281
0.38773635029792786 0.38773635029792786 0.38773635029792786
0.43434867262840271 0.43434867262840271 0.43434867262840271
0.49529784917831421 0.49529784917831421 0.49529784917831421
0.56477111577987671 0.56477111577987671 0.56477111577987671
0.40892001986503601 0.40892001986503601 0.40892001986503601
0.41263517737388611 0.41263517737388611 0.41263517737388611
0.42742925882339478 0.42742925882339478 0.42742925882339478
0.45482134819030762 0.45482134819030762 0.45482134819030762
0.49561318755149841 0.49561318755149841 0.49561318755149841
0.54942446947097778 0.54942446947097778 0.54942446947097778
0.61193495988845825 0.61193495988845825 0.61193495988845825
0.50082117319107056 0.50082117319107056 0.50082117319107056
0.49851688742637634 0.49851688742637634 0.49851688742637634
0.50919795036315918 0.50919795036315918 0.50919795036315918
0.5316929817199707 0.5316929817199707 0.5316929817199707
0.56456279754638672 0.56456279754638672 0.56456279754638672
0.60847300291061401 0.60847300291061401 0.60847300291061401
0.66225814819335938 0.66225814819335938 0.66225814819335938
0.60789185762405396 0.60789185762405396 0.60789185762405396
0.59965640306472778 0.59965640306472778 0.59965640306472778
0.60394918918609619 0.60394918918609619 0.60394918918609619
0.61909568309783936 0.61909568309783936 0.61909568309783936
0.64265167713165283 0.64265167713165283 0.64265167713165283
0.67570322751998901 0.67570322751998901 0.67570322751998901
0.72017836570739746 0.72017836570739746 0.72017836570739746
0.71765542030334473 0.71765542030334473 0.71765542030334473
0.70730185508728027 0.70730185508728027 0.70730185508728027
0.70627152919769287 0.70627152919769287 0.70627152919769287
0.71435892581939697 0.71435892581939697 0.71435892581939697
0.72865891456604004 0.72865891456604004 0.72865891456604004
0.7513582706451416 0.7513582706451416 0.7513582706451416
0.78682637214660645 0.78682637214660645 0.78682637214660645
0.81399238109588623 0.81399238109588623 0.81399238109588623
0.80888646841049194 0.80888646841049194 0.80888646841049194
0.80847251415252686 0.80847251415252686 0.80847251415252686
0.81262850761413574 0.81262850761413574 0.81262850761413574
0.82038748264312744 0.82038748264312744 0.82038748264312744
0.83469557762145996 0.83469557762145996 0.83469557762145996
0.86262518167495728 0.86262518167495728 0.86262518167495728
0.91174232959747314 0.91174232959747314 0.91174232959747314
0.9104074239730835 0.9104074239730835 0.9104074239730835
0.9116550087928772 0.9116550087928772 0.9116550087928772
0.91420608758926392 0.91420608758926392 0.91420608758926392
0.91858899593353271 0.91858899593353271 0.91858899593353271
0.92817240953445435 0.92817240953445435 0.92817240953445435
0.9504401683807373 0.9504401683807373 0.9504401683807373
