luts/bw/kodak_t-max_400.cube
# Created by: G'MIC (https://gmic.eu)
TITLE "kodak_t-max_400"
# LUT size
LUT_3D_SIZE 7
# Data domain
DOMAIN_MIN 0.0 0.0 0.0
DOMAIN_MAX 1.0 1.0 1.0
# LUT data points
0.013094658963382244 0.013094658963382244 0.013094658963382244
0.009317765012383461 0.009317765012383461 0.009317765012383461
0.010964187793433666 0.010964187793433666 0.010964187793433666
0.015441176481544971 0.015441176481544971 0.015441176481544971
0.013312066905200481 0.013312066905200481 0.013312066905200481
0.012178832665085793 0.012178832665085793 0.012178832665085793
0.014745151624083519 0.014745151624083519 0.014745151624083519
0.09295547753572464 0.09295547753572464 0.09295547753572464
0.098415255546569824 0.098415255546569824 0.098415255546569824
0.096679896116256714 0.096679896116256714 0.096679896116256714
0.10085001587867737 0.10085001587867737 0.10085001587867737
0.10937948524951935 0.10937948524951935 0.10937948524951935
0.10477432608604431 0.10477432608604431 0.10477432608604431
0.092229388654232025 0.092229388654232025 0.092229388654232025
0.23634083569049835 0.23634083569049835 0.23634083569049835
0.24027626216411591 0.24027626216411591 0.24027626216411591
0.23744502663612366 0.23744502663612366 0.23744502663612366
0.2394239753484726 0.2394239753484726 0.2394239753484726
0.24814851582050323 0.24814851582050323 0.24814851582050323
0.24275283515453339 0.24275283515453339 0.24275283515453339
0.22655534744262695 0.22655534744262695 0.22655534744262695
0.41009443998336792 0.41009443998336792 0.41009443998336792
0.42165172100067139 0.42165172100067139 0.42165172100067139
0.42089623212814331 0.42089623212814331 0.42089623212814331
0.41988030076026917 0.41988030076026917 0.41988030076026917
0.42521050572395325 0.42521050572395325 0.42521050572395325
0.42253890633583069 0.42253890633583069 0.42253890633583069
0.40503606200218201 0.40503606200218201 0.40503606200218201
0.58024615049362183 0.58024615049362183 0.58024615049362183
0.59681451320648193 0.59681451320648193 0.59681451320648193
0.60004180669784546 0.60004180669784546 0.60004180669784546
0.59987962245941162 0.59987962245941162 0.59987962245941162
0.60348999500274658 0.60348999500274658 0.60348999500274658
0.6010933518409729 0.6010933518409729 0.6010933518409729
0.58397334814071655 0.58397334814071655 0.58397334814071655
0.73411518335342407 0.73411518335342407 0.73411518335342407
0.74943399429321289 0.74943399429321289 0.74943399429321289
0.75759673118591309 0.75759673118591309 0.75759673118591309
0.76151973009109497 0.76151973009109497 0.76151973009109497
0.76380866765975952 0.76380866765975952 0.76380866765975952
0.7608335018157959 0.7608335018157959 0.7608335018157959
0.74906563758850098 0.74906563758850098 0.74906563758850098
0.87592566013336182 0.87592566013336182 0.87592566013336182
0.89004397392272949 0.89004397392272949 0.89004397392272949
0.90012443065643311 0.90012443065643311 0.90012443065643311
0.90637630224227905 0.90637630224227905 0.90637630224227905
0.90942186117172241 0.90942186117172241 0.90942186117172241
0.907967209815979 0.907967209815979 0.907967209815979
0.90072846412658691 0.90072846412658691 0.90072846412658691
0.021957920864224434 0.021957920864224434 0.021957920864224434
0.019791383296251297 0.019791383296251297 0.019791383296251297
0.02043965645134449 0.02043965645134449 0.02043965645134449
0.022100051864981651 0.022100051864981651 0.022100051864981651
0.019736630842089653 0.019736630842089653 0.019736630842089653
0.017555894330143929 0.017555894330143929 0.017555894330143929
0.017783146351575851 0.017783146351575851 0.017783146351575851
0.12639173865318298 0.12639173865318298 0.12639173865318298
0.12498296052217484 0.12498296052217484 0.12498296052217484
0.12460237741470337 0.12460237741470337 0.12460237741470337
0.12674263119697571 0.12674263119697571 0.12674263119697571
0.12953485548496246 0.12953485548496246 0.12953485548496246
0.12625263631343842 0.12625263631343842 0.12625263631343842
0.12118735164403915 0.12118735164403915 0.12118735164403915
0.26840701699256897 0.26840701699256897 0.26840701699256897
0.2691502571105957 0.2691502571105957 0.2691502571105957
0.26800572872161865 0.26800572872161865 0.26800572872161865
0.26925712823867798 0.26925712823867798 0.26925712823867798
0.27344194054603577 0.27344194054603577 0.27344194054603577
0.27018451690673828 0.27018451690673828 0.27018451690673828
0.26121628284454346 0.26121628284454346 0.26121628284454346
0.43483850359916687 0.43483850359916687 0.43483850359916687
0.44114944338798523 0.44114944338798523 0.44114944338798523
0.44151866436004639 0.44151866436004639 0.44151866436004639
0.44197577238082886 0.44197577238082886 0.44197577238082886
0.44564598798751831 0.44564598798751831 0.44564598798751831
0.44326433539390564 0.44326433539390564 0.44326433539390564
0.4320494532585144 0.4320494532585144 0.4320494532585144
0.5989689826965332 0.5989689826965332 0.5989689826965332
0.60986965894699097 0.60986965894699097 0.60986965894699097
0.61364090442657471 0.61364090442657471 0.61364090442657471
0.615215003490448 0.615215003490448 0.615215003490448
0.61807632446289062 0.61807632446289062 0.61807632446289062
0.61589968204498291 0.61589968204498291 0.61589968204498291
0.60433769226074219 0.60433769226074219 0.60433769226074219
0.74866318702697754 0.74866318702697754 0.74866318702697754
0.76097136735916138 0.76097136735916138 0.76097136735916138
0.76828789710998535 0.76828789710998535 0.76828789710998535
0.77225780487060547 0.77225780487060547 0.77225780487060547
0.77479416131973267 0.77479416131973267 0.77479416131973267
0.77264928817749023 0.77264928817749023 0.77264928817749023
0.76337116956710815 0.76337116956710815 0.76337116956710815
0.88698321580886841 0.88698321580886841 0.88698321580886841
0.89894258975982666 0.89894258975982666 0.89894258975982666
0.90789794921875 0.90789794921875 0.90789794921875
0.91374695301055908 0.91374695301055908 0.91374695301055908
0.9168466329574585 0.9168466329574585 0.9168466329574585
0.91586941480636597 0.91586941480636597 0.91586941480636597
0.90949887037277222 0.90949887037277222 0.90949887037277222
0.044326301664113998 0.044326301664113998 0.044326301664113998
0.044958706945180893 0.044958706945180893 0.044958706945180893
0.046404387801885605 0.046404387801885605 0.046404387801885605
0.045743562281131744 0.045743562281131744 0.045743562281131744
0.041363030672073364 0.041363030672073364 0.041363030672073364
0.03781503438949585 0.03781503438949585 0.03781503438949585
0.036662787199020386 0.036662787199020386 0.036662787199020386
0.16961432993412018 0.16961432993412018 0.16961432993412018
0.16759374737739563 0.16759374737739563 0.16759374737739563
0.1671346127986908 0.1671346127986908 0.1671346127986908
0.16687479615211487 0.16687479615211487 0.16687479615211487
0.16628928482532501 0.16628928482532501 0.16628928482532501
0.16470538079738617 0.16470538079738617 0.16470538079738617
0.16243399679660797 0.16243399679660797 0.16243399679660797
0.31501692533493042 0.31501692533493042 0.31501692533493042
0.31317391991615295 0.31317391991615295 0.31317391991615295
0.31192994117736816 0.31192994117736816 0.31192994117736816
0.31191897392272949 0.31191897392272949 0.31191897392272949
0.31347417831420898 0.31347417831420898 0.31347417831420898
0.31329584121704102 0.31329584121704102 0.31329584121704102
0.31000593304634094 0.31000593304634094 0.31000593304634094
0.4713045060634613 0.4713045060634613 0.4713045060634613
0.47293701767921448 0.47293701767921448 0.47293701767921448
0.47212475538253784 0.47212475538253784 0.47212475538253784
0.47262069582939148 0.47262069582939148 0.47262069582939148
0.47500601410865784 0.47500601410865784 0.47500601410865784
0.47544375061988831 0.47544375061988831 0.47544375061988831
0.47103962302207947 0.47103962302207947 0.47103962302207947
0.62320441007614136 0.62320441007614136 0.62320441007614136
0.62854099273681641 0.62854099273681641 0.62854099273681641
0.63101613521575928 0.63101613521575928 0.63101613521575928
0.6326984167098999 0.6326984167098999 0.6326984167098999
0.63508838415145874 0.63508838415145874 0.63508838415145874
0.63497269153594971 0.63497269153594971 0.63497269153594971
0.62960696220397949 0.62960696220397949 0.62960696220397949
0.76413816213607788 0.76413816213607788 0.76413816213607788
0.77202910184860229 0.77202910184860229 0.77202910184860229
0.77724683284759521 0.77724683284759521 0.77724683284759521
0.78080618381500244 0.78080618381500244 0.78080618381500244
0.78317731618881226 0.78317731618881226 0.78317731618881226
0.78278928995132446 0.78278928995132446 0.78278928995132446
0.77742385864257812 0.77742385864257812 0.77742385864257812
0.89630681276321411 0.89630681276321411 0.89630681276321411
0.90498775243759155 0.90498775243759155 0.90498775243759155
0.91195881366729736 0.91195881366729736 0.91195881366729736
0.91693145036697388 0.91693145036697388 0.91693145036697388
0.91965466737747192 0.91965466737747192 0.91965466737747192
0.91945904493331909 0.91945904493331909 0.91945904493331909
0.91539102792739868 0.91539102792739868 0.91539102792739868
0.084355913102626801 0.084355913102626801 0.084355913102626801
0.09069351851940155 0.09069351851940155 0.09069351851940155
0.097346663475036621 0.097346663475036621 0.097346663475036621
0.096957653760910034 0.096957653760910034 0.096957653760910034
0.09040234237909317 0.09040234237909317 0.09040234237909317
0.088255099952220917 0.088255099952220917 0.088255099952220917
0.081873349845409393 0.081873349845409393 0.081873349845409393
0.22803439199924469 0.22803439199924469 0.22803439199924469
0.22642330825328827 0.22642330825328827 0.22642330825328827
0.22616152465343475 0.22616152465343475 0.22616152465343475
0.22514376044273376 0.22514376044273376 0.22514376044273376
0.22527852654457092 0.22527852654457092 0.22527852654457092
0.2273966521024704 0.2273966521024704 0.2273966521024704
0.22462749481201172 0.22462749481201172 0.22462749481201172
0.37413078546524048 0.37413078546524048 0.37413078546524048
0.37070783972740173 0.37070783972740173 0.37070783972740173
0.36709815263748169 0.36709815263748169 0.36709815263748169
0.36616635322570801 0.36616635322570801 0.36616635322570801
0.36883142590522766 0.36883142590522766 0.36883142590522766
0.37252551317214966 0.37252551317214966 0.37252551317214966
0.37164753675460815 0.37164753675460815 0.37164753675460815
0.51822477579116821 0.51822477579116821 0.51822477579116821
0.51586365699768066 0.51586365699768066 0.51586365699768066
0.51295286417007446 0.51295286417007446 0.51295286417007446
0.51259803771972656 0.51259803771972656 0.51259803771972656
0.51565122604370117 0.51565122604370117 0.51565122604370117
0.51930159330368042 0.51930159330368042 0.51930159330368042
0.51971042156219482 0.51971042156219482 0.51971042156219482
0.65459525585174561 0.65459525585174561 0.65459525585174561
0.65554064512252808 0.65554064512252808 0.65554064512252808
0.65493929386138916 0.65493929386138916 0.65493929386138916
0.65602856874465942 0.65602856874465942 0.65602856874465942
0.65889781713485718 0.65889781713485718 0.65889781713485718
0.66180300712585449 0.66180300712585449 0.66180300712585449
0.66141790151596069 0.66141790151596069 0.66141790151596069
0.78230804204940796 0.78230804204940796 0.78230804204940796
0.78636282682418823 0.78636282682418823 0.78636282682418823
0.78928637504577637 0.78928637504577637 0.78928637504577637
0.79179197549819946 0.79179197549819946 0.79179197549819946
0.79432696104049683 0.79432696104049683 0.79432696104049683
0.79538488388061523 0.79538488388061523 0.79538488388061523
0.79373335838317871 0.79373335838317871 0.79373335838317871
0.90587794780731201 0.90587794780731201 0.90587794780731201
0.91148239374160767 0.91148239374160767 0.91148239374160767
0.91634243726730347 0.91634243726730347 0.91634243726730347
0.92022746801376343 0.92022746801376343 0.92022746801376343
0.92282801866531372 0.92282801866531372 0.92282801866531372
0.92341285943984985 0.92341285943984985 0.92341285943984985
0.92159527540206909 0.92159527540206909 0.92159527540206909
0.15465639531612396 0.15465639531612396 0.15465639531612396
0.1679050475358963 0.1679050475358963 0.1679050475358963
0.17794474959373474 0.17794474959373474 0.17794474959373474
0.18113267421722412 0.18113267421722412 0.18113267421722412
0.18043841421604156 0.18043841421604156 0.18043841421604156
0.18237157166004181 0.18237157166004181 0.18237157166004181
0.17075501382350922 0.17075501382350922 0.17075501382350922
0.31010040640830994 0.31010040640830994 0.31010040640830994
0.30643486976623535 0.30643486976623535 0.30643486976623535
0.30500215291976929 0.30500215291976929 0.30500215291976929
0.30495527386665344 0.30495527386665344 0.30495527386665344
0.30896198749542236 0.30896198749542236 0.30896198749542236
0.31728291511535645 0.31728291511535645 0.31728291511535645
0.3128354549407959 0.3128354549407959 0.3128354549407959
0.44391152262687683 0.44391152262687683 0.44391152262687683
0.43943801522254944 0.43943801522254944 0.43943801522254944
0.43369820713996887 0.43369820713996887 0.43369820713996887
0.43204450607299805 0.43204450607299805 0.43204450607299805
0.43684351444244385 0.43684351444244385 0.43684351444244385
0.44391915202140808 0.44391915202140808 0.44391915202140808
0.44382664561271667 0.44382664561271667 0.44382664561271667
0.56975919008255005 0.56975919008255005 0.56975919008255005
0.5664212703704834 0.5664212703704834 0.5664212703704834
0.56175947189331055 0.56175947189331055 0.56175947189331055
0.56029582023620605 0.56029582023620605 0.56029582023620605
0.56416040658950806 0.56416040658950806 0.56416040658950806
0.569926917552948 0.569926917552948 0.569926917552948
0.57183802127838135 0.57183802127838135 0.57183802127838135
0.68825316429138184 0.68825316429138184 0.68825316429138184
0.6879456639289856 0.6879456639289856 0.6879456639289856
0.68629586696624756 0.68629586696624756 0.68629586696624756
0.68637478351593018 0.68637478351593018 0.68637478351593018
0.68920725584030151 0.68920725584030151 0.68920725584030151
0.69282042980194092 0.69282042980194092 0.69282042980194092
0.6952289342880249 0.6952289342880249 0.6952289342880249
0.80304145812988281 0.80304145812988281 0.80304145812988281
0.8047751784324646 0.8047751784324646 0.8047751784324646
0.80628019571304321 0.80628019571304321 0.80628019571304321
0.80808305740356445 0.80808305740356445 0.80808305740356445
0.8101876974105835 0.8101876974105835 0.8101876974105835
0.81178039312362671 0.81178039312362671 0.81178039312362671
0.8117554783821106 0.8117554783821106 0.8117554783821106
0.91718560457229614 0.91718560457229614 0.91718560457229614
0.92045152187347412 0.92045152187347412 0.92045152187347412
0.92413556575775146 0.92413556575775146 0.92413556575775146
0.92729562520980835 0.92729562520980835 0.92729562520980835
0.92910891771316528 0.92910891771316528 0.92910891771316528
0.9295840859413147 0.9295840859413147 0.9295840859413147
0.92974841594696045 0.92974841594696045 0.92974841594696045
0.26413848996162415 0.26413848996162415 0.26413848996162415
0.27233529090881348 0.27233529090881348 0.27233529090881348
0.28176188468933105 0.28176188468933105 0.28176188468933105
0.2880895733833313 0.2880895733833313 0.2880895733833313
0.29126259684562683 0.29126259684562683 0.29126259684562683
0.29223379492759705 0.29223379492759705 0.29223379492759705
0.2848089337348938 0.2848089337348938 0.2848089337348938
0.39990943670272827 0.39990943670272827 0.39990943670272827
0.39855277538299561 0.39855277538299561 0.39855277538299561
0.39728116989135742 0.39728116989135742 0.39728116989135742
0.39825719594955444 0.39825719594955444 0.39825719594955444
0.40341392159461975 0.40341392159461975 0.40341392159461975
0.41042539477348328 0.41042539477348328 0.41042539477348328
0.40671566128730774 0.40671566128730774 0.40671566128730774
0.51678133010864258 0.51678133010864258 0.51678133010864258
0.51367282867431641 0.51367282867431641 0.51367282867431641
0.50757694244384766 0.50757694244384766 0.50757694244384766
0.5044940710067749 0.5044940710067749 0.5044940710067749
0.51032793521881104 0.51032793521881104 0.51032793521881104
0.51842522621154785 0.51842522621154785 0.51842522621154785
0.51849985122680664 0.51849985122680664 0.51849985122680664
0.62401348352432251 0.62401348352432251 0.62401348352432251
0.62145042419433594 0.62145042419433594 0.62145042419433594
0.61662876605987549 0.61662876605987549 0.61662876605987549
0.61434924602508545 0.61434924602508545 0.61434924602508545
0.61815762519836426 0.61815762519836426 0.61815762519836426
0.6242060661315918 0.6242060661315918 0.6242060661315918
0.62610423564910889 0.62610423564910889 0.62610423564910889
0.72678232192993164 0.72678232192993164 0.72678232192993164
0.72576415538787842 0.72576415538787842 0.72576415538787842
0.72405493259429932 0.72405493259429932 0.72405493259429932
0.72362297773361206 0.72362297773361206 0.72362297773361206
0.72617298364639282 0.72617298364639282 0.72617298364639282
0.72923952341079712 0.72923952341079712 0.72923952341079712
0.73122513294219971 0.73122513294219971 0.73122513294219971
0.82782441377639771 0.82782441377639771 0.82782441377639771
0.82907360792160034 0.82907360792160034 0.82907360792160034
0.83055931329727173 0.83055931329727173 0.83055931329727173
0.83197641372680664 0.83197641372680664 0.83197641372680664
0.83326220512390137 0.83326220512390137 0.83326220512390137
0.83406555652618408 0.83406555652618408 0.83406555652618408
0.83493095636367798 0.83493095636367798 0.83493095636367798
0.93311023712158203 0.93311023712158203 0.93311023712158203
0.93530178070068359 0.93530178070068359 0.93530178070068359
0.93891584873199463 0.93891584873199463 0.93891584873199463
0.9416239857673645 0.9416239857673645 0.9416239857673645
0.94251817464828491 0.94251817464828491 0.94251817464828491
0.94200223684310913 0.94200223684310913 0.94200223684310913
0.94236236810684204 0.94236236810684204 0.94236236810684204
0.37076333165168762 0.37076333165168762 0.37076333165168762
0.37885850667953491 0.37885850667953491 0.37885850667953491
0.38907906413078308 0.38907906413078308 0.38907906413078308
0.39837333559989929 0.39837333559989929 0.39837333559989929
0.39792883396148682 0.39792883396148682 0.39792883396148682
0.39671224355697632 0.39671224355697632 0.39671224355697632
0.39226227998733521 0.39226227998733521 0.39226227998733521
0.48504555225372314 0.48504555225372314 0.48504555225372314
0.48904514312744141 0.48904514312744141 0.48904514312744141
0.49160909652709961 0.49160909652709961 0.49160909652709961
0.49402707815170288 0.49402707815170288 0.49402707815170288
0.49676129221916199 0.49676129221916199 0.49676129221916199
0.49979874491691589 0.49979874491691589 0.49979874491691589
0.4962787926197052 0.4962787926197052 0.4962787926197052
0.58665478229522705 0.58665478229522705 0.58665478229522705
0.58745741844177246 0.58745741844177246 0.58745741844177246
0.58435678482055664 0.58435678482055664 0.58435678482055664
0.581368088722229 0.581368088722229 0.581368088722229
0.58617901802062988 0.58617901802062988 0.58617901802062988
0.59217733144760132 0.59217733144760132 0.59217733144760132
0.59166759252548218 0.59166759252548218 0.59166759252548218
0.68025976419448853 0.68025976419448853 0.68025976419448853
0.67964434623718262 0.67964434623718262 0.67964434623718262
0.67651081085205078 0.67651081085205078 0.67651081085205078
0.67463594675064087 0.67463594675064087 0.67463594675064087
0.67760384082794189 0.67760384082794189 0.67760384082794189
0.68219834566116333 0.68219834566116333 0.68219834566116333
0.68339806795120239 0.68339806795120239 0.68339806795120239
0.77049058675765991 0.77049058675765991 0.77049058675765991
0.77001893520355225 0.77001893520355225 0.77001893520355225
0.76945692300796509 0.76945692300796509 0.76945692300796509
0.76916718482971191 0.76916718482971191 0.76916718482971191
0.77077943086624146 0.77077943086624146 0.77077943086624146
0.77286785840988159 0.77286785840988159 0.77286785840988159
0.77433282136917114 0.77433282136917114 0.77433282136917114
0.8609052300453186 0.8609052300453186 0.8609052300453186
0.86186307668685913 0.86186307668685913 0.86186307668685913
0.8639150857925415 0.8639150857925415 0.8639150857925415
0.86556375026702881 0.86556375026702881 0.86556375026702881
0.86571305990219116 0.86571305990219116 0.86571305990219116
0.86556375026702881 0.86556375026702881 0.86556375026702881
0.86633574962615967 0.86633574962615967 0.86633574962615967
0.95734238624572754 0.95734238624572754 0.95734238624572754
0.96015876531600952 0.96015876531600952 0.96015876531600952
0.96427327394485474 0.96427327394485474 0.96427327394485474
0.96680277585983276 0.96680277585983276 0.96680277585983276
0.966907799243927 0.966907799243927 0.966907799243927
0.96518445014953613 0.96518445014953613 0.96518445014953613
0.96447461843490601 0.96447461843490601 0.96447461843490601
