luts/bw/kodak_t-max_100.cube
# Created by: G'MIC (https://gmic.eu)
TITLE "kodak_t-max_100"
# LUT size
LUT_3D_SIZE 7
# Data domain
DOMAIN_MIN 0.0 0.0 0.0
DOMAIN_MAX 1.0 1.0 1.0
# LUT data points
0.019405514001846313 0.019405514001846313 0.019405514001846313
0.02731819823384285 0.02731819823384285 0.02731819823384285
0.048806417733430862 0.048806417733430862 0.048806417733430862
0.084838151931762695 0.084838151931762695 0.084838151931762695
0.1355956643819809 0.1355956643819809 0.1355956643819809
0.1978861391544342 0.1978861391544342 0.1978861391544342
0.26632440090179443 0.26632440090179443 0.26632440090179443
0.10674303770065308 0.10674303770065308 0.10674303770065308
0.11223523318767548 0.11223523318767548 0.11223523318767548
0.13095076382160187 0.13095076382160187 0.13095076382160187
0.16469915211200714 0.16469915211200714 0.16469915211200714
0.21417273581027985 0.21417273581027985 0.21417273581027985
0.27441781759262085 0.27441781759262085 0.27441781759262085
0.33994066715240479 0.33994066715240479 0.33994066715240479
0.21135284006595612 0.21135284006595612 0.21135284006595612
0.21576280891895294 0.21576280891895294 0.21576280891895294
0.231557697057724 0.231557697057724 0.231557697057724
0.26077502965927124 0.26077502965927124 0.26077502965927124
0.3070242702960968 0.3070242702960968 0.3070242702960968
0.36235937476158142 0.36235937476158142 0.36235937476158142
0.42280715703964233 0.42280715703964233 0.42280715703964233
0.33928850293159485 0.33928850293159485 0.33928850293159485
0.34235113859176636 0.34235113859176636 0.34235113859176636
0.35567560791969299 0.35567560791969299 0.35567560791969299
0.38031914830207825 0.38031914830207825 0.38031914830207825
0.41809344291687012 0.41809344291687012 0.41809344291687012
0.46495035290718079 0.46495035290718079 0.46495035290718079
0.51783370971679688 0.51783370971679688 0.51783370971679688
0.48884138464927673 0.48884138464927673 0.48884138464927673
0.48957586288452148 0.48957586288452148 0.48957586288452148
0.49862843751907349 0.49862843751907349 0.49862843751907349
0.51666539907455444 0.51666539907455444 0.51666539907455444
0.5445142388343811 0.5445142388343811 0.5445142388343811
0.58089107275009155 0.58089107275009155 0.58089107275009155
0.62489020824432373 0.62489020824432373 0.62489020824432373
0.65056401491165161 0.65056401491165161 0.65056401491165161
0.64835888147354126 0.64835888147354126 0.64835888147354126
0.65170162916183472 0.65170162916183472 0.65170162916183472
0.66236448287963867 0.66236448287963867 0.66236448287963867
0.68090027570724487 0.68090027570724487 0.68090027570724487
0.70743972063064575 0.70743972063064575 0.70743972063064575
0.74258971214294434 0.74258971214294434 0.74258971214294434
0.81467533111572266 0.81467533111572266 0.81467533111572266
0.80885571241378784 0.80885571241378784 0.80885571241378784
0.80691564083099365 0.80691564083099365 0.80691564083099365
0.81162667274475098 0.81162667274475098 0.81162667274475098
0.82287347316741943 0.82287347316741943 0.82287347316741943
0.84157824516296387 0.84157824516296387 0.84157824516296387
0.86951935291290283 0.86951935291290283 0.86951935291290283
0.042251795530319214 0.042251795530319214 0.042251795530319214
0.049858707934617996 0.049858707934617996 0.049858707934617996
0.070744730532169342 0.070744730532169342 0.070744730532169342
0.10592854768037796 0.10592854768037796 0.10592854768037796
0.15609200298786163 0.15609200298786163 0.15609200298786163
0.21774549782276154 0.21774549782276154 0.21774549782276154
0.28583332896232605 0.28583332896232605 0.28583332896232605
0.12731935083866119 0.12731935083866119 0.12731935083866119
0.13316282629966736 0.13316282629966736 0.13316282629966736
0.15208937227725983 0.15208937227725983 0.15208937227725983
0.1854630708694458 0.1854630708694458 0.1854630708694458
0.23372019827365875 0.23372019827365875 0.23372019827365875
0.29314354062080383 0.29314354062080383 0.29314354062080383
0.35822325944900513 0.35822325944900513 0.35822325944900513
0.22871476411819458 0.22871476411819458 0.22871476411819458
0.23464561998844147 0.23464561998844147 0.23464561998844147
0.2518460750579834 0.2518460750579834 0.2518460750579834
0.28183698654174805 0.28183698654174805 0.28183698654174805
0.32615318894386292 0.32615318894386292 0.32615318894386292
0.38010796904563904 0.38010796904563904 0.38010796904563904
0.43959987163543701 0.43959987163543701 0.43959987163543701
0.35409566760063171 0.35409566760063171 0.35409566760063171
0.35928863286972046 0.35928863286972046 0.35928863286972046
0.37438222765922546 0.37438222765922546 0.37438222765922546
0.39965307712554932 0.39965307712554932 0.39965307712554932
0.43616655468940735 0.43616655468940735 0.43616655468940735
0.48098340630531311 0.48098340630531311 0.48098340630531311
0.53230494260787964 0.53230494260787964 0.53230494260787964
0.50221401453018188 0.50221401453018188 0.50221401453018188
0.50437933206558228 0.50437933206558228 0.50437933206558228
0.51535308361053467 0.51535308361053467 0.51535308361053467
0.5341951847076416 0.5341951847076416 0.5341951847076416
0.5609251856803894 0.5609251856803894 0.5609251856803894
0.59511697292327881 0.59511697292327881 0.59511697292327881
0.63674688339233398 0.63674688339233398 0.63674688339233398
0.65974503755569458 0.65974503755569458 0.65974503755569458
0.6600877046585083 0.6600877046585083 0.6600877046585083
0.6661495566368103 0.6661495566368103 0.6661495566368103
0.67791557312011719 0.67791557312011719 0.67791557312011719
0.69539833068847656 0.69539833068847656 0.69539833068847656
0.71907871961593628 0.71907871961593628 0.71907871961593628
0.7517240047454834 0.7517240047454834 0.7517240047454834
0.81956303119659424 0.81956303119659424 0.81956303119659424
0.81756937503814697 0.81756937503814697 0.81756937503814697
0.8189050555229187 0.8189050555229187 0.8189050555229187
0.82484716176986694 0.82484716176986694 0.82484716176986694
0.8348039984703064 0.8348039984703064 0.8348039984703064
0.85070270299911499 0.85070270299911499 0.85070270299911499
0.87587875127792358 0.87587875127792358 0.87587875127792358
0.079917535185813904 0.079917535185813904 0.079917535185813904
0.087245762348175049 0.087245762348175049 0.087245762348175049
0.10684634745121002 0.10684634745121002 0.10684634745121002
0.140069380402565 0.140069380402565 0.140069380402565
0.18735012412071228 0.18735012412071228 0.18735012412071228
0.24766784906387329 0.24766784906387329 0.24766784906387329
0.31510734558105469 0.31510734558105469 0.31510734558105469
0.16440905630588531 0.16440905630588531 0.16440905630588531
0.17056433856487274 0.17056433856487274 0.17056433856487274
0.18888698518276215 0.18888698518276215 0.18888698518276215
0.22032208740711212 0.22032208740711212 0.22032208740711212
0.26545703411102295 0.26545703411102295 0.26545703411102295
0.32241767644882202 0.32241767644882202 0.32241767644882202
0.3859747052192688 0.3859747052192688 0.3859747052192688
0.26545870304107666 0.26545870304107666 0.26545870304107666
0.27106210589408875 0.27106210589408875 0.27106210589408875
0.28846105933189392 0.28846105933189392 0.28846105933189392
0.31723129749298096 0.31723129749298096 0.31723129749298096
0.3579653799533844 0.3579653799533844 0.3579653799533844
0.40833097696304321 0.40833097696304321 0.40833097696304321
0.46553465723991394 0.46553465723991394 0.46553465723991394
0.38645941019058228 0.38645941019058228 0.38645941019058228
0.39190435409545898 0.39190435409545898 0.39190435409545898
0.40741786360740662 0.40741786360740662 0.40741786360740662
0.43218329548835754 0.43218329548835754 0.43218329548835754
0.46505483984947205 0.46505483984947205 0.46505483984947205
0.50671207904815674 0.50671207904815674 0.50671207904815674
0.55492568016052246 0.55492568016052246 0.55492568016052246
0.52575123310089111 0.52575123310089111 0.52575123310089111
0.53008902072906494 0.53008902072906494 0.53008902072906494
0.54278695583343506 0.54278695583343506 0.54278695583343506
0.56189227104187012 0.56189227104187012 0.56189227104187012
0.5863690972328186 0.5863690972328186 0.5863690972328186
0.61685562133789062 0.61685562133789062 0.61685562133789062
0.65528237819671631 0.65528237819671631 0.65528237819671631
0.67584848403930664 0.67584848403930664 0.67584848403930664
0.67866063117980957 0.67866063117980957 0.67866063117980957
0.68767333030700684 0.68767333030700684 0.68767333030700684
0.70088654756546021 0.70088654756546021 0.70088654756546021
0.71643942594528198 0.71643942594528198 0.71643942594528198
0.73673617839813232 0.73673617839813232 0.73673617839813232
0.76595354080200195 0.76595354080200195 0.76595354080200195
0.82872492074966431 0.82872492074966431 0.82872492074966431
0.82971751689910889 0.82971751689910889 0.82971751689910889
0.83531433343887329 0.83531433343887329 0.83531433343887329
0.84354126453399658 0.84354126453399658 0.84354126453399658
0.85180914402008057 0.85180914402008057 0.85180914402008057
0.86402422189712524 0.86402422189712524 0.86402422189712524
0.88609826564788818 0.88609826564788818 0.88609826564788818
0.13106171786785126 0.13106171786785126 0.13106171786785126
0.1383543461561203 0.1383543461561203 0.1383543461561203
0.15633516013622284 0.15633516013622284 0.15633516013622284
0.18603874742984772 0.18603874742984772 0.18603874742984772
0.23046891391277313 0.23046891391277313 0.23046891391277313
0.28996238112449646 0.28996238112449646 0.28996238112449646
0.35691815614700317 0.35691815614700317 0.35691815614700317
0.21492844820022583 0.21492844820022583 0.21492844820022583
0.22120015323162079 0.22120015323162079 0.22120015323162079
0.23822015523910522 0.23822015523910522 0.23822015523910522
0.26676976680755615 0.26676976680755615 0.26676976680755615
0.30865353345870972 0.30865353345870972 0.30865353345870972
0.36312681436538696 0.36312681436538696 0.36312681436538696
0.42519131302833557 0.42519131302833557 0.42519131302833557
0.31376761198043823 0.31376761198043823 0.31376761198043823
0.3195306658744812 0.3195306658744812 0.3195306658744812
0.33584019541740417 0.33584019541740417 0.33584019541740417
0.3624413013458252 0.3624413013458252 0.3624413013458252
0.39952269196510315 0.39952269196510315 0.39952269196510315
0.44639068841934204 0.44639068841934204 0.44639068841934204
0.50079452991485596 0.50079452991485596 0.50079452991485596
0.42877718806266785 0.42877718806266785 0.42877718806266785
0.43434920907020569 0.43434920907020569 0.43434920907020569
0.44954326748847961 0.44954326748847961 0.44954326748847961
0.47295832633972168 0.47295832633972168 0.47295832633972168
0.50268125534057617 0.50268125534057617 0.50268125534057617
0.53998088836669922 0.53998088836669922 0.53998088836669922
0.58514934778213501 0.58514934778213501 0.58514934778213501
0.5587877631187439 0.5587877631187439 0.5587877631187439
0.56390303373336792 0.56390303373336792 0.56390303373336792
0.57713252305984497 0.57713252305984497 0.57713252305984497
0.59578430652618408 0.59578430652618408 0.59578430652618408
0.61714476346969604 0.61714476346969604 0.61714476346969604
0.64362460374832153 0.64362460374832153 0.64362460374832153
0.67891651391983032 0.67891651391983032 0.67891651391983032
0.69848001003265381 0.69848001003265381 0.69848001003265381
0.70277851819992065 0.70277851819992065 0.70277851819992065
0.7134711742401123 0.7134711742401123 0.7134711742401123
0.72710663080215454 0.72710663080215454 0.72710663080215454
0.74023342132568359 0.74023342132568359 0.74023342132568359
0.7571098804473877 0.7571098804473877 0.7571098804473877
0.78326499462127686 0.78326499462127686 0.78326499462127686
0.84336930513381958 0.84336930513381958 0.84336930513381958
0.84592306613922119 0.84592306613922119 0.84592306613922119
0.85362833738327026 0.85362833738327026 0.85362833738327026
0.86384224891662598 0.86384224891662598 0.86384224891662598
0.86976701021194458 0.86976701021194458 0.86976701021194458
0.87849205732345581 0.87849205732345581 0.87849205732345581
0.89816069602966309 0.89816069602966309 0.89816069602966309
0.19282037019729614 0.19282037019729614 0.19282037019729614
0.20083826780319214 0.20083826780319214 0.20083826780319214
0.21780548989772797 0.21780548989772797 0.21780548989772797
0.24565240740776062 0.24565240740776062 0.24565240740776062
0.28783875703811646 0.28783875703811646 0.28783875703811646
0.34707173705101013 0.34707173705101013 0.34707173705101013
0.41248834133148193 0.41248834133148193 0.41248834133148193
0.27534034848213196 0.27534034848213196 0.27534034848213196
0.28188058733940125 0.28188058733940125 0.28188058733940125
0.29767915606498718 0.29767915606498718 0.29767915606498718
0.32432776689529419 0.32432776689529419 0.32432776689529419
0.3638671338558197 0.3638671338558197 0.3638671338558197
0.41655829548835754 0.41655829548835754 0.41655829548835754
0.47658181190490723 0.47658181190490723 0.47658181190490723
0.36968329548835754 0.36968329548835754 0.36968329548835754
0.37558838725090027 0.37558838725090027 0.37558838725090027
0.39081496000289917 0.39081496000289917 0.39081496000289917
0.41521093249320984 0.41521093249320984 0.41521093249320984
0.44963076710700989 0.44963076710700989 0.44963076710700989
0.49381449818611145 0.49381449818611145 0.49381449818611145
0.54575294256210327 0.54575294256210327 0.54575294256210327
0.47720831632614136 0.47720831632614136 0.47720831632614136
0.48272705078125 0.48272705078125 0.48272705078125
0.49673420190811157 0.49673420190811157 0.49673420190811157
0.51775604486465454 0.51775604486465454 0.51775604486465454
0.54497605562210083 0.54497605562210083 0.54497605562210083
0.57942384481430054 0.57942384481430054 0.57942384481430054
0.62223881483078003 0.62223881483078003 0.62223881483078003
0.59733474254608154 0.59733474254608154 0.59733474254608154
0.60224437713623047 0.60224437713623047 0.60224437713623047
0.61420941352844238 0.61420941352844238 0.61420941352844238
0.63095587491989136 0.63095587491989136 0.63095587491989136
0.6496807336807251 0.6496807336807251 0.6496807336807251
0.67383843660354614 0.67383843660354614 0.67383843660354614
0.70746666193008423 0.70746666193008423 0.70746666193008423
0.72722417116165161 0.72722417116165161 0.72722417116165161
0.73064857721328735 0.73064857721328735 0.73064857721328735
0.74007707834243774 0.74007707834243774 0.74007707834243774
0.7516711950302124 0.7516711950302124 0.7516711950302124
0.76307612657546997 0.76307612657546997 0.76307612657546997
0.77785557508468628 0.77785557508468628 0.77785557508468628
0.80316436290740967 0.80316436290740967 0.80316436290740967
0.8638043999671936 0.8638043999671936 0.8638043999671936
0.86526656150817871 0.86526656150817871 0.86526656150817871
0.87162083387374878 0.87162083387374878 0.87162083387374878
0.87912917137145996 0.87912917137145996 0.87912917137145996
0.8842848539352417 0.8842848539352417 0.8842848539352417
0.8922126293182373 0.8922126293182373 0.8922126293182373
0.91137862205505371 0.91137862205505371 0.91137862205505371
0.26352933049201965 0.26352933049201965 0.26352933049201965
0.27164128422737122 0.27164128422737122 0.27164128422737122
0.28879088163375854 0.28879088163375854 0.28879088163375854
0.31744462251663208 0.31744462251663208 0.31744462251663208
0.36012187600135803 0.36012187600135803 0.36012187600135803
0.41701674461364746 0.41701674461364746 0.41701674461364746
0.48008298873901367 0.48008298873901367 0.48008298873901367
0.34241774678230286 0.34241774678230286 0.34241774678230286
0.34937518835067749 0.34937518835067749 0.34937518835067749
0.36492344737052917 0.36492344737052917 0.36492344737052917
0.39107123017311096 0.39107123017311096 0.39107123017311096
0.42990598082542419 0.42990598082542419 0.42990598082542419
0.48069170117378235 0.48069170117378235 0.48069170117378235
0.53828656673431396 0.53828656673431396 0.53828656673431396
0.4311431348323822 0.4311431348323822 0.4311431348323822
0.43696320056915283 0.43696320056915283 0.43696320056915283
0.45112693309783936 0.45112693309783936 0.45112693309783936
0.47409605979919434 0.47409605979919434 0.47409605979919434
0.50693261623382568 0.50693261623382568 0.50693261623382568
0.54931181669235229 0.54931181669235229 0.54931181669235229
0.59913045167922974 0.59913045167922974 0.59913045167922974
0.53093594312667847 0.53093594312667847 0.53093594312667847
0.53558766841888428 0.53558766841888428 0.53558766841888428
0.54768538475036621 0.54768538475036621 0.54768538475036621
0.56654411554336548 0.56654411554336548 0.56654411554336548
0.59197759628295898 0.59197759628295898 0.59197759628295898
0.62486034631729126 0.62486034631729126 0.62486034631729126
0.66627734899520874 0.66627734899520874 0.66627734899520874
0.641693115234375 0.641693115234375 0.641693115234375
0.64469379186630249 0.64469379186630249 0.64469379186630249
0.65413427352905273 0.65413427352905273 0.65413427352905273
0.66822677850723267 0.66822677850723267 0.66822677850723267
0.6859094500541687 0.6859094500541687 0.6859094500541687
0.70907473564147949 0.70907473564147949 0.70907473564147949
0.74111145734786987 0.74111145734786987 0.74111145734786987
0.7617155909538269 0.7617155909538269 0.7617155909538269
0.76322764158248901 0.76322764158248901 0.76322764158248901
0.76960337162017822 0.76960337162017822 0.76960337162017822
0.77840268611907959 0.77840268611907959 0.77840268611907959
0.78841358423233032 0.78841358423233032 0.78841358423233032
0.80264532566070557 0.80264532566070557 0.80264532566070557
0.827964186668396 0.827964186668396 0.827964186668396
0.89045423269271851 0.89045423269271851 0.89045423269271851
0.8896065354347229 0.8896065354347229 0.8896065354347229
0.89290416240692139 0.89290416240692139 0.89290416240692139
0.89736479520797729 0.89736479520797729 0.89736479520797729
0.90160834789276123 0.90160834789276123 0.90160834789276123
0.90940511226654053 0.90940511226654053 0.90940511226654053
0.92872822284698486 0.92872822284698486 0.92872822284698486
0.33777123689651489 0.33777123689651489 0.33777123689651489
0.3468768298625946 0.3468768298625946 0.3468768298625946
0.364705890417099 0.364705890417099 0.364705890417099
0.39441236853599548 0.39441236853599548 0.39441236853599548
0.43686002492904663 0.43686002492904663 0.43686002492904663
0.49196043610572815 0.49196043610572815 0.49196043610572815
0.55309289693832397 0.55309289693832397 0.55309289693832397
0.41359865665435791 0.41359865665435791 0.41359865665435791
0.4207589328289032 0.4207589328289032 0.4207589328289032
0.4365960955619812 0.4365960955619812 0.4365960955619812
0.46292239427566528 0.46292239427566528 0.46292239427566528
0.50097495317459106 0.50097495317459106 0.50097495317459106
0.54989957809448242 0.54989957809448242 0.54989957809448242
0.60489106178283691 0.60489106178283691 0.60489106178283691
0.496469646692276 0.496469646692276 0.496469646692276
0.50235974788665771 0.50235974788665771 0.50235974788665771
0.51588994264602661 0.51588994264602661 0.51588994264602661
0.53816431760787964 0.53816431760787964 0.53816431760787964
0.56984579563140869 0.56984579563140869 0.56984579563140869
0.61072647571563721 0.61072647571563721 0.61072647571563721
0.65839701890945435 0.65839701890945435 0.65839701890945435
0.58929359912872314 0.58929359912872314 0.58929359912872314
0.59301924705505371 0.59301924705505371 0.59301924705505371
0.60368055105209351 0.60368055105209351 0.60368055105209351
0.6209949254989624 0.6209949254989624 0.6209949254989624
0.64536041021347046 0.64536041021347046 0.64536041021347046
0.67746800184249878 0.67746800184249878 0.67746800184249878
0.71803915500640869 0.71803915500640869 0.71803915500640869
0.69194167852401733 0.69194167852401733 0.69194167852401733
0.6932755708694458 0.6932755708694458 0.6932755708694458
0.70064842700958252 0.70064842700958252 0.70064842700958252
0.71263402700424194 0.71263402700424194 0.71263402700424194
0.72920745611190796 0.72920745611190796 0.72920745611190796
0.75245755910873413 0.75245755910873413 0.75245755910873413
0.78564733266830444 0.78564733266830444 0.78564733266830444
0.80395388603210449 0.80395388603210449 0.80395388603210449
0.80285912752151489 0.80285912752151489 0.80285912752151489
0.80701017379760742 0.80701017379760742 0.80701017379760742
0.81394350528717041 0.81394350528717041 0.81394350528717041
0.82321840524673462 0.82321840524673462 0.82321840524673462
0.83775228261947632 0.83775228261947632 0.83775228261947632
0.86373370885848999 0.86373370885848999 0.86373370885848999
0.92566478252410889 0.92566478252410889 0.92566478252410889
0.92285537719726562 0.92285537719726562 0.92285537719726562
0.92331665754318237 0.92331665754318237 0.92331665754318237
0.92602473497390747 0.92602473497390747 0.92602473497390747
0.92999458312988281 0.92999458312988281 0.92999458312988281
0.93792891502380371 0.93792891502380371 0.93792891502380371
0.95708578824996948 0.95708578824996948 0.95708578824996948
