luts/bw/kodak_t-max_400.cube
# Created by: G'MIC (https://gmic.eu)
TITLE "kodak_t-max_400"
# LUT size
LUT_3D_SIZE 5
# Data domain
DOMAIN_MIN 0.0 0.0 0.0
DOMAIN_MAX 1.0 1.0 1.0
# LUT data points
0.013094658963382244 0.013094658963382244 0.013094658963382244
0.0094046946614980698 0.0094046946614980698 0.0094046946614980698
0.015441176481544971 0.015441176481544971 0.015441176481544971
0.012370419688522816 0.012370419688522816 0.012370419688522816
0.014745151624083519 0.014745151624083519 0.014745151624083519
0.15803875029087067 0.15803875029087067 0.15803875029087067
0.16170498728752136 0.16170498728752136 0.16170498728752136
0.16186599433422089 0.16186599433422089 0.16186599433422089
0.17210914194583893 0.17210914194583893 0.17210914194583893
0.15009213984012604 0.15009213984012604 0.15009213984012604
0.41009443998336792 0.41009443998336792 0.41009443998336792
0.42276439070701599 0.42276439070701599 0.42276439070701599
0.41988030076026917 0.41988030076026917 0.41988030076026917
0.42615824937820435 0.42615824937820435 0.42615824937820435
0.40503606200218201 0.40503606200218201 0.40503606200218201
0.65926754474639893 0.65926754474639893 0.65926754474639893
0.67940276861190796 0.67940276861190796 0.67940276861190796
0.68312293291091919 0.68312293291091919 0.68312293291091919
0.6856415867805481 0.6856415867805481 0.6856415867805481
0.66845130920410156 0.66845130920410156 0.66845130920410156
0.87592566013336182 0.87592566013336182 0.87592566013336182
0.89557433128356934 0.89557433128356934 0.89557433128356934
0.90637630224227905 0.90637630224227905 0.90637630224227905
0.90931624174118042 0.90931624174118042 0.90931624174118042
0.90072846412658691 0.90072846412658691 0.90072846412658691
0.03125946968793869 0.03125946968793869 0.03125946968793869
0.03051910363137722 0.03051910363137722 0.03051910363137722
0.030991917476058006 0.030991917476058006 0.030991917476058006
0.026010265573859215 0.026010265573859215 0.026010265573859215
0.024509325623512268 0.024509325623512268 0.024509325623512268
0.21488200128078461 0.21488200128078461 0.21488200128078461
0.21264496445655823 0.21264496445655823 0.21264496445655823
0.21290026605129242 0.21290026605129242 0.21290026605129242
0.21473750472068787 0.21473750472068787 0.21473750472068787
0.2085224986076355 0.2085224986076355 0.2085224986076355
0.45146921277046204 0.45146921277046204 0.45146921277046204
0.45578098297119141 0.45578098297119141 0.45578098297119141
0.45617076754570007 0.45617076754570007 0.45617076754570007
0.45931708812713623 0.45931708812713623 0.45931708812713623
0.45006480813026428 0.45006480813026428 0.45006480813026428
0.68476641178131104 0.68476641178131104 0.68476641178131104
0.69696658849716187 0.69696658849716187 0.69696658849716187
0.70171403884887695 0.70171403884887695 0.70171403884887695
0.70426172018051147 0.70426172018051147 0.70426172018051147
0.6947820782661438 0.6947820782661438 0.6947820782661438
0.89168506860733032 0.89168506860733032 0.89168506860733032
0.90645521879196167 0.90645521879196167 0.90645521879196167
0.91550189256668091 0.91550189256668091 0.91550189256668091
0.91880315542221069 0.91880315542221069 0.91880315542221069
0.91260421276092529 0.91260421276092529 0.91260421276092529
0.084355913102626801 0.084355913102626801 0.084355913102626801
0.094767354428768158 0.094767354428768158 0.094767354428768158
0.096957653760910034 0.096957653760910034 0.096957653760910034
0.088532663881778717 0.088532663881778717 0.088532663881778717
0.081873349845409393 0.081873349845409393 0.081873349845409393
0.30126738548278809 0.30126738548278809 0.30126738548278809
0.2967275083065033 0.2967275083065033 0.2967275083065033
0.29450380802154541 0.29450380802154541 0.29450380802154541
0.29825791716575623 0.29825791716575623 0.29825791716575623
0.29788497090339661 0.29788497090339661 0.29788497090339661
0.51822477579116821 0.51822477579116821 0.51822477579116821
0.5141298770904541 0.5141298770904541 0.5141298770904541
0.51259803771972656 0.51259803771972656 0.51259803771972656
0.5175025463104248 0.5175025463104248 0.5175025463104248
0.51971042156219482 0.51971042156219482 0.51971042156219482
0.71923303604125977 0.71923303604125977 0.71923303604125977
0.72269183397293091 0.72269183397293091 0.72269183397293091
0.72511231899261475 0.72511231899261475 0.72511231899261475
0.7290337085723877 0.7290337085723877 0.7290337085723877
0.72836089134216309 0.72836089134216309 0.72836089134216309
0.90587794780731201 0.90587794780731201 0.90587794780731201
0.9139028787612915 0.9139028787612915 0.9139028787612915
0.92022746801376343 0.92022746801376343 0.92022746801376343
0.92340481281280518 0.92340481281280518 0.92340481281280518
0.92159527540206909 0.92159527540206909 0.92159527540206909
0.20783264935016632 0.20783264935016632 0.20783264935016632
0.22347688674926758 0.22347688674926758 0.22347688674926758
0.23299486935138702 0.23299486935138702 0.23299486935138702
0.23624344170093536 0.23624344170093536 0.23624344170093536
0.22782263159751892 0.22782263159751892 0.22782263159751892
0.41984128952026367 0.41984128952026367 0.41984128952026367
0.41266569495201111 0.41266569495201111 0.41266569495201111
0.40935242176055908 0.40935242176055908 0.40935242176055908
0.41953101754188538 0.41953101754188538 0.41953101754188538
0.42143958806991577 0.42143958806991577 0.42143958806991577
0.59657299518585205 0.59657299518585205 0.59657299518585205
0.59094059467315674 0.59094059467315674 0.59094059467315674
0.58680576086044312 0.58680576086044312 0.58680576086044312
0.59380185604095459 0.59380185604095459 0.59380185604095459
0.59847772121429443 0.59847772121429443 0.59847772121429443
0.7610810399055481 0.7610810399055481 0.7610810399055481
0.76114952564239502 0.76114952564239502 0.76114952564239502
0.76185137033462524 0.76185137033462524 0.76185137033462524
0.76526409387588501 0.76526409387588501 0.76526409387588501
0.76752960681915283 0.76752960681915283 0.76752960681915283
0.9245142936706543 0.9245142936706543 0.9245142936706543
0.92870235443115234 0.92870235443115234 0.92870235443115234
0.93324869871139526 0.93324869871139526 0.93324869871139526
0.93515431880950928 0.93515431880950928 0.93515431880950928
0.93549191951751709 0.93549191951751709 0.93549191951751709
0.37076333165168762 0.37076333165168762 0.37076333165168762
0.38360074162483215 0.38360074162483215 0.38360074162483215
0.39837333559989929 0.39837333559989929 0.39837333559989929
0.39726158976554871 0.39726158976554871 0.39726158976554871
0.39226227998733521 0.39226227998733521 0.39226227998733521
0.53719204664230347 0.53719204664230347 0.53719204664230347
0.5390440821647644 0.5390440821647644 0.5390440821647644
0.53743153810501099 0.53743153810501099 0.53743153810501099
0.54465460777282715 0.54465460777282715 0.54465460777282715
0.54476624727249146 0.54476624727249146 0.54476624727249146
0.68025976419448853 0.68025976419448853 0.68025976419448853
0.67813760042190552 0.67813760042190552 0.67813760042190552
0.67463594675064087 0.67463594675064087 0.67463594675064087
0.68008971214294434 0.68008971214294434 0.68008971214294434
0.68339806795120239 0.68339806795120239 0.68339806795120239
0.81548392772674561 0.81548392772674561 0.81548392772674561
0.81599748134613037 0.81599748134613037 0.81599748134613037
0.81691861152648926 0.81691861152648926 0.81691861152648926
0.81833624839782715 0.81833624839782715 0.81833624839782715
0.81990522146224976 0.81990522146224976 0.81990522146224976
0.95734238624572754 0.95734238624572754 0.95734238624572754
0.96237337589263916 0.96237337589263916 0.96237337589263916
0.96680277585983276 0.96680277585983276 0.96680277585983276
0.96624159812927246 0.96624159812927246 0.96624159812927246
0.96447461843490601 0.96447461843490601 0.96447461843490601
