luts/bw/kodak_hie_hs_infra.cube
# Created by: G'MIC (https://gmic.eu)
TITLE "kodak_hie_hs_infra"
# LUT size
LUT_3D_SIZE 13
# Data domain
DOMAIN_MIN 0.0 0.0 0.0
DOMAIN_MAX 1.0 1.0 1.0
# LUT data points
0.067384533584117889 0.067384533584117889 0.067384533584117889
0.11457911133766174 0.11457911133766174 0.11457911133766174
0.16976827383041382 0.16976827383041382 0.16976827383041382
0.23629684746265411 0.23629684746265411 0.23629684746265411
0.31567710638046265 0.31567710638046265 0.31567710638046265
0.40691325068473816 0.40691325068473816 0.40691325068473816
0.50582635402679443 0.50582635402679443 0.50582635402679443
0.60649698972702026 0.60649698972702026 0.60649698972702026
0.70215016603469849 0.70215016603469849 0.70215016603469849
0.7850458025932312 0.7850458025932312 0.7850458025932312
0.85474956035614014 0.85474956035614014 0.85474956035614014
0.91453456878662109 0.91453456878662109 0.91453456878662109
0.96557211875915527 0.96557211875915527 0.96557211875915527
0.12155836820602417 0.12155836820602417 0.12155836820602417
0.15930339694023132 0.15930339694023132 0.15930339694023132
0.20362724363803864 0.20362724363803864 0.20362724363803864
0.25969022512435913 0.25969022512435913 0.25969022512435913
0.33067992329597473 0.33067992329597473 0.33067992329597473
0.41692256927490234 0.41692256927490234 0.41692256927490234
0.51217687129974365 0.51217687129974365 0.51217687129974365
0.60967451333999634 0.60967451333999634 0.60967451333999634
0.70248997211456299 0.70248997211456299 0.70248997211456299
0.78483593463897705 0.78483593463897705 0.78483593463897705
0.85555225610733032 0.85555225610733032 0.85555225610733032
0.91613221168518066 0.91613221168518066 0.91613221168518066
0.96784204244613647 0.96784204244613647 0.96784204244613647
0.18151271343231201 0.18151271343231201 0.18151271343231201
0.21015001833438873 0.21015001833438873 0.21015001833438873
0.24397885799407959 0.24397885799407959 0.24397885799407959
0.28857699036598206 0.28857699036598206 0.28857699036598206
0.34990492463111877 0.34990492463111877 0.34990492463111877
0.42941391468048096 0.42941391468048096 0.42941391468048096
0.51886248588562012 0.51886248588562012 0.51886248588562012
0.6112561821937561 0.6112561821937561 0.6112561821937561
0.70007854700088501 0.70007854700088501 0.70007854700088501
0.78100758790969849 0.78100758790969849 0.78100758790969849
0.85179233551025391 0.85179233551025391 0.85179233551025391
0.91281116008758545 0.91281116008758545 0.91281116008758545
0.9650229811668396 0.9650229811668396 0.9650229811668396
0.24725551903247833 0.24725551903247833 0.24725551903247833
0.26835393905639648 0.26835393905639648 0.26835393905639648
0.29379954934120178 0.29379954934120178 0.29379954934120178
0.32897883653640747 0.32897883653640747 0.32897883653640747
0.38033100962638855 0.38033100962638855 0.38033100962638855
0.44968008995056152 0.44968008995056152 0.44968008995056152
0.53038173913955688 0.53038173913955688 0.53038173913955688
0.61570119857788086 0.61570119857788086 0.61570119857788086
0.69978421926498413 0.69978421926498413 0.69978421926498413
0.77788114547729492 0.77788114547729492 0.77788114547729492
0.84743213653564453 0.84743213653564453 0.84743213653564453
0.90783727169036865 0.90783727169036865 0.90783727169036865
0.96029859781265259 0.96029859781265259 0.96029859781265259
0.3208191990852356 0.3208191990852356 0.3208191990852356
0.33577820658683777 0.33577820658683777 0.33577820658683777
0.35403004288673401 0.35403004288673401 0.35403004288673401
0.38075163960456848 0.38075163960456848 0.38075163960456848
0.42154189944267273 0.42154189944267273 0.42154189944267273
0.47866860032081604 0.47866860032081604 0.47866860032081604
0.54885512590408325 0.54885512590408325 0.54885512590408325
0.62593483924865723 0.62593483924865723 0.62593483924865723
0.70418030023574829 0.70418030023574829 0.70418030023574829
0.77874815464019775 0.77874815464019775 0.77874815464019775
0.84597575664520264 0.84597575664520264 0.84597575664520264
0.9048343300819397 0.9048343300819397 0.9048343300819397
0.95657271146774292 0.95657271146774292 0.95657271146774292
0.40433865785598755 0.40433865785598755 0.40433865785598755
0.41356149315834045 0.41356149315834045 0.41356149315834045
0.42477524280548096 0.42477524280548096 0.42477524280548096
0.44185131788253784 0.44185131788253784 0.44185131788253784
0.4708174467086792 0.4708174467086792 0.4708174467086792
0.5150827169418335 0.5150827169418335 0.5150827169418335
0.57367563247680664 0.57367563247680664 0.57367563247680664
0.64205408096313477 0.64205408096313477 0.64205408096313477
0.71457558870315552 0.71457558870315552 0.71457558870315552
0.78488218784332275 0.78488218784332275 0.78488218784332275
0.84891945123672485 0.84891945123672485 0.84891945123672485
0.9055633544921875 0.9055633544921875 0.9055633544921875
0.95581614971160889 0.95581614971160889 0.95581614971160889
0.50048261880874634 0.50048261880874634 0.50048261880874634
0.50290375947952271 0.50290375947952271 0.50290375947952271
0.50663763284683228 0.50663763284683228 0.50663763284683228
0.51323032379150391 0.51323032379150391 0.51323032379150391
0.52947759628295898 0.52947759628295898 0.52947759628295898
0.55928099155426025 0.55928099155426025 0.55928099155426025
0.60494011640548706 0.60494011640548706 0.60494011640548706
0.66424417495727539 0.66424417495727539 0.66424417495727539
0.73105102777481079 0.73105102777481079 0.73105102777481079
0.7966616153717041 0.7966616153717041 0.7966616153717041
0.85677164793014526 0.85677164793014526 0.85677164793014526
0.91002929210662842 0.91002929210662842 0.91002929210662842
0.95782804489135742 0.95782804489135742 0.95782804489135742
0.61452579498291016 0.61452579498291016 0.61452579498291016
0.60845482349395752 0.60845482349395752 0.60845482349395752
0.60432225465774536 0.60432225465774536 0.60432225465774536
0.60281050205230713 0.60281050205230713 0.60281050205230713
0.60463958978652954 0.60463958978652954 0.60463958978652954
0.61447405815124512 0.61447405815124512 0.61447405815124512
0.64234989881515503 0.64234989881515503 0.64234989881515503
0.69102835655212402 0.69102835655212402 0.69102835655212402
0.75224441289901733 0.75224441289901733 0.75224441289901733
0.8128894567489624 0.8128894567489624 0.8128894567489624
0.86833482980728149 0.86833482980728149 0.86833482980728149
0.9169614315032959 0.9169614315032959 0.9169614315032959
0.96102428436279297 0.96102428436279297 0.96102428436279297
0.7681165337562561 0.7681165337562561 0.7681165337562561
0.75523704290390015 0.75523704290390015 0.75523704290390015
0.73857206106185913 0.73857206106185913 0.73857206106185913
0.73035848140716553 0.73035848140716553 0.73035848140716553
0.71143072843551636 0.71143072843551636 0.71143072843551636
0.68895715475082397 0.68895715475082397 0.68895715475082397
0.68946558237075806 0.68946558237075806 0.68946558237075806
0.72242414951324463 0.72242414951324463 0.72242414951324463
0.77604568004608154 0.77604568004608154 0.77604568004608154
0.83088606595993042 0.83088606595993042 0.83088606595993042
0.88129234313964844 0.88129234313964844 0.88129234313964844
0.92452329397201538 0.92452329397201538 0.92452329397201538
0.96449637413024902 0.96449637413024902 0.96449637413024902
0.91750544309616089 0.91750544309616089 0.91750544309616089
0.92907726764678955 0.92907726764678955 0.92907726764678955
0.91511845588684082 0.91511845588684082 0.91511845588684082
0.89736384153366089 0.89736384153366089 0.89736384153366089
0.85526847839355469 0.85526847839355469 0.85526847839355469
0.79998087882995605 0.79998087882995605 0.79998087882995605
0.76315999031066895 0.76315999031066895 0.76315999031066895
0.76370561122894287 0.76370561122894287 0.76370561122894287
0.79907411336898804 0.79907411336898804 0.79907411336898804
0.84435606002807617 0.84435606002807617 0.84435606002807617
0.89222228527069092 0.89222228527069092 0.89222228527069092
0.93133234977722168 0.93133234977722168 0.93133234977722168
0.96542882919311523 0.96542882919311523 0.96542882919311523
0.91594105958938599 0.91594105958938599 0.91594105958938599
0.95401930809020996 0.95401930809020996 0.95401930809020996
0.99317049980163574 0.99317049980163574 0.99317049980163574
0.9961545467376709 0.9961545467376709 0.9961545467376709
0.9777032732963562 0.9777032732963562 0.9777032732963562
0.9417259693145752 0.9417259693145752 0.9417259693145752
0.88396227359771729 0.88396227359771729 0.88396227359771729
0.83521479368209839 0.83521479368209839 0.83521479368209839
0.82536715269088745 0.82536715269088745 0.82536715269088745
0.85105150938034058 0.85105150938034058 0.85105150938034058
0.89561915397644043 0.89561915397644043 0.89561915397644043
0.93111079931259155 0.93111079931259155 0.93111079931259155
0.96360516548156738 0.96360516548156738 0.96360516548156738
0.91494208574295044 0.91494208574295044 0.91494208574295044
0.93308907747268677 0.93308907747268677 0.93308907747268677
0.98422008752822876 0.98422008752822876 0.98422008752822876
0.99996215105056763 0.99996215105056763 0.99996215105056763
0.99997437000274658 0.99997437000274658 0.99997437000274658
0.99942135810852051 0.99942135810852051 0.99942135810852051
0.98698228597640991 0.98698228597640991 0.98698228597640991
0.95271337032318115 0.95271337032318115 0.95271337032318115
0.90002685785293579 0.90002685785293579 0.90002685785293579
0.88157963752746582 0.88157963752746582 0.88157963752746582
0.90262240171432495 0.90262240171432495 0.90262240171432495
0.92460650205612183 0.92460650205612183 0.92460650205612183
0.95687466859817505 0.95687466859817505 0.95687466859817505
0.89193379878997803 0.89193379878997803 0.89193379878997803
0.90895539522171021 0.90895539522171021 0.90895539522171021
0.95701801776885986 0.95701801776885986 0.95701801776885986
0.98902988433837891 0.98902988433837891 0.98902988433837891
0.99112272262573242 0.99112272262573242 0.99112272262573242
0.99312669038772583 0.99312669038772583 0.99312669038772583
0.99674564599990845 0.99674564599990845 0.99674564599990845
0.99970024824142456 0.99970024824142456 0.99970024824142456
0.98852694034576416 0.98852694034576416 0.98852694034576416
0.96273773908615112 0.96273773908615112 0.96273773908615112
0.94175046682357788 0.94175046682357788 0.94175046682357788
0.92827224731445312 0.92827224731445312 0.92827224731445312
0.95347970724105835 0.95347970724105835 0.95347970724105835
0.055188525468111038 0.055188525468111038 0.055188525468111038
0.10328255593776703 0.10328255593776703 0.10328255593776703
0.16053888201713562 0.16053888201713562 0.16053888201713562
0.23071524500846863 0.23071524500846863 0.23071524500846863
0.31417679786682129 0.31417679786682129 0.31417679786682129
0.40928190946578979 0.40928190946578979 0.40928190946578979
0.51091158390045166 0.51091158390045166 0.51091158390045166
0.61294275522232056 0.61294275522232056 0.61294275522232056
0.70912724733352661 0.70912724733352661 0.70912724733352661
0.79322594404220581 0.79322594404220581 0.79322594404220581
0.86390805244445801 0.86390805244445801 0.86390805244445801
0.92383426427841187 0.92383426427841187 0.92383426427841187
0.97454184293746948 0.97454184293746948 0.97454184293746948
0.1108563169836998 0.1108563169836998 0.1108563169836998
0.14856965839862823 0.14856965839862823 0.14856965839862823
0.19447547197341919 0.19447547197341919 0.19447547197341919
0.25395557284355164 0.25395557284355164 0.25395557284355164
0.32895806431770325 0.32895806431770325 0.32895806431770325
0.41816464066505432 0.41816464066505432 0.41816464066505432
0.51573336124420166 0.51573336124420166 0.51573336124420166
0.61485081911087036 0.61485081911087036 0.61485081911087036
0.70890074968338013 0.70890074968338013 0.70890074968338013
0.7925269603729248 0.7925269603729248 0.7925269603729248
0.8638191819190979 0.8638191819190979 0.8638191819190979
0.92434054613113403 0.92434054613113403 0.92434054613113403
0.97576779127120972 0.97576779127120972 0.97576779127120972
0.17106251418590546 0.17106251418590546 0.17106251418590546
0.19951078295707703 0.19951078295707703 0.19951078295707703
0.23500238358974457 0.23500238358974457 0.23500238358974457
0.2832828164100647 0.2832828164100647 0.2832828164100647
0.34820866584777832 0.34820866584777832 0.34820866584777832
0.42962735891342163 0.42962735891342163 0.42962735891342163
0.52099555730819702 0.52099555730819702 0.52099555730819702
0.61509877443313599 0.61509877443313599 0.61509877443313599
0.7056460976600647 0.7056460976600647 0.7056460976600647
0.78753423690795898 0.78753423690795898 0.78753423690795898
0.85869431495666504 0.85869431495666504 0.85869431495666504
0.9197998046875 0.9197998046875 0.9197998046875
0.97171694040298462 0.97171694040298462 0.97171694040298462
0.23520879447460175 0.23520879447460175 0.23520879447460175
0.25683474540710449 0.25683474540710449 0.25683474540710449
0.28390341997146606 0.28390341997146606 0.28390341997146606
0.32199975848197937 0.32199975848197937 0.32199975848197937
0.37642103433609009 0.37642103433609009 0.37642103433609009
0.44758576154708862 0.44758576154708862 0.44758576154708862
0.53049218654632568 0.53049218654632568 0.53049218654632568
0.61815261840820312 0.61815261840820312 0.61815261840820312
0.70396804809570312 0.70396804809570312 0.70396804809570312
0.78318637609481812 0.78318637609481812 0.78318637609481812
0.8533250093460083 0.8533250093460083 0.8533250093460083
0.91357415914535522 0.91357415914535522 0.91357415914535522
0.96551513671875 0.96551513671875 0.96551513671875
0.30607327818870544 0.30607327818870544 0.30607327818870544
0.32259687781333923 0.32259687781333923 0.32259687781333923
0.34267649054527283 0.34267649054527283 0.34267649054527283
0.37131059169769287 0.37131059169769287 0.37131059169769287
0.41430801153182983 0.41430801153182983 0.41430801153182983
0.4734947681427002 0.4734947681427002 0.4734947681427002
0.54610103368759155 0.54610103368759155 0.54610103368759155
0.62627929449081421 0.62627929449081421 0.62627929449081421
0.70701432228088379 0.70701432228088379 0.70701432228088379
0.7828330397605896 0.7828330397605896 0.7828330397605896
0.85054260492324829 0.85054260492324829 0.85054260492324829
0.90926724672317505 0.90926724672317505 0.90926724672317505
0.96050137281417847 0.96050137281417847 0.96050137281417847
0.38641190528869629 0.38641190528869629 0.38641190528869629
0.39913317561149597 0.39913317561149597 0.39913317561149597
0.41280174255371094 0.41280174255371094 0.41280174255371094
0.43049010634422302 0.43049010634422302 0.43049010634422302
0.46000516414642334 0.46000516414642334 0.46000516414642334
0.50625991821289062 0.50625991821289062 0.50625991821289062
0.56824910640716553 0.56824910640716553 0.56824910640716553
0.64047926664352417 0.64047926664352417 0.64047926664352417
0.7162482738494873 0.7162482738494873 0.7162482738494873
0.78818392753601074 0.78818392753601074 0.78818392753601074
0.85281062126159668 0.85281062126159668 0.85281062126159668
0.90912413597106934 0.90912413597106934 0.90912413597106934
0.95920974016189575 0.95920974016189575 0.95920974016189575
0.47814911603927612 0.47814911603927612 0.47814911603927612
0.48830750584602356 0.48830750584602356 0.48830750584602356
0.49533554911613464 0.49533554911613464 0.49533554911613464
0.49946111440658569 0.49946111440658569 0.49946111440658569
0.51429897546768188 0.51429897546768188 0.51429897546768188
0.54586642980575562 0.54586642980575562 0.54586642980575562
0.59619051218032837 0.59619051218032837 0.59619051218032837
0.66116464138031006 0.66116464138031006 0.66116464138031006
0.73170453310012817 0.73170453310012817 0.73170453310012817
0.79946339130401611 0.79946339130401611 0.79946339130401611
0.85982131958007812 0.85982131958007812 0.85982131958007812
0.91289478540420532 0.91289478540420532 0.91289478540420532
0.96047818660736084 0.96047818660736084 0.96047818660736084
0.58687132596969604 0.58687132596969604 0.58687132596969604
0.59092146158218384 0.59092146158218384 0.59092146158218384
0.59063690900802612 0.59063690900802612 0.59063690900802612
0.58501869440078735 0.58501869440078735 0.58501869440078735
0.58375149965286255 0.58375149965286255 0.58375149965286255
0.59624451398849487 0.59624451398849487 0.59624451398849487
0.63124161958694458 0.63124161958694458 0.63124161958694458
0.68737518787384033 0.68737518787384033 0.68737518787384033
0.75317400693893433 0.75317400693893433 0.75317400693893433
0.81583636999130249 0.81583636999130249 0.81583636999130249
0.87041479349136353 0.87041479349136353 0.87041479349136353
0.91843295097351074 0.91843295097351074 0.91843295097351074
0.96273118257522583 0.96273118257522583 0.96273118257522583
0.73583608865737915 0.73583608865737915 0.73583608865737915
0.73123550415039062 0.73123550415039062 0.73123550415039062
0.71863871812820435 0.71863871812820435 0.71863871812820435
0.70770382881164551 0.70770382881164551 0.70770382881164551
0.68393033742904663 0.68393033742904663 0.68393033742904663
0.66855734586715698 0.66855734586715698 0.66855734586715698
0.67909568548202515 0.67909568548202515 0.67909568548202515
0.71989923715591431 0.71989923715591431 0.71989923715591431
0.77774012088775635 0.77774012088775635 0.77774012088775635
0.83250951766967773 0.83250951766967773 0.83250951766967773
0.88172417879104614 0.88172417879104614 0.88172417879104614
0.92405623197555542 0.92405623197555542 0.92405623197555542
0.96464747190475464 0.96464747190475464 0.96464747190475464
0.92150002717971802 0.92150002717971802 0.92150002717971802
0.91716498136520386 0.91716498136520386 0.91716498136520386
0.89645779132843018 0.89645779132843018 0.89645779132843018
0.87587910890579224 0.87587910890579224 0.87587910890579224
0.82521027326583862 0.82521027326583862 0.82521027326583862
0.7820277214050293 0.7820277214050293 0.7820277214050293
0.75461363792419434 0.75461363792419434 0.75461363792419434
0.75950443744659424 0.75950443744659424 0.75950443744659424
0.79625684022903442 0.79625684022903442 0.79625684022903442
0.84305053949356079 0.84305053949356079 0.84305053949356079
0.89141076803207397 0.89141076803207397 0.89141076803207397
0.92905968427658081 0.92905968427658081 0.92905968427658081
0.96495616436004639 0.96495616436004639 0.96495616436004639
0.94898694753646851 0.94898694753646851 0.94898694753646851
0.9734310507774353 0.9734310507774353 0.9734310507774353
0.99614673852920532 0.99614673852920532 0.99614673852920532
0.99155402183532715 0.99155402183532715 0.99155402183532715
0.96618610620498657 0.96618610620498657 0.96618610620498657
0.92689847946166992 0.92689847946166992 0.92689847946166992
0.86954164505004883 0.86954164505004883 0.86954164505004883
0.82736867666244507 0.82736867666244507 0.82736867666244507
0.82190138101577759 0.82190138101577759 0.82190138101577759
0.85185712575912476 0.85185712575912476 0.85185712575912476
0.89901542663574219 0.89901542663574219 0.89901542663574219
0.93306243419647217 0.93306243419647217 0.93306243419647217
0.96436393260955811 0.96436393260955811 0.96436393260955811
0.9252743124961853 0.9252743124961853 0.9252743124961853
0.95855152606964111 0.95855152606964111 0.95855152606964111
0.99477314949035645 0.99477314949035645 0.99477314949035645
0.99998408555984497 0.99998408555984497 0.99998408555984497
0.99999898672103882 0.99999898672103882 0.99999898672103882
0.9973602294921875 0.9973602294921875 0.9973602294921875
0.97513258457183838 0.97513258457183838 0.97513258457183838
0.93748724460601807 0.93748724460601807 0.93748724460601807
0.89848268032073975 0.89848268032073975 0.89848268032073975
0.88180899620056152 0.88180899620056152 0.88180899620056152
0.90834337472915649 0.90834337472915649 0.90834337472915649
0.93007230758666992 0.93007230758666992 0.93007230758666992
0.95831036567687988 0.95831036567687988 0.95831036567687988
0.91038388013839722 0.91038388013839722 0.91038388013839722
0.93389147520065308 0.93389147520065308 0.93389147520065308
0.96573114395141602 0.96573114395141602 0.96573114395141602
0.98910009860992432 0.98910009860992432 0.98910009860992432
0.99397248029708862 0.99397248029708862 0.99397248029708862
0.99600625038146973 0.99600625038146973 0.99600625038146973
0.99752724170684814 0.99752724170684814 0.99752724170684814
0.99891877174377441 0.99891877174377441 0.99891877174377441
0.98807281255722046 0.98807281255722046 0.98807281255722046
0.95335847139358521 0.95335847139358521 0.95335847139358521
0.93820798397064209 0.93820798397064209 0.93820798397064209
0.93117350339889526 0.93117350339889526 0.93117350339889526
0.95097601413726807 0.95097601413726807 0.95097601413726807
0.042185105383396149 0.042185105383396149 0.042185105383396149
0.091466508805751801 0.091466508805751801 0.091466508805751801
0.15269753336906433 0.15269753336906433 0.15269753336906433
0.22825489938259125 0.22825489938259125 0.22825489938259125
0.31668886542320251 0.31668886542320251 0.31668886542320251
0.41507384181022644 0.41507384181022644 0.41507384181022644
0.51843047142028809 0.51843047142028809 0.51843047142028809
0.62079519033432007 0.62079519033432007 0.62079519033432007
0.71594125032424927 0.71594125032424927 0.71594125032424927
0.79957395792007446 0.79957395792007446 0.79957395792007446
0.87048685550689697 0.87048685550689697 0.87048685550689697
0.93021869659423828 0.93021869659423828 0.93021869659423828
0.98015064001083374 0.98015064001083374 0.98015064001083374
0.098978810012340546 0.098978810012340546 0.098978810012340546
0.13768543303012848 0.13768543303012848 0.13768543303012848
0.18733507394790649 0.18733507394790649 0.18733507394790649
0.25186905264854431 0.25186905264854431 0.25186905264854431
0.33135101199150085 0.33135101199150085 0.33135101199150085
0.42381381988525391 0.42381381988525391 0.42381381988525391
0.52282989025115967 0.52282989025115967 0.52282989025115967
0.62255799770355225 0.62255799770355225 0.62255799770355225
0.71590143442153931 0.71590143442153931 0.71590143442153931
0.79902565479278564 0.79902565479278564 0.79902565479278564
0.87031686305999756 0.87031686305999756 0.87031686305999756
0.93041360378265381 0.93041360378265381 0.93041360378265381
0.98104429244995117 0.98104429244995117 0.98104429244995117
0.16006739437580109 0.16006739437580109 0.16006739437580109
0.18950486183166504 0.18950486183166504 0.18950486183166504
0.22810320556163788 0.22810320556163788 0.22810320556163788
0.2813262939453125 0.2813262939453125 0.2813262939453125
0.35083979368209839 0.35083979368209839 0.35083979368209839
0.43467149138450623 0.43467149138450623 0.43467149138450623
0.52747023105621338 0.52747023105621338 0.52747023105621338
0.62240910530090332 0.62240910530090332 0.62240910530090332
0.71280771493911743 0.71280771493911743 0.71280771493911743
0.79440426826477051 0.79440426826477051 0.79440426826477051
0.86508870124816895 0.86508870124816895 0.86508870124816895
0.92572462558746338 0.92572462558746338 0.92572462558746338
0.97688597440719604 0.97688597440719604 0.97688597440719604
0.22265332937240601 0.22265332937240601 0.22265332937240601
0.24592125415802002 0.24592125415802002 0.24592125415802002
0.2764124870300293 0.2764124870300293 0.2764124870300293
0.31889185309410095 0.31889185309410095 0.31889185309410095
0.37758356332778931 0.37758356332778931 0.37758356332778931
0.45135197043418884 0.45135197043418884 0.45135197043418884
0.53591650724411011 0.53591650724411011 0.53591650724411011
0.62446486949920654 0.62446486949920654 0.62446486949920654
0.71071112155914307 0.71071112155914307 0.71071112155914307
0.79000747203826904 0.79000747203826904 0.79000747203826904
0.85955178737640381 0.85955178737640381 0.85955178737640381
0.91932904720306396 0.91932904720306396 0.91932904720306396
0.97067058086395264 0.97067058086395264 0.97067058086395264
0.2905694842338562 0.2905694842338562 0.2905694842338562
0.30956932902336121 0.30956932902336121 0.30956932902336121
0.33332061767578125 0.33332061767578125 0.33332061767578125
0.36605697870254517 0.36605697870254517 0.36605697870254517
0.41302147507667542 0.41302147507667542 0.41302147507667542
0.4750160276889801 0.4750160276889801 0.4750160276889801
0.55001246929168701 0.55001246929168701 0.55001246929168701
0.63159680366516113 0.63159680366516113 0.63159680366516113
