luts/bw/kodak_bw_400_cn.cube
# Created by: G'MIC (https://gmic.eu)
TITLE "kodak_bw_400_cn"
# LUT size
LUT_3D_SIZE 5
# Data domain
DOMAIN_MIN 0.0 0.0 0.0
DOMAIN_MAX 1.0 1.0 1.0
# LUT data points
0.03259684145450592 0.03259684145450592 0.03259684145450592
0.068345509469509125 0.068345509469509125 0.068345509469509125
0.11508177220821381 0.11508177220821381 0.11508177220821381
0.20214198529720306 0.20214198529720306 0.20214198529720306
0.33642488718032837 0.33642488718032837 0.33642488718032837
0.1863059401512146 0.1863059401512146 0.1863059401512146
0.20830480754375458 0.20830480754375458 0.20830480754375458
0.24533241987228394 0.24533241987228394 0.24533241987228394
0.32107359170913696 0.32107359170913696 0.32107359170913696
0.43312415480613708 0.43312415480613708 0.43312415480613708
0.36923915147781372 0.36923915147781372 0.36923915147781372
0.3827517032623291 0.3827517032623291 0.3827517032623291
0.41117396950721741 0.41117396950721741 0.41117396950721741
0.46710395812988281 0.46710395812988281 0.46710395812988281
0.55249142646789551 0.55249142646789551 0.55249142646789551
0.58659976720809937 0.58659976720809937 0.58659976720809937
0.59135150909423828 0.59135150909423828 0.59135150909423828
0.60619139671325684 0.60619139671325684 0.60619139671325684
0.64029324054718018 0.64029324054718018 0.64029324054718018
0.70036506652832031 0.70036506652832031 0.70036506652832031
0.82009804248809814 0.82009804248809814 0.82009804248809814
0.81175762414932251 0.81175762414932251 0.81175762414932251
0.81155496835708618 0.81155496835708618 0.81155496835708618
0.82865947484970093 0.82865947484970093 0.82865947484970093
0.87107843160629272 0.87107843160629272 0.87107843160629272
0.091802679002285004 0.091802679002285004 0.091802679002285004
0.12512026727199554 0.12512026727199554 0.12512026727199554
0.16512283682823181 0.16512283682823181 0.16512283682823181
0.2502322793006897 0.2502322793006897 0.2502322793006897
0.37762811779975891 0.37762811779975891 0.37762811779975891
0.22971843183040619 0.22971843183040619 0.22971843183040619
0.25012028217315674 0.25012028217315674 0.25012028217315674
0.2824040949344635 0.2824040949344635 0.2824040949344635
0.35211348533630371 0.35211348533630371 0.35211348533630371
0.46071836352348328 0.46071836352348328 0.46071836352348328
0.39590069651603699 0.39590069651603699 0.39590069651603699
0.41182693839073181 0.41182693839073181 0.41182693839073181
0.43926516175270081 0.43926516175270081 0.43926516175270081
0.48789533972740173 0.48789533972740173 0.48789533972740173
0.56851232051849365 0.56851232051849365 0.56851232051849365
0.60004407167434692 0.60004407167434692 0.60004407167434692
0.61110895872116089 0.61110895872116089 0.61110895872116089
0.62921035289764404 0.62921035289764404 0.62921035289764404
0.65736329555511475 0.65736329555511475 0.65736329555511475
0.71070051193237305 0.71070051193237305 0.71070051193237305
0.82127994298934937 0.82127994298934937 0.82127994298934937
0.82085543870925903 0.82085543870925903 0.82085543870925903
0.82514715194702148 0.82514715194702148 0.82514715194702148
0.8389512300491333 0.8389512300491333 0.8389512300491333
0.87545228004455566 0.87545228004455566 0.87545228004455566
0.1547054648399353 0.1547054648399353 0.1547054648399353
0.17913228273391724 0.17913228273391724 0.17913228273391724
0.22123165428638458 0.22123165428638458 0.22123165428638458
0.30360400676727295 0.30360400676727295 0.30360400676727295
0.42427375912666321 0.42427375912666321 0.42427375912666321
0.28562307357788086 0.28562307357788086 0.28562307357788086
0.30145373940467834 0.30145373940467834 0.30145373940467834
0.33507204055786133 0.33507204055786133 0.33507204055786133
0.39797088503837585 0.39797088503837585 0.39797088503837585
0.49897128343582153 0.49897128343582153 0.49897128343582153
0.44700378179550171 0.44700378179550171 0.44700378179550171
0.45922175049781799 0.45922175049781799 0.45922175049781799
0.48807233572006226 0.48807233572006226 0.48807233572006226
0.52674978971481323 0.52674978971481323 0.52674978971481323
0.59851086139678955 0.59851086139678955 0.59851086139678955
0.63589173555374146 0.63589173555374146 0.63589173555374146
0.64870297908782959 0.64870297908782959 0.64870297908782959
0.67268329858779907 0.67268329858779907 0.67268329858779907
0.69054108858108521 0.69054108858108521 0.69054108858108521
0.73391181230545044 0.73391181230545044 0.73391181230545044
0.83492648601531982 0.83492648601531982 0.83492648601531982
0.83993780612945557 0.83993780612945557 0.83993780612945557
0.84956175088882446 0.84956175088882446 0.84956175088882446
0.85926514863967896 0.85926514863967896 0.85926514863967896
0.88974899053573608 0.88974899053573608 0.88974899053573608
0.23140808939933777 0.23140808939933777 0.23140808939933777
0.25014784932136536 0.25014784932136536 0.25014784932136536
0.29166585206985474 0.29166585206985474 0.29166585206985474
0.37079969048500061 0.37079969048500061 0.37079969048500061
0.48280778527259827 0.48280778527259827 0.48280778527259827
0.3567468523979187 0.3567468523979187 0.3567468523979187
0.36644333600997925 0.36644333600997925 0.36644333600997925
0.40263938903808594 0.40263938903808594 0.40263938903808594
0.46538010239601135 0.46538010239601135 0.46538010239601135
0.55795103311538696 0.55795103311538696 0.55795103311538696
0.51303285360336304 0.51303285360336304 0.51303285360336304
0.51753312349319458 0.51753312349319458 0.51753312349319458
0.54637521505355835 0.54637521505355835 0.54637521505355835
0.58547788858413696 0.58547788858413696 0.58547788858413696
0.65083533525466919 0.65083533525466919 0.65083533525466919
0.69066870212554932 0.69066870212554932 0.69066870212554932
0.69572573900222778 0.69572573900222778 0.69572573900222778
0.7143169641494751 0.7143169641494751 0.7143169641494751
0.73027455806732178 0.73027455806732178 0.73027455806732178
0.76983135938644409 0.76983135938644409 0.76983135938644409
0.86539626121520996 0.86539626121520996 0.86539626121520996
0.8679625391960144 0.8679625391960144 0.8679625391960144
0.87622356414794922 0.87622356414794922 0.87622356414794922
0.88388389348983765 0.88388389348983765 0.88388389348983765
0.91172909736633301 0.91172909736633301 0.91172909736633301
0.32833749055862427 0.32833749055862427 0.32833749055862427
0.34518778324127197 0.34518778324127197 0.34518778324127197
0.38773635029792786 0.38773635029792786 0.38773635029792786
0.46316438913345337 0.46316438913345337 0.46316438913345337
0.56477111577987671 0.56477111577987671 0.56477111577987671
0.45315483212471008 0.45315483212471008 0.45315483212471008
0.45871096849441528 0.45871096849441528 0.45871096849441528
0.49187353253364563 0.49187353253364563 0.49187353253364563
0.55213582515716553 0.55213582515716553 0.55213582515716553
0.6364206075668335 0.6364206075668335 0.6364206075668335
0.60789185762405396 0.60789185762405396 0.60789185762405396
0.60003405809402466 0.60003405809402466 0.60003405809402466
0.61909568309783936 0.61909568309783936 0.61909568309783936
0.657845139503479 0.657845139503479 0.657845139503479
0.72017836570739746 0.72017836570739746 0.72017836570739746
0.76660329103469849 0.76660329103469849 0.76660329103469849
0.75710678100585938 0.75710678100585938 0.75710678100585938
0.76322251558303833 0.76322251558303833 0.76322251558303833
0.78166669607162476 0.78166669607162476 0.78166669607162476
0.82324624061584473 0.82324624061584473 0.82324624061584473
0.91174232959747314 0.91174232959747314 0.91174232959747314
0.91079509258270264 0.91079509258270264 0.91079509258270264
0.91420608758926392 0.91420608758926392 0.91420608758926392
0.92231738567352295 0.92231738567352295 0.92231738567352295
0.9504401683807373 0.9504401683807373 0.9504401683807373
