luts/bw/kodak_t-max_100.cube
# Created by: G'MIC (https://gmic.eu)
TITLE "kodak_t-max_100"
# LUT size
LUT_3D_SIZE 5
# Data domain
DOMAIN_MIN 0.0 0.0 0.0
DOMAIN_MAX 1.0 1.0 1.0
# LUT data points
0.019405514001846313 0.019405514001846313 0.019405514001846313
0.036238308995962143 0.036238308995962143 0.036238308995962143
0.084838151931762695 0.084838151931762695 0.084838151931762695
0.16569960117340088 0.16569960117340088 0.16569960117340088
0.26632440090179443 0.26632440090179443 0.26632440090179443
0.15643572807312012 0.15643572807312012 0.15643572807312012
0.16844962537288666 0.16844962537288666 0.16844962537288666
0.21024258434772491 0.21024258434772491 0.21024258434772491
0.28664746880531311 0.28664746880531311 0.28664746880531311
0.37990233302116394 0.37990233302116394 0.37990233302116394
0.33928850293159485 0.33928850293159485 0.33928850293159485
0.34779560565948486 0.34779560565948486 0.34779560565948486
0.38031914830207825 0.38031914830207825 0.38031914830207825
0.44067442417144775 0.44067442417144775 0.44067442417144775
0.51783370971679688 0.51783370971679688 0.51783370971679688
0.56887650489807129 0.56887650489807129 0.56887650489807129
0.5703853964805603 0.5703853964805603 0.5703853964805603
0.58877336978912354 0.58877336978912354 0.58877336978912354
0.62647467851638794 0.62647467851638794 0.62647467851638794
0.68239778280258179 0.68239778280258179 0.68239778280258179
0.81467533111572266 0.81467533111572266 0.81467533111572266
0.80724328756332397 0.80724328756332397 0.80724328756332397
0.81162667274475098 0.81162667274475098 0.81162667274475098
0.83120125532150269 0.83120125532150269 0.83120125532150269
0.86951935291290283 0.86951935291290283 0.86951935291290283
0.058113951236009598 0.058113951236009598 0.058113951236009598
0.075649335980415344 0.075649335980415344 0.075649335980415344
0.12165789306163788 0.12165789306163788 0.12165789306163788
0.19959349930286407 0.19959349930286407 0.19959349930286407
0.29887193441390991 0.29887193441390991 0.29887193441390991
0.19209234416484833 0.19209234416484833 0.19209234416484833
0.20531803369522095 0.20531803369522095 0.20531803369522095
0.24725824594497681 0.24725824594497681 0.24725824594497681
0.3192143440246582 0.3192143440246582 0.3192143440246582
0.40968027710914612 0.40968027710914612 0.40968027710914612
0.36861208081245422 0.36861208081245422 0.36861208081245422
0.38046038150787354 0.38046038150787354 0.38046038150787354
0.4146152138710022 0.4146152138710022 0.4146152138710022
0.47041618824005127 0.47041618824005127 0.47041618824005127
0.54275059700012207 0.54275059700012207 0.54275059700012207
0.5888480544090271 0.5888480544090271 0.5888480544090271
0.59556430578231812 0.59556430578231812 0.59556430578231812
0.61707055568695068 0.61707055568695068 0.61707055568695068
0.65078675746917725 0.65078675746917725 0.65078675746917725
0.7004387378692627 0.7004387378692627 0.7004387378692627
0.82314521074295044 0.82314521074295044 0.82314521074295044
0.82424509525299072 0.82424509525299072 0.82424509525299072
0.83351528644561768 0.83351528644561768 0.83351528644561768
0.84909236431121826 0.84909236431121826 0.84909236431121826
0.88067853450775146 0.88067853450775146 0.88067853450775146
0.13106171786785126 0.13106171786785126 0.13106171786785126
0.14616025984287262 0.14616025984287262 0.14616025984287262
0.18603874742984772 0.18603874742984772 0.18603874742984772
0.25872159004211426 0.25872159004211426 0.25872159004211426
0.35691815614700317 0.35691815614700317 0.35691815614700317
0.26230564713478088 0.26230564713478088 0.26230564713478088
0.27532708644866943 0.27532708644866943 0.27532708644866943
0.31276616454124451 0.31276616454124451 0.31276616454124451
0.37686145305633545 0.37686145305633545 0.37686145305633545
0.46206104755401611 0.46206104755401611 0.46206104755401611
0.42877718806266785 0.42877718806266785 0.42877718806266785
0.44092527031898499 0.44092527031898499 0.44092527031898499
0.47295832633972168 0.47295832633972168 0.47295832633972168
0.52045750617980957 0.52045750617980957 0.52045750617980957
0.58514934778213501 0.58514934778213501 0.58514934778213501
0.62769126892089844 0.62769126892089844 0.62769126892089844
0.63764619827270508 0.63764619827270508 0.63764619827270508
0.66050755977630615 0.66050755977630615 0.66050755977630615
0.68743526935577393 0.68743526935577393 0.68743526935577393
0.7298351526260376 0.7298351526260376 0.7298351526260376
0.84336930513381958 0.84336930513381958 0.84336930513381958
0.84918850660324097 0.84918850660324097 0.84918850660324097
0.86384224891662598 0.86384224891662598 0.86384224891662598
0.87305516004562378 0.87305516004562378 0.87305516004562378
0.89816069602966309 0.89816069602966309 0.89816069602966309
0.22723940014839172 0.22723940014839172 0.22723940014839172
0.24262239038944244 0.24262239038944244 0.24262239038944244
0.2804863452911377 0.2804863452911377 0.2804863452911377
0.35040935873985291 0.35040935873985291 0.35040935873985291
0.44508594274520874 0.44508594274520874 0.44508594274520874
0.35255357623100281 0.35255357623100281 0.35255357623100281
0.3652244508266449 0.3652244508266449 0.3652244508266449
0.39906498789787292 0.39906498789787292 0.39906498789787292
0.45831173658370972 0.45831173658370972 0.45831173658370972
0.53826755285263062 0.53826755285263062 0.53826755285263062
0.50365614891052246 0.50365614891052246 0.50365614891052246
0.51419025659561157 0.51419025659561157 0.51419025659561157
0.54148381948471069 0.54148381948471069 0.54148381948471069
0.58350831270217896 0.58350831270217896 0.58350831270217896
0.64333498477935791 0.64333498477935791 0.64333498477935791
0.68045341968536377 0.68045341968536377 0.68045341968536377
0.68764388561248779 0.68764388561248779 0.68764388561248779
0.70561081171035767 0.70561081171035767 0.70561081171035767
0.72832447290420532 0.72832447290420532 0.72832447290420532
0.76762592792510986 0.76762592792510986 0.76762592792510986
0.87619417905807495 0.87619417905807495 0.87619417905807495
0.87865728139877319 0.87865728139877319 0.87865728139877319
0.88735038042068481 0.88735038042068481 0.88735038042068481
0.89507925510406494 0.89507925510406494 0.89507925510406494
0.91928011178970337 0.91928011178970337 0.91928011178970337
0.33777123689651489 0.33777123689651489 0.33777123689651489
0.35437920689582825 0.35437920689582825 0.35437920689582825
0.39441236853599548 0.39441236853599548 0.39441236853599548
0.46325752139091492 0.46325752139091492 0.46325752139091492
0.55309289693832397 0.55309289693832397 0.55309289693832397
0.45379447937011719 0.45379447937011719 0.45379447937011719
0.46676430106163025 0.46676430106163025 0.46676430106163025
0.49962079524993896 0.49962079524993896 0.49962079524993896
0.55621063709259033 0.55621063709259033 0.55621063709259033
0.63118439912796021 0.63118439912796021 0.63118439912796021
0.58929359912872314 0.58929359912872314 0.58929359912872314
0.59756529331207275 0.59756529331207275 0.59756529331207275
0.6209949254989624 0.6209949254989624 0.6209949254989624
0.66035217046737671 0.66035217046737671 0.66035217046737671
0.71803915500640869 0.71803915500640869 0.71803915500640869
0.74670112133026123 0.74670112133026123 0.74670112133026123
0.74928206205368042 0.74928206205368042 0.74928206205368042
0.76191252470016479 0.76191252470016479 0.76191252470016479
0.78331619501113892 0.78331619501113892 0.78331619501113892
0.82312428951263428 0.82312428951263428 0.82312428951263428
0.92566478252410889 0.92566478252410889 0.92566478252410889
0.92290675640106201 0.92290675640106201 0.92290675640106201
0.92602473497390747 0.92602473497390747 0.92602473497390747
0.93318045139312744 0.93318045139312744 0.93318045139312744
0.95708578824996948 0.95708578824996948 0.95708578824996948
