luts/bw/kodak_hie_hs_infra.cube
# Created by: G'MIC (https://gmic.eu)
TITLE "kodak_hie_hs_infra"
# LUT size
LUT_3D_SIZE 7
# Data domain
DOMAIN_MIN 0.0 0.0 0.0
DOMAIN_MAX 1.0 1.0 1.0
# LUT data points
0.067384533584117889 0.067384533584117889 0.067384533584117889
0.16976827383041382 0.16976827383041382 0.16976827383041382
0.31567710638046265 0.31567710638046265 0.31567710638046265
0.50582635402679443 0.50582635402679443 0.50582635402679443
0.70215016603469849 0.70215016603469849 0.70215016603469849
0.85474956035614014 0.85474956035614014 0.85474956035614014
0.96557211875915527 0.96557211875915527 0.96557211875915527
0.18151271343231201 0.18151271343231201 0.18151271343231201
0.24397885799407959 0.24397885799407959 0.24397885799407959
0.34990492463111877 0.34990492463111877 0.34990492463111877
0.51886248588562012 0.51886248588562012 0.51886248588562012
0.70007854700088501 0.70007854700088501 0.70007854700088501
0.85179233551025391 0.85179233551025391 0.85179233551025391
0.9650229811668396 0.9650229811668396 0.9650229811668396
0.3208191990852356 0.3208191990852356 0.3208191990852356
0.35403004288673401 0.35403004288673401 0.35403004288673401
0.42154189944267273 0.42154189944267273 0.42154189944267273
0.54885512590408325 0.54885512590408325 0.54885512590408325
0.70418030023574829 0.70418030023574829 0.70418030023574829
0.84597575664520264 0.84597575664520264 0.84597575664520264
0.95657271146774292 0.95657271146774292 0.95657271146774292
0.50048261880874634 0.50048261880874634 0.50048261880874634
0.50663763284683228 0.50663763284683228 0.50663763284683228
0.52947759628295898 0.52947759628295898 0.52947759628295898
0.60494011640548706 0.60494011640548706 0.60494011640548706
0.73105102777481079 0.73105102777481079 0.73105102777481079
0.85677164793014526 0.85677164793014526 0.85677164793014526
0.95782804489135742 0.95782804489135742 0.95782804489135742
0.7681165337562561 0.7681165337562561 0.7681165337562561
0.73857206106185913 0.73857206106185913 0.73857206106185913
0.71143072843551636 0.71143072843551636 0.71143072843551636
0.68946558237075806 0.68946558237075806 0.68946558237075806
0.77604568004608154 0.77604568004608154 0.77604568004608154
0.88129234313964844 0.88129234313964844 0.88129234313964844
0.96449637413024902 0.96449637413024902 0.96449637413024902
0.91594105958938599 0.91594105958938599 0.91594105958938599
0.99317049980163574 0.99317049980163574 0.99317049980163574
0.9777032732963562 0.9777032732963562 0.9777032732963562
0.88396227359771729 0.88396227359771729 0.88396227359771729
0.82536715269088745 0.82536715269088745 0.82536715269088745
0.89561915397644043 0.89561915397644043 0.89561915397644043
0.96360516548156738 0.96360516548156738 0.96360516548156738
0.89193379878997803 0.89193379878997803 0.89193379878997803
0.95701801776885986 0.95701801776885986 0.95701801776885986
0.99112272262573242 0.99112272262573242 0.99112272262573242
0.99674564599990845 0.99674564599990845 0.99674564599990845
0.98852694034576416 0.98852694034576416 0.98852694034576416
0.94175046682357788 0.94175046682357788 0.94175046682357788
0.95347970724105835 0.95347970724105835 0.95347970724105835
0.042185105383396149 0.042185105383396149 0.042185105383396149
0.15269753336906433 0.15269753336906433 0.15269753336906433
0.31668886542320251 0.31668886542320251 0.31668886542320251
0.51843047142028809 0.51843047142028809 0.51843047142028809
0.71594125032424927 0.71594125032424927 0.71594125032424927
0.87048685550689697 0.87048685550689697 0.87048685550689697
0.98015064001083374 0.98015064001083374 0.98015064001083374
0.16006739437580109 0.16006739437580109 0.16006739437580109
0.22810320556163788 0.22810320556163788 0.22810320556163788
0.35083979368209839 0.35083979368209839 0.35083979368209839
0.52747023105621338 0.52747023105621338 0.52747023105621338
0.71280771493911743 0.71280771493911743 0.71280771493911743
0.86508870124816895 0.86508870124816895 0.86508870124816895
0.97688597440719604 0.97688597440719604 0.97688597440719604
0.2905694842338562 0.2905694842338562 0.2905694842338562
0.33332061767578125 0.33332061767578125 0.33332061767578125
0.41302147507667542 0.41302147507667542 0.41302147507667542
0.55001246929168701 0.55001246929168701 0.55001246929168701
0.71326351165771484 0.71326351165771484 0.71326351165771484
0.85661196708679199 0.85661196708679199 0.85661196708679199
0.96545743942260742 0.96545743942260742 0.96545743942260742
0.45197731256484985 0.45197731256484985 0.45197731256484985
0.479164719581604 0.479164719581604 0.479164719581604
0.50624263286590576 0.50624263286590576 0.50624263286590576
0.59603714942932129 0.59603714942932129 0.59603714942932129
0.73633533716201782 0.73633533716201782 0.73633533716201782
0.86403363943099976 0.86403363943099976 0.86403363943099976
0.96402907371520996 0.96402907371520996 0.96402907371520996
0.69623750448226929 0.69623750448226929 0.69623750448226929
0.69495010375976562 0.69495010375976562 0.69495010375976562
0.66257858276367188 0.66257858276367188 0.66257858276367188
0.67505347728729248 0.67505347728729248 0.67505347728729248
0.77773141860961914 0.77773141860961914 0.77773141860961914
0.88196015357971191 0.88196015357971191 0.88196015357971191
0.96658229827880859 0.96658229827880859 0.96658229827880859
0.98395311832427979 0.98395311832427979 0.98395311832427979
0.99131995439529419 0.99131995439529419 0.99131995439529419
0.95545309782028198 0.95545309782028198 0.95545309782028198
0.84897893667221069 0.84897893667221069 0.84897893667221069
0.8144831657409668 0.8144831657409668 0.8144831657409668
0.90014368295669556 0.90014368295669556 0.90014368295669556
0.97007578611373901 0.97007578611373901 0.97007578611373901
0.92067313194274902 0.92067313194274902 0.92067313194274902
0.98139256238937378 0.98139256238937378 0.98139256238937378
0.99880373477935791 0.99880373477935791 0.99880373477935791
0.99915480613708496 0.99915480613708496 0.99915480613708496
0.98500317335128784 0.98500317335128784 0.98500317335128784
0.94841498136520386 0.94841498136520386 0.94841498136520386
0.96537107229232788 0.96537107229232788 0.96537107229232788
0.023315533995628357 0.023315533995628357 0.023315533995628357
0.15134818851947784 0.15134818851947784 0.15134818851947784
0.33730995655059814 0.33730995655059814 0.33730995655059814
0.54770177602767944 0.54770177602767944 0.54770177602767944
0.73973315954208374 0.73973315954208374 0.73973315954208374
0.88491600751876831 0.88491600751876831 0.88491600751876831
0.98663634061813354 0.98663634061813354 0.98663634061813354
0.13709178566932678 0.13709178566932678 0.13709178566932678
0.2233106791973114 0.2233106791973114 0.2233106791973114
0.36738410592079163 0.36738410592079163 0.36738410592079163
0.55433708429336548 0.55433708429336548 0.55433708429336548
0.73615670204162598 0.73615670204162598 0.73615670204162598
0.88078230619430542 0.88078230619430542 0.88078230619430542
0.98514676094055176 0.98514676094055176 0.98514676094055176
0.26705878973007202 0.26705878973007202 0.26705878973007202
0.32331123948097229 0.32331123948097229 0.32331123948097229
0.42441573739051819 0.42441573739051819 0.42441573739051819
0.57464814186096191 0.57464814186096191 0.57464814186096191
0.73593831062316895 0.73593831062316895 0.73593831062316895
0.87263280153274536 0.87263280153274536 0.87263280153274536
0.97664785385131836 0.97664785385131836 0.97664785385131836
0.41149580478668213 0.41149580478668213 0.41149580478668213
0.45006972551345825 0.45006972551345825 0.45006972551345825
0.51030951738357544 0.51030951738357544 0.51030951738357544
0.61925172805786133 0.61925172805786133 0.61925172805786133
0.75770813226699829 0.75770813226699829 0.75770813226699829
0.87749624252319336 0.87749624252319336 0.87749624252319336
0.97399604320526123 0.97399604320526123 0.97399604320526123
0.62003850936889648 0.62003850936889648 0.62003850936889648
0.62629300355911255 0.62629300355911255 0.62629300355911255
0.63117587566375732 0.63117587566375732 0.63117587566375732
0.68612992763519287 0.68612992763519287 0.68612992763519287
0.7976078987121582 0.7976078987121582 0.7976078987121582
0.89552861452102661 0.89552861452102661 0.89552861452102661
0.97978866100311279 0.97978866100311279 0.97978866100311279
0.96843743324279785 0.96843743324279785 0.96843743324279785
0.94030380249023438 0.94030380249023438 0.94030380249023438
0.87508267164230347 0.87508267164230347 0.87508267164230347
0.80293524265289307 0.80293524265289307 0.80293524265289307
0.8329809308052063 0.8329809308052063 0.8329809308052063
0.91338944435119629 0.91338944435119629 0.91338944435119629
0.98462855815887451 0.98462855815887451 0.98462855815887451
0.98644012212753296 0.98644012212753296 0.98644012212753296
0.9878392219543457 0.9878392219543457 0.9878392219543457
0.99786794185638428 0.99786794185638428 0.99786794185638428
0.999187171459198 0.999187171459198 0.999187171459198
0.96792924404144287 0.96792924404144287 0.96792924404144287
0.94146966934204102 0.94146966934204102 0.94146966934204102
0.9759746789932251 0.9759746789932251 0.9759746789932251
0.045903779566287994 0.045903779566287994 0.045903779566287994
0.19965076446533203 0.19965076446533203 0.19965076446533203
0.38942375779151917 0.38942375779151917 0.38942375779151917
0.59417140483856201 0.59417140483856201 0.59417140483856201
0.77365285158157349 0.77365285158157349 0.77365285158157349
0.90125733613967896 0.90125733613967896 0.90125733613967896
0.99010741710662842 0.99010741710662842 0.99010741710662842
0.14440794289112091 0.14440794289112091 0.14440794289112091
0.25759518146514893 0.25759518146514893 0.25759518146514893
0.41348123550415039 0.41348123550415039 0.41348123550415039
0.59852248430252075 0.59852248430252075 0.59852248430252075
0.76880949735641479 0.76880949735641479 0.76880949735641479
0.89933556318283081 0.89933556318283081 0.89933556318283081
0.99072784185409546 0.99072784185409546 0.99072784185409546
0.27090495824813843 0.27090495824813843 0.27090495824813843
0.34480464458465576 0.34480464458465576 0.34480464458465576
0.46283724904060364 0.46283724904060364 0.46283724904060364
0.61752402782440186 0.61752402782440186 0.61752402782440186
0.76970559358596802 0.76970559358596802 0.76970559358596802
0.89320796728134155 0.89320796728134155 0.89320796728134155
0.98558700084686279 0.98558700084686279 0.98558700084686279
0.40494135022163391 0.40494135022163391 0.40494135022163391
0.4512195885181427 0.4512195885181427 0.4512195885181427
0.53680837154388428 0.53680837154388428 0.53680837154388428
0.66169530153274536 0.66169530153274536 0.66169530153274536
0.79119354486465454 0.79119354486465454 0.79119354486465454
0.89634168148040771 0.89634168148040771 0.89634168148040771
0.98371416330337524 0.98371416330337524 0.98371416330337524
0.56124049425125122 0.56124049425125122 0.56124049425125122
0.57321745157241821 0.57321745157241821 0.57321745157241821
0.61857396364212036 0.61857396364212036 0.61857396364212036
0.71927505731582642 0.71927505731582642 0.71927505731582642
0.82706665992736816 0.82706665992736816 0.82706665992736816
0.9117395281791687 0.9117395281791687 0.9117395281791687
0.98921018838882446 0.98921018838882446 0.98921018838882446
0.83954697847366333 0.83954697847366333 0.83954697847366333
0.81863915920257568 0.81863915920257568 0.81863915920257568
0.7746850848197937 0.7746850848197937 0.7746850848197937
0.77553653717041016 0.77553653717041016 0.77553653717041016
0.84368550777435303 0.84368550777435303 0.84368550777435303
0.91916066408157349 0.91916066408157349 0.91916066408157349
0.99144232273101807 0.99144232273101807 0.99144232273101807
0.99666601419448853 0.99666601419448853 0.99666601419448853
0.99357336759567261 0.99357336759567261 0.99357336759567261
0.99966055154800415 0.99966055154800415 0.99966055154800415
0.98805421590805054 0.98805421590805054 0.98805421590805054
0.94462770223617554 0.94462770223617554 0.94462770223617554
0.92661243677139282 0.92661243677139282 0.92661243677139282
0.98777425289154053 0.98777425289154053 0.98777425289154053
0.079067781567573547 0.079067781567573547 0.079067781567573547
0.2873375415802002 0.2873375415802002 0.2873375415802002
0.4640953540802002 0.4640953540802002 0.4640953540802002
0.64038664102554321 0.64038664102554321 0.64038664102554321
0.79722607135772705 0.79722607135772705 0.79722607135772705
0.91510361433029175 0.91510361433029175 0.91510361433029175
0.99191713333129883 0.99191713333129883 0.99191713333129883
0.19034871459007263 0.19034871459007263 0.19034871459007263
0.33341491222381592 0.33341491222381592 0.33341491222381592
0.48635199666023254 0.48635199666023254 0.48635199666023254
0.65056264400482178 0.65056264400482178 0.65056264400482178
0.80167806148529053 0.80167806148529053 0.80167806148529053
0.91848742961883545 0.91848742961883545 0.91848742961883545
0.99425375461578369 0.99425375461578369 0.99425375461578369
0.31802421808242798 0.31802421808242798 0.31802421808242798
0.40696915984153748 0.40696915984153748 0.40696915984153748
0.52765274047851562 0.52765274047851562 0.52765274047851562
0.67165267467498779 0.67165267467498779 0.67165267467498779
0.80898129940032959 0.80898129940032959 0.80898129940032959
0.91713148355484009 0.91713148355484009 0.91713148355484009
0.9922674298286438 0.9922674298286438 0.9922674298286438
0.44047108292579651 0.44047108292579651 0.44047108292579651
0.49637314677238464 0.49637314677238464 0.49637314677238464
0.59022533893585205 0.59022533893585205 0.59022533893585205
0.71194970607757568 0.71194970607757568 0.71194970607757568
0.82794857025146484 0.82794857025146484 0.82794857025146484
0.92070513963699341 0.92070513963699341 0.92070513963699341
0.99111992120742798 0.99111992120742798 0.99111992120742798
0.54922986030578613 0.54922986030578613 0.54922986030578613
0.58571094274520874 0.58571094274520874 0.58571094274520874
0.65900725126266479 0.65900725126266479 0.65900725126266479
0.76145386695861816 0.76145386695861816 0.76145386695861816
0.85585379600524902 0.85585379600524902 0.85585379600524902
0.93284904956817627 0.93284904956817627 0.93284904956817627
0.99542289972305298 0.99542289972305298 0.99542289972305298
0.70648390054702759 0.70648390054702759 0.70648390054702759
0.70637321472167969 0.70637321472167969 0.70637321472167969
0.73334342241287231 0.73334342241287231 0.73334342241287231
0.79754835367202759 0.79754835367202759 0.79754835367202759
0.87135398387908936 0.87135398387908936 0.87135398387908936
0.93747478723526001 0.93747478723526001 0.93747478723526001
0.99697649478912354 0.99697649478912354 0.99697649478912354
0.99865764379501343 0.99865764379501343 0.99865764379501343
0.99311155080795288 0.99311155080795288 0.99311155080795288
0.97931784391403198 0.97931784391403198 0.97931784391403198
0.94132792949676514 0.94132792949676514 0.94132792949676514
0.92565041780471802 0.92565041780471802 0.92565041780471802
0.93264788389205933 0.93264788389205933 0.93264788389205933
0.98975914716720581 0.98975914716720581 0.98975914716720581
0.19236074388027191 0.19236074388027191 0.19236074388027191
0.39730903506278992 0.39730903506278992 0.39730903506278992
0.55030781030654907 0.55030781030654907 0.55030781030654907
0.69081985950469971 0.69081985950469971 0.69081985950469971
0.82374316453933716 0.82374316453933716 0.82374316453933716
0.93650031089782715 0.93650031089782715 0.93650031089782715
0.99494254589080811 0.99494254589080811 0.99494254589080811
0.30609336495399475 0.30609336495399475 0.30609336495399475
0.43532615900039673 0.43532615900039673 0.43532615900039673
0.57201343774795532 0.57201343774795532 0.57201343774795532
0.70971113443374634 0.70971113443374634 0.70971113443374634
0.83955889940261841 0.83955889940261841 0.83955889940261841
0.94389075040817261 0.94389075040817261 0.94389075040817261
0.99875962734222412 0.99875962734222412 0.99875962734222412
0.42639526724815369 0.42639526724815369 0.42639526724815369
0.50373083353042603 0.50373083353042603 0.50373083353042603
0.60989373922348022 0.60989373922348022 0.60989373922348022
0.73562204837799072 0.73562204837799072 0.73562204837799072
0.85610157251358032 0.85610157251358032 0.85610157251358032
0.94733333587646484 0.94733333587646484 0.94733333587646484
0.99831092357635498 0.99831092357635498 0.99831092357635498
0.53484731912612915 0.53484731912612915 0.53484731912612915
0.58010131120681763 0.58010131120681763 0.58010131120681763
0.66290891170501709 0.66290891170501709 0.66290891170501709
0.76790797710418701 0.76790797710418701 0.76790797710418701
0.86922717094421387 0.86922717094421387 0.86922717094421387
0.94824564456939697 0.94824564456939697 0.94824564456939697
0.99566733837127686 0.99566733837127686 0.99566733837127686
0.63029497861862183 0.63029497861862183 0.63029497861862183
0.65998828411102295 0.65998828411102295 0.65998828411102295
0.72621113061904907 0.72621113061904907 0.72621113061904907
0.80623245239257812 0.80623245239257812 0.80623245239257812
0.88099342584609985 0.88099342584609985 0.88099342584609985
0.95385324954986572 0.95385324954986572 0.95385324954986572
0.99869370460510254 0.99869370460510254 0.99869370460510254
0.7014738917350769 0.7014738917350769 0.7014738917350769
0.7298591136932373 0.7298591136932373 0.7298591136932373
0.77494317293167114 0.77494317293167114 0.77494317293167114
0.83431661128997803 0.83431661128997803 0.83431661128997803
0.90336698293685913 0.90336698293685913 0.90336698293685913
0.97085130214691162 0.97085130214691162 0.97085130214691162
1 1 1
0.92906814813613892 0.92906814813613892 0.92906814813613892
0.92198914289474487 0.92198914289474487 0.92198914289474487
0.89804375171661377 0.89804375171661377 0.89804375171661377
0.8958856463432312 0.8958856463432312 0.8958856463432312
0.91222459077835083 0.91222459077835083 0.91222459077835083
0.95451754331588745 0.95451754331588745 0.95451754331588745
0.99589550495147705 0.99589550495147705 0.99589550495147705
0.37118583917617798 0.37118583917617798 0.37118583917617798
0.53575992584228516 0.53575992584228516 0.53575992584228516
0.65112745761871338 0.65112745761871338 0.65112745761871338
0.75860816240310669 0.75860816240310669 0.75860816240310669
0.86937439441680908 0.86937439441680908 0.86937439441680908
0.97788006067276001 0.97788006067276001 0.97788006067276001
0.99963051080703735 0.99963051080703735 0.99963051080703735
0.48621833324432373 0.48621833324432373 0.48621833324432373
0.57530593872070312 0.57530593872070312 0.57530593872070312
0.67893850803375244 0.67893850803375244 0.67893850803375244
0.78612488508224487 0.78612488508224487 0.78612488508224487
0.89315420389175415 0.89315420389175415 0.89315420389175415
0.98080915212631226 0.98080915212631226 0.98080915212631226
1 1 1
0.57973945140838623 0.57973945140838623 0.57973945140838623
0.63606685400009155 0.63606685400009155 0.63606685400009155
0.71445584297180176 0.71445584297180176 0.71445584297180176
0.81384211778640747 0.81384211778640747 0.81384211778640747
0.91512537002563477 0.91512537002563477 0.91512537002563477
0.98747712373733521 0.98747712373733521 0.98747712373733521
1 1 1
0.66544616222381592 0.66544616222381592 0.66544616222381592
0.69609445333480835 0.69609445333480835 0.69609445333480835
0.75421708822250366 0.75421708822250366 0.75421708822250366
0.8359190821647644 0.8359190821647644 0.8359190821647644
0.92304003238677979 0.92304003238677979 0.92304003238677979
0.98274582624435425 0.98274582624435425 0.98274582624435425
0.9993775486946106 0.9993775486946106 0.9993775486946106
0.73772507905960083 0.73772507905960083 0.73772507905960083
0.75797140598297119 0.75797140598297119 0.75797140598297119
0.79910403490066528 0.79910403490066528 0.79910403490066528
0.85634791851043701 0.85634791851043701 0.85634791851043701
0.9268994927406311 0.9268994927406311 0.9268994927406311
0.97987926006317139 0.97987926006317139 0.97987926006317139
0.99950480461120605 0.99950480461120605 0.99950480461120605
0.80192941427230835 0.80192941427230835 0.80192941427230835
0.81386971473693848 0.81386971473693848 0.81386971473693848
0.84309065341949463 0.84309065341949463 0.84309065341949463
0.89055806398391724 0.89055806398391724 0.89055806398391724
0.94970768690109253 0.94970768690109253 0.94970768690109253
0.99180465936660767 0.99180465936660767 0.99180465936660767
1 1 1
0.84441369771957397 0.84441369771957397 0.84441369771957397
0.86028236150741577 0.86028236150741577 0.86028236150741577
0.88072186708450317 0.88072186708450317 0.88072186708450317
0.9051135778427124 0.9051135778427124 0.9051135778427124
0.9517667293548584 0.9517667293548584 0.9517667293548584
0.97536516189575195 0.97536516189575195 0.97536516189575195
0.99859839677810669 0.99859839677810669 0.99859839677810669
