luts/bw/kodak_t-max_3200.cube
# Created by: G'MIC (https://gmic.eu)
TITLE "kodak_t-max_3200"
# LUT size
LUT_3D_SIZE 7
# Data domain
DOMAIN_MIN 0.0 0.0 0.0
DOMAIN_MAX 1.0 1.0 1.0
# LUT data points
0.010094287805259228 0.010094287805259228 0.010094287805259228
0.017705580219626427 0.017705580219626427 0.017705580219626427
0.025928812101483345 0.025928812101483345 0.025928812101483345
0.041959036141633987 0.041959036141633987 0.041959036141633987
0.073036700487136841 0.073036700487136841 0.073036700487136841
0.12337728589773178 0.12337728589773178 0.12337728589773178
0.21323564648628235 0.21323564648628235 0.21323564648628235
0.11031697690486908 0.11031697690486908 0.11031697690486908
0.10955638438463211 0.10955638438463211 0.10955638438463211
0.12030778825283051 0.12030778825283051 0.12030778825283051
0.14353479444980621 0.14353479444980621 0.14353479444980621
0.17951412498950958 0.17951412498950958 0.17951412498950958
0.2424648106098175 0.2424648106098175 0.2424648106098175
0.33615827560424805 0.33615827560424805 0.33615827560424805
0.24691855907440186 0.24691855907440186 0.24691855907440186
0.23917578160762787 0.23917578160762787 0.23917578160762787
0.24852906167507172 0.24852906167507172 0.24852906167507172
0.27793547511100769 0.27793547511100769 0.27793547511100769
0.31726774573326111 0.31726774573326111 0.31726774573326111
0.38003402948379517 0.38003402948379517 0.38003402948379517
0.45885080099105835 0.45885080099105835 0.45885080099105835
0.42322474718093872 0.42322474718093872 0.42322474718093872
0.42169314622879028 0.42169314622879028 0.42169314622879028
0.43409901857376099 0.43409901857376099 0.43409901857376099
0.45446902513504028 0.45446902513504028 0.45446902513504028
0.48536068201065063 0.48536068201065063 0.48536068201065063
0.52996057271957397 0.52996057271957397 0.52996057271957397
0.58273279666900635 0.58273279666900635 0.58273279666900635
0.61432772874832153 0.61432772874832153 0.61432772874832153
0.61034125089645386 0.61034125089645386 0.61034125089645386
0.61597329378128052 0.61597329378128052 0.61597329378128052
0.62651920318603516 0.62651920318603516 0.62651920318603516
0.6454893946647644 0.6454893946647644 0.6454893946647644
0.67008477449417114 0.67008477449417114 0.67008477449417114
0.70038622617721558 0.70038622617721558 0.70038622617721558
0.77182871103286743 0.77182871103286743 0.77182871103286743
0.76457405090332031 0.76457405090332031 0.76457405090332031
0.76161044836044312 0.76161044836044312 0.76161044836044312
0.7675931453704834 0.7675931453704834 0.7675931453704834
0.7785499095916748 0.7785499095916748 0.7785499095916748
0.79169785976409912 0.79169785976409912 0.79169785976409912
0.81032866239547729 0.81032866239547729 0.81032866239547729
0.90024930238723755 0.90024930238723755 0.90024930238723755
0.89411014318466187 0.89411014318466187 0.89411014318466187
0.89173346757888794 0.89173346757888794 0.89173346757888794
0.89367926120758057 0.89367926120758057 0.89367926120758057
0.89791452884674072 0.89791452884674072 0.89791452884674072
0.90474122762680054 0.90474122762680054 0.90474122762680054
0.91764271259307861 0.91764271259307861 0.91764271259307861
0.020379174500703812 0.020379174500703812 0.020379174500703812
0.029131706804037094 0.029131706804037094 0.029131706804037094
0.043776180595159531 0.043776180595159531 0.043776180595159531
0.065990060567855835 0.065990060567855835 0.065990060567855835
0.10352977365255356 0.10352977365255356 0.10352977365255356
0.16158397495746613 0.16158397495746613 0.16158397495746613
0.26170599460601807 0.26170599460601807 0.26170599460601807
0.11898227781057358 0.11898227781057358 0.11898227781057358
0.12332793325185776 0.12332793325185776 0.12332793325185776
0.14050672948360443 0.14050672948360443 0.14050672948360443
0.17149727046489716 0.17149727046489716 0.17149727046489716
0.21494181454181671 0.21494181454181671 0.21494181454181671
0.2818208634853363 0.2818208634853363 0.2818208634853363
0.3785170316696167 0.3785170316696167 0.3785170316696167
0.26297655701637268 0.26297655701637268 0.26297655701637268
0.25962039828300476 0.25962039828300476 0.25962039828300476
0.27581870555877686 0.27581870555877686 0.27581870555877686
0.3123200535774231 0.3123200535774231 0.3123200535774231
0.35690158605575562 0.35690158605575562 0.35690158605575562
0.41937285661697388 0.41937285661697388 0.41937285661697388
0.49671602249145508 0.49671602249145508 0.49671602249145508
0.44796913862228394 0.44796913862228394 0.44796913862228394
0.44909161329269409 0.44909161329269409 0.44909161329269409
0.46837064623832703 0.46837064623832703 0.46837064623832703
0.49182218313217163 0.49182218313217163 0.49182218313217163
0.52293354272842407 0.52293354272842407 0.52293354272842407
0.5649796724319458 0.5649796724319458 0.5649796724319458
0.61404144763946533 0.61404144763946533 0.61404144763946533
0.6338951587677002 0.6338951587677002 0.6338951587677002
0.63447648286819458 0.63447648286819458 0.63447648286819458
0.64479237794876099 0.64479237794876099 0.64479237794876099
0.65714240074157715 0.65714240074157715 0.65714240074157715
0.67507672309875488 0.67507672309875488 0.67507672309875488
0.695384681224823 0.695384681224823 0.695384681224823
0.7219613790512085 0.7219613790512085 0.7219613790512085
0.78700250387191772 0.78700250387191772 0.78700250387191772
0.78117221593856812 0.78117221593856812 0.78117221593856812
0.77893710136413574 0.77893710136413574 0.77893710136413574
0.78695625066757202 0.78695625066757202 0.78695625066757202
0.79733777046203613 0.79733777046203613 0.79733777046203613
0.80729514360427856 0.80729514360427856 0.80729514360427856
0.82292520999908447 0.82292520999908447 0.82292520999908447
0.91242372989654541 0.91242372989654541 0.91242372989654541
0.90566527843475342 0.90566527843475342 0.90566527843475342
0.9035840630531311 0.9035840630531311 0.9035840630531311
0.90601533651351929 0.90601533651351929 0.90601533651351929
0.90997439622879028 0.90997439622879028 0.90997439622879028
0.91457647085189819 0.91457647085189819 0.91457647085189819
0.9244455099105835 0.9244455099105835 0.9244455099105835
0.045256085693836212 0.045256085693836212 0.045256085693836212
0.052886437624692917 0.052886437624692917 0.052886437624692917
0.069993577897548676 0.069993577897548676 0.069993577897548676
0.097406692802906036 0.097406692802906036 0.097406692802906036
0.13641378283500671 0.13641378283500671 0.13641378283500671
0.19879345595836639 0.19879345595836639 0.19879345595836639
0.295461505651474 0.295461505651474 0.295461505651474
0.15022560954093933 0.15022560954093933 0.15022560954093933
0.15608589351177216 0.15608589351177216 0.15608589351177216
0.17520590126514435 0.17520590126514435 0.17520590126514435
0.20807157456874847 0.20807157456874847 0.20807157456874847
0.2545560896396637 0.2545560896396637 0.2545560896396637
0.32472068071365356 0.32472068071365356 0.32472068071365356
0.41697284579277039 0.41697284579277039 0.41697284579277039
0.29995355010032654 0.29995355010032654 0.29995355010032654
0.30178773403167725 0.30178773403167725 0.30178773403167725
0.32017424702644348 0.32017424702644348 0.32017424702644348
0.35386353731155396 0.35386353731155396 0.35386353731155396
0.39793062210083008 0.39793062210083008 0.39793062210083008
0.45905026793479919 0.45905026793479919 0.45905026793479919
0.53185546398162842 0.53185546398162842 0.53185546398162842
0.48367089033126831 0.48367089033126831 0.48367089033126831
0.48514190316200256 0.48514190316200256 0.48514190316200256
0.50061696767807007 0.50061696767807007 0.50061696767807007
0.52546864748001099 0.52546864748001099 0.52546864748001099
0.55392199754714966 0.55392199754714966 0.55392199754714966
0.59282100200653076 0.59282100200653076 0.59282100200653076
0.64035743474960327 0.64035743474960327 0.64035743474960327
0.66004294157028198 0.66004294157028198 0.66004294157028198
0.65826672315597534 0.65826672315597534 0.65826672315597534
0.66535288095474243 0.66535288095474243 0.66535288095474243
0.67849564552307129 0.67849564552307129 0.67849564552307129
0.69141000509262085 0.69141000509262085 0.69141000509262085
0.71101635694503784 0.71101635694503784 0.71101635694503784
0.73872488737106323 0.73872488737106323 0.73872488737106323
0.80156570672988892 0.80156570672988892 0.80156570672988892
0.79638963937759399 0.79638963937759399 0.79638963937759399
0.79516017436981201 0.79516017436981201 0.79516017436981201
0.79986202716827393 0.79986202716827393 0.79986202716827393
0.80702823400497437 0.80702823400497437 0.80702823400497437
0.81738072633743286 0.81738072633743286 0.81738072633743286
0.8336493968963623 0.8336493968963623 0.8336493968963623
0.92097645998001099 0.92097645998001099 0.92097645998001099
0.91343462467193604 0.91343462467193604 0.91343462467193604
0.9103778600692749 0.9103778600692749 0.9103778600692749
0.91340857744216919 0.91340857744216919 0.91340857744216919
0.91787040233612061 0.91787040233612061 0.91787040233612061
0.92246389389038086 0.92246389389038086 0.92246389389038086
0.93264859914779663 0.93264859914779663 0.93264859914779663
0.079968608915805817 0.079968608915805817 0.079968608915805817
0.090624459087848663 0.090624459087848663 0.090624459087848663
0.10955865681171417 0.10955865681171417 0.10955865681171417
0.14062173664569855 0.14062173664569855 0.14062173664569855
0.18281583487987518 0.18281583487987518 0.18281583487987518
0.24690762162208557 0.24690762162208557 0.24690762162208557
0.34076160192489624 0.34076160192489624 0.34076160192489624
0.19941605627536774 0.19941605627536774 0.19941605627536774
0.2059173583984375 0.2059173583984375 0.2059173583984375
0.22733663022518158 0.22733663022518158 0.22733663022518158
0.26186063885688782 0.26186063885688782 0.26186063885688782
0.30775266885757446 0.30775266885757446 0.30775266885757446
0.37735015153884888 0.37735015153884888 0.37735015153884888
0.46622183918952942 0.46622183918952942 0.46622183918952942
0.35155439376831055 0.35155439376831055 0.35155439376831055
0.35622492432594299 0.35622492432594299 0.35622492432594299
0.37604793906211853 0.37604793906211853 0.37604793906211853
0.40880811214447021 0.40880811214447021 0.40880811214447021
0.44900491833686829 0.44900491833686829 0.44900491833686829
0.50516438484191895 0.50516438484191895 0.50516438484191895
0.57325839996337891 0.57325839996337891 0.57325839996337891
0.52512067556381226 0.52512067556381226 0.52512067556381226
0.52708262205123901 0.52708262205123901 0.52708262205123901
0.54111528396606445 0.54111528396606445 0.54111528396606445
0.56416302919387817 0.56416302919387817 0.56416302919387817
0.58959853649139404 0.58959853649139404 0.58959853649139404
0.62415260076522827 0.62415260076522827 0.62415260076522827
0.66934013366699219 0.66934013366699219 0.66934013366699219
0.6859591007232666 0.6859591007232666 0.6859591007232666
0.68337106704711914 0.68337106704711914 0.68337106704711914
0.68841135501861572 0.68841135501861572 0.68841135501861572
0.69831138849258423 0.69831138849258423 0.69831138849258423
0.70990151166915894 0.70990151166915894 0.70990151166915894
0.73014265298843384 0.73014265298843384 0.73014265298843384
0.75925707817077637 0.75925707817077637 0.75925707817077637
0.81508922576904297 0.81508922576904297 0.81508922576904297
0.81089073419570923 0.81089073419570923 0.81089073419570923
0.81001573801040649 0.81001573801040649 0.81001573801040649
0.81288439035415649 0.81288439035415649 0.81288439035415649
0.81804639101028442 0.81804639101028442 0.81804639101028442
0.82956326007843018 0.82956326007843018 0.82956326007843018
0.84818238019943237 0.84818238019943237 0.84818238019943237
0.9278186559677124 0.9278186559677124 0.9278186559677124
0.921284019947052 0.921284019947052 0.921284019947052
0.91902124881744385 0.91902124881744385 0.91902124881744385
0.92198258638381958 0.92198258638381958 0.92198258638381958
0.92592549324035645 0.92592549324035645 0.92592549324035645
0.93091344833374023 0.93091344833374023 0.93091344833374023
0.94217145442962646 0.94217145442962646 0.94217145442962646
0.13181440532207489 0.13181440532207489 0.13181440532207489
0.1480206698179245 0.1480206698179245 0.1480206698179245
0.1728433221578598 0.1728433221578598 0.1728433221578598
0.20573534071445465 0.20573534071445465 0.20573534071445465
0.24920012056827545 0.24920012056827545 0.24920012056827545
0.31743186712265015 0.31743186712265015 0.31743186712265015
0.42975413799285889 0.42975413799285889 0.42975413799285889
0.26368558406829834 0.26368558406829834 0.26368558406829834
0.27685433626174927 0.27685433626174927 0.27685433626174927
0.3054753839969635 0.3054753839969635 0.3054753839969635
0.34049755334854126 0.34049755334854126 0.34049755334854126
0.38371080160140991 0.38371080160140991 0.38371080160140991
0.44873106479644775 0.44873106479644775 0.44873106479644775
0.53804928064346313 0.53804928064346313 0.53804928064346313
0.41342729330062866 0.41342729330062866 0.41342729330062866
0.42532432079315186 0.42532432079315186 0.42532432079315186
0.45173826813697815 0.45173826813697815 0.45173826813697815
0.48359328508377075 0.48359328508377075 0.48359328508377075
0.51738721132278442 0.51738721132278442 0.51738721132278442
0.56316649913787842 0.56316649913787842 0.56316649913787842
0.62295430898666382 0.62295430898666382 0.62295430898666382
0.56725621223449707 0.56725621223449707 0.56725621223449707
0.57539176940917969 0.57539176940917969 0.57539176940917969
0.59295821189880371 0.59295821189880371 0.59295821189880371
0.61589169502258301 0.61589169502258301 0.61589169502258301
0.63638222217559814 0.63638222217559814 0.63638222217559814
0.66327488422393799 0.66327488422393799 0.66327488422393799
0.70225220918655396 0.70225220918655396 0.70225220918655396
0.70729959011077881 0.70729959011077881 0.70729959011077881
0.70964980125427246 0.70964980125427246 0.70964980125427246
0.71738338470458984 0.71738338470458984 0.71738338470458984
0.72805607318878174 0.72805607318878174 0.72805607318878174
0.7383306622505188 0.7383306622505188 0.7383306622505188
0.75486594438552856 0.75486594438552856 0.75486594438552856
0.78134411573410034 0.78134411573410034 0.78134411573410034
0.82641446590423584 0.82641446590423584 0.82641446590423584
0.82423615455627441 0.82423615455627441 0.82423615455627441
0.82655143737792969 0.82655143737792969 0.82655143737792969
0.83166635036468506 0.83166635036468506 0.83166635036468506
0.83660674095153809 0.83660674095153809 0.83660674095153809
0.84556090831756592 0.84556090831756592 0.84556090831756592
0.86299335956573486 0.86299335956573486 0.86299335956573486
0.93397426605224609 0.93397426605224609 0.93397426605224609
0.92860442399978638 0.92860442399978638 0.92860442399978638
0.92842984199523926 0.92842984199523926 0.92842984199523926
0.93280470371246338 0.93280470371246338 0.93280470371246338
0.93737363815307617 0.93737363815307617 0.93737363815307617
0.94218289852142334 0.94218289852142334 0.94218289852142334
0.95371389389038086 0.95371389389038086 0.95371389389038086
0.2179035097360611 0.2179035097360611 0.2179035097360611
0.24263133108615875 0.24263133108615875 0.24263133108615875
0.27155476808547974 0.27155476808547974 0.27155476808547974
0.29866203665733337 0.29866203665733337 0.29866203665733337
0.34337198734283447 0.34337198734283447 0.34337198734283447
0.40891984105110168 0.40891984105110168 0.40891984105110168
0.50730293989181519 0.50730293989181519 0.50730293989181519
0.35351034998893738 0.35351034998893738 0.35351034998893738
0.37493100762367249 0.37493100762367249 0.37493100762367249
0.40763765573501587 0.40763765573501587 0.40763765573501587
0.4402163028717041 0.4402163028717041 0.4402163028717041
0.47830453515052795 0.47830453515052795 0.47830453515052795
0.53126603364944458 0.53126603364944458 0.53126603364944458
0.6025090217590332 0.6025090217590332 0.6025090217590332
0.48979806900024414 0.48979806900024414 0.48979806900024414
0.50826895236968994 0.50826895236968994 0.50826895236968994
0.53811395168304443 0.53811395168304443 0.53811395168304443
0.56634485721588135 0.56634485721588135 0.56634485721588135
0.59333997964859009 0.59333997964859009 0.59333997964859009
0.62586694955825806 0.62586694955825806 0.62586694955825806
0.67009252309799194 0.67009252309799194 0.67009252309799194
0.61965125799179077 0.61965125799179077 0.61965125799179077
0.63152647018432617 0.63152647018432617 0.63152647018432617
0.65085965394973755 0.65085965394973755 0.65085965394973755
0.67094939947128296 0.67094939947128296 0.67094939947128296
0.68769925832748413 0.68769925832748413 0.68769925832748413
0.706531822681427 0.706531822681427 0.706531822681427
0.73620903491973877 0.73620903491973877 0.73620903491973877
0.73801147937774658 0.73801147937774658 0.73801147937774658
0.74220734834671021 0.74220734834671021 0.74220734834671021
0.7517096996307373 0.7517096996307373 0.7517096996307373
0.762714684009552 0.762714684009552 0.762714684009552
0.77206826210021973 0.77206826210021973 0.77206826210021973
0.78417313098907471 0.78417313098907471 0.78417313098907471
0.80632120370864868 0.80632120370864868 0.80632120370864868
0.8438381552696228 0.8438381552696228 0.8438381552696228
0.84214508533477783 0.84214508533477783 0.84214508533477783
0.84532791376113892 0.84532791376113892 0.84532791376113892
0.85134577751159668 0.85134577751159668 0.85134577751159668
0.85751402378082275 0.85751402378082275 0.85751402378082275
0.86535704135894775 0.86535704135894775 0.86535704135894775
0.88139021396636963 0.88139021396636963 0.88139021396636963
0.94432538747787476 0.94432538747787476 0.94432538747787476
0.93797695636749268 0.93797695636749268 0.93797695636749268
0.93825143575668335 0.93825143575668335 0.93825143575668335
0.94276535511016846 0.94276535511016846 0.94276535511016846
0.94919973611831665 0.94919973611831665 0.94919973611831665
0.95645129680633545 0.95645129680633545 0.95645129680633545
0.97068864107131958 0.97068864107131958 0.97068864107131958
0.34926033020019531 0.34926033020019531 0.34926033020019531
0.37024667859077454 0.37024667859077454 0.37024667859077454
0.39795005321502686 0.39795005321502686 0.39795005321502686
0.41852459311485291 0.41852459311485291 0.41852459311485291
0.46243724226951599 0.46243724226951599 0.46243724226951599
0.51720958948135376 0.51720958948135376 0.51720958948135376
0.57991033792495728 0.57991033792495728 0.57991033792495728
0.46550008654594421 0.46550008654594421 0.46550008654594421
0.49020877480506897 0.49020877480506897 0.49020877480506897
0.52220457792282104 0.52220457792282104 0.52220457792282104
0.55338740348815918 0.55338740348815918 0.55338740348815918
0.58571547269821167 0.58571547269821167 0.58571547269821167
0.61933004856109619 0.61933004856109619 0.61933004856109619
0.6623416543006897 0.6623416543006897 0.6623416543006897
0.57730674743652344 0.57730674743652344 0.57730674743652344
0.59766882658004761 0.59766882658004761 0.59766882658004761
0.62484860420227051 0.62484860420227051 0.62484860420227051
0.65147274732589722 0.65147274732589722 0.65147274732589722
0.67301338911056519 0.67301338911056519 0.67301338911056519
0.69130903482437134 0.69130903482437134 0.69130903482437134
0.71563959121704102 0.71563959121704102 0.71563959121704102
0.68271118402481079 0.68271118402481079 0.68271118402481079
0.69441968202590942 0.69441968202590942 0.69441968202590942
0.7116960883140564 0.7116960883140564 0.7116960883140564
0.7305901050567627 0.7305901050567627 0.7305901050567627
0.74432551860809326 0.74432551860809326 0.74432551860809326
0.75595784187316895 0.75595784187316895 0.75595784187316895
0.77651596069335938 0.77651596069335938 0.77651596069335938
0.78175336122512817 0.78175336122512817 0.78175336122512817
0.78536510467529297 0.78536510467529297 0.78536510467529297
0.79388803243637085 0.79388803243637085 0.79388803243637085
0.80438780784606934 0.80438780784606934 0.80438780784606934
0.81351929903030396 0.81351929903030396 0.81351929903030396
0.82366001605987549 0.82366001605987549 0.82366001605987549
0.84332984685897827 0.84332984685897827 0.84332984685897827
0.87580186128616333 0.87580186128616333 0.87580186128616333
0.87238901853561401 0.87238901853561401 0.87238901853561401
0.87418287992477417 0.87418287992477417 0.87418287992477417
0.87980121374130249 0.87980121374130249 0.87980121374130249
0.88766533136367798 0.88766533136367798 0.88766533136367798
0.89784687757492065 0.89784687757492065 0.89784687757492065
0.91670089960098267 0.91670089960098267 0.91670089960098267
0.97072011232376099 0.97072011232376099 0.97072011232376099
0.96207576990127563 0.96207576990127563 0.96207576990127563
0.95946627855300903 0.95946627855300903 0.95946627855300903
0.96225237846374512 0.96225237846374512 0.96225237846374512
0.97205889225006104 0.97205889225006104 0.97205889225006104
0.983345627784729 0.983345627784729 0.983345627784729
0.99519467353820801 0.99519467353820801 0.99519467353820801
