luts/bw/kodak_t-max_3200.cube
# Created by: G'MIC (https://gmic.eu)
TITLE "kodak_t-max_3200"
# LUT size
LUT_3D_SIZE 5
# Data domain
DOMAIN_MIN 0.0 0.0 0.0
DOMAIN_MAX 1.0 1.0 1.0
# LUT data points
0.010094287805259228 0.010094287805259228 0.010094287805259228
0.021793993189930916 0.021793993189930916 0.021793993189930916
0.041959036141633987 0.041959036141633987 0.041959036141633987
0.09326045960187912 0.09326045960187912 0.09326045960187912
0.21323564648628235 0.21323564648628235 0.21323564648628235
0.17312280833721161 0.17312280833721161 0.17312280833721161
0.17042797803878784 0.17042797803878784 0.17042797803878784
0.20523382723331451 0.20523382723331451 0.20523382723331451
0.27151340246200562 0.27151340246200562 0.27151340246200562
0.3977510929107666 0.3977510929107666 0.3977510929107666
0.42322474718093872 0.42322474718093872 0.42322474718093872
0.42581829428672791 0.42581829428672791 0.42581829428672791
0.45446902513504028 0.45446902513504028 0.45446902513504028
0.50611966848373413 0.50611966848373413 0.50611966848373413
0.58273279666900635 0.58273279666900635 0.58273279666900635
0.69849002361297607 0.69849002361297607 0.69849002361297607
0.69010114669799805 0.69010114669799805 0.69010114669799805
0.69992154836654663 0.69992154836654663 0.69992154836654663
0.72327667474746704 0.72327667474746704 0.72327667474746704
0.75623255968093872 0.75623255968093872 0.75623255968093872
0.90024930238723755 0.90024930238723755 0.90024930238723755
0.89205026626586914 0.89205026626586914 0.89205026626586914
0.89367926120758057 0.89367926120758057 0.89367926120758057
0.90088063478469849 0.90088063478469849 0.90088063478469849
0.91764271259307861 0.91764271259307861 0.91764271259307861
0.031683620065450668 0.031683620065450668 0.031683620065450668
0.046349827200174332 0.046349827200174332 0.046349827200174332
0.08085150271654129 0.08085150271654129 0.08085150271654129
0.14533579349517822 0.14533579349517822 0.14533579349517822
0.27975666522979736 0.27975666522979736 0.27975666522979736
0.1979566365480423 0.1979566365480423 0.1979566365480423
0.20823073387145996 0.20823073387145996 0.20823073387145996
0.25505524873733521 0.25505524873733521 0.25505524873733521
0.33284792304039001 0.33284792304039001 0.33284792304039001
0.45585504174232483 0.45585504174232483 0.45585504174232483
0.46405532956123352 0.46405532956123352 0.46405532956123352
0.47336488962173462 0.47336488962173462 0.47336488962173462
0.5088733434677124 0.5088733434677124 0.5088733434677124
0.55794841051101685 0.55794841051101685 0.55794841051101685
0.62753081321716309 0.62753081321716309 0.62753081321716309
0.72410279512405396 0.72410279512405396 0.72410279512405396
0.7215006947517395 0.7215006947517395 0.7215006947517395
0.73358398675918579 0.73358398675918579 0.73358398675918579
0.75205796957015991 0.75205796957015991 0.75205796957015991
0.77911758422851562 0.77911758422851562 0.77911758422851562
0.91694623231887817 0.91694623231887817 0.91694623231887817
0.90711265802383423 0.90711265802383423 0.90711265802383423
0.91006678342819214 0.91006678342819214 0.91006678342819214
0.91642493009567261 0.91642493009567261 0.91642493009567261
0.92822259664535522 0.92822259664535522 0.92822259664535522
0.079968608915805817 0.079968608915805817 0.079968608915805817
0.098718784749507904 0.098718784749507904 0.098718784749507904
0.14062173664569855 0.14062173664569855 0.14062173664569855
0.21057817339897156 0.21057817339897156 0.21057817339897156
0.34076160192489624 0.34076160192489624 0.34076160192489624
0.27117326855659485 0.27117326855659485 0.27117326855659485
0.2851250171661377 0.2851250171661377 0.2851250171661377
0.33212286233901978 0.33212286233901978 0.33212286233901978
0.40667670965194702 0.40667670965194702 0.40667670965194702
0.52142304182052612 0.52142304182052612 0.52142304182052612
0.52512067556381226 0.52512067556381226 0.52512067556381226
0.53243136405944824 0.53243136405944824 0.53243136405944824
0.56416302919387817 0.56416302919387817 0.56416302919387817
0.60531520843505859 0.60531520843505859 0.60531520843505859
0.66934013366699219 0.66934013366699219 0.66934013366699219
0.7535400390625 0.7535400390625 0.7535400390625
0.75030148029327393 0.75030148029327393 0.75030148029327393
0.75679856538772583 0.75679856538772583 0.75679856538772583
0.77129793167114258 0.77129793167114258 0.77129793167114258
0.80344516038894653 0.80344516038894653 0.80344516038894653
0.9278186559677124 0.9278186559677124 0.9278186559677124
0.91929847002029419 0.91929847002029419 0.91929847002029419
0.92198258638381958 0.92198258638381958 0.92198258638381958
0.92822742462158203 0.92822742462158203 0.92822742462158203
0.94217145442962646 0.94217145442962646 0.94217145442962646
0.16836191713809967 0.16836191713809967 0.16836191713809967
0.20360317826271057 0.20360317826271057 0.20360317826271057
0.2487422376871109 0.2487422376871109 0.2487422376871109
0.32034114003181458 0.32034114003181458 0.32034114003181458
0.47297894954681396 0.47297894954681396 0.47297894954681396
0.37674406170845032 0.37674406170845032 0.37674406170845032
0.40817698836326599 0.40817698836326599 0.40817698836326599
0.4576231837272644 0.4576231837272644 0.4576231837272644
0.51661276817321777 0.51661276817321777 0.51661276817321777
0.61081480979919434 0.61081480979919434 0.61081480979919434
0.59199094772338867 0.59199094772338867 0.59199094772338867
0.61121869087219238 0.61121869087219238 0.61121869087219238
0.64317721128463745 0.64317721128463745 0.64317721128463745
0.67163294553756714 0.67163294553756714 0.67163294553756714
0.71890097856521606 0.71890097856521606 0.71890097856521606
0.7792966365814209 0.7792966365814209 0.7792966365814209
0.78220707178115845 0.78220707178115845 0.78220707178115845
0.79342842102050781 0.79342842102050781 0.79342842102050781
0.80475842952728271 0.80475842952728271 0.80475842952728271
0.83112329244613647 0.83112329244613647 0.83112329244613647
0.93791472911834717 0.93791472911834717 0.93791472911834717
0.93188637495040894 0.93188637495040894 0.93188637495040894
0.93736070394515991 0.93736070394515991 0.93736070394515991
0.94554996490478516 0.94554996490478516 0.94554996490478516
0.96087086200714111 0.96087086200714111 0.96087086200714111
0.34926033020019531 0.34926033020019531 0.34926033020019531
0.38463285565376282 0.38463285565376282 0.38463285565376282
0.41852459311485291 0.41852459311485291 0.41852459311485291
0.48952919244766235 0.48952919244766235 0.48952919244766235
0.57991033792495728 0.57991033792495728 0.57991033792495728
0.52225738763809204 0.52225738763809204 0.52225738763809204
0.56053894758224487 0.56053894758224487 0.56053894758224487
0.60605084896087646 0.60605084896087646 0.60605084896087646
0.6448289155960083 0.6448289155960083 0.6448289155960083
0.69002330303192139 0.69002330303192139 0.69002330303192139
0.68271118402481079 0.68271118402481079 0.68271118402481079
0.70233243703842163 0.70233243703842163 0.70233243703842163
0.7305901050567627 0.7305901050567627 0.7305901050567627
0.74981272220611572 0.74981272220611572 0.74981272220611572
0.77651596069335938 0.77651596069335938 0.77651596069335938
0.82913303375244141 0.82913303375244141 0.82913303375244141
0.83093035221099854 0.83093035221099854 0.83093035221099854
0.84156185388565063 0.84156185388565063 0.84156185388565063
0.85408991575241089 0.85408991575241089 0.85408991575241089
0.87882280349731445 0.87882280349731445 0.87882280349731445
0.97072011232376099 0.97072011232376099 0.97072011232376099
0.96026962995529175 0.96026962995529175 0.96026962995529175
0.96225237846374512 0.96225237846374512 0.96225237846374512
0.97763365507125854 0.97763365507125854 0.97763365507125854
0.99519467353820801 0.99519467353820801 0.99519467353820801
