luts/bw/kodak_t-max_100.cube
# Created by: G'MIC (https://gmic.eu)
TITLE "kodak_t-max_100"
# LUT size
LUT_3D_SIZE 13
# Data domain
DOMAIN_MIN 0.0 0.0 0.0
DOMAIN_MAX 1.0 1.0 1.0
# LUT data points
0.019405514001846313 0.019405514001846313 0.019405514001846313
0.02179616317152977 0.02179616317152977 0.02179616317152977
0.02731819823384285 0.02731819823384285 0.02731819823384285
0.036238308995962143 0.036238308995962143 0.036238308995962143
0.048806417733430862 0.048806417733430862 0.048806417733430862
0.06487216055393219 0.06487216055393219 0.06487216055393219
0.084838151931762695 0.084838151931762695 0.084838151931762695
0.10856349021196365 0.10856349021196365 0.10856349021196365
0.1355956643819809 0.1355956643819809 0.1355956643819809
0.16569960117340088 0.16569960117340088 0.16569960117340088
0.1978861391544342 0.1978861391544342 0.1978861391544342
0.231792151927948 0.231792151927948 0.231792151927948
0.26632440090179443 0.26632440090179443 0.26632440090179443
0.061200924217700958 0.061200924217700958 0.061200924217700958
0.063081271946430206 0.063081271946430206 0.063081271946430206
0.068043604493141174 0.068043604493141174 0.068043604493141174
0.076289281249046326 0.076289281249046326 0.076289281249046326
0.088073998689651489 0.088073998689651489 0.088073998689651489
0.10371041297912598 0.10371041297912598 0.10371041297912598
0.12326198071241379 0.12326198071241379 0.12326198071241379
0.14657425880432129 0.14657425880432129 0.14657425880432129
0.17350879311561584 0.17350879311561584 0.17350879311561584
0.20314601063728333 0.20314601063728333 0.20314601063728333
0.23491440713405609 0.23491440713405609 0.23491440713405609
0.26832389831542969 0.26832389831542969 0.26832389831542969
0.30231323838233948 0.30231323838233948 0.30231323838233948
0.10674303770065308 0.10674303770065308 0.10674303770065308
0.10801468044519424 0.10801468044519424 0.10801468044519424
0.11223523318767548 0.11223523318767548 0.11223523318767548
0.12003780901432037 0.12003780901432037 0.12003780901432037
0.13095076382160187 0.13095076382160187 0.13095076382160187
0.14585939049720764 0.14585939049720764 0.14585939049720764
0.16469915211200714 0.16469915211200714 0.16469915211200714
0.18779672682285309 0.18779672682285309 0.18779672682285309
0.21417273581027985 0.21417273581027985 0.21417273581027985
0.2432599663734436 0.2432599663734436 0.2432599663734436
0.27441781759262085 0.27441781759262085 0.27441781759262085
0.30676138401031494 0.30676138401031494 0.30676138401031494
0.33994066715240479 0.33994066715240479 0.33994066715240479
0.15643572807312012 0.15643572807312012 0.15643572807312012
0.15739145874977112 0.15739145874977112 0.15739145874977112
0.16150881350040436 0.16150881350040436 0.16150881350040436
0.16844962537288666 0.16844962537288666 0.16844962537288666
0.17858090996742249 0.17858090996742249 0.17858090996742249
0.19232054054737091 0.19232054054737091 0.19232054054737091
0.21024258434772491 0.21024258434772491 0.21024258434772491
0.23280152678489685 0.23280152678489685 0.23280152678489685
0.25861254334449768 0.25861254334449768 0.25861254334449768
0.28664746880531311 0.28664746880531311 0.28664746880531311
0.31666973233222961 0.31666973233222961 0.31666973233222961
0.34792724251747131 0.34792724251747131 0.34792724251747131
0.37990233302116394 0.37990233302116394 0.37990233302116394
0.21135284006595612 0.21135284006595612 0.21135284006595612
0.21204501390457153 0.21204501390457153 0.21204501390457153
0.21576280891895294 0.21576280891895294 0.21576280891895294
0.22231698036193848 0.22231698036193848 0.22231698036193848
0.231557697057724 0.231557697057724 0.231557697057724
0.24405165016651154 0.24405165016651154 0.24405165016651154
0.26077502965927124 0.26077502965927124 0.26077502965927124
0.28244844079017639 0.28244844079017639 0.28244844079017639
0.3070242702960968 0.3070242702960968 0.3070242702960968
0.33377602696418762 0.33377602696418762 0.33377602696418762
0.36235937476158142 0.36235937476158142 0.36235937476158142
0.39207005500793457 0.39207005500793457 0.39207005500793457
0.42280715703964233 0.42280715703964233 0.42280715703964233
0.27200609445571899 0.27200609445571899 0.27200609445571899
0.2725466787815094 0.2725466787815094 0.2725466787815094
0.27606824040412903 0.27606824040412903 0.27606824040412903
0.28210753202438354 0.28210753202438354 0.28210753202438354
0.29062744975090027 0.29062744975090027 0.29062744975090027
0.30227872729301453 0.30227872729301453 0.30227872729301453
0.31771096587181091 0.31771096587181091 0.31771096587181091
0.33752956986427307 0.33752956986427307 0.33752956986427307
0.36032071709632874 0.36032071709632874 0.36032071709632874
0.38525253534317017 0.38525253534317017 0.38525253534317017
0.41179829835891724 0.41179829835891724 0.41179829835891724
0.4396871030330658 0.4396871030330658 0.4396871030330658
0.4686400294303894 0.4686400294303894 0.4686400294303894
0.33928850293159485 0.33928850293159485 0.33928850293159485
0.33947736024856567 0.33947736024856567 0.33947736024856567
0.34235113859176636 0.34235113859176636 0.34235113859176636
0.34779560565948486 0.34779560565948486 0.34779560565948486
0.35567560791969299 0.35567560791969299 0.35567560791969299
0.36623427271842957 0.36623427271842957 0.36623427271842957
0.38031914830207825 0.38031914830207825 0.38031914830207825
0.39787733554840088 0.39787733554840088 0.39787733554840088
0.41809344291687012 0.41809344291687012 0.41809344291687012
0.44067442417144775 0.44067442417144775 0.44067442417144775
0.46495035290718079 0.46495035290718079 0.46495035290718079
0.49069452285766602 0.49069452285766602 0.49069452285766602
0.51783370971679688 0.51783370971679688 0.51783370971679688
0.41196617484092712 0.41196617484092712 0.41196617484092712
0.41175046563148499 0.41175046563148499 0.41175046563148499
0.41405114531517029 0.41405114531517029 0.41405114531517029
0.41848546266555786 0.41848546266555786 0.41848546266555786
0.42528730630874634 0.42528730630874634 0.42528730630874634
0.43467283248901367 0.43467283248901367 0.43467283248901367
0.44701439142227173 0.44701439142227173 0.44701439142227173
0.46207615733146667 0.46207615733146667 0.46207615733146667
0.47988280653953552 0.47988280653953552 0.47988280653953552
0.49964138865470886 0.49964138865470886 0.49964138865470886
0.52146273851394653 0.52146273851394653 0.52146273851394653
0.54487413167953491 0.54487413167953491 0.54487413167953491
0.56992870569229126 0.56992870569229126 0.56992870569229126
0.48884138464927673 0.48884138464927673 0.48884138464927673
0.48839804530143738 0.48839804530143738 0.48839804530143738
0.48957586288452148 0.48957586288452148 0.48957586288452148
0.49305680394172668 0.49305680394172668 0.49305680394172668
0.49862843751907349 0.49862843751907349 0.49862843751907349
0.50638109445571899 0.50638109445571899 0.50638109445571899
0.51666539907455444 0.51666539907455444 0.51666539907455444
0.52947193384170532 0.52947193384170532 0.52947193384170532
0.5445142388343811 0.5445142388343811 0.5445142388343811
0.56186187267303467 0.56186187267303467 0.56186187267303467
0.58089107275009155 0.58089107275009155 0.58089107275009155
0.6020016074180603 0.6020016074180603 0.6020016074180603
0.62489020824432373 0.62489020824432373 0.62489020824432373
0.56887650489807129 0.56887650489807129 0.56887650489807129
0.56771433353424072 0.56771433353424072 0.56771433353424072
0.56815791130065918 0.56815791130065918 0.56815791130065918
0.5703853964805603 0.5703853964805603 0.5703853964805603
0.57433068752288818 0.57433068752288818 0.57433068752288818
0.58056795597076416 0.58056795597076416 0.58056795597076416
0.58877336978912354 0.58877336978912354 0.58877336978912354
0.59931111335754395 0.59931111335754395 0.59931111335754395
0.61183720827102661 0.61183720827102661 0.61183720827102661
0.62647467851638794 0.62647467851638794 0.62647467851638794
0.64303821325302124 0.64303821325302124 0.64303821325302124
0.66181802749633789 0.66181802749633789 0.66181802749633789
0.68239778280258179 0.68239778280258179 0.68239778280258179
0.65056401491165161 0.65056401491165161 0.65056401491165161
0.64894634485244751 0.64894634485244751 0.64894634485244751
0.64835888147354126 0.64835888147354126 0.64835888147354126
0.64906495809555054 0.64906495809555054 0.64906495809555054
0.65170162916183472 0.65170162916183472 0.65170162916183472
0.65611666440963745 0.65611666440963745 0.65611666440963745
0.66236448287963867 0.66236448287963867 0.66236448287963867
0.67071413993835449 0.67071413993835449 0.67071413993835449
0.68090027570724487 0.68090027570724487 0.68090027570724487
0.69315123558044434 0.69315123558044434 0.69315123558044434
0.70743972063064575 0.70743972063064575 0.70743972063064575
0.72381371259689331 0.72381371259689331 0.72381371259689331
0.74258971214294434 0.74258971214294434 0.74258971214294434
0.73298609256744385 0.73298609256744385 0.73298609256744385
0.73065602779388428 0.73065602779388428 0.73065602779388428
0.72905427217483521 0.72905427217483521 0.72905427217483521
0.72854751348495483 0.72854751348495483 0.72854751348495483
0.72935634851455688 0.72935634851455688 0.72935634851455688
0.73235338926315308 0.73235338926315308 0.73235338926315308
0.73687982559204102 0.73687982559204102 0.73687982559204102
0.74316591024398804 0.74316591024398804 0.74316591024398804
0.75143831968307495 0.75143831968307495 0.75143831968307495
0.76151478290557861 0.76151478290557861 0.76151478290557861
0.77367603778839111 0.77367603778839111 0.77367603778839111
0.7880094051361084 0.7880094051361084 0.7880094051361084
0.80490851402282715 0.80490851402282715 0.80490851402282715
0.81467533111572266 0.81467533111572266 0.81467533111572266
0.81163334846496582 0.81163334846496582 0.81163334846496582
0.80885571241378784 0.80885571241378784 0.80885571241378784
0.80724328756332397 0.80724328756332397 0.80724328756332397
0.80691564083099365 0.80691564083099365 0.80691564083099365
0.80866032838821411 0.80866032838821411 0.80866032838821411
0.81162667274475098 0.81162667274475098 0.81162667274475098
0.81651055812835693 0.81651055812835693 0.81651055812835693
0.82287347316741943 0.82287347316741943 0.82287347316741943
0.83120125532150269 0.83120125532150269 0.83120125532150269
0.84157824516296387 0.84157824516296387 0.84157824516296387
0.85426926612854004 0.85426926612854004 0.85426926612854004
0.86951935291290283 0.86951935291290283 0.86951935291290283
0.028945578262209892 0.028945578262209892 0.028945578262209892
0.031310945749282837 0.031310945749282837 0.031310945749282837
0.036660287529230118 0.036660287529230118 0.036660287529230118
0.045538779348134995 0.045538779348134995 0.045538779348134995
0.057937111705541611 0.057937111705541611 0.057937111705541611
0.073952272534370422 0.073952272534370422 0.073952272534370422
0.093893401324748993 0.093893401324748993 0.093893401324748993
0.11747875064611435 0.11747875064611435 0.11747875064611435
0.14446552097797394 0.14446552097797394 0.14446552097797394
0.17447130382061005 0.17447130382061005 0.17447130382061005
0.20676375925540924 0.20676375925540924 0.20676375925540924
0.24059693515300751 0.24059693515300751 0.24059693515300751
0.27502003312110901 0.27502003312110901 0.27502003312110901
0.070265300571918488 0.070265300571918488 0.070265300571918488
0.071955449879169464 0.071955449879169464 0.071955449879169464
0.07689540833234787 0.07689540833234787 0.07689540833234787
0.084979698061943054 0.084979698061943054 0.084979698061943054
0.096901699900627136 0.096901699900627136 0.096901699900627136
0.11241444945335388 0.11241444945335388 0.11241444945335388
0.13176780939102173 0.13176780939102173 0.13176780939102173
0.15502724051475525 0.15502724051475525 0.15502724051475525
0.1823127269744873 0.1823127269744873 0.1823127269744873
0.21154877543449402 0.21154877543449402 0.21154877543449402
0.24341319501399994 0.24341319501399994 0.24341319501399994
0.27680787444114685 0.27680787444114685 0.27680787444114685
0.3107357919216156 0.3107357919216156 0.3107357919216156
0.11483523994684219 0.11483523994684219 0.11483523994684219
0.11607477813959122 0.11607477813959122 0.11607477813959122
0.1207430511713028 0.1207430511713028 0.1207430511713028
0.1284654289484024 0.1284654289484024 0.1284654289484024
0.139487624168396 0.139487624168396 0.139487624168396
0.15436907112598419 0.15436907112598419 0.15436907112598419
0.17318302392959595 0.17318302392959595 0.17318302392959595
0.19602160155773163 0.19602160155773163 0.19602160155773163
0.22233375906944275 0.22233375906944275 0.22233375906944275
0.25143003463745117 0.25143003463745117 0.25143003463745117
0.28248304128646851 0.28248304128646851 0.28248304128646851
0.31483477354049683 0.31483477354049683 0.31483477354049683
0.34814584255218506 0.34814584255218506 0.34814584255218506
0.16369627416133881 0.16369627416133881 0.16369627416133881
0.16481864452362061 0.16481864452362061 0.16481864452362061
0.16907821595668793 0.16907821595668793 0.16907821595668793
0.1764993816614151 0.1764993816614151 0.1764993816614151
0.1866919994354248 0.1866919994354248 0.1866919994354248
0.2004363089799881 0.2004363089799881 0.2004363089799881
0.21833698451519012 0.21833698451519012 0.21833698451519012
0.24074162542819977 0.24074162542819977 0.24074162542819977
0.26643466949462891 0.26643466949462891 0.26643466949462891
0.29460045695304871 0.29460045695304871 0.29460045695304871
0.32445898652076721 0.32445898652076721 0.32445898652076721
0.35574227571487427 0.35574227571487427 0.35574227571487427
0.38773190975189209 0.38773190975189209 0.38773190975189209
0.217633917927742 0.217633917927742 0.217633917927742
0.21870090067386627 0.21870090067386627 0.21870090067386627
0.22293740510940552 0.22293740510940552 0.22293740510940552
0.22983439266681671 0.22983439266681671 0.22983439266681671
0.23945936560630798 0.23945936560630798 0.23945936560630798
0.25197878479957581 0.25197878479957581 0.25197878479957581
0.26890683174133301 0.26890683174133301 0.26890683174133301
0.29038864374160767 0.29038864374160767 0.29038864374160767
0.3148246705532074 0.3148246705532074 0.3148246705532074
0.34172379970550537 0.34172379970550537 0.34172379970550537
0.36970287561416626 0.36970287561416626 0.36970287561416626
0.3995271623134613 0.3995271623134613 0.3995271623134613
0.43010085821151733 0.43010085821151733 0.43010085821151733
0.27750131487846375 0.27750131487846375 0.27750131487846375
0.27866557240486145 0.27866557240486145 0.27866557240486145
0.28270509839057922 0.28270509839057922 0.28270509839057922
0.28928399085998535 0.28928399085998535 0.28928399085998535
0.29820036888122559 0.29820036888122559 0.29820036888122559
0.31004637479782104 0.31004637479782104 0.31004637479782104
0.3257383406162262 0.3257383406162262 0.3257383406162262
0.34530419111251831 0.34530419111251831 0.34530419111251831
0.36789467930793762 0.36789467930793762 0.36789467930793762
0.39265850186347961 0.39265850186347961 0.39265850186347961
0.41896447539329529 0.41896447539329529 0.41896447539329529
0.44662237167358398 0.44662237167358398 0.44662237167358398
0.47556307911872864 0.47556307911872864 0.47556307911872864
0.34448498487472534 0.34448498487472534 0.34448498487472534
0.34517771005630493 0.34517771005630493 0.34517771005630493
0.3487432599067688 0.3487432599067688 0.3487432599067688
0.35471546649932861 0.35471546649932861 0.35471546649932861
0.36274796724319458 0.36274796724319458 0.36274796724319458
0.37389197945594788 0.37389197945594788 0.37389197945594788
0.38795515894889832 0.38795515894889832 0.38795515894889832
0.40538886189460754 0.40538886189460754 0.40538886189460754
0.42549899220466614 0.42549899220466614 0.42549899220466614
0.44771456718444824 0.44771456718444824 0.44771456718444824
0.47171881794929504 0.47171881794929504 0.47171881794929504
0.49723935127258301 0.49723935127258301 0.49723935127258301
0.52403658628463745 0.52403658628463745 0.52403658628463745
0.41707649827003479 0.41707649827003479 0.41707649827003479
0.41729244589805603 0.41729244589805603 0.41729244589805603
0.42016780376434326 0.42016780376434326 0.42016780376434326
0.42507630586624146 0.42507630586624146 0.42507630586624146
0.43234929442405701 0.43234929442405701 0.43234929442405701
0.44203442335128784 0.44203442335128784 0.44203442335128784
0.45436385273933411 0.45436385273933411 0.45436385273933411
0.46944674849510193 0.46944674849510193 0.46944674849510193
0.48687469959259033 0.48687469959259033 0.48687469959259033
0.50647377967834473 0.50647377967834473 0.50647377967834473
0.52782171964645386 0.52782171964645386 0.52782171964645386
0.55087780952453613 0.55087780952453613 0.55087780952453613
0.57565593719482422 0.57565593719482422 0.57565593719482422
0.49377933144569397 0.49377933144569397 0.49377933144569397
0.49359729886054993 0.49359729886054993 0.49359729886054993
0.49555054306983948 0.49555054306983948 0.49555054306983948
0.49951076507568359 0.49951076507568359 0.49951076507568359
0.50544494390487671 0.50544494390487671 0.50544494390487671
0.5135805606842041 0.5135805606842041 0.5135805606842041
0.52392721176147461 0.52392721176147461 0.52392721176147461
0.53653281927108765 0.53653281927108765 0.53653281927108765
0.55140137672424316 0.55140137672424316 0.55140137672424316
0.56812995672225952 0.56812995672225952 0.56812995672225952
0.58689373731613159 0.58689373731613159 0.58689373731613159
0.60740381479263306 0.60740381479263306 0.60740381479263306
0.62989902496337891 0.62989902496337891 0.62989902496337891
0.57342100143432617 0.57342100143432617 0.57342100143432617
0.57280188798904419 0.57280188798904419 0.57280188798904419
0.57382631301879883 0.57382631301879883 0.57382631301879883
0.57648724317550659 0.57648724317550659 0.57648724317550659
0.58092617988586426 0.58092617988586426 0.58092617988586426
0.58741408586502075 0.58741408586502075 0.58741408586502075
0.59576892852783203 0.59576892852783203 0.59576892852783203
0.60616773366928101 0.60616773366928101 0.60616773366928101
0.61829644441604614 0.61829644441604614 0.61829644441604614
0.63246935606002808 0.63246935606002808 0.63246935606002808
0.64859813451766968 0.64859813451766968 0.64859813451766968
0.66673070192337036 0.66673070192337036 0.66673070192337036
0.68699342012405396 0.68699342012405396 0.68699342012405396
0.65448343753814697 0.65448343753814697 0.65448343753814697
0.65338402986526489 0.65338402986526489 0.65338402986526489
0.65340566635131836 0.65340566635131836 0.65340566635131836
0.65493988990783691 0.65493988990783691 0.65493988990783691
0.65782350301742554 0.65782350301742554 0.65782350301742554
0.66262698173522949 0.66262698173522949 0.66262698173522949
0.66906911134719849 0.66906911134719849 0.66906911134719849
0.67722862958908081 0.67722862958908081 0.67722862958908081
0.68710386753082275 0.68710386753082275 0.68710386753082275
0.69879257678985596 0.69879257678985596 0.69879257678985596
0.71247321367263794 0.71247321367263794 0.71247321367263794
0.72811603546142578 0.72811603546142578 0.72811603546142578
0.74628919363021851 0.74628919363021851 0.74628919363021851
0.73614871501922607 0.73614871501922607 0.73614871501922607
0.73447471857070923 0.73447471857070923 0.73447471857070923
0.73339438438415527 0.73339438438415527 0.73339438438415527
0.73352909088134766 0.73352909088134766 0.73352909088134766
0.73530697822570801 0.73530697822570801 0.73530697822570801
0.73842865228652954 0.73842865228652954 0.73842865228652954
0.74316638708114624 0.74316638708114624 0.74316638708114624
0.74935442209243774 0.74935442209243774 0.74935442209243774
0.75713104009628296 0.75713104009628296 0.75713104009628296
0.76661276817321777 0.76661276817321777 0.76661276817321777
0.77804398536682129 0.77804398536682129 0.77804398536682129
0.79175370931625366 0.79175370931625366 0.79175370931625366
0.80810153484344482 0.80810153484344482 0.80810153484344482
0.81668537855148315 0.81668537855148315 0.81668537855148315
0.81481748819351196 0.81481748819351196 0.81481748819351196
0.81289994716644287 0.81289994716644287 0.81289994716644287
0.81205970048904419 0.81205970048904419 0.81205970048904419
0.8124421238899231 0.8124421238899231 0.8124421238899231
0.81427812576293945 0.81427812576293945 0.81427812576293945
0.81741666793823242 0.81741666793823242 0.81741666793823242
0.82199132442474365 0.82199132442474365 0.82199132442474365
0.82816141843795776 0.82816141843795776 0.82816141843795776
0.83565962314605713 0.83565962314605713 0.83565962314605713
0.8453444242477417 0.8453444242477417 0.8453444242477417
0.85738176107406616 0.85738176107406616 0.85738176107406616
0.87203150987625122 0.87203150987625122 0.87203150987625122
0.042251795530319214 0.042251795530319214 0.042251795530319214
0.044502615928649902 0.044502615928649902 0.044502615928649902
0.049858707934617996 0.049858707934617996 0.049858707934617996
0.058520868420600891 0.058520868420600891 0.058520868420600891
0.070744730532169342 0.070744730532169342 0.070744730532169342
0.086365930736064911 0.086365930736064911 0.086365930736064911
0.10592854768037796 0.10592854768037796 0.10592854768037796
0.12929797172546387 0.12929797172546387 0.12929797172546387
0.15609200298786163 0.15609200298786163 0.15609200298786163
0.18572469055652618 0.18572469055652618 0.18572469055652618
0.21774549782276154 0.21774549782276154 0.21774549782276154
0.2513672411441803 0.2513672411441803 0.2513672411441803
0.28583332896232605 0.28583332896232605 0.28583332896232605
0.082928977906703949 0.082928977906703949 0.082928977906703949
0.084768854081630707 0.084768854081630707 0.084768854081630707
0.089745372533798218 0.089745372533798218 0.089745372533798218
0.097886271774768829 0.097886271774768829 0.097886271774768829
0.10957296192646027 0.10957296192646027 0.10957296192646027
0.1247178316116333 0.1247178316116333 0.1247178316116333
0.14384794235229492 0.14384794235229492 0.14384794235229492
0.16703997552394867 0.16703997552394867 0.16703997552394867
0.19322295486927032 0.19322295486927032 0.19322295486927032
0.22262635827064514 0.22262635827064514 0.22262635827064514
0.25413316488265991 0.25413316488265991 0.25413316488265991
0.28727009892463684 0.28727009892463684 0.28727009892463684
0.32102286815643311 0.32102286815643311 0.32102286815643311
0.12731935083866119 0.12731935083866119 0.12731935083866119
0.12863770127296448 0.12863770127296448 0.12863770127296448
0.13316282629966736 0.13316282629966736 0.13316282629966736
0.14107033610343933 0.14107033610343933 0.14107033610343933
0.15208937227725983 0.15208937227725983 0.15208937227725983
0.16685821115970612 0.16685821115970612 0.16685821115970612
0.1854630708694458 0.1854630708694458 0.1854630708694458
0.20780636370182037 0.20780636370182037 0.20780636370182037
0.23372019827365875 0.23372019827365875 0.23372019827365875
0.26237344741821289 0.26237344741821289 0.26237344741821289
0.29314354062080383 0.29314354062080383 0.29314354062080383
0.32516515254974365 0.32516515254974365 0.32516515254974365
0.35822325944900513 0.35822325944900513 0.35822325944900513
0.17559505999088287 0.17559505999088287 0.17559505999088287
0.17686998844146729 0.17686998844146729 0.17686998844146729
0.18132877349853516 0.18132877349853516 0.18132877349853516
0.18876352906227112 0.18876352906227112 0.18876352906227112
0.19935157895088196 0.19935157895088196 0.19935157895088196
0.21326532959938049 0.21326532959938049 0.21326532959938049
0.23099112510681152 0.23099112510681152 0.23099112510681152
0.25281438231468201 0.25281438231468201 0.25281438231468201
0.27781131863594055 0.27781131863594055 0.27781131863594055
0.30537208914756775 0.30537208914756775 0.30537208914756775
0.33500173687934875 0.33500173687934875 0.33500173687934875
0.36585351824760437 0.36585351824760437 0.36585351824760437
0.39761519432067871 0.39761519432067871 0.39761519432067871
0.22871476411819458 0.22871476411819458 0.22871476411819458
0.23014432191848755 0.23014432191848755 0.23014432191848755
0.23464561998844147 0.23464561998844147 0.23464561998844147
0.24194875359535217 0.24194875359535217 0.24194875359535217
0.2518460750579834 0.2518460750579834 0.2518460750579834
0.26503342390060425 0.26503342390060425 0.26503342390060425
0.28183698654174805 0.28183698654174805 0.28183698654174805
