luts/bw/kodak_bw_400_cn.cube
# Created by: G'MIC (https://gmic.eu)
TITLE "kodak_bw_400_cn"
# LUT size
LUT_3D_SIZE 13
# Data domain
DOMAIN_MIN 0.0 0.0 0.0
DOMAIN_MAX 1.0 1.0 1.0
# LUT data points
0.03259684145450592 0.03259684145450592 0.03259684145450592
0.043163344264030457 0.043163344264030457 0.043163344264030457
0.055541377514600754 0.055541377514600754 0.055541377514600754
0.068345509469509125 0.068345509469509125 0.068345509469509125
0.081796072423458099 0.081796072423458099 0.081796072423458099
0.096957728266716003 0.096957728266716003 0.096957728266716003
0.11508177220821381 0.11508177220821381 0.11508177220821381
0.13749966025352478 0.13749966025352478 0.13749966025352478
0.16584265232086182 0.16584265232086182 0.16584265232086182
0.20214198529720306 0.20214198529720306 0.20214198529720306
0.24469126760959625 0.24469126760959625 0.24469126760959625
0.29037690162658691 0.29037690162658691 0.29037690162658691
0.33642488718032837 0.33642488718032837 0.33642488718032837
0.080758355557918549 0.080758355557918549 0.080758355557918549
0.089924439787864685 0.089924439787864685 0.089924439787864685
0.1005953773856163 0.1005953773856163 0.1005953773856163
0.11202099174261093 0.11202099174261093 0.11202099174261093
0.12402632832527161 0.12402632832527161 0.12402632832527161
0.13796901702880859 0.13796901702880859 0.13796901702880859
0.15511076152324677 0.15511076152324677 0.15511076152324677
0.17676518857479095 0.17676518857479095 0.17676518857479095
0.20450392365455627 0.20450392365455627 0.20450392365455627
0.23941706120967865 0.23941706120967865 0.23941706120967865
0.27951213717460632 0.27951213717460632 0.27951213717460632
0.32316181063652039 0.32316181063652039 0.32316181063652039
0.36748459935188293 0.36748459935188293 0.36748459935188293
0.13210371136665344 0.13210371136665344 0.13210371136665344
0.13951009511947632 0.13951009511947632 0.13951009511947632
0.14843492209911346 0.14843492209911346 0.14843492209911346
0.15836818516254425 0.15836818516254425 0.15836818516254425
0.16931328177452087 0.16931328177452087 0.16931328177452087
0.18230226635932922 0.18230226635932922 0.18230226635932922
0.19839067757129669 0.19839067757129669 0.19839067757129669
0.21945486962795258 0.21945486962795258 0.21945486962795258
0.2460770457983017 0.2460770457983017 0.2460770457983017
0.27883875370025635 0.27883875370025635 0.27883875370025635
0.3168160617351532 0.3168160617351532 0.3168160617351532
0.35726955533027649 0.35726955533027649 0.35726955533027649
0.39925608038902283 0.39925608038902283 0.39925608038902283
0.1863059401512146 0.1863059401512146 0.1863059401512146
0.19217894971370697 0.19217894971370697 0.19217894971370697
0.19964179396629333 0.19964179396629333 0.19964179396629333
0.20830480754375458 0.20830480754375458 0.20830480754375458
0.21812933683395386 0.21812933683395386 0.21812933683395386
0.23009593784809113 0.23009593784809113 0.23009593784809113
0.24533241987228394 0.24533241987228394 0.24533241987228394
0.26515215635299683 0.26515215635299683 0.26515215635299683
0.29042598605155945 0.29042598605155945 0.29042598605155945
0.32107359170913696 0.32107359170913696 0.32107359170913696
0.35579127073287964 0.35579127073287964 0.35579127073287964
0.39359861612319946 0.39359861612319946 0.39359861612319946
0.43312415480613708 0.43312415480613708 0.43312415480613708
0.243726447224617 0.243726447224617 0.243726447224617
0.24836872518062592 0.24836872518062592 0.24836872518062592
0.25453543663024902 0.25453543663024902 0.25453543663024902
0.26211541891098022 0.26211541891098022 0.26211541891098022
0.2712017297744751 0.2712017297744751 0.2712017297744751
0.28208610415458679 0.28208610415458679 0.28208610415458679
0.29623064398765564 0.29623064398765564 0.29623064398765564
0.31483998894691467 0.31483998894691467 0.31483998894691467
0.33820149302482605 0.33820149302482605 0.33820149302482605
0.3661307692527771 0.3661307692527771 0.3661307692527771
0.3980725109577179 0.3980725109577179 0.3980725109577179
0.43278831243515015 0.43278831243515015 0.43278831243515015
0.46976539492607117 0.46976539492607117 0.46976539492607117
0.304462730884552 0.304462730884552 0.304462730884552
0.30828216671943665 0.30828216671943665 0.30828216671943665
0.31369557976722717 0.31369557976722717 0.31369557976722717
0.32030764222145081 0.32030764222145081 0.32030764222145081
0.32851892709732056 0.32851892709732056 0.32851892709732056
0.3386075496673584 0.3386075496673584 0.3386075496673584
0.35171306133270264 0.35171306133270264 0.35171306133270264
0.36843883991241455 0.36843883991241455 0.36843883991241455
0.3896934986114502 0.3896934986114502 0.3896934986114502
0.41475248336791992 0.41475248336791992 0.41475248336791992
0.44364199042320251 0.44364199042320251 0.44364199042320251
0.47539821267127991 0.47539821267127991 0.47539821267127991
0.50940454006195068 0.50940454006195068 0.50940454006195068
0.36923915147781372 0.36923915147781372 0.36923915147781372
0.37225347757339478 0.37225347757339478 0.37225347757339478
0.37687438726425171 0.37687438726425171 0.37687438726425171
0.3827517032623291 0.3827517032623291 0.3827517032623291
0.39025884866714478 0.39025884866714478 0.39025884866714478
0.3994256854057312 0.3994256854057312 0.3994256854057312
0.41117396950721741 0.41117396950721741 0.41117396950721741
0.42601504921913147 0.42601504921913147 0.42601504921913147
0.44457137584686279 0.44457137584686279 0.44457137584686279
0.46710395812988281 0.46710395812988281 0.46710395812988281
0.49268501996994019 0.49268501996994019 0.49268501996994019
0.52136421203613281 0.52136421203613281 0.52136421203613281
0.55249142646789551 0.55249142646789551 0.55249142646789551
0.43800479173660278 0.43800479173660278 0.43800479173660278
0.44054925441741943 0.44054925441741943 0.44054925441741943
0.44425612688064575 0.44425612688064575 0.44425612688064575
0.4493122398853302 0.4493122398853302 0.4493122398853302
0.45572048425674438 0.45572048425674438 0.45572048425674438
0.46371999382972717 0.46371999382972717 0.46371999382972717
0.4739234447479248 0.4739234447479248 0.4739234447479248
0.48680061101913452 0.48680061101913452 0.48680061101913452
0.50284856557846069 0.50284856557846069 0.50284856557846069
0.52237159013748169 0.52237159013748169 0.52237159013748169
0.54495334625244141 0.54495334625244141 0.54495334625244141
0.5705675482749939 0.5705675482749939 0.5705675482749939
0.59884166717529297 0.59884166717529297 0.59884166717529297
0.5107606053352356 0.5107606053352356 0.5107606053352356
0.51239323616027832 0.51239323616027832 0.51239323616027832
0.51522701978683472 0.51522701978683472 0.51522701978683472
0.51915889978408813 0.51915889978408813 0.51915889978408813
0.52416443824768066 0.52416443824768066 0.52416443824768066
0.53064984083175659 0.53064984083175659 0.53064984083175659
0.53923749923706055 0.53923749923706055 0.53923749923706055
0.55003148317337036 0.55003148317337036 0.55003148317337036
0.56370896100997925 0.56370896100997925 0.56370896100997925
0.58039289712905884 0.58039289712905884 0.58039289712905884
0.60015887022018433 0.60015887022018433 0.60015887022018433
0.62265366315841675 0.62265366315841675 0.62265366315841675
0.64831370115280151 0.64831370115280151 0.64831370115280151
0.58659976720809937 0.58659976720809937 0.58659976720809937
0.58778089284896851 0.58778089284896851 0.58778089284896851
0.58906346559524536 0.58906346559524536 0.58906346559524536
0.59135150909423828 0.59135150909423828 0.59135150909423828
0.5948488712310791 0.5948488712310791 0.5948488712310791
0.59963399171829224 0.59963399171829224 0.59963399171829224
0.60619139671325684 0.60619139671325684 0.60619139671325684
0.61495798826217651 0.61495798826217651 0.61495798826217651
0.62626099586486816 0.62626099586486816 0.62626099586486816
0.64029324054718018 0.64029324054718018 0.64029324054718018
0.65753042697906494 0.65753042697906494 0.65753042697906494
0.67758846282958984 0.67758846282958984 0.67758846282958984
0.70036506652832031 0.70036506652832031 0.70036506652832031
0.66511374711990356 0.66511374711990356 0.66511374711990356
0.66497236490249634 0.66497236490249634 0.66497236490249634
0.66460734605789185 0.66460734605789185 0.66460734605789185
0.66505366563796997 0.66505366563796997 0.66505366563796997
0.66657453775405884 0.66657453775405884 0.66657453775405884
0.66963374614715576 0.66963374614715576 0.66963374614715576
0.67424964904785156 0.67424964904785156 0.67424964904785156
0.681007981300354 0.681007981300354 0.681007981300354
0.69016724824905396 0.69016724824905396 0.69016724824905396
0.70187729597091675 0.70187729597091675 0.70187729597091675
0.71665275096893311 0.71665275096893311 0.71665275096893311
0.7338874340057373 0.7338874340057373 0.7338874340057373
0.75517314672470093 0.75517314672470093 0.75517314672470093
0.74289214611053467 0.74289214611053467 0.74289214611053467
0.74232584238052368 0.74232584238052368 0.74232584238052368
0.73987013101577759 0.73987013101577759 0.73987013101577759
0.73890715837478638 0.73890715837478638 0.73890715837478638
0.7387312650680542 0.7387312650680542 0.7387312650680542
0.73991948366165161 0.73991948366165161 0.73991948366165161
0.74293333292007446 0.74293333292007446 0.74293333292007446
0.74789667129516602 0.74789667129516602 0.74789667129516602
0.7549700140953064 0.7549700140953064 0.7549700140953064
0.76474922895431519 0.76474922895431519 0.76474922895431519
0.7771461009979248 0.7771461009979248 0.7771461009979248
0.79317069053649902 0.79317069053649902 0.79317069053649902
0.81189829111099243 0.81189829111099243 0.81189829111099243
0.82009804248809814 0.82009804248809814 0.82009804248809814
0.81786000728607178 0.81786000728607178 0.81786000728607178
0.81460088491439819 0.81460088491439819 0.81460088491439819
0.81175762414932251 0.81175762414932251 0.81175762414932251
0.81021451950073242 0.81021451950073242 0.81021451950073242
0.81007415056228638 0.81007415056228638 0.81007415056228638
0.81155496835708618 0.81155496835708618 0.81155496835708618
0.81495958566665649 0.81495958566665649 0.81495958566665649
0.8206106424331665 0.8206106424331665 0.8206106424331665
0.82865947484970093 0.82865947484970093 0.82865947484970093
0.83948332071304321 0.83948332071304321 0.83948332071304321
0.85328620672225952 0.85328620672225952 0.85328620672225952
0.87107843160629272 0.87107843160629272 0.87107843160629272
0.05078824982047081 0.05078824982047081 0.05078824982047081
0.061726782470941544 0.061726782470941544 0.061726782470941544
0.074014194309711456 0.074014194309711456 0.074014194309711456
0.086109265685081482 0.086109265685081482 0.086109265685081482
0.098290883004665375 0.098290883004665375 0.098290883004665375
0.11231134086847305 0.11231134086847305 0.11231134086847305
0.12989751994609833 0.12989751994609833 0.12989751994609833
0.15199141204357147 0.15199141204357147 0.15199141204357147
0.18067550659179688 0.18067550659179688 0.18067550659179688
0.21636244654655457 0.21636244654655457 0.21636244654655457
0.2581193745136261 0.2581193745136261 0.2581193745136261
0.30314332246780396 0.30314332246780396 0.30314332246780396
0.34867396950721741 0.34867396950721741 0.34867396950721741
0.097423911094665527 0.097423911094665527 0.097423911094665527
0.10690166801214218 0.10690166801214218 0.10690166801214218
0.11765636503696442 0.11765636503696442 0.11765636503696442
0.12837156653404236 0.12837156653404236 0.12837156653404236
0.13929502665996552 0.13929502665996552 0.13929502665996552
0.15206077694892883 0.15206077694892883 0.15206077694892883
0.16820389032363892 0.16820389032363892 0.16820389032363892
0.18963216245174408 0.18963216245174408 0.18963216245174408
0.21724468469619751 0.21724468469619751 0.21724468469619751
0.251394122838974 0.251394122838974 0.251394122838974
0.29135721921920776 0.29135721921920776 0.29135721921920776
0.33455386757850647 0.33455386757850647 0.33455386757850647
0.37868720293045044 0.37868720293045044 0.37868720293045044
0.14661194384098053 0.14661194384098053 0.14661194384098053
0.15435425937175751 0.15435425937175751 0.15435425937175751
0.16335764527320862 0.16335764527320862 0.16335764527320862
0.17265963554382324 0.17265963554382324 0.17265963554382324
0.18262755870819092 0.18262755870819092 0.18262755870819092
0.19451351463794708 0.19451351463794708 0.19451351463794708
0.2099093496799469 0.2099093496799469 0.2099093496799469
0.23019348084926605 0.23019348084926605 0.23019348084926605
0.25665000081062317 0.25665000081062317 0.25665000081062317
0.28893470764160156 0.28893470764160156 0.28893470764160156
0.32654678821563721 0.32654678821563721 0.32654678821563721
0.36717948317527771 0.36717948317527771 0.36717948317527771
0.40910285711288452 0.40910285711288452 0.40910285711288452
0.19865363836288452 0.19865363836288452 0.19865363836288452
0.20471450686454773 0.20471450686454773 0.20471450686454773
0.21216672658920288 0.21216672658920288 0.21216672658920288
0.22030526399612427 0.22030526399612427 0.22030526399612427
0.22958850860595703 0.22958850860595703 0.22958850860595703
0.24046777188777924 0.24046777188777924 0.24046777188777924
0.25474512577056885 0.25474512577056885 0.25474512577056885
0.27395883202552795 0.27395883202552795 0.27395883202552795
0.29902565479278564 0.29902565479278564 0.29902565479278564
0.32924109697341919 0.32924109697341919 0.32924109697341919
0.36384254693984985 0.36384254693984985 0.36384254693984985
0.40181070566177368 0.40181070566177368 0.40181070566177368
0.44126352667808533 0.44126352667808533 0.44126352667808533
0.25397086143493652 0.25397086143493652 0.25397086143493652
0.2587769627571106 0.2587769627571106 0.2587769627571106
0.26498940587043762 0.26498940587043762 0.26498940587043762
0.27236083149909973 0.27236083149909973 0.27236083149909973
0.28070810437202454 0.28070810437202454 0.28070810437202454
0.29093730449676514 0.29093730449676514 0.29093730449676514
0.30408671498298645 0.30408671498298645 0.30408671498298645
0.32193273305892944 0.32193273305892944 0.32193273305892944
0.34520718455314636 0.34520718455314636 0.34520718455314636
0.37296167016029358 0.37296167016029358 0.37296167016029358
0.40464326739311218 0.40464326739311218 0.40464326739311218
0.43947896361351013 0.43947896361351013 0.43947896361351013
0.47621273994445801 0.47621273994445801 0.47621273994445801
0.31293860077857971 0.31293860077857971 0.31293860077857971
0.31675311923027039 0.31675311923027039 0.31675311923027039
0.32226184010505676 0.32226184010505676 0.32226184010505676
0.32894346117973328 0.32894346117973328 0.32894346117973328
0.33654874563217163 0.33654874563217163 0.33654874563217163
0.34622484445571899 0.34622484445571899 0.34622484445571899
0.35872861742973328 0.35872861742973328 0.35872861742973328
0.37499275803565979 0.37499275803565979 0.37499275803565979
0.39564305543899536 0.39564305543899536 0.39564305543899536
0.42067953944206238 0.42067953944206238 0.42067953944206238
0.44897988438606262 0.44897988438606262 0.44897988438606262
0.48070749640464783 0.48070749640464783 0.48070749640464783
0.5146222710609436 0.5146222710609436 0.5146222710609436
0.37579602003097534 0.37579602003097534 0.37579602003097534
0.37897995114326477 0.37897995114326477 0.37897995114326477
0.38391363620758057 0.38391363620758057 0.38391363620758057
0.3900454044342041 0.3900454044342041 0.3900454044342041
0.3975202739238739 0.3975202739238739 0.3975202739238739
0.40636873245239258 0.40636873245239258 0.40636873245239258
0.41770556569099426 0.41770556569099426 0.41770556569099426
0.432098388671875 0.432098388671875 0.432098388671875
0.4502413272857666 0.4502413272857666 0.4502413272857666
0.4720618724822998 0.4720618724822998 0.4720618724822998
0.49731618165969849 0.49731618165969849 0.49731618165969849
0.52575749158859253 0.52575749158859253 0.52575749158859253
0.55660820007324219 0.55660820007324219 0.55660820007324219
0.44277834892272949 0.44277834892272949 0.44277834892272949
0.44563224911689758 0.44563224911689758 0.44563224911689758
0.45004159212112427 0.45004159212112427 0.45004159212112427
0.45555761456489563 0.45555761456489563 0.45555761456489563
0.46219584345817566 0.46219584345817566 0.46219584345817566
0.47011831402778625 0.47011831402778625 0.47011831402778625
0.48008087277412415 0.48008087277412415 0.48008087277412415
0.49245643615722656 0.49245643615722656 0.49245643615722656
0.5079047679901123 0.5079047679901123 0.5079047679901123
0.52658367156982422 0.52658367156982422 0.52658367156982422
0.54900443553924561 0.54900443553924561 0.54900443553924561
0.5741426944732666 0.5741426944732666 0.5741426944732666
0.60221797227859497 0.60221797227859497 0.60221797227859497
0.51430505514144897 0.51430505514144897 0.51430505514144897
0.51656752824783325 0.51656752824783325 0.51656752824783325
0.52006274461746216 0.52006274461746216 0.52006274461746216
0.52451169490814209 0.52451169490814209 0.52451169490814209
0.52998828887939453 0.52998828887939453 0.52998828887939453
0.53665685653686523 0.53665685653686523 0.53665685653686523
0.54498207569122314 0.54498207569122314 0.54498207569122314
0.55543297529220581 0.55543297529220581 0.55543297529220581
0.56845784187316895 0.56845784187316895 0.56845784187316895
0.58425354957580566 0.58425354957580566 0.58425354957580566
0.60341024398803711 0.60341024398803711 0.60341024398803711
0.62561047077178955 0.62561047077178955 0.62561047077178955
0.65091925859451294 0.65091925859451294 0.65091925859451294
0.58928978443145752 0.58928978443145752 0.58928978443145752
0.59085172414779663 0.59085172414779663 0.59085172414779663
0.59315389394760132 0.59315389394760132 0.59315389394760132
0.59603512287139893 0.59603512287139893 0.59603512287139893
0.5999799370765686 0.5999799370765686 0.5999799370765686
0.60503023862838745 0.60503023862838745 0.60503023862838745
0.61158639192581177 0.61158639192581177 0.61158639192581177
0.61997318267822266 0.61997318267822266 0.61997318267822266
0.63072991371154785 0.63072991371154785 0.63072991371154785
0.64407861232757568 0.64407861232757568 0.64407861232757568
0.66024410724639893 0.66024410724639893 0.66024410724639893
0.67974519729614258 0.67974519729614258 0.67974519729614258
0.70241349935531616 0.70241349935531616 0.70241349935531616
0.66623407602310181 0.66623407602310181 0.66623407602310181
0.66672670841217041 0.66672670841217041 0.66672670841217041
0.66763156652450562 0.66763156652450562 0.66763156652450562
0.66897350549697876 0.66897350549697876 0.66897350549697876
0.67103886604309082 0.67103886604309082 0.67103886604309082
0.67435747385025024 0.67435747385025024 0.67435747385025024
0.67910659313201904 0.67910659313201904 0.67910659313201904
0.68557965755462646 0.68557965755462646 0.68557965755462646
0.69415396451950073 0.69415396451950073 0.69415396451950073
0.70512944459915161 0.70512944459915161 0.70512944459915161
0.71904647350311279 0.71904647350311279 0.71904647350311279
0.73603641986846924 0.73603641986846924 0.73603641986846924
0.75624150037765503 0.75624150037765503 0.75624150037765503
0.74317485094070435 0.74317485094070435 0.74317485094070435
0.74300801753997803 0.74300801753997803 0.74300801753997803
0.74272042512893677 0.74272042512893677 0.74272042512893677
0.7419581413269043 0.7419581413269043 0.7419581413269043
0.74234801530838013 0.74234801530838013 0.74234801530838013
0.74401682615280151 0.74401682615280151 0.74401682615280151
0.74693596363067627 0.74693596363067627 0.74693596363067627
0.75164061784744263 0.75164061784744263 0.75164061784744263
0.75831437110900879 0.75831437110900879 0.75831437110900879
0.76743823289871216 0.76743823289871216 0.76743823289871216
0.77943509817123413 0.77943509817123413 0.77943509817123413
0.79426181316375732 0.79426181316375732 0.79426181316375732
0.81317400932312012 0.81317400932312012 0.81317400932312012
0.82009804248809814 0.82009804248809814 0.82009804248809814
0.81871938705444336 0.81871938705444336 0.81871938705444336
0.81619274616241455 0.81619274616241455 0.81619274616241455
0.81426376104354858 0.81426376104354858 0.81426376104354858
0.81315577030181885 0.81315577030181885 0.81315577030181885
0.81323456764221191 0.81323456764221191 0.81323456764221191
0.81477481126785278 0.81477481126785278 0.81477481126785278
0.81792396306991577 0.81792396306991577 0.81792396306991577
0.82310730218887329 0.82310730218887329 0.82310730218887329
0.83070361614227295 0.83070361614227295 0.83070361614227295
0.84089088439941406 0.84089088439941406 0.84089088439941406
0.85409915447235107 0.85409915447235107 0.85409915447235107
0.87107843160629272 0.87107843160629272 0.87107843160629272
0.071077458560466766 0.071077458560466766 0.071077458560466766
0.082330651581287384 0.082330651581287384 0.082330651581287384
0.094846956431865692 0.094846956431865692 0.094846956431865692
0.10612542927265167 0.10612542927265167 0.10612542927265167
0.11705543845891953 0.11705543845891953 0.11705543845891953
0.12981633841991425 0.12981633841991425 0.12981633841991425
0.14644560217857361 0.14644560217857361 0.14644560217857361
0.16911879181861877 0.16911879181861877 0.16911879181861877
0.19775649905204773 0.19775649905204773 0.19775649905204773
0.23310951888561249 0.23310951888561249 0.23310951888561249
0.2736683189868927 0.2736683189868927 0.2736683189868927
0.31773772835731506 0.31773772835731506 0.31773772835731506
0.36250048875808716 0.36250048875808716 0.36250048875808716
0.11619096994400024 0.11619096994400024 0.11619096994400024
0.12601113319396973 0.12601113319396973 0.12601113319396973
0.13678918778896332 0.13678918778896332 0.13678918778896332
0.14667554199695587 0.14667554199695587 0.14667554199695587
0.15645605325698853 0.15645605325698853 0.15645605325698853
0.1682201623916626 0.1682201623916626 0.1682201623916626
0.18438604474067688 0.18438604474067688 0.18438604474067688
0.20510683953762054 0.20510683953762054 0.20510683953762054
0.23241570591926575 0.23241570591926575 0.23241570591926575
0.26614284515380859 0.26614284515380859 0.26614284515380859
0.30526635050773621 0.30526635050773621 0.30526635050773621
0.34768694639205933 0.34768694639205933 0.34768694639205933
0.39114576578140259 0.39114576578140259 0.39114576578140259
0.16344174742698669 0.16344174742698669 0.16344174742698669
0.17128874361515045 0.17128874361515045 0.17128874361515045
0.18005967140197754 0.18005967140197754 0.18005967140197754
0.18893733620643616 0.18893733620643616 0.18893733620643616
0.19813334941864014 0.19813334941864014 0.19813334941864014
0.20921771228313446 0.20921771228313446 0.20921771228313446
0.22403255105018616 0.22403255105018616 0.22403255105018616
0.24383643269538879 0.24383643269538879 0.24383643269538879
0.26956596970558167 0.26956596970558167 0.26956596970558167
0.30151790380477905 0.30151790380477905 0.30151790380477905
0.33824551105499268 0.33824551105499268 0.33824551105499268
0.37848260998725891 0.37848260998725891 0.37848260998725891
0.42008039355278015 0.42008039355278015 0.42008039355278015
0.21338723599910736 0.21338723599910736 0.21338723599910736
0.21945025026798248 0.21945025026798248 0.21945025026798248
0.22674362361431122 0.22674362361431122 0.22674362361431122
0.23460598289966583 0.23460598289966583 0.23460598289966583
0.24316224455833435 0.24316224455833435 0.24316224455833435
0.25360089540481567 0.25360089540481567 0.25360089540481567
0.26730510592460632 0.26730510592460632 0.26730510592460632
0.28591394424438477 0.28591394424438477 0.28591394424438477
0.31027892231941223 0.31027892231941223 0.31027892231941223
0.33981159329414368 0.33981159329414368 0.33981159329414368
0.37382259964942932 0.37382259964942932 0.37382259964942932
0.41117715835571289 0.41117715835571289 0.41117715835571289
0.45050486922264099 0.45050486922264099 0.45050486922264099
0.26663249731063843 0.26663249731063843 0.26663249731063843
0.27132821083068848 0.27132821083068848 0.27132821083068848
0.27757519483566284 0.27757519483566284 0.27757519483566284
0.28474330902099609 0.28474330902099609 0.28474330902099609
0.2928776741027832 0.2928776741027832 0.2928776741027832
0.30267208814620972 0.30267208814620972 0.30267208814620972
0.31531509757041931 0.31531509757041931 0.31531509757041931
0.33258703351020813 0.33258703351020813 0.33258703351020813
