luts/bw/polaroid_664.cube
# Created by: G'MIC (https://gmic.eu)
TITLE "polaroid_664"
# LUT size
LUT_3D_SIZE 5
# Data domain
DOMAIN_MIN 0.0 0.0 0.0
DOMAIN_MAX 1.0 1.0 1.0
# LUT data points
0.015362010337412357 0.015362010337412357 0.015362010337412357
0.11515389382839203 0.11515389382839203 0.11515389382839203
0.40191656351089478 0.40191656351089478 0.40191656351089478
0.56219565868377686 0.56219565868377686 0.56219565868377686
0.67416292428970337 0.67416292428970337 0.67416292428970337
0.096377477049827576 0.096377477049827576 0.096377477049827576
0.24170508980751038 0.24170508980751038 0.24170508980751038
0.46329978108406067 0.46329978108406067 0.46329978108406067
0.57933199405670166 0.57933199405670166 0.57933199405670166
0.69098019599914551 0.69098019599914551 0.69098019599914551
0.34227302670478821 0.34227302670478821 0.34227302670478821
0.41033345460891724 0.41033345460891724 0.41033345460891724
0.52189916372299194 0.52189916372299194 0.52189916372299194
0.61520826816558838 0.61520826816558838 0.61520826816558838
0.71981066465377808 0.71981066465377808 0.71981066465377808
0.5035216212272644 0.5035216212272644 0.5035216212272644
0.51994204521179199 0.51994204521179199 0.51994204521179199
0.56969833374023438 0.56969833374023438 0.56969833374023438
0.64833664894104004 0.64833664894104004 0.64833664894104004
0.76009559631347656 0.76009559631347656 0.76009559631347656
0.58670401573181152 0.58670401573181152 0.58670401573181152
0.59550434350967407 0.59550434350967407 0.59550434350967407
0.62387180328369141 0.62387180328369141 0.62387180328369141
0.6908729076385498 0.6908729076385498 0.6908729076385498
0.8173784613609314 0.8173784613609314 0.8173784613609314
0.079981051385402679 0.079981051385402679 0.079981051385402679
0.29771971702575684 0.29771971702575684 0.29771971702575684
0.48286032676696777 0.48286032676696777 0.48286032676696777
0.58901935815811157 0.58901935815811157 0.58901935815811157
0.68646395206451416 0.68646395206451416 0.68646395206451416
0.256031334400177 0.256031334400177 0.256031334400177
0.37648871541023254 0.37648871541023254 0.37648871541023254
0.51690244674682617 0.51690244674682617 0.51690244674682617
0.60264855623245239 0.60264855623245239 0.60264855623245239
0.70053571462631226 0.70053571462631226 0.70053571462631226
0.44514209032058716 0.44514209032058716 0.44514209032058716
0.4845522940158844 0.4845522940158844 0.4845522940158844
0.55729115009307861 0.55729115009307861 0.55729115009307861
0.63333529233932495 0.63333529233932495 0.63333529233932495
0.72966921329498291 0.72966921329498291 0.72966921329498291
0.53750157356262207 0.53750157356262207 0.53750157356262207
0.55123746395111084 0.55123746395111084 0.55123746395111084
0.59659075736999512 0.59659075736999512 0.59659075736999512
0.66820722818374634 0.66820722818374634 0.66820722818374634
0.77092832326889038 0.77092832326889038 0.77092832326889038
0.60644757747650146 0.60644757747650146 0.60644757747650146
0.6150093674659729 0.6150093674659729 0.6150093674659729
0.6493525505065918 0.6493525505065918 0.6493525505065918
0.71871793270111084 0.71871793270111084 0.71871793270111084
0.8280673623085022 0.8280673623085022 0.8280673623085022
0.27650365233421326 0.27650365233421326 0.27650365233421326
0.44747540354728699 0.44747540354728699 0.44747540354728699
0.54351085424423218 0.54351085424423218 0.54351085424423218
0.61634081602096558 0.61634081602096558 0.61634081602096558
0.70306020975112915 0.70306020975112915 0.70306020975112915
0.44501754641532898 0.44501754641532898 0.44501754641532898
0.49392297863960266 0.49392297863960266 0.49392297863960266
0.5639883279800415 0.5639883279800415 0.5639883279800415
0.63048708438873291 0.63048708438873291 0.63048708438873291
0.71804654598236084 0.71804654598236084 0.71804654598236084
0.53929513692855835 0.53929513692855835 0.53929513692855835
0.55457514524459839 0.55457514524459839 0.55457514524459839
0.59386992454528809 0.59386992454528809 0.59386992454528809
0.65748220682144165 0.65748220682144165 0.65748220682144165
0.74762684106826782 0.74762684106826782 0.74762684106826782
0.58945202827453613 0.58945202827453613 0.58945202827453613
0.5992317795753479 0.5992317795753479 0.5992317795753479
0.63325077295303345 0.63325077295303345 0.63325077295303345
0.69697880744934082 0.69697880744934082 0.69697880744934082
0.79086595773696899 0.79086595773696899 0.79086595773696899
0.63972914218902588 0.63972914218902588 0.63972914218902588
0.65340793132781982 0.65340793132781982 0.65340793132781982
0.69029772281646729 0.69029772281646729 0.69029772281646729
0.75570058822631836 0.75570058822631836 0.75570058822631836
0.85208374261856079 0.85208374261856079 0.85208374261856079
0.50412774085998535 0.50412774085998535 0.50412774085998535
0.546303391456604 0.546303391456604 0.546303391456604
0.60062378644943237 0.60062378644943237 0.60062378644943237
0.66192066669464111 0.66192066669464111 0.66192066669464111
0.74220633506774902 0.74220633506774902 0.74220633506774902
0.56419187784194946 0.56419187784194946 0.56419187784194946
0.56959253549575806 0.56959253549575806 0.56959253549575806
0.61275768280029297 0.61275768280029297 0.61275768280029297
0.67399245500564575 0.67399245500564575 0.67399245500564575
0.75728100538253784 0.75728100538253784 0.75728100538253784
0.61398780345916748 0.61398780345916748 0.61398780345916748
0.61363542079925537 0.61363542079925537 0.61363542079925537
0.64095818996429443 0.64095818996429443 0.64095818996429443
0.69974398612976074 0.69974398612976074 0.69974398612976074
0.78545230627059937 0.78545230627059937 0.78545230627059937
0.65607225894927979 0.65607225894927979 0.65607225894927979
0.66085124015808105 0.66085124015808105 0.66085124015808105
0.68751293420791626 0.68751293420791626 0.68751293420791626
0.74390506744384766 0.74390506744384766 0.74390506744384766
0.8301241397857666 0.8301241397857666 0.8301241397857666
0.70254522562026978 0.70254522562026978 0.70254522562026978
0.72039639949798584 0.72039639949798584 0.72039639949798584
0.7528454065322876 0.7528454065322876 0.7528454065322876
0.80947232246398926 0.80947232246398926 0.80947232246398926
0.89493143558502197 0.89493143558502197 0.89493143558502197
0.60080587863922119 0.60080587863922119 0.60080587863922119
0.63037264347076416 0.63037264347076416 0.63037264347076416
0.66827154159545898 0.66827154159545898 0.66827154159545898
0.7246863842010498 0.7246863842010498 0.7246863842010498
0.80085808038711548 0.80085808038711548 0.80085808038711548
0.6461411714553833 0.6461411714553833 0.6461411714553833
0.65019440650939941 0.65019440650939941 0.65019440650939941
0.68203377723693848 0.68203377723693848 0.68203377723693848
0.7394789457321167 0.7394789457321167 0.7394789457321167
0.81901741027832031 0.81901741027832031 0.81901741027832031
0.69214069843292236 0.69214069843292236 0.69214069843292236
0.68682414293289185 0.68682414293289185 0.68682414293289185
0.71257168054580688 0.71257168054580688 0.71257168054580688
0.76800262928009033 0.76800262928009033 0.76800262928009033
0.84882855415344238 0.84882855415344238 0.84882855415344238
0.75189894437789917 0.75189894437789917 0.75189894437789917
0.74942564964294434 0.74942564964294434 0.74942564964294434
0.76820790767669678 0.76820790767669678 0.76820790767669678
0.81727957725524902 0.81727957725524902 0.81727957725524902
0.89533311128616333 0.89533311128616333 0.89533311128616333
0.82637101411819458 0.82637101411819458 0.82637101411819458
0.824576735496521 0.824576735496521 0.824576735496521
0.84267580509185791 0.84267580509185791 0.84267580509185791
0.88781356811523438 0.88781356811523438 0.88781356811523438
0.96222466230392456 0.96222466230392456 0.96222466230392456
