luts/bw/polaroid_672.cube
# Created by: G'MIC (https://gmic.eu)
TITLE "polaroid_672"
# LUT size
LUT_3D_SIZE 7
# Data domain
DOMAIN_MIN 0.0 0.0 0.0
DOMAIN_MAX 1.0 1.0 1.0
# LUT data points
0.010242701508104801 0.010242701508104801 0.010242701508104801
0.029391448944807053 0.029391448944807053 0.029391448944807053
0.06860804557800293 0.06860804557800293 0.06860804557800293
0.13418023288249969 0.13418023288249969 0.13418023288249969
0.23240350186824799 0.23240350186824799 0.23240350186824799
0.37096723914146423 0.37096723914146423 0.37096723914146423
0.52259171009063721 0.52259171009063721 0.52259171009063721
0.058450061827898026 0.058450061827898026 0.058450061827898026
0.07678629457950592 0.07678629457950592 0.07678629457950592
0.11494067311286926 0.11494067311286926 0.11494067311286926
0.17988741397857666 0.17988741397857666 0.17988741397857666
0.27725711464881897 0.27725711464881897 0.27725711464881897
0.40455427765846252 0.40455427765846252 0.40455427765846252
0.54338055849075317 0.54338055849075317 0.54338055849075317
0.12612952291965485 0.12612952291965485 0.12612952291965485
0.14492331445217133 0.14492331445217133 0.14492331445217133
0.18273137509822845 0.18273137509822845 0.18273137509822845
0.24529176950454712 0.24529176950454712 0.24529176950454712
0.33600357174873352 0.33600357174873352 0.33600357174873352
0.4480741024017334 0.4480741024017334 0.4480741024017334
0.5715906023979187 0.5715906023979187 0.5715906023979187
0.22406993806362152 0.22406993806362152 0.22406993806362152
0.24185533821582794 0.24185533821582794 0.24185533821582794
0.27658966183662415 0.27658966183662415 0.27658966183662415
0.33140522241592407 0.33140522241592407 0.33140522241592407
0.40863820910453796 0.40863820910453796 0.40863820910453796
0.50400799512863159 0.50400799512863159 0.50400799512863159
0.61188066005706787 0.61188066005706787 0.61188066005706787
0.3554956316947937 0.3554956316947937 0.3554956316947937
0.36605972051620483 0.36605972051620483 0.36605972051620483
0.39143052697181702 0.39143052697181702 0.39143052697181702
0.43367558717727661 0.43367558717727661 0.43367558717727661
0.49467134475708008 0.49467134475708008 0.49467134475708008
0.57277250289916992 0.57277250289916992 0.57277250289916992
0.66572332382202148 0.66572332382202148 0.66572332382202148
0.50408399105072021 0.50408399105072021 0.50408399105072021
0.50614970922470093 0.50614970922470093 0.50614970922470093
0.51917415857315063 0.51917415857315063 0.51917415857315063
0.54725289344787598 0.54725289344787598 0.54725289344787598
0.59252220392227173 0.59252220392227173 0.59252220392227173
0.65482246875762939 0.65482246875762939 0.65482246875762939
0.73393255472183228 0.73393255472183228 0.73393255472183228
0.65526092052459717 0.65526092052459717 0.65526092052459717
0.6495521068572998 0.6495521068572998 0.6495521068572998
0.6519743800163269 0.6519743800163269 0.6519743800163269
0.66833418607711792 0.66833418607711792 0.66833418607711792
0.70036345720291138 0.70036345720291138 0.70036345720291138
0.75082331895828247 0.75082331895828247 0.75082331895828247
0.81877076625823975 0.81877076625823975 0.81877076625823975
0.013911183923482895 0.013911183923482895 0.013911183923482895
0.039851229637861252 0.039851229637861252 0.039851229637861252
0.086645312607288361 0.086645312607288361 0.086645312607288361
0.15964002907276154 0.15964002907276154 0.15964002907276154
0.26273486018180847 0.26273486018180847 0.26273486018180847
0.3961217999458313 0.3961217999458313 0.3961217999458313
0.53917902708053589 0.53917902708053589 0.53917902708053589
0.069582872092723846 0.069582872092723846 0.069582872092723846
0.092545434832572937 0.092545434832572937 0.092545434832572937
0.13657930493354797 0.13657930493354797 0.13657930493354797
0.2062128484249115 0.2062128484249115 0.2062128484249115
0.30507668852806091 0.30507668852806091 0.30507668852806091
0.42827197909355164 0.42827197909355164 0.42827197909355164
0.5618477463722229 0.5618477463722229 0.5618477463722229
0.14524690806865692 0.14524690806865692 0.14524690806865692
0.1659555584192276 0.1659555584192276 0.1659555584192276
0.20691421627998352 0.20691421627998352 0.20691421627998352
0.27115178108215332 0.27115178108215332 0.27115178108215332
0.36042678356170654 0.36042678356170654 0.36042678356170654
0.46922281384468079 0.46922281384468079 0.46922281384468079
0.58807241916656494 0.58807241916656494 0.58807241916656494
0.2464393675327301 0.2464393675327301 0.2464393675327301
0.26402020454406738 0.26402020454406738 0.26402020454406738
0.2994290292263031 0.2994290292263031 0.2994290292263031
0.35439690947532654 0.35439690947532654 0.35439690947532654
0.42935752868652344 0.42935752868652344 0.42935752868652344
0.5213286280632019 0.5213286280632019 0.5213286280632019
0.62485939264297485 0.62485939264297485 0.62485939264297485
0.37275874614715576 0.37275874614715576 0.37275874614715576
0.3840717077255249 0.3840717077255249 0.3840717077255249
0.4098355770111084 0.4098355770111084 0.4098355770111084
0.45173117518424988 0.45173117518424988 0.45173117518424988
0.51075780391693115 0.51075780391693115 0.51075780391693115
0.58540827035903931 0.58540827035903931 0.58540827035903931
0.67462486028671265 0.67462486028671265 0.67462486028671265
0.51340919733047485 0.51340919733047485 0.51340919733047485
0.51743018627166748 0.51743018627166748 0.51743018627166748
0.53155410289764404 0.53155410289764404 0.53155410289764404
0.55951809883117676 0.55951809883117676 0.55951809883117676
0.6031489372253418 0.6031489372253418 0.6031489372253418
0.66272032260894775 0.66272032260894775 0.66272032260894775
0.73897475004196167 0.73897475004196167 0.73897475004196167
0.65669602155685425 0.65669602155685425 0.65669602155685425
0.65394991636276245 0.65394991636276245 0.65394991636276245
0.65823036432266235 0.65823036432266235 0.65823036432266235
0.67490804195404053 0.67490804195404053 0.67490804195404053
0.70618754625320435 0.70618754625320435 0.70618754625320435
0.75404924154281616 0.75404924154281616 0.75404924154281616
0.82032150030136108 0.82032150030136108 0.82032150030136108
0.032530378550291061 0.032530378550291061 0.032530378550291061
0.065980382263660431 0.065980382263660431 0.065980382263660431
0.1216418519616127 0.1216418519616127 0.1216418519616127
0.20106732845306396 0.20106732845306396 0.20106732845306396
0.30538350343704224 0.30538350343704224 0.30538350343704224
0.4313238263130188 0.4313238263130188 0.4313238263130188
0.56516134738922119 0.56516134738922119 0.56516134738922119
0.097671329975128174 0.097671329975128174 0.097671329975128174
0.12617179751396179 0.12617179751396179 0.12617179751396179
0.17651426792144775 0.17651426792144775 0.17651426792144775
0.24987344443798065 0.24987344443798065 0.24987344443798065
0.34681391716003418 0.34681391716003418 0.34681391716003418
0.46331822872161865 0.46331822872161865 0.46331822872161865
0.58736592531204224 0.58736592531204224 0.58736592531204224
0.18192805349826813 0.18192805349826813 0.18192805349826813
0.20589801669120789 0.20589801669120789 0.20589801669120789
0.24979710578918457 0.24979710578918457 0.24979710578918457
0.31468307971954346 0.31468307971954346 0.31468307971954346
0.39989462494850159 0.39989462494850159 0.39989462494850159
0.50173705816268921 0.50173705816268921 0.50173705816268921
0.61234307289123535 0.61234307289123535 0.61234307289123535
0.28525179624557495 0.28525179624557495 0.28525179624557495
0.30410668253898621 0.30410668253898621 0.30410668253898621
0.34014603495597839 0.34014603495597839 0.34014603495597839
0.39409023523330688 0.39409023523330688 0.39409023523330688
0.46469694375991821 0.46469694375991821 0.46469694375991821
0.55017197132110596 0.55017197132110596 0.55017197132110596
0.64665323495864868 0.64665323495864868 0.64665323495864868
0.40497604012489319 0.40497604012489319 0.40497604012489319
0.41755890846252441 0.41755890846252441 0.41755890846252441
0.44384637475013733 0.44384637475013733 0.44384637475013733
0.48488733172416687 0.48488733172416687 0.48488733172416687
0.54046028852462769 0.54046028852462769 0.54046028852462769
0.60999822616577148 0.60999822616577148 0.60999822616577148
0.69320416450500488 0.69320416450500488 0.69320416450500488
0.53440779447555542 0.53440779447555542 0.53440779447555542
0.54039484262466431 0.54039484262466431 0.54039484262466431
0.55618703365325928 0.55618703365325928 0.55618703365325928
0.58438408374786377 0.58438408374786377 0.58438408374786377
0.62586474418640137 0.62586474418640137 0.62586474418640137
0.68189519643783569 0.68189519643783569 0.68189519643783569
0.75391495227813721 0.75391495227813721 0.75391495227813721
0.66711896657943726 0.66711896657943726 0.66711896657943726
0.66708993911743164 0.66708993911743164 0.66708993911743164
0.67394673824310303 0.67394673824310303 0.67394673824310303
0.69136297702789307 0.69136297702789307 0.69136297702789307
0.72198265790939331 0.72198265790939331 0.72198265790939331
0.76772803068161011 0.76772803068161011 0.76772803068161011
0.83128267526626587 0.83128267526626587 0.83128267526626587
0.068685330450534821 0.068685330450534821 0.068685330450534821
0.10857603698968887 0.10857603698968887 0.10857603698968887
0.16990907490253448 0.16990907490253448 0.16990907490253448
0.25111174583435059 0.25111174583435059 0.25111174583435059
0.35195085406303406 0.35195085406303406 0.35195085406303406
0.46861264109611511 0.46861264109611511 0.46861264109611511
0.59275788068771362 0.59275788068771362 0.59275788068771362
0.14275488257408142 0.14275488257408142 0.14275488257408142
0.17582650482654572 0.17582650482654572 0.17582650482654572
0.2294531911611557 0.2294531911611557 0.2294531911611557
0.302533358335495 0.302533358335495 0.302533358335495
0.39441084861755371 0.39441084861755371 0.39441084861755371
0.50129467248916626 0.50129467248916626 0.50129467248916626
0.61530101299285889 0.61530101299285889 0.61530101299285889
0.23418472707271576 0.23418472707271576 0.23418472707271576
0.26042145490646362 0.26042145490646362 0.26042145490646362
0.30495929718017578 0.30495929718017578 0.30495929718017578
0.36747592687606812 0.36747592687606812 0.36747592687606812
0.44648534059524536 0.44648534059524536 0.44648534059524536
0.5390128493309021 0.5390128493309021 0.5390128493309021
0.64051127433776855 0.64051127433776855 0.64051127433776855
0.33774104714393616 0.33774104714393616 0.33774104714393616
0.35762882232666016 0.35762882232666016 0.35762882232666016
0.39277371764183044 0.39277371764183044 0.39277371764183044
0.44392380118370056 0.44392380118370056 0.44392380118370056
0.50895422697067261 0.50895422697067261 0.50895422697067261
0.58556729555130005 0.58556729555130005 0.58556729555130005
0.6737678050994873 0.6737678050994873 0.6737678050994873
0.44989398121833801 0.44989398121833801 0.44989398121833801
0.46336749196052551 0.46336749196052551 0.46336749196052551
0.48924830555915833 0.48924830555915833 0.48924830555915833
0.52858418226242065 0.52858418226242065 0.52858418226242065
0.57954996824264526 0.57954996824264526 0.57954996824264526
0.6416352391242981 0.6416352391242981 0.6416352391242981
0.71769219636917114 0.71769219636917114 0.71769219636917114
0.56842899322509766 0.56842899322509766 0.56842899322509766
0.57497608661651611 0.57497608661651611 0.57497608661651611
0.59142374992370605 0.59142374992370605 0.59142374992370605
0.61873769760131836 0.61873769760131836 0.61873769760131836
0.65706098079681396 0.65706098079681396 0.65706098079681396
0.70800185203552246 0.70800185203552246 0.70800185203552246
0.77484279870986938 0.77484279870986938 0.77484279870986938
0.68990761041641235 0.68990761041641235 0.68990761041641235
0.69102543592453003 0.69102543592453003 0.69102543592453003
0.69922566413879395 0.69922566413879395 0.69922566413879395
0.7167707085609436 0.7167707085609436 0.7167707085609436
0.74561715126037598 0.74561715126037598 0.74561715126037598
0.78839731216430664 0.78839731216430664 0.78839731216430664
0.84869801998138428 0.84869801998138428 0.84869801998138428
0.1278931200504303 0.1278931200504303 0.1278931200504303
0.16962037980556488 0.16962037980556488 0.16962037980556488
0.23018687963485718 0.23018687963485718 0.23018687963485718
0.30744978785514832 0.30744978785514832 0.30744978785514832
0.40016448497772217 0.40016448497772217 0.40016448497772217
0.50527000427246094 0.50527000427246094 0.50527000427246094
0.61696428060531616 0.61696428060531616 0.61696428060531616
0.20775695145130157 0.20775695145130157 0.20775695145130157
0.24104194343090057 0.24104194343090057 0.24104194343090057
0.2928711473941803 0.2928711473941803 0.2928711473941803
0.3609013557434082 0.3609013557434082 0.3609013557434082
0.44403126835823059 0.44403126835823059 0.44403126835823059
0.53946489095687866 0.53946489095687866 0.53946489095687866
0.64279359579086304 0.64279359579086304 0.64279359579086304
0.30231168866157532 0.30231168866157532 0.30231168866157532
0.32773700356483459 0.32773700356483459 0.32773700356483459
0.36879494786262512 0.36879494786262512 0.36879494786262512
0.42535367608070374 0.42535367608070374 0.42535367608070374
0.49592426419258118 0.49592426419258118 0.49592426419258118
0.57851994037628174 0.57851994037628174 0.57851994037628174
0.67043393850326538 0.67043393850326538 0.67043393850326538
0.40294969081878662 0.40294969081878662 0.40294969081878662
0.42162811756134033 0.42162811756134033 0.42162811756134033
0.4531654417514801 0.4531654417514801 0.4531654417514801
0.49860581755638123 0.49860581755638123 0.49860581755638123
0.55582410097122192 0.55582410097122192 0.55582410097122192
0.62374216318130493 0.62374216318130493 0.62374216318130493
0.70390063524246216 0.70390063524246216 0.70390063524246216
0.50647825002670288 0.50647825002670288 0.50647825002670288
0.51911711692810059 0.51911711692810059 0.51911711692810059
0.54200875759124756 0.54200875759124756 0.54200875759124756
0.57708662748336792 0.57708662748336792 0.57708662748336792
0.62210261821746826 0.62210261821746826 0.62210261821746826
0.67653608322143555 0.67653608322143555 0.67653608322143555
0.74622321128845215 0.74622321128845215 0.74622321128845215
0.61308902502059937 0.61308902502059937 0.61308902502059937
0.61966502666473389 0.61966502666473389 0.61966502666473389
0.63458967208862305 0.63458967208862305 0.63458967208862305
0.6589626669883728 0.6589626669883728 0.6589626669883728
0.69403225183486938 0.69403225183486938 0.69403225183486938
0.73841828107833862 0.73841828107833862 0.73841828107833862
0.8003113865852356 0.8003113865852356 0.8003113865852356
0.72342127561569214 0.72342127561569214 0.72342127561569214
0.72536587715148926 0.72536587715148926 0.72536587715148926
0.73341327905654907 0.73341327905654907 0.73341327905654907
0.74934583902359009 0.74934583902359009 0.74934583902359009
0.77548658847808838 0.77548658847808838 0.77548658847808838
0.81442761421203613 0.81442761421203613 0.81442761421203613
0.87126392126083374 0.87126392126083374 0.87126392126083374
0.20933157205581665 0.20933157205581665 0.20933157205581665
0.24647572636604309 0.24647572636604309 0.24647572636604309
0.30066537857055664 0.30066537857055664 0.30066537857055664
0.36972653865814209 0.36972653865814209 0.36972653865814209
0.45221993327140808 0.45221993327140808 0.45221993327140808
0.54571366310119629 0.54571366310119629 0.54571366310119629
0.64690852165222168 0.64690852165222168 0.64690852165222168
0.28960016369819641 0.28960016369819641 0.28960016369819641
0.31987586617469788 0.31987586617469788 0.31987586617469788
0.3643805980682373 0.3643805980682373 0.3643805980682373
0.42364785075187683 0.42364785075187683 0.42364785075187683
0.49647188186645508 0.49647188186645508 0.49647188186645508
0.58080548048019409 0.58080548048019409 0.58080548048019409
0.67430543899536133 0.67430543899536133 0.67430543899536133
0.38323506712913513 0.38323506712913513 0.38323506712913513
0.40496101975440979 0.40496101975440979 0.40496101975440979
0.43865913152694702 0.43865913152694702 0.43865913152694702
0.48651102185249329 0.48651102185249329 0.48651102185249329
0.54742801189422607 0.54742801189422607 0.54742801189422607
0.62039744853973389 0.62039744853973389 0.62039744853973389
0.70430511236190796 0.70430511236190796 0.70430511236190796
0.47902020812034607 0.47902020812034607 0.47902020812034607
0.49373918771743774 0.49373918771743774 0.49373918771743774
0.51815962791442871 0.51815962791442871 0.51815962791442871
0.55518418550491333 0.55518418550491333 0.55518418550491333
0.60409605503082275 0.60409605503082275 0.60409605503082275
0.66490262746810913 0.66490262746810913 0.66490262746810913
0.73988568782806396 0.73988568782806396 0.73988568782806396
0.57236677408218384 0.57236677408218384 0.57236677408218384
0.58204132318496704 0.58204132318496704 0.58204132318496704
0.5995137095451355 0.5995137095451355 0.5995137095451355
0.62738609313964844 0.62738609313964844 0.62738609313964844
0.66552227735519409 0.66552227735519409 0.66552227735519409
0.7151191234588623 0.7151191234588623 0.7151191234588623
0.77997761964797974 0.77997761964797974 0.77997761964797974
0.66722851991653442 0.66722851991653442 0.66722851991653442
0.67235839366912842 0.67235839366912842 0.67235839366912842
0.68396127223968506 0.68396127223968506 0.68396127223968506
0.70391976833343506 0.70391976833343506 0.70391976833343506
0.73298043012619019 0.73298043012619019 0.73298043012619019
0.77371060848236084 0.77371060848236084 0.77371060848236084
0.83182090520858765 0.83182090520858765 0.83182090520858765
0.7689216136932373 0.7689216136932373 0.7689216136932373
0.76930731534957886 0.76930731534957886 0.76930731534957886
0.77592825889587402 0.77592825889587402 0.77592825889587402
0.78948533535003662 0.78948533535003662 0.78948533535003662
0.81213438510894775 0.81213438510894775 0.81213438510894775
0.84707832336425781 0.84707832336425781 0.84707832336425781
0.90028661489486694 0.90028661489486694 0.90028661489486694
0.29860958456993103 0.29860958456993103 0.29860958456993103
0.33113929629325867 0.33113929629325867 0.33113929629325867
0.37766173481941223 0.37766173481941223 0.37766173481941223
0.43767789006233215 0.43767789006233215 0.43767789006233215
0.51027625799179077 0.51027625799179077 0.51027625799179077
0.59365689754486084 0.59365689754486084 0.59365689754486084
0.68635648488998413 0.68635648488998413 0.68635648488998413
0.37803518772125244 0.37803518772125244 0.37803518772125244
0.40331792831420898 0.40331792831420898 0.40331792831420898
0.44060999155044556 0.44060999155044556 0.44060999155044556
0.49084010720252991 0.49084010720252991 0.49084010720252991
0.55408889055252075 0.55408889055252075 0.55408889055252075
0.62912780046463013 0.62912780046463013 0.62912780046463013
0.71505624055862427 0.71505624055862427 0.71505624055862427
0.46937069296836853 0.46937069296836853 0.46937069296836853
0.48578342795372009 0.48578342795372009 0.48578342795372009
0.51199430227279663 0.51199430227279663 0.51199430227279663
0.55115377902984619 0.55115377902984619 0.55115377902984619
0.60363948345184326 0.60363948345184326 0.60363948345184326
0.66898781061172485 0.66898781061172485 0.66898781061172485
0.74678367376327515 0.74678367376327515 0.74678367376327515
0.55982834100723267 0.55982834100723267 0.55982834100723267
0.56903737783432007 0.56903737783432007 0.56903737783432007
0.5863221287727356 0.5863221287727356 0.5863221287727356
0.61569070816040039 0.61569070816040039 0.61569070816040039
0.65766006708145142 0.65766006708145142 0.65766006708145142
0.71282398700714111 0.71282398700714111 0.71282398700714111
0.78230422735214233 0.78230422735214233 0.78230422735214233
0.64284849166870117 0.64284849166870117 0.64284849166870117
0.64912313222885132 0.64912313222885132 0.64912313222885132
0.66156661510467529 0.66156661510467529 0.66156661510467529
0.68326938152313232 0.68326938152313232 0.68326938152313232
0.71617460250854492 0.71617460250854492 0.71617460250854492
0.76175916194915771 0.76175916194915771 0.76175916194915771
0.82393759489059448 0.82393759489059448 0.82393759489059448
0.72870653867721558 0.72870653867721558 0.72870653867721558
0.73161709308624268 0.73161709308624268 0.73161709308624268
0.74025040864944458 0.74025040864944458 0.74025040864944458
0.75655639171600342 0.75655639171600342 0.75655639171600342
0.78148734569549561 0.78148734569549561 0.78148734569549561
0.81914907693862915 0.81914907693862915 0.81914907693862915
0.87471568584442139 0.87471568584442139 0.87471568584442139
0.82244247198104858 0.82244247198104858 0.82244247198104858
0.82240289449691772 0.82240289449691772 0.82240289449691772
0.82741934061050415 0.82741934061050415 0.82741934061050415
0.83905696868896484 0.83905696868896484 0.83905696868896484
0.85928499698638916 0.85928499698638916 0.85928499698638916
0.89147794246673584 0.89147794246673584 0.89147794246673584
0.94136196374893188 0.94136196374893188 0.94136196374893188
