luts/bw/polaroid_672.cube
# Created by: G'MIC (https://gmic.eu)
TITLE "polaroid_672"
# LUT size
LUT_3D_SIZE 13
# Data domain
DOMAIN_MIN 0.0 0.0 0.0
DOMAIN_MAX 1.0 1.0 1.0
# LUT data points
0.010242701508104801 0.010242701508104801 0.010242701508104801
0.018455116078257561 0.018455116078257561 0.018455116078257561
0.029391448944807053 0.029391448944807053 0.029391448944807053
0.046004470437765121 0.046004470437765121 0.046004470437765121
0.06860804557800293 0.06860804557800293 0.06860804557800293
0.097809344530105591 0.097809344530105591 0.097809344530105591
0.13418023288249969 0.13418023288249969 0.13418023288249969
0.17842452228069305 0.17842452228069305 0.17842452228069305
0.23240350186824799 0.23240350186824799 0.23240350186824799
0.29796889424324036 0.29796889424324036 0.29796889424324036
0.37096723914146423 0.37096723914146423 0.37096723914146423
0.4471556544303894 0.4471556544303894 0.4471556544303894
0.52259171009063721 0.52259171009063721 0.52259171009063721
0.032531857490539551 0.032531857490539551 0.032531857490539551
0.039827711880207062 0.039827711880207062 0.039827711880207062
0.051042146980762482 0.051042146980762482 0.051042146980762482
0.067122891545295715 0.067122891545295715 0.067122891545295715
0.089333824813365936 0.089333824813365936 0.089333824813365936
0.11830388754606247 0.11830388754606247 0.11830388754606247
0.15449818968772888 0.15449818968772888 0.15449818968772888
0.19897156953811646 0.19897156953811646 0.19897156953811646
0.25284034013748169 0.25284034013748169 0.25284034013748169
0.31617870926856995 0.31617870926856995 0.31617870926856995
0.38647764921188354 0.38647764921188354 0.38647764921188354
0.45987376570701599 0.45987376570701599 0.45987376570701599
0.53276389837265015 0.53276389837265015 0.53276389837265015
0.058450061827898026 0.058450061827898026 0.058450061827898026
0.065410837531089783 0.065410837531089783 0.065410837531089783
0.07678629457950592 0.07678629457950592 0.07678629457950592
0.092804610729217529 0.092804610729217529 0.092804610729217529
0.11494067311286926 0.11494067311286926 0.11494067311286926
0.14353325963020325 0.14353325963020325 0.14353325963020325
0.17988741397857666 0.17988741397857666 0.17988741397857666
0.22436080873012543 0.22436080873012543 0.22436080873012543
0.27725711464881897 0.27725711464881897 0.27725711464881897
0.33794572949409485 0.33794572949409485 0.33794572949409485
0.40455427765846252 0.40455427765846252 0.40455427765846252
0.47395732998847961 0.47395732998847961 0.47395732998847961
0.54338055849075317 0.54338055849075317 0.54338055849075317
0.089218750596046448 0.089218750596046448 0.089218750596046448
0.096155606210231781 0.096155606210231781 0.096155606210231781
0.10764658451080322 0.10764658451080322 0.10764658451080322
0.12400795519351959 0.12400795519351959 0.12400795519351959
0.14567767083644867 0.14567767083644867 0.14567767083644867
0.17391045391559601 0.17391045391559601 0.17391045391559601
0.21006377041339874 0.21006377041339874 0.21006377041339874
0.25389039516448975 0.25389039516448975 0.25389039516448975
0.3050079345703125 0.3050079345703125 0.3050079345703125
0.36248582601547241 0.36248582601547241 0.36248582601547241
0.42486974596977234 0.42486974596977234 0.42486974596977234
0.49006363749504089 0.49006363749504089 0.49006363749504089
0.55616587400436401 0.55616587400436401 0.55616587400436401
0.12612952291965485 0.12612952291965485 0.12612952291965485
0.13323774933815002 0.13323774933815002 0.13323774933815002
0.14492331445217133 0.14492331445217133 0.14492331445217133
0.16155543923377991 0.16155543923377991 0.16155543923377991
0.18273137509822845 0.18273137509822845 0.18273137509822845
0.21015642583370209 0.21015642583370209 0.21015642583370209
0.24529176950454712 0.24529176950454712 0.24529176950454712
0.28739520907402039 0.28739520907402039 0.28739520907402039
0.33600357174873352 0.33600357174873352 0.33600357174873352
0.38987109065055847 0.38987109065055847 0.38987109065055847
0.4480741024017334 0.4480741024017334 0.4480741024017334
0.50918710231781006 0.50918710231781006 0.50918710231781006
0.5715906023979187 0.5715906023979187 0.5715906023979187
0.17051899433135986 0.17051899433135986 0.17051899433135986
0.17778076231479645 0.17778076231479645 0.17778076231479645
0.18958202004432678 0.18958202004432678 0.18958202004432678
0.20559403300285339 0.20559403300285339 0.20559403300285339
0.2265668660402298 0.2265668660402298 0.2265668660402298
0.25286513566970825 0.25286513566970825 0.25286513566970825
0.2858976423740387 0.2858976423740387 0.2858976423740387
0.32537618279457092 0.32537618279457092 0.32537618279457092
0.37047538161277771 0.37047538161277771 0.37047538161277771
0.42044785618782043 0.42044785618782043 0.42044785618782043
0.4743151068687439 0.4743151068687439 0.4743151068687439
0.53134405612945557 0.53134405612945557 0.53134405612945557
0.59003919363021851 0.59003919363021851 0.59003919363021851
0.22406993806362152 0.22406993806362152 0.22406993806362152
0.23071974515914917 0.23071974515914917 0.23071974515914917
0.24185533821582794 0.24185533821582794 0.24185533821582794
0.25700479745864868 0.25700479745864868 0.25700479745864868
0.27658966183662415 0.27658966183662415 0.27658966183662415
0.30120933055877686 0.30120933055877686 0.30120933055877686
0.33140522241592407 0.33140522241592407 0.33140522241592407
0.36741110682487488 0.36741110682487488 0.36741110682487488
0.40863820910453796 0.40863820910453796 0.40863820910453796
0.45435446500778198 0.45435446500778198 0.45435446500778198
0.50400799512863159 0.50400799512863159 0.50400799512863159
0.55669581890106201 0.55669581890106201 0.55669581890106201
0.61188066005706787 0.61188066005706787 0.61188066005706787
0.28677314519882202 0.28677314519882202 0.28677314519882202
0.29189500212669373 0.29189500212669373 0.29189500212669373
0.30127549171447754 0.30127549171447754 0.30127549171447754
0.31445255875587463 0.31445255875587463 0.31445255875587463
0.33159294724464417 0.33159294724464417 0.33159294724464417
0.35387957096099854 0.35387957096099854 0.35387957096099854
0.38093668222427368 0.38093668222427368 0.38093668222427368
0.41297626495361328 0.41297626495361328 0.41297626495361328
0.45011183619499207 0.45011183619499207 0.45011183619499207
0.49141398072242737 0.49141398072242737 0.49141398072242737
0.53680062294006348 0.53680062294006348 0.53680062294006348
0.58538198471069336 0.58538198471069336 0.58538198471069336
0.63706856966018677 0.63706856966018677 0.63706856966018677
0.3554956316947937 0.3554956316947937 0.3554956316947937
0.35900819301605225 0.35900819301605225 0.35900819301605225
0.36605972051620483 0.36605972051620483 0.36605972051620483
0.37681275606155396 0.37681275606155396 0.37681275606155396
0.39143052697181702 0.39143052697181702 0.39143052697181702
0.41046854853630066 0.41046854853630066 0.41046854853630066
0.43367558717727661 0.43367558717727661 0.43367558717727661
0.46197941899299622 0.46197941899299622 0.46197941899299622
0.49467134475708008 0.49467134475708008 0.49467134475708008
0.53169870376586914 0.53169870376586914 0.53169870376586914
0.57277250289916992 0.57277250289916992 0.57277250289916992
0.61761093139648438 0.61761093139648438 0.61761093139648438
0.66572332382202148 0.66572332382202148 0.66572332382202148
0.42834514379501343 0.42834514379501343 0.42834514379501343
0.43025445938110352 0.43025445938110352 0.43025445938110352
0.43494874238967896 0.43494874238967896 0.43494874238967896
0.44281986355781555 0.44281986355781555 0.44281986355781555
0.45427298545837402 0.45427298545837402 0.45427298545837402
0.46959519386291504 0.46959519386291504 0.46959519386291504
0.48927450180053711 0.48927450180053711 0.48927450180053711
0.51369041204452515 0.51369041204452515 0.51369041204452515
0.54216092824935913 0.54216092824935913 0.54216092824935913
0.57507777214050293 0.57507777214050293 0.57507777214050293
0.61176735162734985 0.61176735162734985 0.61176735162734985
0.65319699048995972 0.65319699048995972 0.65319699048995972
0.69813209772109985 0.69813209772109985 0.69813209772109985
0.50408399105072021 0.50408399105072021 0.50408399105072021
0.50429004430770874 0.50429004430770874 0.50429004430770874
0.50614970922470093 0.50614970922470093 0.50614970922470093
0.51088052988052368 0.51088052988052368 0.51088052988052368
0.51917415857315063 0.51917415857315063 0.51917415857315063
0.53112614154815674 0.53112614154815674 0.53112614154815674
0.54725289344787598 0.54725289344787598 0.54725289344787598
0.56778132915496826 0.56778132915496826 0.56778132915496826
0.59252220392227173 0.59252220392227173 0.59252220392227173
0.62154078483581543 0.62154078483581543 0.62154078483581543
0.65482246875762939 0.65482246875762939 0.65482246875762939
0.69248336553573608 0.69248336553573608 0.69248336553573608
0.73393255472183228 0.73393255472183228 0.73393255472183228
0.58022183179855347 0.58022183179855347 0.58022183179855347
0.5784456729888916 0.5784456729888916 0.5784456729888916
0.57820314168930054 0.57820314168930054 0.57820314168930054
0.58004730939865112 0.58004730939865112 0.58004730939865112
0.58524733781814575 0.58524733781814575 0.58524733781814575
0.59414690732955933 0.59414690732955933 0.59414690732955933
0.60728031396865845 0.60728031396865845 0.60728031396865845
0.62348568439483643 0.62348568439483643 0.62348568439483643
0.64554375410079956 0.64554375410079956 0.64554375410079956
0.67101585865020752 0.67101585865020752 0.67101585865020752
0.7008894681930542 0.7008894681930542 0.7008894681930542
0.73517680168151855 0.73517680168151855 0.73517680168151855
0.77417844533920288 0.77417844533920288 0.77417844533920288
0.65526092052459717 0.65526092052459717 0.65526092052459717
0.65226656198501587 0.65226656198501587 0.65226656198501587
0.6495521068572998 0.6495521068572998 0.6495521068572998
0.6492418646812439 0.6492418646812439 0.6492418646812439
0.6519743800163269 0.6519743800163269 0.6519743800163269
0.65824979543685913 0.65824979543685913 0.65824979543685913
0.66833418607711792 0.66833418607711792 0.66833418607711792
0.68251341581344604 0.68251341581344604 0.68251341581344604
0.70036345720291138 0.70036345720291138 0.70036345720291138
0.72393077611923218 0.72393077611923218 0.72393077611923218
0.75082331895828247 0.75082331895828247 0.75082331895828247
0.78238093852996826 0.78238093852996826 0.78238093852996826
0.81877076625823975 0.81877076625823975 0.81877076625823975
0.010586338117718697 0.010586338117718697 0.010586338117718697
0.019691722467541695 0.019691722467541695 0.019691722467541695
0.032828371971845627 0.032828371971845627 0.032828371971845627
0.051358018070459366 0.051358018070459366 0.051358018070459366
0.075325191020965576 0.075325191020965576 0.075325191020965576
0.10600928217172623 0.10600928217172623 0.10600928217172623
0.1439795047044754 0.1439795047044754 0.1439795047044754
0.19011446833610535 0.19011446833610535 0.19011446833610535
0.24549522995948792 0.24549522995948792 0.24549522995948792
0.31023308634757996 0.31023308634757996 0.31023308634757996
0.38181611895561218 0.38181611895561218 0.38181611895561218
0.45622780919075012 0.45622780919075012 0.45622780919075012
0.52984082698822021 0.52984082698822021 0.52984082698822021
0.034491520375013351 0.034491520375013351 0.034491520375013351
0.042861595749855042 0.042861595749855042 0.042861595749855042
0.055446326732635498 0.055446326732635498 0.055446326732635498
0.073125384747982025 0.073125384747982025 0.073125384747982025
0.096697986125946045 0.096697986125946045 0.096697986125946045
0.12710203230381012 0.12710203230381012 0.12710203230381012
0.16467592120170593 0.16467592120170593 0.16467592120170593
0.21047794818878174 0.21047794818878174 0.21047794818878174
0.26502817869186401 0.26502817869186401 0.26502817869186401
0.3279663622379303 0.3279663622379303 0.3279663622379303
0.39722678065299988 0.39722678065299988 0.39722678065299988
0.46914294362068176 0.46914294362068176 0.46914294362068176
0.54064005613327026 0.54064005613327026 0.54064005613327026
0.061916649341583252 0.061916649341583252 0.061916649341583252
0.069872476160526276 0.069872476160526276 0.069872476160526276
0.082281701266765594 0.082281701266765594 0.082281701266765594
0.099700629711151123 0.099700629711151123 0.099700629711151123
0.1229090690612793 0.1229090690612793 0.1229090690612793
0.15288177132606506 0.15288177132606506 0.15288177132606506
0.19021548330783844 0.19021548330783844 0.19021548330783844
0.23543538153171539 0.23543538153171539 0.23543538153171539
0.28848135471343994 0.28848135471343994 0.28848135471343994
0.34886705875396729 0.34886705875396729 0.34886705875396729
0.41477093100547791 0.41477093100547791 0.41477093100547791
0.48305022716522217 0.48305022716522217 0.48305022716522217
0.55159592628479004 0.55159592628479004 0.55159592628479004
0.094559356570243835 0.094559356570243835 0.094559356570243835
0.10202241688966751 0.10202241688966751 0.10202241688966751
0.1143689751625061 0.1143689751625061 0.1143689751625061
0.13167497515678406 0.13167497515678406 0.13167497515678406
0.15452887117862701 0.15452887117862701 0.15452887117862701
0.18386830389499664 0.18386830389499664 0.18386830389499664
0.22054643929004669 0.22054643929004669 0.22054643929004669
0.2644105851650238 0.2644105851650238 0.2644105851650238
0.31553941965103149 0.31553941965103149 0.31553941965103149
0.37276449799537659 0.37276449799537659 0.37276449799537659
0.43447473645210266 0.43447473645210266 0.43447473645210266
0.49886089563369751 0.49886089563369751 0.49886089563369751
0.56389600038528442 0.56389600038528442 0.56389600038528442
0.13308469951152802 0.13308469951152802 0.13308469951152802
0.14045952260494232 0.14045952260494232 0.14045952260494232
0.15268658101558685 0.15268658101558685 0.15268658101558685
0.16976779699325562 0.16976779699325562 0.16976779699325562
0.19196030497550964 0.19196030497550964 0.19196030497550964
0.22037053108215332 0.22037053108215332 0.22037053108215332
0.25563964247703552 0.25563964247703552 0.25563964247703552
0.297607421875 0.297607421875 0.297607421875
0.34577929973602295 0.34577929973602295 0.34577929973602295
0.39927828311920166 0.39927828311920166 0.39927828311920166
0.45689338445663452 0.45689338445663452 0.45689338445663452
0.51717656850814819 0.51717656850814819 0.51717656850814819
0.57867789268493652 0.57867789268493652 0.57867789268493652
0.17889648675918579 0.17889648675918579 0.17889648675918579
0.18592166900634766 0.18592166900634766 0.18592166900634766
0.19789154827594757 0.19789154827594757 0.19789154827594757
0.21431691944599152 0.21431691944599152 0.21431691944599152
0.23562382161617279 0.23562382161617279 0.23562382161617279
0.26256617903709412 0.26256617903709412 0.26256617903709412
0.29576799273490906 0.29576799273490906 0.29576799273490906
0.33491078019142151 0.33491078019142151 0.33491078019142151
0.37956252694129944 0.37956252694129944 0.37956252694129944
0.42900896072387695 0.42900896072387695 0.42900896072387695
0.48223254084587097 0.48223254084587097 0.48223254084587097
0.53832703828811646 0.53832703828811646 0.53832703828811646
0.59621953964233398 0.59621953964233398 0.59621953964233398
0.23265492916107178 0.23265492916107178 0.23265492916107178
0.23911513388156891 0.23911513388156891 0.23911513388156891
0.25028786063194275 0.25028786063194275 0.25028786063194275
0.26550343632698059 0.26550343632698059 0.26550343632698059
0.28528764843940735 0.28528764843940735 0.28528764843940735
0.31007590889930725 0.31007590889930725 0.31007590889930725
0.34036290645599365 0.34036290645599365 0.34036290645599365
0.37611633539199829 0.37611633539199829 0.37611633539199829
0.41670700907707214 0.41670700907707214 0.41670700907707214
0.46180820465087891 0.46180820465087891 0.46180820465087891
0.51080262660980225 0.51080262660980225 0.51080262660980225
0.56275266408920288 0.56275266408920288 0.56275266408920288
0.61704474687576294 0.61704474687576294 0.61704474687576294
0.29440820217132568 0.29440820217132568 0.29440820217132568
0.29961302876472473 0.29961302876472473 0.29961302876472473
0.30893823504447937 0.30893823504447937 0.30893823504447937
0.32226124405860901 0.32226124405860901 0.32226124405860901
0.33998987078666687 0.33998987078666687 0.33998987078666687
0.36197587847709656 0.36197587847709656 0.36197587847709656
0.38896188139915466 0.38896188139915466 0.38896188139915466
0.42077618837356567 0.42077618837356567 0.42077618837356567
0.45711761713027954 0.45711761713027954 0.45711761713027954
0.49787998199462891 0.49787998199462891 0.49787998199462891
0.54250109195709229 0.54250109195709229 0.54250109195709229
0.59030896425247192 0.59030896425247192 0.59030896425247192
0.64120852947235107 0.64120852947235107 0.64120852947235107
0.36197718977928162 0.36197718977928162 0.36197718977928162
0.36571955680847168 0.36571955680847168 0.36571955680847168
0.37300816178321838 0.37300816178321838 0.37300816178321838
0.38373288512229919 0.38373288512229919 0.38373288512229919
0.39845743775367737 0.39845743775367737 0.39845743775367737
0.41737842559814453 0.41737842559814453 0.41737842559814453
0.44066870212554932 0.44066870212554932 0.44066870212554932
0.46842136979103088 0.46842136979103088 0.46842136979103088
0.50075709819793701 0.50075709819793701 0.50075709819793701
0.53715455532073975 0.53715455532073975 0.53715455532073975
0.57743418216705322 0.57743418216705322 0.57743418216705322
0.62151867151260376 0.62151867151260376 0.62151867151260376
0.66875708103179932 0.66875708103179932 0.66875708103179932
0.43364438414573669 0.43364438414573669 0.43364438414573669
0.43578201532363892 0.43578201532363892 0.43578201532363892
0.44059693813323975 0.44059693813323975 0.44059693813323975
0.44853442907333374 0.44853442907333374 0.44853442907333374
0.46004381775856018 0.46004381775856018 0.46004381775856018
0.4754912257194519 0.4754912257194519 0.4754912257194519
0.49506866931915283 0.49506866931915283 0.49506866931915283
0.5189894437789917 0.5189894437789917 0.5189894437789917
0.54704231023788452 0.54704231023788452 0.54704231023788452
0.57933014631271362 0.57933014631271362 0.57933014631271362
0.61578589677810669 0.61578589677810669 0.61578589677810669
0.65593403577804565 0.65593403577804565 0.65593403577804565
0.69994795322418213 0.69994795322418213 0.69994795322418213
0.50735414028167725 0.50735414028167725 0.50735414028167725
0.50799483060836792 0.50799483060836792 0.50799483060836792
0.51033371686935425 0.51033371686935425 0.51033371686935425
0.51540535688400269 0.51540535688400269 0.51540535688400269
0.52366489171981812 0.52366489171981812 0.52366489171981812
0.53569900989532471 0.53569900989532471 0.53569900989532471
0.55156093835830688 0.55156093835830688 0.55156093835830688
0.57174688577651978 0.57174688577651978 0.57174688577651978
0.59604191780090332 0.59604191780090332 0.59604191780090332
0.62447440624237061 0.62447440624237061 0.62447440624237061
0.65701717138290405 0.65701717138290405 0.65701717138290405
0.69380462169647217 0.69380462169647217 0.69380462169647217
0.73503631353378296 0.73503631353378296 0.73503631353378296
0.58217936754226685 0.58217936754226685 0.58217936754226685
0.5809517502784729 0.5809517502784729 0.5809517502784729
0.58092659711837769 0.58092659711837769 0.58092659711837769
0.58325290679931641 0.58325290679931641 0.58325290679931641
0.58858603239059448 0.58858603239059448 0.58858603239059448
0.59737300872802734 0.59737300872802734 0.59737300872802734
0.61019718647003174 0.61019718647003174 0.61019718647003174
0.62707310914993286 0.62707310914993286 0.62707310914993286
0.6477925181388855 0.6477925181388855 0.6477925181388855
0.67279052734375 0.67279052734375 0.67279052734375
0.70210552215576172 0.70210552215576172 0.70210552215576172
0.7358899712562561 0.7358899712562561 0.7358899712562561
0.77412915229797363 0.77412915229797363 0.77412915229797363
0.65545880794525146 0.65545880794525146 0.65545880794525146
0.65304082632064819 0.65304082632064819 0.65304082632064819
0.65108484029769897 0.65108484029769897 0.65108484029769897
0.65108132362365723 0.65108132362365723 0.65108132362365723
0.65385586023330688 0.65385586023330688 0.65385586023330688
0.66031384468078613 0.66031384468078613 0.66031384468078613
0.67030298709869385 0.67030298709869385 0.67030298709869385
0.68441033363342285 0.68441033363342285 0.68441033363342285
0.70223098993301392 0.70223098993301392 0.70223098993301392
0.72440421581268311 0.72440421581268311 0.72440421581268311
0.75087469816207886 0.75087469816207886 0.75087469816207886
0.7820432186126709 0.7820432186126709 0.7820432186126709
0.81793469190597534 0.81793469190597534 0.81793469190597534
0.013911183923482895 0.013911183923482895 0.013911183923482895
0.024721750989556313 0.024721750989556313 0.024721750989556313
0.039851229637861252 0.039851229637861252 0.039851229637861252
0.060393642634153366 0.060393642634153366 0.060393642634153366
0.086645312607288361 0.086645312607288361 0.086645312607288361
0.11930538713932037 0.11930538713932037 0.11930538713932037
0.15964002907276154 0.15964002907276154 0.15964002907276154
0.20715457201004028 0.20715457201004028 0.20715457201004028
0.26273486018180847 0.26273486018180847 0.26273486018180847
0.32680433988571167 0.32680433988571167 0.32680433988571167
0.3961217999458313 0.3961217999458313 0.3961217999458313
0.4679262638092041 0.4679262638092041 0.4679262638092041
0.53917902708053589 0.53917902708053589 0.53917902708053589
0.039763282984495163 0.039763282984495163 0.039763282984495163
0.049629092216491699 0.049629092216491699 0.049629092216491699
0.063902102410793304 0.063902102410793304 0.063902102410793304
0.08366113156080246 0.08366113156080246 0.08366113156080246
0.10925629734992981 0.10925629734992981 0.10925629734992981
0.14142574369907379 0.14142574369907379 0.14142574369907379
0.18059897422790527 0.18059897422790527 0.18059897422790527
0.22733348608016968 0.22733348608016968 0.22733348608016968
0.28154978156089783 0.28154978156089783 0.28154978156089783
0.34415069222450256 0.34415069222450256 0.34415069222450256
0.41130512952804565 0.41130512952804565 0.41130512952804565
0.4809691309928894 0.4809691309928894 0.4809691309928894
0.55045068264007568 0.55045068264007568 0.55045068264007568
0.069582872092723846 0.069582872092723846 0.069582872092723846
0.078719615936279297 0.078719615936279297 0.078719615936279297
0.092545434832572937 0.092545434832572937 0.092545434832572937
0.11163119226694107 0.11163119226694107 0.11163119226694107
0.13657930493354797 0.13657930493354797 0.13657930493354797
0.16782280802726746 0.16782280802726746 0.16782280802726746
0.2062128484249115 0.2062128484249115 0.2062128484249115
0.25181335210800171 0.25181335210800171 0.25181335210800171
0.30507668852806091 0.30507668852806091 0.30507668852806091
0.36433690786361694 0.36433690786361694 0.36433690786361694
0.42827197909355164 0.42827197909355164 0.42827197909355164
0.49508172273635864 0.49508172273635864 0.49508172273635864
0.5618477463722229 0.5618477463722229 0.5618477463722229
0.10459726303815842 0.10459726303815842 0.10459726303815842
0.11306633800268173 0.11306633800268173 0.11306633800268173
0.12645028531551361 0.12645028531551361 0.12645028531551361
0.14491742849349976 0.14491742849349976 0.14491742849349976
0.16896866261959076 0.16896866261959076 0.16896866261959076
0.19947636127471924 0.19947636127471924 0.19947636127471924
0.23654958605766296 0.23654958605766296 0.23654958605766296
0.28048014640808105 0.28048014640808105 0.28048014640808105
0.33102822303771973 0.33102822303771973 0.33102822303771973
0.38717302680015564 0.38717302680015564 0.38717302680015564
0.44760289788246155 0.44760289788246155 0.44760289788246155
0.5103641152381897 0.5103641152381897 0.5103641152381897
0.57384693622589111 0.57384693622589111 0.57384693622589111
0.14524690806865692 0.14524690806865692 0.14524690806865692
0.15316402912139893 0.15316402912139893 0.15316402912139893
0.1659555584192276 0.1659555584192276 0.1659555584192276
0.18385231494903564 0.18385231494903564 0.18385231494903564
0.20691421627998352 0.20691421627998352 0.20691421627998352
0.23594002425670624 0.23594002425670624 0.23594002425670624
0.27115178108215332 0.27115178108215332 0.27115178108215332
