luts/bw/polaroid_664.cube
# Created by: G'MIC (https://gmic.eu)
TITLE "polaroid_664"
# LUT size
LUT_3D_SIZE 13
# Data domain
DOMAIN_MIN 0.0 0.0 0.0
DOMAIN_MAX 1.0 1.0 1.0
# LUT data points
0.015362010337412357 0.015362010337412357 0.015362010337412357
0.02697194367647171 0.02697194367647171 0.02697194367647171
0.054402325302362442 0.054402325302362442 0.054402325302362442
0.11515389382839203 0.11515389382839203 0.11515389382839203
0.2115425318479538 0.2115425318479538 0.2115425318479538
0.31072670221328735 0.31072670221328735 0.31072670221328735
0.40191656351089478 0.40191656351089478 0.40191656351089478
0.47525885701179504 0.47525885701179504 0.47525885701179504
0.52448475360870361 0.52448475360870361 0.52448475360870361
0.56219565868377686 0.56219565868377686 0.56219565868377686
0.59874439239501953 0.59874439239501953 0.59874439239501953
0.63610762357711792 0.63610762357711792 0.63610762357711792
0.67416292428970337 0.67416292428970337 0.67416292428970337
0.028094317764043808 0.028094317764043808 0.028094317764043808
0.044240899384021759 0.044240899384021759 0.044240899384021759
0.08188319206237793 0.08188319206237793 0.08188319206237793
0.15248017013072968 0.15248017013072968 0.15248017013072968
0.24644361436367035 0.24644361436367035 0.24644361436367035
0.33983954787254333 0.33983954787254333 0.33983954787254333
0.42169082164764404 0.42169082164764404 0.42169082164764404
0.48555880784988403 0.48555880784988403 0.48555880784988403
0.5304449200630188 0.5304449200630188 0.5304449200630188
0.56646990776062012 0.56646990776062012 0.56646990776062012
0.60299080610275269 0.60299080610275269 0.60299080610275269
0.64143192768096924 0.64143192768096924 0.64143192768096924
0.67991757392883301 0.67991757392883301 0.67991757392883301
0.051302023231983185 0.051302023231983185 0.051302023231983185
0.072217069566249847 0.072217069566249847 0.072217069566249847
0.1165274977684021 0.1165274977684021 0.1165274977684021
0.19173507392406464 0.19173507392406464 0.19173507392406464
0.28173026442527771 0.28173026442527771 0.28173026442527771
0.36844152212142944 0.36844152212142944 0.36844152212142944
0.44070184230804443 0.44070184230804443 0.44070184230804443
0.49532422423362732 0.49532422423362732 0.49532422423362732
0.53575915098190308 0.53575915098190308 0.53575915098190308
0.57035523653030396 0.57035523653030396 0.57035523653030396
0.60709530115127563 0.60709530115127563 0.60709530115127563
0.64594072103500366 0.64594072103500366 0.64594072103500366
0.68480581045150757 0.68480581045150757 0.68480581045150757
0.096377477049827576 0.096377477049827576 0.096377477049827576
0.1236509308218956 0.1236509308218956 0.1236509308218956
0.17138765752315521 0.17138765752315521 0.17138765752315521
0.24170508980751038 0.24170508980751038 0.24170508980751038
0.3237968385219574 0.3237968385219574 0.3237968385219574
0.40145137906074524 0.40145137906074524 0.40145137906074524
0.46329978108406067 0.46329978108406067 0.46329978108406067
0.50942623615264893 0.50942623615264893 0.50942623615264893
0.54600232839584351 0.54600232839584351 0.54600232839584351
0.57933199405670166 0.57933199405670166 0.57933199405670166
0.61471337080001831 0.61471337080001831 0.61471337080001831
0.65230554342269897 0.65230554342269897 0.65230554342269897
0.69098019599914551 0.69098019599914551 0.69098019599914551
0.16812652349472046 0.16812652349472046 0.16812652349472046
0.19641664624214172 0.19641664624214172 0.19641664624214172
0.24034139513969421 0.24034139513969421 0.24034139513969421
0.2998192310333252 0.2998192310333252 0.2998192310333252
0.36839008331298828 0.36839008331298828 0.36839008331298828
0.4340980052947998 0.4340980052947998 0.4340980052947998
0.48592022061347961 0.48592022061347961 0.48592022061347961
0.52572423219680786 0.52572423219680786 0.52572423219680786
0.55923932790756226 0.55923932790756226 0.55923932790756226
0.59126794338226318 0.59126794338226318 0.59126794338226318
0.62502139806747437 0.62502139806747437 0.62502139806747437
0.66111534833908081 0.66111534833908081 0.66111534833908081
0.69897913932800293 0.69897913932800293 0.69897913932800293
0.25575673580169678 0.25575673580169678 0.25575673580169678
0.27867588400840759 0.27867588400840759 0.27867588400840759
0.31264182925224304 0.31264182925224304 0.31264182925224304
0.35773327946662903 0.35773327946662903 0.35773327946662903
0.40994533896446228 0.40994533896446228 0.40994533896446228
0.46139752864837646 0.46139752864837646 0.46139752864837646
0.50433468818664551 0.50433468818664551 0.50433468818664551
0.54056906700134277 0.54056906700134277 0.54056906700134277
0.57235723733901978 0.57235723733901978 0.57235723733901978
0.60351592302322388 0.60351592302322388 0.60351592302322388
0.63632488250732422 0.63632488250732422 0.63632488250732422
0.67147946357727051 0.67147946357727051 0.67147946357727051
0.7087409496307373 0.7087409496307373 0.7087409496307373
0.34227302670478821 0.34227302670478821 0.34227302670478821
0.35782155394554138 0.35782155394554138 0.35782155394554138
0.37959146499633789 0.37959146499633789 0.37959146499633789
0.41033345460891724 0.41033345460891724 0.41033345460891724
0.44775485992431641 0.44775485992431641 0.44775485992431641
0.48607364296913147 0.48607364296913147 0.48607364296913147
0.52189916372299194 0.52189916372299194 0.52189916372299194
0.55409294366836548 0.55409294366836548 0.55409294366836548
0.58449262380599976 0.58449262380599976 0.58449262380599976
0.61520826816558838 0.61520826816558838 0.61520826816558838
0.64769673347473145 0.64769673347473145 0.64769673347473145
0.6826203465461731 0.6826203465461731 0.6826203465461731
0.71981066465377808 0.71981066465377808 0.71981066465377808
0.41609743237495422 0.41609743237495422 0.41609743237495422
0.42404580116271973 0.42404580116271973 0.42404580116271973
0.43581423163414001 0.43581423163414001 0.43581423163414001
0.45506832003593445 0.45506832003593445 0.45506832003593445
0.48058363795280457 0.48058363795280457 0.48058363795280457
0.50925087928771973 0.50925087928771973 0.50925087928771973
0.53840154409408569 0.53840154409408569 0.53840154409408569
0.56698453426361084 0.56698453426361084 0.56698453426361084
0.5959668755531311 0.5959668755531311 0.5959668755531311
0.62622058391571045 0.62622058391571045 0.62622058391571045
0.65896898508071899 0.65896898508071899 0.65896898508071899
0.69429969787597656 0.69429969787597656 0.69429969787597656
0.73183292150497437 0.73183292150497437 0.73183292150497437
0.46796521544456482 0.46796521544456482 0.46796521544456482
0.47234952449798584 0.47234952449798584 0.47234952449798584
0.47873696684837341 0.47873696684837341 0.47873696684837341
0.49086689949035645 0.49086689949035645 0.49086689949035645
0.50871258974075317 0.50871258974075317 0.50871258974075317
0.53025835752487183 0.53025835752487183 0.53025835752487183
0.55418127775192261 0.55418127775192261 0.55418127775192261
0.57963657379150391 0.57963657379150391 0.57963657379150391
0.60708165168762207 0.60708165168762207 0.60708165168762207
0.63718485832214355 0.63718485832214355 0.63718485832214355
0.67044878005981445 0.67044878005981445 0.67044878005981445
0.70673692226409912 0.70673692226409912 0.70673692226409912
0.74512279033660889 0.74512279033660889 0.74512279033660889
0.5035216212272644 0.5035216212272644 0.5035216212272644
0.50703972578048706 0.50703972578048706 0.50703972578048706
0.511485755443573 0.511485755443573 0.511485755443573
0.51994204521179199 0.51994204521179199 0.51994204521179199
0.53315889835357666 0.53315889835357666 0.53315889835357666
0.54948019981384277 0.54948019981384277 0.54948019981384277
0.56969833374023438 0.56969833374023438 0.56969833374023438
0.59238618612289429 0.59238618612289429 0.59238618612289429
0.61841261386871338 0.61841261386871338 0.61841261386871338
0.64833664894104004 0.64833664894104004 0.64833664894104004
0.68251550197601318 0.68251550197601318 0.68251550197601318
0.7200702428817749 0.7200702428817749 0.7200702428817749
0.76009559631347656 0.76009559631347656 0.76009559631347656
0.53259956836700439 0.53259956836700439 0.53259956836700439
0.53565198183059692 0.53565198183059692 0.53565198183059692
0.53911817073822021 0.53911817073822021 0.53911817073822021
0.54548591375350952 0.54548591375350952 0.54548591375350952
0.55561673641204834 0.55561673641204834 0.55561673641204834
0.56894958019256592 0.56894958019256592 0.56894958019256592
0.5856519341468811 0.5856519341468811 0.5856519341468811
0.60588747262954712 0.60588747262954712 0.60588747262954712
0.6304328441619873 0.6304328441619873 0.6304328441619873
0.66030311584472656 0.66030311584472656 0.66030311584472656
0.69576126337051392 0.69576126337051392 0.69576126337051392
0.73516952991485596 0.73516952991485596 0.73516952991485596
0.776863694190979 0.776863694190979 0.776863694190979
0.55992740392684937 0.55992740392684937 0.55992740392684937
0.56258118152618408 0.56258118152618408 0.56258118152618408
0.56529754400253296 0.56529754400253296 0.56529754400253296
0.57019352912902832 0.57019352912902832 0.57019352912902832
0.5781177282333374 0.5781177282333374 0.5781177282333374
0.58916258811950684 0.58916258811950684 0.58916258811950684
0.60329186916351318 0.60329186916351318 0.60329186916351318
0.62124389410018921 0.62124389410018921 0.62124389410018921
0.64442074298858643 0.64442074298858643 0.64442074298858643
0.67388534545898438 0.67388534545898438 0.67388534545898438
0.71057659387588501 0.71057659387588501 0.71057659387588501
0.75237536430358887 0.75237536430358887 0.75237536430358887
0.79600316286087036 0.79600316286087036 0.79600316286087036
0.58670401573181152 0.58670401573181152 0.58670401573181152
0.58914542198181152 0.58914542198181152 0.58914542198181152
0.59156894683837891 0.59156894683837891 0.59156894683837891
0.59550434350967407 0.59550434350967407 0.59550434350967407
0.6019054651260376 0.6019054651260376 0.6019054651260376
0.61125355958938599 0.61125355958938599 0.61125355958938599
0.62387180328369141 0.62387180328369141 0.62387180328369141
0.6400797963142395 0.6400797963142395 0.6400797963142395
0.66180896759033203 0.66180896759033203 0.66180896759033203
0.6908729076385498 0.6908729076385498 0.6908729076385498
0.72878241539001465 0.72878241539001465 0.72878241539001465
0.77211874723434448 0.77211874723434448 0.77211874723434448
0.8173784613609314 0.8173784613609314 0.8173784613609314
0.031434915959835052 0.031434915959835052 0.031434915959835052
0.064529344439506531 0.064529344439506531 0.064529344439506531
0.11380136758089066 0.11380136758089066 0.11380136758089066
0.18860720098018646 0.18860720098018646 0.18860720098018646
0.27866852283477783 0.27866852283477783 0.27866852283477783
0.36194977164268494 0.36194977164268494 0.36194977164268494
0.43592175841331482 0.43592175841331482 0.43592175841331482
0.4957311749458313 0.4957311749458313 0.4957311749458313
0.53873580694198608 0.53873580694198608 0.53873580694198608
0.57337194681167603 0.57337194681167603 0.57337194681167603
0.60731542110443115 0.60731542110443115 0.60731542110443115
0.64337080717086792 0.64337080717086792 0.64337080717086792
0.68004906177520752 0.68004906177520752 0.68004906177520752
0.056917198002338409 0.056917198002338409 0.056917198002338409
0.088949583470821381 0.088949583470821381 0.088949583470821381
0.140041783452034 0.140041783452034 0.140041783452034
0.21573124825954437 0.21573124825954437 0.21573124825954437
0.30319955945014954 0.30319955945014954 0.30319955945014954
0.3839116096496582 0.3839116096496582 0.3839116096496582
0.45274829864501953 0.45274829864501953 0.45274829864501953
0.50544577836990356 0.50544577836990356 0.50544577836990356
0.54297173023223877 0.54297173023223877 0.54297173023223877
0.57466745376586914 0.57466745376586914 0.57466745376586914
0.60944944620132446 0.60944944620132446 0.60944944620132446
0.64668875932693481 0.64668875932693481 0.64668875932693481
0.68468040227890015 0.68468040227890015 0.68468040227890015
0.091394342482089996 0.091394342482089996 0.091394342482089996
0.12233921140432358 0.12233921140432358 0.12233921140432358
0.17330160737037659 0.17330160737037659 0.17330160737037659
0.24580425024032593 0.24580425024032593 0.24580425024032593
0.32839304208755493 0.32839304208755493 0.32839304208755493
0.40492978692054749 0.40492978692054749 0.40492978692054749
0.46734163165092468 0.46734163165092468 0.46734163165092468
0.51342564821243286 0.51342564821243286 0.51342564821243286
0.54667633771896362 0.54667633771896362 0.54667633771896362
0.57679015398025513 0.57679015398025513 0.57679015398025513
0.61211007833480835 0.61211007833480835 0.61211007833480835
0.65016728639602661 0.65016728639602661 0.65016728639602661
0.68872725963592529 0.68872725963592529 0.68872725963592529
0.14410096406936646 0.14410096406936646 0.14410096406936646
0.17405563592910767 0.17405563592910767 0.17405563592910767
0.22183454036712646 0.22183454036712646 0.22183454036712646
0.28723713755607605 0.28723713755607605 0.28723713755607605
0.36046460270881653 0.36046460270881653 0.36046460270881653
0.42940416932106018 0.42940416932106018 0.42940416932106018
0.48419257998466492 0.48419257998466492 0.48419257998466492
0.52505528926849365 0.52505528926849365 0.52505528926849365
0.55641096830368042 0.55641096830368042 0.55641096830368042
0.58618879318237305 0.58618879318237305 0.58618879318237305
0.61967325210571289 0.61967325210571289 0.61967325210571289
0.65633636713027954 0.65633636713027954 0.65633636713027954
0.69457590579986572 0.69457590579986572 0.69457590579986572
0.21540555357933044 0.21540555357933044 0.21540555357933044
0.24255189299583435 0.24255189299583435 0.24255189299583435
0.28330647945404053 0.28330647945404053 0.28330647945404053
0.33730190992355347 0.33730190992355347 0.33730190992355347
0.39808452129364014 0.39808452129364014 0.39808452129364014
0.45564863085746765 0.45564863085746765 0.45564863085746765
0.50246614217758179 0.50246614217758179 0.50246614217758179
0.53877121210098267 0.53877121210098267 0.53877121210098267
0.56898754835128784 0.56898754835128784 0.56898754835128784
0.59827983379364014 0.59827983379364014 0.59827983379364014
0.63016849756240845 0.63016849756240845 0.63016849756240845
0.66523140668869019 0.66523140668869019 0.66523140668869019
0.70244330167770386 0.70244330167770386 0.70244330167770386
0.29638659954071045 0.29638659954071045 0.29638659954071045
0.31769731640815735 0.31769731640815735 0.31769731640815735
0.34795406460762024 0.34795406460762024 0.34795406460762024
0.38826143741607666 0.38826143741607666 0.38826143741607666
0.43461400270462036 0.43461400270462036 0.43461400270462036
0.48014071583747864 0.48014071583747864 0.48014071583747864
0.51954275369644165 0.51954275369644165 0.51954275369644165
0.55217081308364868 0.55217081308364868 0.55217081308364868
0.58133399486541748 0.58133399486541748 0.58133399486541748
0.61030524969100952 0.61030524969100952 0.61030524969100952
0.64152759313583374 0.64152759313583374 0.64152759313583374
0.67556899785995483 0.67556899785995483 0.67556899785995483
0.71215176582336426 0.71215176582336426 0.71215176582336426
0.37343350052833557 0.37343350052833557 0.37343350052833557
0.3879057765007019 0.3879057765007019 0.3879057765007019
0.40763100981712341 0.40763100981712341 0.40763100981712341
0.43476316332817078 0.43476316332817078 0.43476316332817078
0.46797916293144226 0.46797916293144226 0.46797916293144226
0.50280153751373291 0.50280153751373291 0.50280153751373291
0.53515446186065674 0.53515446186065674 0.53515446186065674
0.56471151113510132 0.56471151113510132 0.56471151113510132
0.59287047386169434 0.59287047386169434 0.59287047386169434
0.62176436185836792 0.62176436185836792 0.62176436185836792
0.65279924869537354 0.65279924869537354 0.65279924869537354
0.68668186664581299 0.68668186664581299 0.68668186664581299
0.72318881750106812 0.72318881750106812 0.72318881750106812
0.43679097294807434 0.43679097294807434 0.43679097294807434
0.44523316621780396 0.44523316621780396 0.44523316621780396
0.45614489912986755 0.45614489912986755 0.45614489912986755
0.47336027026176453 0.47336027026176453 0.47336027026176453
0.49691322445869446 0.49691322445869446 0.49691322445869446
0.52310502529144287 0.52310502529144287 0.52310502529144287
0.54983979463577271 0.54983979463577271 0.54983979463577271
0.57658356428146362 0.57658356428146362 0.57658356428146362
0.60364222526550293 0.60364222526550293 0.60364222526550293
0.63252443075180054 0.63252443075180054 0.63252443075180054
0.66404682397842407 0.66404682397842407 0.66404682397842407
0.69837290048599243 0.69837290048599243 0.69837290048599243
0.73522120714187622 0.73522120714187622 0.73522120714187622
0.48242542147636414 0.48242542147636414 0.48242542147636414
0.48646807670593262 0.48646807670593262 0.48646807670593262
0.49254754185676575 0.49254754185676575 0.49254754185676575
0.50430601835250854 0.50430601835250854 0.50430601835250854
0.52122634649276733 0.52122634649276733 0.52122634649276733
0.54167395830154419 0.54167395830154419 0.54167395830154419
0.56416243314743042 0.56416243314743042 0.56416243314743042
0.58814364671707153 0.58814364671707153 0.58814364671707153
0.61438387632369995 0.61438387632369995 0.61438387632369995
0.64323967695236206 0.64323967695236206 0.64323967695236206
0.6754683256149292 0.6754683256149292 0.6754683256149292
0.71076524257659912 0.71076524257659912 0.71076524257659912
0.74859046936035156 0.74859046936035156 0.74859046936035156
0.51430922746658325 0.51430922746658325 0.51430922746658325
0.51612454652786255 0.51612454652786255 0.51612454652786255
0.52022188901901245 0.52022188901901245 0.52022188901901245
0.52930152416229248 0.52930152416229248 0.52930152416229248
0.54255634546279907 0.54255634546279907 0.54255634546279907
0.5590398907661438 0.5590398907661438 0.5590398907661438
0.57818490266799927 0.57818490266799927 0.57818490266799927
0.60020655393600464 0.60020655393600464 0.60020655393600464
0.62531077861785889 0.62531077861785889 0.62531077861785889
0.65437644720077515 0.65437644720077515 0.65437644720077515
0.68758296966552734 0.68758296966552734 0.68758296966552734
0.72430330514907837 0.72430330514907837 0.72430330514907837
0.76343226432800293 0.76343226432800293 0.76343226432800293
0.54127544164657593 0.54127544164657593 0.54127544164657593
0.54215270280838013 0.54215270280838013 0.54215270280838013
0.54530125856399536 0.54530125856399536 0.54530125856399536
0.55242455005645752 0.55242455005645752 0.55242455005645752
0.56302404403686523 0.56302404403686523 0.56302404403686523
0.576671302318573 0.576671302318573 0.576671302318573
0.59325933456420898 0.59325933456420898 0.59325933456420898
0.61331629753112793 0.61331629753112793 0.61331629753112793
0.63751572370529175 0.63751572370529175 0.63751572370529175
0.66648417711257935 0.66648417711257935 0.66648417711257935
0.70095366239547729 0.70095366239547729 0.70095366239547729
0.73946076631546021 0.73946076631546021 0.73946076631546021
0.78026986122131348 0.78026986122131348 0.78026986122131348
0.5673900842666626 0.5673900842666626 0.5673900842666626
0.5684770941734314 0.5684770941734314 0.5684770941734314
0.57081872224807739 0.57081872224807739 0.57081872224807739
0.57607686519622803 0.57607686519622803 0.57607686519622803
0.58451086282730103 0.58451086282730103 0.58451086282730103
0.59590166807174683 0.59590166807174683 0.59590166807174683
0.61055636405944824 0.61055636405944824 0.61055636405944824
0.62874507904052734 0.62874507904052734 0.62874507904052734
0.6517646312713623 0.6517646312713623 0.6517646312713623
0.68092584609985352 0.68092584609985352 0.68092584609985352
0.71652054786682129 0.71652054786682129 0.71652054786682129
0.7567330002784729 0.7567330002784729 0.7567330002784729
0.79920083284378052 0.79920083284378052 0.79920083284378052
0.59346586465835571 0.59346586465835571 0.59346586465835571
0.59497725963592529 0.59497725963592529 0.59497725963592529
0.59687405824661255 0.59687405824661255 0.59687405824661255
0.60107821226119995 0.60107821226119995 0.60107821226119995
0.60788702964782715 0.60788702964782715 0.60788702964782715
0.61765998601913452 0.61765998601913452 0.61765998601913452
0.63073396682739258 0.63073396682739258 0.63073396682739258
0.64783579111099243 0.64783579111099243 0.64783579111099243
0.66982722282409668 0.66982722282409668 0.66982722282409668
0.69878214597702026 0.69878214597702026 0.69878214597702026
0.73510712385177612 0.73510712385177612 0.73510712385177612
0.77650851011276245 0.77650851011276245 0.77650851011276245
0.82005250453948975 0.82005250453948975 0.82005250453948975
0.049871422350406647 0.049871422350406647 0.049871422350406647
0.10430185496807098 0.10430185496807098 0.10430185496807098
0.16958105564117432 0.16958105564117432 0.16958105564117432
0.24605128169059753 0.24605128169059753 0.24605128169059753
0.32615891098976135 0.32615891098976135 0.32615891098976135
0.39926022291183472 0.39926022291183472 0.39926022291183472
0.46116873621940613 0.46116873621940613 0.46116873621940613
0.51088160276412964 0.51088160276412964 0.51088160276412964
0.54908078908920288 0.54908078908920288 0.54908078908920288
0.58157193660736084 0.58157193660736084 0.58157193660736084
0.61374813318252563 0.61374813318252563 0.61374813318252563
0.64797842502593994 0.64797842502593994 0.64797842502593994
0.68358296155929565 0.68358296155929565 0.68358296155929565
0.089824974536895752 0.089824974536895752 0.089824974536895752
0.13657563924789429 0.13657563924789429 0.13657563924789429
0.19710326194763184 0.19710326194763184 0.19710326194763184
0.2706969678401947 0.2706969678401947 0.2706969678401947
0.34847846627235413 0.34847846627235413 0.34847846627235413
0.41821268200874329 0.41821268200874329 0.41821268200874329
0.47609418630599976 0.47609418630599976 0.47609418630599976
0.52028799057006836 0.52028799057006836 0.52028799057006836
0.55371451377868652 0.55371451377868652 0.55371451377868652
0.58328473567962646 0.58328473567962646 0.58328473567962646
0.61567193269729614 0.61567193269729614 0.61567193269729614
0.65077441930770874 0.65077441930770874 0.65077441930770874
0.68752849102020264 0.68752849102020264 0.68752849102020264
0.13803744316101074 0.13803744316101074 0.13803744316101074
0.17685365676879883 0.17685365676879883 0.17685365676879883
0.23055398464202881 0.23055398464202881 0.23055398464202881
0.29768478870391846 0.29768478870391846 0.29768478870391846
0.36945134401321411 0.36945134401321411 0.36945134401321411
0.43480575084686279 0.43480575084686279 0.43480575084686279
0.4878883957862854 0.4878883957862854 0.4878883957862854
0.52777004241943359 0.52777004241943359 0.52777004241943359
0.55801457166671753 0.55801457166671753 0.55801457166671753
0.5860627293586731 0.5860627293586731 0.5860627293586731
0.61834836006164551 0.61834836006164551 0.61834836006164551
0.65415865182876587 0.65415865182876587 0.65415865182876587
0.69167524576187134 0.69167524576187134 0.69167524576187134
0.19868223369121552 0.19868223369121552 0.19868223369121552
0.23027433454990387 0.23027433454990387 0.23027433454990387
0.27575609087944031 0.27575609087944031 0.27575609087944031
0.33317413926124573 0.33317413926124573 0.33317413926124573
0.39576193690299988 0.39576193690299988 0.39576193690299988
0.45377734303474426 0.45377734303474426 0.45377734303474426
0.50133061408996582 0.50133061408996582 0.50133061408996582
0.53733426332473755 0.53733426332473755 0.53733426332473755
0.56629806756973267 0.56629806756973267 0.56629806756973267
0.59397846460342407 0.59397846460342407 0.59397846460342407
0.62530386447906494 0.62530386447906494 0.62530386447906494
0.66020137071609497 0.66020137071609497 0.66020137071609497
0.69741392135620117 0.69741392135620117 0.69741392135620117
0.27018579840660095 0.27018579840660095 0.27018579840660095
0.29511702060699463 0.29511702060699463 0.29511702060699463
0.33037364482879639 0.33037364482879639 0.33037364482879639
0.37593498826026917 0.37593498826026917 0.37593498826026917
0.42671945691108704 0.42671945691108704 0.42671945691108704
0.47538274526596069 0.47538274526596069 0.47538274526596069
0.51642811298370361 0.51642811298370361 0.51642811298370361
0.54931670427322388 0.54931670427322388 0.54931670427322388
