luts/bw/polaroid_667.cube
# Created by: G'MIC (https://gmic.eu)
TITLE "polaroid_667"
# LUT size
LUT_3D_SIZE 13
# Data domain
DOMAIN_MIN 0.0 0.0 0.0
DOMAIN_MAX 1.0 1.0 1.0
# LUT data points
0.022883277386426926 0.022883277386426926 0.022883277386426926
0.041784323751926422 0.041784323751926422 0.041784323751926422
0.065913543105125427 0.065913543105125427 0.065913543105125427
0.097702190279960632 0.097702190279960632 0.097702190279960632
0.14013606309890747 0.14013606309890747 0.14013606309890747
0.19647221267223358 0.19647221267223358 0.19647221267223358
0.26983857154846191 0.26983857154846191 0.26983857154846191
0.35591331124305725 0.35591331124305725 0.35591331124305725
0.44455114006996155 0.44455114006996155 0.44455114006996155
0.52636206150054932 0.52636206150054932 0.52636206150054932
0.59709084033966064 0.59709084033966064 0.59709084033966064
0.66074442863464355 0.66074442863464355 0.66074442863464355
0.71806091070175171 0.71806091070175171 0.71806091070175171
0.061237677931785583 0.061237677931785583 0.061237677931785583
0.078711085021495819 0.078711085021495819 0.078711085021495819
0.10048035532236099 0.10048035532236099 0.10048035532236099
0.13070787489414215 0.13070787489414215 0.13070787489414215
0.17229817807674408 0.17229817807674408 0.17229817807674408
0.22797009348869324 0.22797009348869324 0.22797009348869324
0.29869720339775085 0.29869720339775085 0.29869720339775085
0.37980324029922485 0.37980324029922485 0.37980324029922485
0.46357074379920959 0.46357074379920959 0.46357074379920959
0.54195600748062134 0.54195600748062134 0.54195600748062134
0.61169040203094482 0.61169040203094482 0.61169040203094482
0.67403572797775269 0.67403572797775269 0.67403572797775269
0.73010814189910889 0.73010814189910889 0.73010814189910889
0.10509854555130005 0.10509854555130005 0.10509854555130005
0.12084618210792542 0.12084618210792542 0.12084618210792542
0.14134488999843597 0.14134488999843597 0.14134488999843597
0.16980332136154175 0.16980332136154175 0.16980332136154175
0.21003828942775726 0.21003828942775726 0.21003828942775726
0.26441413164138794 0.26441413164138794 0.26441413164138794
0.33073326945304871 0.33073326945304871 0.33073326945304871
0.40533009171485901 0.40533009171485901 0.40533009171485901
0.48174342513084412 0.48174342513084412 0.48174342513084412
0.55533993244171143 0.55533993244171143 0.55533993244171143
0.62255376577377319 0.62255376577377319 0.62255376577377319
0.68335700035095215 0.68335700035095215 0.68335700035095215
0.73819094896316528 0.73819094896316528 0.73819094896316528
0.15520642697811127 0.15520642697811127 0.15520642697811127
0.16982273757457733 0.16982273757457733 0.16982273757457733
0.18921317160129547 0.18921317160129547 0.18921317160129547
0.21573688089847565 0.21573688089847565 0.21573688089847565
0.25370478630065918 0.25370478630065918 0.25370478630065918
0.30489316582679749 0.30489316582679749 0.30489316582679749
0.36584791541099548 0.36584791541099548 0.36584791541099548
0.43301671743392944 0.43301671743392944 0.43301671743392944
0.50233614444732666 0.50233614444732666 0.50233614444732666
0.56986165046691895 0.56986165046691895 0.56986165046691895
0.63323491811752319 0.63323491811752319 0.63323491811752319
0.69133377075195312 0.69133377075195312 0.69133377075195312
0.74464374780654907 0.74464374780654907 0.74464374780654907
0.21117013692855835 0.21117013692855835 0.21117013692855835
0.22522218525409698 0.22522218525409698 0.22522218525409698
0.24377952516078949 0.24377952516078949 0.24377952516078949
0.26927673816680908 0.26927673816680908 0.26927673816680908
0.30430328845977783 0.30430328845977783 0.30430328845977783
0.35022768378257751 0.35022768378257751 0.35022768378257751
0.40429544448852539 0.40429544448852539 0.40429544448852539
0.46373283863067627 0.46373283863067627 0.46373283863067627
0.52559840679168701 0.52559840679168701 0.52559840679168701
0.58668559789657593 0.58668559789657593 0.58668559789657593
0.64503580331802368 0.64503580331802368 0.64503580331802368
0.6999891996383667 0.6999891996383667 0.6999891996383667
0.75108116865158081 0.75108116865158081 0.75108116865158081
0.27227562665939331 0.27227562665939331 0.27227562665939331
0.28593286871910095 0.28593286871910095 0.28593286871910095
0.30371689796447754 0.30371689796447754 0.30371689796447754
0.32773172855377197 0.32773172855377197 0.32773172855377197
0.35923561453819275 0.35923561453819275 0.35923561453819275
0.39912885427474976 0.39912885427474976 0.39912885427474976
0.44603613018989563 0.44603613018989563 0.44603613018989563
0.49760407209396362 0.49760407209396362 0.49760407209396362
0.55167943239212036 0.55167943239212036 0.55167943239212036
0.60611224174499512 0.60611224174499512 0.60611224174499512
0.6592828631401062 0.6592828631401062 0.6592828631401062
0.71030795574188232 0.71030795574188232 0.71030795574188232
0.75863409042358398 0.75863409042358398 0.75863409042358398
0.33739325404167175 0.33739325404167175 0.33739325404167175
0.35046494007110596 0.35046494007110596 0.35046494007110596
0.36700686812400818 0.36700686812400818 0.36700686812400818
0.38836154341697693 0.38836154341697693 0.38836154341697693
0.41597917675971985 0.41597917675971985 0.41597917675971985
0.45009824633598328 0.45009824633598328 0.45009824633598328
0.48998057842254639 0.48998057842254639 0.48998057842254639
0.53406155109405518 0.53406155109405518 0.53406155109405518
0.58078885078430176 0.58078885078430176 0.58078885078430176
0.62851136922836304 0.62851136922836304 0.62851136922836304
0.67605137825012207 0.67605137825012207 0.67605137825012207
0.72271114587783813 0.72271114587783813 0.72271114587783813
0.76815623044967651 0.76815623044967651 0.76815623044967651
0.40504813194274902 0.40504813194274902 0.40504813194274902
0.41729024052619934 0.41729024052619934 0.41729024052619934
0.43203303217887878 0.43203303217887878 0.43203303217887878
0.45081672072410583 0.45081672072410583 0.45081672072410583
0.47398507595062256 0.47398507595062256 0.47398507595062256
0.50240284204483032 0.50240284204483032 0.50240284204483032
0.53561574220657349 0.53561574220657349 0.53561574220657349
0.57275652885437012 0.57275652885437012 0.57275652885437012
0.6124260425567627 0.6124260425567627 0.6124260425567627
0.65363264083862305 0.65363264083862305 0.65363264083862305
0.69560569524765015 0.69560569524765015 0.69560569524765015
0.73795574903488159 0.73795574903488159 0.73795574903488159
0.77985268831253052 0.77985268831253052 0.77985268831253052
0.47433653473854065 0.47433653473854065 0.47433653473854065
0.4853169322013855 0.4853169322013855 0.4853169322013855
0.49794316291809082 0.49794316291809082 0.49794316291809082
0.51336073875427246 0.51336073875427246 0.51336073875427246
0.53232061862945557 0.53232061862945557 0.53232061862945557
0.55547076463699341 0.55547076463699341 0.55547076463699341
0.58241766691207886 0.58241766691207886 0.58241766691207886
0.61284786462783813 0.61284786462783813 0.61284786462783813
0.64608711004257202 0.64608711004257202 0.64608711004257202
0.68134504556655884 0.68134504556655884 0.68134504556655884
0.71812146902084351 0.71812146902084351 0.71812146902084351
0.75565975904464722 0.75565975904464722 0.75565975904464722
0.79437398910522461 0.79437398910522461 0.79437398910522461
0.54397839307785034 0.54397839307785034 0.54397839307785034
0.55357128381729126 0.55357128381729126 0.55357128381729126
0.56385815143585205 0.56385815143585205 0.56385815143585205
0.57572042942047119 0.57572042942047119 0.57572042942047119
0.5904538631439209 0.5904538631439209 0.5904538631439209
0.60848414897918701 0.60848414897918701 0.60848414897918701
0.62983065843582153 0.62983065843582153 0.62983065843582153
0.65440821647644043 0.65440821647644043 0.65440821647644043
0.68164503574371338 0.68164503574371338 0.68164503574371338
0.71139419078826904 0.71139419078826904 0.71139419078826904
0.74304109811782837 0.74304109811782837 0.74304109811782837
0.77628529071807861 0.77628529071807861 0.77628529071807861
0.81171971559524536 0.81171971559524536 0.81171971559524536
0.61312627792358398 0.61312627792358398 0.61312627792358398
0.62105745077133179 0.62105745077133179 0.62105745077133179
0.62853962182998657 0.62853962182998657 0.62853962182998657
0.63720262050628662 0.63720262050628662 0.63720262050628662
0.64781105518341064 0.64781105518341064 0.64781105518341064
0.66120290756225586 0.66120290756225586 0.66120290756225586
0.67764592170715332 0.67764592170715332 0.67764592170715332
0.6970633864402771 0.6970633864402771 0.6970633864402771
0.7191699743270874 0.7191699743270874 0.7191699743270874
0.74373805522918701 0.74373805522918701 0.74373805522918701
0.77069246768951416 0.77069246768951416 0.77069246768951416
0.79996800422668457 0.79996800422668457 0.79996800422668457
0.83162969350814819 0.83162969350814819 0.83162969350814819
0.68044936656951904 0.68044936656951904 0.68044936656951904
0.68652242422103882 0.68652242422103882 0.68652242422103882
0.69138079881668091 0.69138079881668091 0.69138079881668091
0.6967395544052124 0.6967395544052124 0.6967395544052124
0.70392179489135742 0.70392179489135742 0.70392179489135742
0.71329665184020996 0.71329665184020996 0.71329665184020996
0.72566789388656616 0.72566789388656616 0.72566789388656616
0.74057787656784058 0.74057787656784058 0.74057787656784058
0.758777916431427 0.758777916431427 0.758777916431427
0.77869963645935059 0.77869963645935059 0.77869963645935059
0.80113661289215088 0.80113661289215088 0.80113661289215088
0.82665979862213135 0.82665979862213135 0.82665979862213135
0.85538583993911743 0.85538583993911743 0.85538583993911743
0.7442094087600708 0.7442094087600708 0.7442094087600708
0.74835419654846191 0.74835419654846191 0.74835419654846191
0.75094091892242432 0.75094091892242432 0.75094091892242432
0.75388342142105103 0.75388342142105103 0.75388342142105103
0.75819253921508789 0.75819253921508789 0.75819253921508789
0.76460641622543335 0.76460641622543335 0.76460641622543335
0.77352410554885864 0.77352410554885864 0.77352410554885864
0.78490239381790161 0.78490239381790161 0.78490239381790161
0.79875200986862183 0.79875200986862183 0.79875200986862183
0.81608933210372925 0.81608933210372925 0.81608933210372925
0.83473294973373413 0.83473294973373413 0.83473294973373413
0.85705125331878662 0.85705125331878662 0.85705125331878662
0.8824198842048645 0.8824198842048645 0.8824198842048645
0.028454335406422615 0.028454335406422615 0.028454335406422615
0.049578752368688583 0.049578752368688583 0.049578752368688583
0.0763368159532547 0.0763368159532547 0.0763368159532547
0.11129184812307358 0.11129184812307358 0.11129184812307358
0.1570301353931427 0.1570301353931427 0.1570301353931427
0.21597380936145782 0.21597380936145782 0.21597380936145782
0.28906768560409546 0.28906768560409546 0.28906768560409546
0.37232726812362671 0.37232726812362671 0.37232726812362671
0.45773318409919739 0.45773318409919739 0.45773318409919739
0.53746151924133301 0.53746151924133301 0.53746151924133301
0.60819512605667114 0.60819512605667114 0.60819512605667114
0.67089515924453735 0.67089515924453735 0.67089515924453735
0.72714710235595703 0.72714710235595703 0.72714710235595703
0.067807503044605255 0.067807503044605255 0.067807503044605255
0.086865745484828949 0.086865745484828949 0.086865745484828949
0.11152420192956924 0.11152420192956924 0.11152420192956924
0.14475299417972565 0.14475299417972565 0.14475299417972565
0.18877498805522919 0.18877498805522919 0.18877498805522919
0.24608127772808075 0.24608127772808075 0.24608127772808075
0.31634721159934998 0.31634721159934998 0.31634721159934998
0.39555773138999939 0.39555773138999939 0.39555773138999939
0.47682827711105347 0.47682827711105347 0.47682827711105347
0.55359899997711182 0.55359899997711182 0.55359899997711182
0.62245911359786987 0.62245911359786987 0.62245911359786987
0.68392020463943481 0.68392020463943481 0.68392020463943481
0.73872417211532593 0.73872417211532593 0.73872417211532593
0.11261042952537537 0.11261042952537537 0.11261042952537537
0.13010892271995544 0.13010892271995544 0.13010892271995544
0.15308262407779694 0.15308262407779694 0.15308262407779694
0.18418388068675995 0.18418388068675995 0.18418388068675995
0.22594676911830902 0.22594676911830902 0.22594676911830902
0.2804778516292572 0.2804778516292572 0.2804778516292572
0.34691092371940613 0.34691092371940613 0.34691092371940613
0.42000517249107361 0.42000517249107361 0.42000517249107361
0.49528366327285767 0.49528366327285767 0.49528366327285767
0.56714349985122681 0.56714349985122681 0.56714349985122681
0.63316863775253296 0.63316863775253296 0.63316863775253296
0.69283276796340942 0.69283276796340942 0.69283276796340942
0.74651587009429932 0.74651587009429932 0.74651587009429932
0.16352635622024536 0.16352635622024536 0.16352635622024536
0.17980110645294189 0.17980110645294189 0.17980110645294189
0.20098032057285309 0.20098032057285309 0.20098032057285309
0.23010815680027008 0.23010815680027008 0.23010815680027008
0.26940703392028809 0.26940703392028809 0.26940703392028809
0.31987941265106201 0.31987941265106201 0.31987941265106201
0.38060206174850464 0.38060206174850464 0.38060206174850464
0.44672635197639465 0.44672635197639465 0.44672635197639465
0.51485246419906616 0.51485246419906616 0.51485246419906616
0.58096605539321899 0.58096605539321899 0.58096605539321899
0.6432197093963623 0.6432197093963623 0.6432197093963623
0.70018643140792847 0.70018643140792847 0.70018643140792847
0.7524227499961853 0.7524227499961853 0.7524227499961853
0.2200758308172226 0.2200758308172226 0.2200758308172226
0.23529456555843353 0.23529456555843353 0.23529456555843353
0.25531718134880066 0.25531718134880066 0.25531718134880066
0.28230506181716919 0.28230506181716919 0.28230506181716919
0.31829458475112915 0.31829458475112915 0.31829458475112915
0.36384838819503784 0.36384838819503784 0.36384838819503784
0.41747370362281799 0.41747370362281799 0.41747370362281799
0.47612819075584412 0.47612819075584412 0.47612819075584412
0.53679186105728149 0.53679186105728149 0.53679186105728149
0.59693366289138794 0.59693366289138794 0.59693366289138794
0.65402489900588989 0.65402489900588989 0.65402489900588989
0.70787978172302246 0.70787978172302246 0.70787978172302246
0.7580571174621582 0.7580571174621582 0.7580571174621582
0.28137439489364624 0.28137439489364624 0.28137439489364624
0.29582163691520691 0.29582163691520691 0.29582163691520691
0.31448197364807129 0.31448197364807129 0.31448197364807129
0.33914214372634888 0.33914214372634888 0.33914214372634888
0.37122613191604614 0.37122613191604614 0.37122613191604614
0.41103318333625793 0.41103318333625793 0.41103318333625793
0.45743468403816223 0.45743468403816223 0.45743468403816223
0.50843203067779541 0.50843203067779541 0.50843203067779541
0.56162828207015991 0.56162828207015991 0.56162828207015991
0.61508142948150635 0.61508142948150635 0.61508142948150635
0.66724228858947754 0.66724228858947754 0.66724228858947754
0.71725505590438843 0.71725505590438843 0.71725505590438843
0.7646520733833313 0.7646520733833313 0.7646520733833313
0.34623241424560547 0.34623241424560547 0.34623241424560547
0.35978111624717712 0.35978111624717712 0.35978111624717712
0.37685152888298035 0.37685152888298035 0.37685152888298035
0.39873021841049194 0.39873021841049194 0.39873021841049194
0.42649146914482117 0.42649146914482117 0.42649146914482117
0.4603998064994812 0.4603998064994812 0.4603998064994812
0.49989289045333862 0.49989289045333862 0.49989289045333862
0.5433955192565918 0.5433955192565918 0.5433955192565918
0.58940798044204712 0.58940798044204712 0.58940798044204712
0.63620823621749878 0.63620823621749878 0.63620823621749878
0.6828874945640564 0.6828874945640564 0.6828874945640564
0.72878062725067139 0.72878062725067139 0.72878062725067139
0.77315711975097656 0.77315711975097656 0.77315711975097656
0.41346842050552368 0.41346842050552368 0.41346842050552368
0.42593711614608765 0.42593711614608765 0.42593711614608765
0.4409644603729248 0.4409644603729248 0.4409644603729248
0.45979088544845581 0.45979088544845581 0.45979088544845581
0.48304557800292969 0.48304557800292969 0.48304557800292969
0.51129376888275146 0.51129376888275146 0.51129376888275146
0.54403877258300781 0.54403877258300781 0.54403877258300781
0.58030790090560913 0.58030790090560913 0.58030790090560913
0.61954665184020996 0.61954665184020996 0.61954665184020996
0.66020715236663818 0.66020715236663818 0.66020715236663818
0.70144855976104736 0.70144855976104736 0.70144855976104736
0.74270224571228027 0.74270224571228027 0.74270224571228027
0.78395926952362061 0.78395926952362061 0.78395926952362061
0.48205035924911499 0.48205035924911499 0.48205035924911499
0.49304857850074768 0.49304857850074768 0.49304857850074768
0.50582903623580933 0.50582903623580933 0.50582903623580933
0.5212092399597168 0.5212092399597168 0.5212092399597168
0.54002982378005981 0.54002982378005981 0.54002982378005981
0.56281858682632446 0.56281858682632446 0.56281858682632446
0.58938813209533691 0.58938813209533691 0.58938813209533691
0.61947566270828247 0.61947566270828247 0.61947566270828247
0.65209496021270752 0.65209496021270752 0.65209496021270752
0.6866496205329895 0.6866496205329895 0.6866496205329895
0.72270750999450684 0.72270750999450684 0.72270750999450684
0.75966858863830566 0.75966858863830566 0.75966858863830566
0.79737627506256104 0.79737627506256104 0.79737627506256104
0.55061477422714233 0.55061477422714233 0.55061477422714233
0.5602002739906311 0.5602002739906311 0.5602002739906311
0.57049334049224854 0.57049334049224854 0.57049334049224854
0.5823596715927124 0.5823596715927124 0.5823596715927124
0.59691053628921509 0.59691053628921509 0.59691053628921509
0.61467689275741577 0.61467689275741577 0.61467689275741577
0.6357271671295166 0.6357271671295166 0.6357271671295166
0.65971976518630981 0.65971976518630981 0.65971976518630981
0.68664669990539551 0.68664669990539551 0.68664669990539551
0.71561688184738159 0.71561688184738159 0.71561688184738159
0.74660307168960571 0.74660307168960571 0.74660307168960571
0.7794150710105896 0.7794150710105896 0.7794150710105896
0.81389504671096802 0.81389504671096802 0.81389504671096802
0.61856114864349365 0.61856114864349365 0.61856114864349365
0.62646681070327759 0.62646681070327759 0.62646681070327759
0.63394409418106079 0.63394409418106079 0.63394409418106079
0.64256793260574341 0.64256793260574341 0.64256793260574341
0.65312457084655762 0.65312457084655762 0.65312457084655762
0.66636878252029419 0.66636878252029419 0.66636878252029419
0.68252778053283691 0.68252778053283691 0.68252778053283691
0.70130664110183716 0.70130664110183716 0.70130664110183716
0.72294324636459351 0.72294324636459351 0.72294324636459351
0.74695193767547607 0.74695193767547607 0.74695193767547607
0.77348637580871582 0.77348637580871582 0.77348637580871582
0.80223160982131958 0.80223160982131958 0.80223160982131958
0.8336557149887085 0.8336557149887085 0.8336557149887085
0.68435132503509521 0.68435132503509521 0.68435132503509521
0.69047099351882935 0.69047099351882935 0.69047099351882935
0.69558143615722656 0.69558143615722656 0.69558143615722656
0.70105177164077759 0.70105177164077759 0.70105177164077759
0.70813935995101929 0.70813935995101929 0.70813935995101929
0.71751773357391357 0.71751773357391357 0.71751773357391357
0.72931289672851562 0.72931289672851562 0.72931289672851562
0.74393224716186523 0.74393224716186523 0.74393224716186523
0.76100277900695801 0.76100277900695801 0.76100277900695801
0.78081649541854858 0.78081649541854858 0.78081649541854858
0.80339270830154419 0.80339270830154419 0.80339270830154419
0.82842540740966797 0.82842540740966797 0.82842540740966797
0.85680133104324341 0.85680133104324341 0.85680133104324341
0.74675554037094116 0.74675554037094116 0.74675554037094116
0.75112813711166382 0.75112813711166382 0.75112813711166382
0.75400698184967041 0.75400698184967041 0.75400698184967041
0.75730234384536743 0.75730234384536743 0.75730234384536743
0.76165199279785156 0.76165199279785156 0.76165199279785156
0.76780611276626587 0.76780611276626587 0.76780611276626587
0.776286780834198 0.776286780834198 0.776286780834198
0.78729057312011719 0.78729057312011719 0.78729057312011719
0.80102455615997314 0.80102455615997314 0.80102455615997314
0.81713658571243286 0.81713658571243286 0.81713658571243286
0.83653289079666138 0.83653289079666138 0.83653289079666138
0.85843431949615479 0.85843431949615479 0.85843431949615479
0.88407140970230103 0.88407140970230103 0.88407140970230103
0.036578413099050522 0.036578413099050522 0.036578413099050522
0.060859095305204391 0.060859095305204391 0.060859095305204391
0.091241531074047089 0.091241531074047089 0.091241531074047089
0.13042262196540833 0.13042262196540833 0.13042262196540833
0.17967689037322998 0.17967689037322998 0.17967689037322998
0.24022552371025085 0.24022552371025085 0.24022552371025085
0.31191137433052063 0.31191137433052063 0.31191137433052063
0.39120030403137207 0.39120030403137207 0.39120030403137207
0.471973717212677 0.471973717212677 0.471973717212677
0.5481799840927124 0.5481799840927124 0.5481799840927124
0.6172376275062561 0.6172376275062561 0.6172376275062561
0.67862331867218018 0.67862331867218018 0.67862331867218018
0.73355555534362793 0.73355555534362793 0.73355555534362793
0.077506080269813538 0.077506080269813538 0.077506080269813538
0.099326148629188538 0.099326148629188538 0.099326148629188538
0.12778010964393616 0.12778010964393616 0.12778010964393616
0.16440168023109436 0.16440168023109436 0.16440168023109436
0.21111272275447845 0.21111272275447845 0.21111272275447845
0.26948001980781555 0.26948001980781555 0.26948001980781555
0.33821991086006165 0.33821991086006165 0.33821991086006165
0.41386103630065918 0.41386103630065918 0.41386103630065918
0.49112030863761902 0.49112030863761902 0.49112030863761902
0.56471908092498779 0.56471908092498779 0.56471908092498779
0.63161319494247437 0.63161319494247437 0.63161319494247437
0.69141256809234619 0.69141256809234619 0.69141256809234619
0.74517524242401123 0.74517524242401123 0.74517524242401123
0.12377578020095825 0.12377578020095825 0.12377578020095825
0.14373038709163666 0.14373038709163666 0.14373038709163666
0.16958056390285492 0.16958056390285492 0.16958056390285492
0.20395119488239288 0.20395119488239288 0.20395119488239288
0.24823853373527527 0.24823853373527527 0.24823853373527527
0.30301851034164429 0.30301851034164429 0.30301851034164429
0.3673568069934845 0.3673568069934845 0.3673568069934845
0.43771129846572876 0.43771129846572876 0.43771129846572876
0.50953048467636108 0.50953048467636108 0.50953048467636108
0.57878756523132324 0.57878756523132324 0.57878756523132324
0.64273321628570557 0.64273321628570557 0.64273321628570557
0.70052647590637207 0.70052647590637207 0.70052647590637207
0.7530442476272583 0.7530442476272583 0.7530442476272583
0.17557413876056671 0.17557413876056671 0.17557413876056671
0.19383446872234344 0.19383446872234344 0.19383446872234344
0.21789492666721344 0.21789492666721344 0.21789492666721344
0.24946562945842743 0.24946562945842743 0.24946562945842743
0.29017141461372375 0.29017141461372375 0.29017141461372375
0.34069985151290894 0.34069985151290894 0.34069985151290894
0.39944532513618469 0.39944532513618469 0.39944532513618469
0.46309882402420044 0.46309882402420044 0.46309882402420044
0.52857440710067749 0.52857440710067749 0.52857440710067749
0.59249645471572876 0.59249645471572876 0.59249645471572876
0.65284907817840576 0.65284907817840576 0.65284907817840576
0.7077946662902832 0.7077946662902832 0.7077946662902832
0.75870811939239502 0.75870811939239502 0.75870811939239502
0.23264926671981812 0.23264926671981812 0.23264926671981812
0.24977853894233704 0.24977853894233704 0.24977853894233704
0.27124202251434326 0.27124202251434326 0.27124202251434326
0.3002183735370636 0.3002183735370636 0.3002183735370636
0.33705279231071472 0.33705279231071472 0.33705279231071472
0.38228929042816162 0.38228929042816162 0.38228929042816162
0.43402558565139771 0.43402558565139771 0.43402558565139771
0.49108806252479553 0.49108806252479553 0.49108806252479553
