luts/bw/polaroid_672.cube
# Created by: G'MIC (https://gmic.eu)
TITLE "polaroid_672"
# LUT size
LUT_3D_SIZE 5
# Data domain
DOMAIN_MIN 0.0 0.0 0.0
DOMAIN_MAX 1.0 1.0 1.0
# LUT data points
0.010242701508104801 0.010242701508104801 0.010242701508104801
0.046004470437765121 0.046004470437765121 0.046004470437765121
0.13418023288249969 0.13418023288249969 0.13418023288249969
0.29796889424324036 0.29796889424324036 0.29796889424324036
0.52259171009063721 0.52259171009063721 0.52259171009063721
0.089218750596046448 0.089218750596046448 0.089218750596046448
0.12400795519351959 0.12400795519351959 0.12400795519351959
0.21006377041339874 0.21006377041339874 0.21006377041339874
0.36248582601547241 0.36248582601547241 0.36248582601547241
0.55616587400436401 0.55616587400436401 0.55616587400436401
0.22406993806362152 0.22406993806362152 0.22406993806362152
0.25700479745864868 0.25700479745864868 0.25700479745864868
0.33140522241592407 0.33140522241592407 0.33140522241592407
0.45435446500778198 0.45435446500778198 0.45435446500778198
0.61188066005706787 0.61188066005706787 0.61188066005706787
0.42834514379501343 0.42834514379501343 0.42834514379501343
0.44281986355781555 0.44281986355781555 0.44281986355781555
0.48927450180053711 0.48927450180053711 0.48927450180053711
0.57507777214050293 0.57507777214050293 0.57507777214050293
0.69813209772109985 0.69813209772109985 0.69813209772109985
0.65526092052459717 0.65526092052459717 0.65526092052459717
0.6492418646812439 0.6492418646812439 0.6492418646812439
0.66833418607711792 0.66833418607711792 0.66833418607711792
0.72393077611923218 0.72393077611923218 0.72393077611923218
0.81877076625823975 0.81877076625823975 0.81877076625823975
0.021168084815144539 0.021168084815144539 0.021168084815144539
0.073673978447914124 0.073673978447914124 0.073673978447914124
0.17888252437114716 0.17888252437114716 0.17888252437114716
0.34588935971260071 0.34588935971260071 0.34588935971260071
0.55116438865661621 0.55116438865661621 0.55116438865661621
0.11888124048709869 0.11888124048709869 0.11888124048709869
0.16253559291362762 0.16253559291362762 0.16253559291362762
0.25687167048454285 0.25687167048454285 0.25687167048454285
0.40519484877586365 0.40519484877586365 0.40519484877586365
0.58585119247436523 0.58585119247436523 0.58585119247436523
0.26449692249298096 0.26449692249298096 0.26449692249298096
0.29785981774330139 0.29785981774330139 0.29785981774330139
0.37249571084976196 0.37249571084976196 0.37249571084976196
0.48846215009689331 0.48846215009689331 0.48846215009689331
0.63482069969177246 0.63482069969177246 0.63482069969177246
0.45385855436325073 0.45385855436325073 0.45385855436325073
0.4708707332611084 0.4708707332611084 0.4708707332611084
0.51766806840896606 0.51766806840896606 0.51766806840896606
0.59794872999191284 0.59794872999191284 0.59794872999191284
0.71225214004516602 0.71225214004516602 0.71225214004516602
0.6604543924331665 0.6604543924331665 0.6604543924331665
0.66080373525619507 0.66080373525619507 0.66080373525619507
0.68194270133972168 0.68194270133972168 0.68194270133972168
0.73424708843231201 0.73424708843231201 0.73424708843231201
0.82480007410049438 0.82480007410049438 0.82480007410049438
0.068685330450534821 0.068685330450534821 0.068685330450534821
0.13686209917068481 0.13686209917068481 0.13686209917068481
0.25111174583435059 0.25111174583435059 0.25111174583435059
0.40882143378257751 0.40882143378257751 0.40882143378257751
0.59275788068771362 0.59275788068771362 0.59275788068771362
0.18666070699691772 0.18666070699691772 0.18666070699691772
0.23845082521438599 0.23845082521438599 0.23845082521438599
0.33343645930290222 0.33343645930290222 0.33343645930290222
0.46779695153236389 0.46779695153236389 0.46779695153236389
0.62714159488677979 0.62714159488677979 0.62714159488677979
0.33774104714393616 0.33774104714393616 0.33774104714393616
0.37306243181228638 0.37306243181228638 0.37306243181228638
0.44392380118370056 0.44392380118370056 0.44392380118370056
0.54567420482635498 0.54567420482635498 0.54567420482635498
0.6737678050994873 0.6737678050994873 0.6737678050994873
0.50833112001419067 0.50833112001419067 0.50833112001419067
0.52764934301376343 0.52764934301376343 0.52764934301376343
0.57287406921386719 0.57287406921386719 0.57287406921386719
0.643635094165802 0.643635094165802 0.643635094165802
0.74442154169082642 0.74442154169082642 0.74442154169082642
0.68990761041641235 0.68990761041641235 0.68990761041641235
0.69428062438964844 0.69428062438964844 0.69428062438964844
0.7167707085609436 0.7167707085609436 0.7167707085609436
0.76506084203720093 0.76506084203720093 0.76506084203720093
0.84869801998138428 0.84869801998138428 0.84869801998138428
0.16699337959289551 0.16699337959289551 0.16699337959289551
0.23335041105747223 0.23335041105747223 0.23335041105747223
0.3379538357257843 0.3379538357257843 0.3379538357257843
0.47402125597000122 0.47402125597000122 0.47402125597000122
0.63087636232376099 0.63087636232376099 0.63087636232376099
0.29326805472373962 0.29326805472373962 0.29326805472373962
0.34059527516365051 0.34059527516365051 0.34059527516365051
0.42248868942260742 0.42248868942260742 0.42248868942260742
0.53521978855133057 0.53521978855133057 0.53521978855133057
0.6716950535774231 0.6716950535774231 0.6716950535774231
0.43999388813972473 0.43999388813972473 0.43999388813972473
0.46950608491897583 0.46950608491897583 0.46950608491897583
0.52651655673980713 0.52651655673980713 0.52651655673980713
0.61024290323257446 0.61024290323257446 0.61024290323257446
0.72104883193969727 0.72104883193969727 0.72104883193969727
0.58829760551452637 0.58829760551452637 0.58829760551452637
0.60413050651550293 0.60413050651550293 0.60413050651550293
0.64067703485488892 0.64067703485488892 0.64067703485488892
0.69861739873886108 0.69861739873886108 0.69861739873886108
0.78696954250335693 0.78696954250335693 0.78696954250335693
0.74549204111099243 0.74549204111099243 0.74549204111099243
0.74907660484313965 0.74907660484313965 0.74907660484313965
0.76835185289382935 0.76835185289382935 0.76835185289382935
0.80918323993682861 0.80918323993682861 0.80918323993682861
0.88456422090530396 0.88456422090530396 0.88456422090530396
0.29860958456993103 0.29860958456993103 0.29860958456993103
0.35262539982795715 0.35262539982795715 0.35262539982795715
0.43767789006233215 0.43767789006233215 0.43767789006233215
0.55080735683441162 0.55080735683441162 0.55080735683441162
0.68635648488998413 0.68635648488998413 0.68635648488998413
0.42278459668159485 0.42278459668159485 0.42278459668159485
0.45800977945327759 0.45800977945327759 0.45800977945327759
0.52024239301681519 0.52024239301681519 0.52024239301681519
0.61178880929946899 0.61178880929946899 0.61178880929946899
0.73046553134918213 0.73046553134918213 0.73046553134918213
0.55982834100723267 0.55982834100723267 0.55982834100723267
0.57621055841445923 0.57621055841445923 0.57621055841445923
0.61569070816040039 0.61569070816040039 0.61569070816040039
0.68348544836044312 0.68348544836044312 0.68348544836044312
0.78230422735214233 0.78230422735214233 0.78230422735214233
0.68498438596725464 0.68498438596725464 0.68498438596725464
0.69397014379501343 0.69397014379501343 0.69397014379501343
0.71885788440704346 0.71885788440704346 0.71885788440704346
0.76650935411453247 0.76650935411453247 0.76650935411453247
0.84788477420806885 0.84788477420806885 0.84788477420806885
0.82244247198104858 0.82244247198104858 0.82244247198104858
0.82409888505935669 0.82409888505935669 0.82409888505935669
0.83905696868896484 0.83905696868896484 0.83905696868896484
0.87357467412948608 0.87357467412948608 0.87357467412948608
0.94136196374893188 0.94136196374893188 0.94136196374893188
