luts/bw/polaroid_667.cube
# Created by: G'MIC (https://gmic.eu)
TITLE "polaroid_667"
# LUT size
LUT_3D_SIZE 5
# Data domain
DOMAIN_MIN 0.0 0.0 0.0
DOMAIN_MAX 1.0 1.0 1.0
# LUT data points
0.022883277386426926 0.022883277386426926 0.022883277386426926
0.097702190279960632 0.097702190279960632 0.097702190279960632
0.26983857154846191 0.26983857154846191 0.26983857154846191
0.52636206150054932 0.52636206150054932 0.52636206150054932
0.71806091070175171 0.71806091070175171 0.71806091070175171
0.15520642697811127 0.15520642697811127 0.15520642697811127
0.21573688089847565 0.21573688089847565 0.21573688089847565
0.36584791541099548 0.36584791541099548 0.36584791541099548
0.56986165046691895 0.56986165046691895 0.56986165046691895
0.74464374780654907 0.74464374780654907 0.74464374780654907
0.33739325404167175 0.33739325404167175 0.33739325404167175
0.38836154341697693 0.38836154341697693 0.38836154341697693
0.48998057842254639 0.48998057842254639 0.48998057842254639
0.62851136922836304 0.62851136922836304 0.62851136922836304
0.76815623044967651 0.76815623044967651 0.76815623044967651
0.54397839307785034 0.54397839307785034 0.54397839307785034
0.57572042942047119 0.57572042942047119 0.57572042942047119
0.62983065843582153 0.62983065843582153 0.62983065843582153
0.71139419078826904 0.71139419078826904 0.71139419078826904
0.81171971559524536 0.81171971559524536 0.81171971559524536
0.7442094087600708 0.7442094087600708 0.7442094087600708
0.75388342142105103 0.75388342142105103 0.75388342142105103
0.77352410554885864 0.77352410554885864 0.77352410554885864
0.81608933210372925 0.81608933210372925 0.81608933210372925
0.8824198842048645 0.8824198842048645 0.8824198842048645
0.048761717975139618 0.048761717975139618 0.048761717975139618
0.15290014445781708 0.15290014445781708 0.15290014445781708
0.33643171191215515 0.33643171191215515 0.33643171191215515
0.56028664112091064 0.56028664112091064 0.56028664112091064
0.73885434865951538 0.73885434865951538 0.73885434865951538
0.19181086122989655 0.19181086122989655 0.19181086122989655
0.27217382192611694 0.27217382192611694 0.27217382192611694
0.42069020867347717 0.42069020867347717 0.42069020867347717
0.60450482368469238 0.60450482368469238 0.60450482368469238
0.76404869556427002 0.76404869556427002 0.76404869556427002
0.37299224734306335 0.37299224734306335 0.37299224734306335
0.42961886525154114 0.42961886525154114 0.42961886525154114
0.52809041738510132 0.52809041738510132 0.52809041738510132
0.65471452474594116 0.65471452474594116 0.65471452474594116
0.78296416997909546 0.78296416997909546 0.78296416997909546
0.56706029176712036 0.56706029176712036 0.56706029176712036
0.60021460056304932 0.60021460056304932 0.60021460056304932
0.65228718519210815 0.65228718519210815 0.65228718519210815
0.72781884670257568 0.72781884670257568 0.72781884670257568
0.82138806581497192 0.82138806581497192 0.82138806581497192
0.74987083673477173 0.74987083673477173 0.74987083673477173
0.76400649547576904 0.76400649547576904 0.76400649547576904
0.78455656766891479 0.78455656766891479 0.78455656766891479
0.8246762752532959 0.8246762752532959 0.8246762752532959
0.89063984155654907 0.89063984155654907 0.89063984155654907
0.10758145153522491 0.10758145153522491 0.10758145153522491
0.2343502938747406 0.2343502938747406 0.2343502938747406
0.41141748428344727 0.41141748428344727 0.41141748428344727
0.60007667541503906 0.60007667541503906 0.60007667541503906
0.75260919332504272 0.75260919332504272 0.75260919332504272
0.26396423578262329 0.26396423578262329 0.26396423578262329
0.35577645897865295 0.35577645897865295 0.35577645897865295
0.49078226089477539 0.49078226089477539 0.49078226089477539
0.64188998937606812 0.64188998937606812 0.64188998937606812
0.77730375528335571 0.77730375528335571 0.77730375528335571
0.43863970041275024 0.43863970041275024 0.43863970041275024
0.49708917737007141 0.49708917737007141 0.49708917737007141
0.58282208442687988 0.58282208442687988 0.58282208442687988
0.68727189302444458 0.68727189302444458 0.68727189302444458
0.79715830087661743 0.79715830087661743 0.79715830087661743
0.60796153545379639 0.60796153545379639 0.60796153545379639
0.64141905307769775 0.64141905307769775 0.64141905307769775
0.68815487623214722 0.68815487623214722 0.68815487623214722
0.75267946720123291 0.75267946720123291 0.75267946720123291
0.835823655128479 0.835823655128479 0.835823655128479
0.76603871583938599 0.76603871583938599 0.76603871583938599
0.78287065029144287 0.78287065029144287 0.78287065029144287
0.80458801984786987 0.80458801984786987 0.80458801984786987
0.84233647584915161 0.84233647584915161 0.84233647584915161
0.90468102693557739 0.90468102693557739 0.90468102693557739
0.23096489906311035 0.23096489906311035 0.23096489906311035
0.34595683217048645 0.34595683217048645 0.34595683217048645
0.4890303909778595 0.4890303909778595 0.4890303909778595
0.63620305061340332 0.63620305061340332 0.63620305061340332
0.76884615421295166 0.76884615421295166 0.76884615421295166
0.38553959131240845 0.38553959131240845 0.38553959131240845
0.4645683765411377 0.4645683765411377 0.4645683765411377
0.56740355491638184 0.56740355491638184 0.56740355491638184
0.68082708120346069 0.68082708120346069 0.68082708120346069
0.79242664575576782 0.79242664575576782 0.79242664575576782
0.53828644752502441 0.53828644752502441 0.53828644752502441
0.58669877052307129 0.58669877052307129 0.58669877052307129
0.64887839555740356 0.64887839555740356 0.64887839555740356
0.72541409730911255 0.72541409730911255 0.72541409730911255
0.81431198120117188 0.81431198120117188 0.81431198120117188
0.67281001806259155 0.67281001806259155 0.67281001806259155
0.70166802406311035 0.70166802406311035 0.70166802406311035
0.73681151866912842 0.73681151866912842 0.73681151866912842
0.7857586145401001 0.7857586145401001 0.7857586145401001
0.8554198145866394 0.8554198145866394 0.8554198145866394
0.80158913135528564 0.80158913135528564 0.80158913135528564
0.81818395853042603 0.81818395853042603 0.81818395853042603
0.83769822120666504 0.83769822120666504 0.83769822120666504
0.86920678615570068 0.86920678615570068 0.86920678615570068
0.9250074028968811 0.9250074028968811 0.9250074028968811
0.39534327387809753 0.39534327387809753 0.39534327387809753
0.47730693221092224 0.47730693221092224 0.47730693221092224
0.57698845863342285 0.57698845863342285 0.57698845863342285
0.68747121095657349 0.68747121095657349 0.68747121095657349
0.79945027828216553 0.79945027828216553 0.79945027828216553
0.53418570756912231 0.53418570756912231 0.53418570756912231
0.58651947975158691 0.58651947975158691 0.58651947975158691
0.65229171514511108 0.65229171514511108 0.65229171514511108
0.73163247108459473 0.73163247108459473 0.73163247108459473
0.82156658172607422 0.82156658172607422 0.82156658172607422
0.65447956323623657 0.65447956323623657 0.65447956323623657
0.68658268451690674 0.68658268451690674 0.68658268451690674
0.72418880462646484 0.72418880462646484 0.72418880462646484
0.7757880687713623 0.7757880687713623 0.7757880687713623
0.84516817331314087 0.84516817331314087 0.84516817331314087
0.75256401300430298 0.75256401300430298 0.75256401300430298
0.77537238597869873 0.77537238597869873 0.77537238597869873
0.79896712303161621 0.79896712303161621 0.79896712303161621
0.8336372971534729 0.8336372971534729 0.8336372971534729
0.89137899875640869 0.89137899875640869 0.89137899875640869
0.85412490367889404 0.85412490367889404 0.85412490367889404
0.87072247266769409 0.87072247266769409 0.87072247266769409
0.88722807168960571 0.88722807168960571 0.88722807168960571
0.91291004419326782 0.91291004419326782 0.91291004419326782
0.96104377508163452 0.96104377508163452 0.96104377508163452
