luts/bw/polaroid_667.cube
# Created by: G'MIC (https://gmic.eu)
TITLE "polaroid_667"
# LUT size
LUT_3D_SIZE 7
# Data domain
DOMAIN_MIN 0.0 0.0 0.0
DOMAIN_MAX 1.0 1.0 1.0
# LUT data points
0.022883277386426926 0.022883277386426926 0.022883277386426926
0.065913543105125427 0.065913543105125427 0.065913543105125427
0.14013606309890747 0.14013606309890747 0.14013606309890747
0.26983857154846191 0.26983857154846191 0.26983857154846191
0.44455114006996155 0.44455114006996155 0.44455114006996155
0.59709084033966064 0.59709084033966064 0.59709084033966064
0.71806091070175171 0.71806091070175171 0.71806091070175171
0.10509854555130005 0.10509854555130005 0.10509854555130005
0.14134488999843597 0.14134488999843597 0.14134488999843597
0.21003828942775726 0.21003828942775726 0.21003828942775726
0.33073326945304871 0.33073326945304871 0.33073326945304871
0.48174342513084412 0.48174342513084412 0.48174342513084412
0.62255376577377319 0.62255376577377319 0.62255376577377319
0.73819094896316528 0.73819094896316528 0.73819094896316528
0.21117013692855835 0.21117013692855835 0.21117013692855835
0.24377952516078949 0.24377952516078949 0.24377952516078949
0.30430328845977783 0.30430328845977783 0.30430328845977783
0.40429544448852539 0.40429544448852539 0.40429544448852539
0.52559840679168701 0.52559840679168701 0.52559840679168701
0.64503580331802368 0.64503580331802368 0.64503580331802368
0.75108116865158081 0.75108116865158081 0.75108116865158081
0.33739325404167175 0.33739325404167175 0.33739325404167175
0.36700686812400818 0.36700686812400818 0.36700686812400818
0.41597917675971985 0.41597917675971985 0.41597917675971985
0.48998057842254639 0.48998057842254639 0.48998057842254639
0.58078885078430176 0.58078885078430176 0.58078885078430176
0.67605137825012207 0.67605137825012207 0.67605137825012207
0.76815623044967651 0.76815623044967651 0.76815623044967651
0.47433653473854065 0.47433653473854065 0.47433653473854065
0.49794316291809082 0.49794316291809082 0.49794316291809082
0.53232061862945557 0.53232061862945557 0.53232061862945557
0.58241766691207886 0.58241766691207886 0.58241766691207886
0.64608711004257202 0.64608711004257202 0.64608711004257202
0.71812146902084351 0.71812146902084351 0.71812146902084351
0.79437398910522461 0.79437398910522461 0.79437398910522461
0.61312627792358398 0.61312627792358398 0.61312627792358398
0.62853962182998657 0.62853962182998657 0.62853962182998657
0.64781105518341064 0.64781105518341064 0.64781105518341064
0.67764592170715332 0.67764592170715332 0.67764592170715332
0.7191699743270874 0.7191699743270874 0.7191699743270874
0.77069246768951416 0.77069246768951416 0.77069246768951416
0.83162969350814819 0.83162969350814819 0.83162969350814819
0.7442094087600708 0.7442094087600708 0.7442094087600708
0.75094091892242432 0.75094091892242432 0.75094091892242432
0.75819253921508789 0.75819253921508789 0.75819253921508789
0.77352410554885864 0.77352410554885864 0.77352410554885864
0.79875200986862183 0.79875200986862183 0.79875200986862183
0.83473294973373413 0.83473294973373413 0.83473294973373413
0.8824198842048645 0.8824198842048645 0.8824198842048645
0.036578413099050522 0.036578413099050522 0.036578413099050522
0.091241531074047089 0.091241531074047089 0.091241531074047089
0.17967689037322998 0.17967689037322998 0.17967689037322998
0.31191137433052063 0.31191137433052063 0.31191137433052063
0.471973717212677 0.471973717212677 0.471973717212677
0.6172376275062561 0.6172376275062561 0.6172376275062561
0.73355555534362793 0.73355555534362793 0.73355555534362793
0.12377578020095825 0.12377578020095825 0.12377578020095825
0.16958056390285492 0.16958056390285492 0.16958056390285492
0.24823853373527527 0.24823853373527527 0.24823853373527527
0.3673568069934845 0.3673568069934845 0.3673568069934845
0.50953048467636108 0.50953048467636108 0.50953048467636108
0.64273321628570557 0.64273321628570557 0.64273321628570557
0.7530442476272583 0.7530442476272583 0.7530442476272583
0.23264926671981812 0.23264926671981812 0.23264926671981812
0.27124202251434326 0.27124202251434326 0.27124202251434326
0.33705279231071472 0.33705279231071472 0.33705279231071472
0.43402558565139771 0.43402558565139771 0.43402558565139771
0.54957824945449829 0.54957824945449829 0.54957824945449829
0.66308271884918213 0.66308271884918213 0.66308271884918213
0.76399809122085571 0.76399809122085571 0.76399809122085571
0.35810166597366333 0.35810166597366333 0.35810166597366333
0.39018899202346802 0.39018899202346802 0.39018899202346802
0.4405980110168457 0.4405980110168457 0.4405980110168457
0.51276063919067383 0.51276063919067383 0.51276063919067383
0.59953874349594116 0.59953874349594116 0.59953874349594116
0.69029849767684937 0.69029849767684937 0.69029849767684937
0.77799791097640991 0.77799791097640991 0.77799791097640991
0.49155393242835999 0.49155393242835999 0.49155393242835999
0.51559889316558838 0.51559889316558838 0.51559889316558838
0.55001556873321533 0.55001556873321533 0.55001556873321533
0.59867388010025024 0.59867388010025024 0.59867388010025024
0.65954440832138062 0.65954440832138062 0.65954440832138062
0.72809487581253052 0.72809487581253052 0.72809487581253052
0.80127841234207153 0.80127841234207153 0.80127841234207153
0.62397903203964233 0.62397903203964233 0.62397903203964233
0.63993829488754272 0.63993829488754272 0.63993829488754272
0.65955185890197754 0.65955185890197754 0.65955185890197754
0.68850457668304443 0.68850457668304443 0.68850457668304443
0.72809892892837524 0.72809892892837524 0.72809892892837524
0.77759307622909546 0.77759307622909546 0.77759307622909546
0.83673399686813354 0.83673399686813354 0.83673399686813354
0.74776673316955566 0.74776673316955566 0.74776673316955566
0.75679022073745728 0.75679022073745728 0.75679022073745728
0.76508849859237671 0.76508849859237671 0.76508849859237671
0.7799411416053772 0.7799411416053772 0.7799411416053772
0.80427587032318115 0.80427587032318115 0.80427587032318115
0.83943444490432739 0.83943444490432739 0.83943444490432739
0.88685888051986694 0.88685888051986694 0.88685888051986694
0.06451047956943512 0.06451047956943512 0.06451047956943512
0.1318899393081665 0.1318899393081665 0.1318899393081665
0.23163434863090515 0.23163434863090515 0.23163434863090515
0.36148473620414734 0.36148473620414734 0.36148473620414734
0.50547295808792114 0.50547295808792114 0.50547295808792114
0.63606846332550049 0.63606846332550049 0.63606846332550049
0.74370402097702026 0.74370402097702026 0.74370402097702026
0.15691453218460083 0.15691453218460083 0.15691453218460083
0.21380282938480377 0.21380282938480377 0.21380282938480377
0.29992696642875671 0.29992696642875671 0.29992696642875671
0.41416639089584351 0.41416639089584351 0.41416639089584351
0.54178625345230103 0.54178625345230103 0.54178625345230103
0.66115760803222656 0.66115760803222656 0.66115760803222656
0.76283997297286987 0.76283997297286987 0.76283997297286987
0.26908454298973083 0.26908454298973083 0.26908454298973083
0.31451308727264404 0.31451308727264404 0.31451308727264404
0.38327541947364807 0.38327541947364807 0.38327541947364807
0.47482138872146606 0.47482138872146606 0.47482138872146606
0.5789419412612915 0.5789419412612915 0.5789419412612915
0.68137353658676147 0.68137353658676147 0.68137353658676147
0.77416098117828369 0.77416098117828369 0.77416098117828369
0.39117926359176636 0.39117926359176636 0.39117926359176636
0.42703461647033691 0.42703461647033691 0.42703461647033691
0.47710338234901428 0.47710338234901428 0.47710338234901428
0.54426389932632446 0.54426389932632446 0.54426389932632446
0.62396448850631714 0.62396448850631714 0.62396448850631714
0.70639359951019287 0.70639359951019287 0.70639359951019287
0.78769588470458984 0.78769588470458984 0.78769588470458984
0.51630163192749023 0.51630163192749023 0.51630163192749023
0.5419427752494812 0.5419427752494812 0.5419427752494812
0.57628417015075684 0.57628417015075684 0.57628417015075684
0.62234783172607422 0.62234783172607422 0.62234783172607422
0.67850947380065918 0.67850947380065918 0.67850947380065918
0.74170386791229248 0.74170386791229248 0.74170386791229248
0.81009435653686523 0.81009435653686523 0.81009435653686523
0.63841348886489868 0.63841348886489868 0.63841348886489868
0.65558701753616333 0.65558701753616333 0.65558701753616333
0.67628127336502075 0.67628127336502075 0.67628127336502075
0.70453894138336182 0.70453894138336182 0.70453894138336182
0.74190282821655273 0.74190282821655273 0.74190282821655273
0.78866112232208252 0.78866112232208252 0.78866112232208252
0.84506857395172119 0.84506857395172119 0.84506857395172119
0.75312739610671997 0.75312739610671997 0.75312739610671997
0.76392853260040283 0.76392853260040283 0.76392853260040283
0.7744184136390686 0.7744184136390686 0.7744184136390686
0.7899620532989502 0.7899620532989502 0.7899620532989502
0.81395900249481201 0.81395900249481201 0.81395900249481201
0.84829521179199219 0.84829521179199219 0.84829521179199219
0.89481168985366821 0.89481168985366821 0.89481168985366821
0.10758145153522491 0.10758145153522491 0.10758145153522491
0.18517310917377472 0.18517310917377472 0.18517310917377472
0.28891563415527344 0.28891563415527344 0.28891563415527344
0.41141748428344727 0.41141748428344727 0.41141748428344727
0.53993946313858032 0.53993946313858032 0.53993946313858032
0.65484416484832764 0.65484416484832764 0.65484416484832764
0.75260919332504272 0.75260919332504272 0.75260919332504272
0.20755183696746826 0.20755183696746826 0.20755183696746826
0.27073058485984802 0.27073058485984802 0.27073058485984802
0.35814154148101807 0.35814154148101807 0.35814154148101807
0.46322602033615112 0.46322602033615112 0.46322602033615112
0.57540446519851685 0.57540446519851685 0.57540446519851685
0.67961400747299194 0.67961400747299194 0.67961400747299194
0.77111876010894775 0.77111876010894775 0.77111876010894775
0.32205244898796082 0.32205244898796082 0.32205244898796082
0.37050524353981018 0.37050524353981018 0.37050524353981018
0.43744117021560669 0.43744117021560669 0.43744117021560669
0.51984578371047974 0.51984578371047974 0.51984578371047974
0.61021226644515991 0.61021226644515991 0.61021226644515991
0.69935476779937744 0.69935476779937744 0.69935476779937744
0.78298783302307129 0.78298783302307129 0.78298783302307129
0.43863970041275024 0.43863970041275024 0.43863970041275024
0.47469377517700195 0.47469377517700195 0.47469377517700195
0.52270340919494629 0.52270340919494629 0.52270340919494629
0.58282208442687988 0.58282208442687988 0.58282208442687988
0.65141308307647705 0.65141308307647705 0.65141308307647705
0.72368508577346802 0.72368508577346802 0.72368508577346802
0.79715830087661743 0.79715830087661743 0.79715830087661743
0.55264425277709961 0.55264425277709961 0.55264425277709961
0.57828474044799805 0.57828474044799805 0.57828474044799805
0.61067336797714233 0.61067336797714233 0.61067336797714233
0.65169823169708252 0.65169823169708252 0.65169823169708252
0.70100575685501099 0.70100575685501099 0.70100575685501099
0.75745517015457153 0.75745517015457153 0.75745517015457153
0.81996077299118042 0.81996077299118042 0.81996077299118042
0.66198831796646118 0.66198831796646118 0.66198831796646118
0.67933076620101929 0.67933076620101929 0.67933076620101929
0.69968467950820923 0.69968467950820923 0.69968467950820923
0.72590059041976929 0.72590059041976929 0.72590059041976929
0.75970256328582764 0.75970256328582764 0.75970256328582764
0.80234724283218384 0.80234724283218384 0.80234724283218384
0.85511219501495361 0.85511219501495361 0.85511219501495361
0.76603871583938599 0.76603871583938599 0.76603871583938599
0.77726179361343384 0.77726179361343384 0.77726179361343384
0.78897315263748169 0.78897315263748169 0.78897315263748169
0.80458801984786987 0.80458801984786987 0.80458801984786987
0.82741737365722656 0.82741737365722656 0.82741737365722656
0.86032414436340332 0.86032414436340332 0.86032414436340332
0.90468102693557739 0.90468102693557739 0.90468102693557739
0.17980454862117767 0.17980454862117767 0.17980454862117767
0.25811803340911865 0.25811803340911865 0.25811803340911865
0.35494667291641235 0.35494667291641235 0.35494667291641235
0.46185961365699768 0.46185961365699768 0.46185961365699768
0.57096379995346069 0.57096379995346069 0.57096379995346069
0.67202401161193848 0.67202401161193848 0.67202401161193848
0.76229560375213623 0.76229560375213623 0.76229560375213623
0.28346946835517883 0.28346946835517883 0.28346946835517883
0.34515294432640076 0.34515294432640076 0.34515294432640076
0.42394697666168213 0.42394697666168213 0.42394697666168213
0.51398152112960815 0.51398152112960815 0.51398152112960815
0.6078488826751709 0.6078488826751709 0.6078488826751709
0.69722741842269897 0.69722741842269897 0.69722741842269897
0.7800363302230835 0.7800363302230835 0.7800363302230835
0.39511653780937195 0.39511653780937195 0.39511653780937195
0.44102892279624939 0.44102892279624939 0.44102892279624939
0.49952930212020874 0.49952930212020874 0.49952930212020874
0.56833755970001221 0.56833755970001221 0.56833755970001221
0.64236187934875488 0.64236187934875488 0.64236187934875488
0.71833741664886475 0.71833741664886475 0.71833741664886475
0.79255127906799316 0.79255127906799316 0.79255127906799316
0.50165963172912598 0.50165963172912598 0.50165963172912598
0.53522568941116333 0.53522568941116333 0.53522568941116333
0.57635766267776489 0.57635766267776489 0.57635766267776489
0.62565553188323975 0.62565553188323975 0.62565553188323975
0.68189388513565063 0.68189388513565063 0.68189388513565063
0.74268853664398193 0.74268853664398193 0.74268853664398193
0.80774343013763428 0.80774343013763428 0.80774343013763428
0.60123968124389648 0.60123968124389648 0.60123968124389648
0.62514573335647583 0.62514573335647583 0.62514573335647583
0.65299659967422485 0.65299659967422485 0.65299659967422485
0.68678951263427734 0.68678951263427734 0.68678951263427734
0.72761791944503784 0.72761791944503784 0.72761791944503784
0.77545589208602905 0.77545589208602905 0.77545589208602905
0.83159840106964111 0.83159840106964111 0.83159840106964111
0.69572043418884277 0.69572043418884277 0.69572043418884277
0.71221792697906494 0.71221792697906494 0.71221792697906494
0.7307090163230896 0.7307090163230896 0.7307090163230896
0.75295108556747437 0.75295108556747437 0.75295108556747437
0.78169840574264526 0.78169840574264526 0.78169840574264526
0.81908667087554932 0.81908667087554932 0.81908667087554932
0.86731892824172974 0.86731892824172974 0.86731892824172974
0.78773623704910278 0.78773623704910278 0.78773623704910278
0.79886293411254883 0.79886293411254883 0.79886293411254883
0.81043738126754761 0.81043738126754761 0.81043738126754761
0.82497322559356689 0.82497322559356689 0.82497322559356689
0.84539890289306641 0.84539890289306641 0.84539890289306641
0.8750842809677124 0.8750842809677124 0.8750842809677124
0.91704285144805908 0.91704285144805908 0.91704285144805908
0.28621563315391541 0.28621563315391541 0.28621563315391541
0.35129198431968689 0.35129198431968689 0.35129198431968689
0.43038466572761536 0.43038466572761536 0.43038466572761536
0.51741474866867065 0.51741474866867065 0.51741474866867065
0.60719579458236694 0.60719579458236694 0.60719579458236694
0.69443285465240479 0.69443285465240479 0.69443285465240479
0.77712160348892212 0.77712160348892212 0.77712160348892212
0.3838333785533905 0.3838333785533905 0.3838333785533905
0.43586605787277222 0.43586605787277222 0.43586605787277222
0.49834123253822327 0.49834123253822327 0.49834123253822327
0.56923359632492065 0.56923359632492065 0.56923359632492065
0.64480149745941162 0.64480149745941162 0.64480149745941162
0.71951210498809814 0.71951210498809814 0.71951210498809814
0.79371315240859985 0.79371315240859985 0.79371315240859985
0.4855862557888031 0.4855862557888031 0.4855862557888031
0.52367597818374634 0.52367597818374634 0.52367597818374634
0.56821924448013306 0.56821924448013306 0.56821924448013306
0.62096881866455078 0.62096881866455078 0.62096881866455078
0.67935985326766968 0.67935985326766968 0.67935985326766968
0.74102908372879028 0.74102908372879028 0.74102908372879028
0.80603808164596558 0.80603808164596558 0.80603808164596558
0.57706856727600098 0.57706856727600098 0.57706856727600098
0.60512298345565796 0.60512298345565796 0.60512298345565796
0.63599050045013428 0.63599050045013428 0.63599050045013428
0.67311543226242065 0.67311543226242065 0.67311543226242065
0.71670067310333252 0.71670067310333252 0.71670067310333252
0.76573628187179565 0.76573628187179565 0.76573628187179565
0.82230132818222046 0.82230132818222046 0.82230132818222046
0.65925174951553345 0.65925174951553345 0.65925174951553345
0.67989903688430786 0.67989903688430786 0.67989903688430786
0.70170134305953979 0.70170134305953979 0.70170134305953979
0.72738373279571533 0.72738373279571533 0.72738373279571533
0.75902378559112549 0.75902378559112549 0.75902378559112549
0.79818058013916016 0.79818058013916016 0.79818058013916016
0.84788733720779419 0.84788733720779419 0.84788733720779419
0.73780369758605957 0.73780369758605957 0.73780369758605957
0.75299972295761108 0.75299972295761108 0.75299972295761108
0.76827973127365112 0.76827973127365112 0.76827973127365112
0.78636550903320312 0.78636550903320312 0.78636550903320312
0.80952399969100952 0.80952399969100952 0.80952399969100952
0.84097743034362793 0.84097743034362793 0.84097743034362793
0.88461112976074219 0.88461112976074219 0.88461112976074219
0.81746566295623779 0.81746566295623779 0.81746566295623779
0.82844424247741699 0.82844424247741699 0.82844424247741699
0.83937102556228638 0.83937102556228638 0.83937102556228638
0.85212433338165283 0.85212433338165283 0.85212433338165283
0.8698076605796814 0.8698076605796814 0.8698076605796814
0.89576470851898193 0.89576470851898193 0.89576470851898193
0.93443655967712402 0.93443655967712402 0.93443655967712402
0.39534327387809753 0.39534327387809753 0.39534327387809753
0.4481964111328125 0.4481964111328125 0.4481964111328125
0.50886386632919312 0.50886386632919312 0.50886386632919312
0.57698845863342285 0.57698845863342285 0.57698845863342285
0.65002232789993286 0.65002232789993286 0.65002232789993286
0.72461861371994019 0.72461861371994019 0.72461861371994019
0.79945027828216553 0.79945027828216553 0.79945027828216553
0.48687133193016052 0.48687133193016052 0.48687133193016052
0.52839893102645874 0.52839893102645874 0.52839893102645874
0.57424283027648926 0.57424283027648926 0.57424283027648926
0.62749606370925903 0.62749606370925903 0.62749606370925903
0.68673068284988403 0.68673068284988403 0.68673068284988403
0.74938088655471802 0.74938088655471802 0.74938088655471802
0.81541651487350464 0.81541651487350464 0.81541651487350464
0.57942008972167969 0.57942008972167969 0.57942008972167969
0.60722684860229492 0.60722684860229492 0.60722684860229492
0.63825541734695435 0.63825541734695435 0.63825541734695435
0.67644214630126953 0.67644214630126953 0.67644214630126953
0.72123557329177856 0.72123557329177856 0.72123557329177856
0.77124011516571045 0.77124011516571045 0.77124011516571045
0.82768279314041138 0.82768279314041138 0.82768279314041138
0.65447956323623657 0.65447956323623657 0.65447956323623657
0.67622601985931396 0.67622601985931396 0.67622601985931396
0.69764435291290283 0.69764435291290283 0.69764435291290283
0.72418880462646484 0.72418880462646484 0.72418880462646484
0.75669890642166138 0.75669890642166138 0.75669890642166138
0.79639405012130737 0.79639405012130737 0.79639405012130737
0.84516817331314087 0.84516817331314087 0.84516817331314087
0.72015225887298584 0.72015225887298584 0.72015225887298584
0.73785132169723511 0.73785132169723511 0.73785132169723511
0.75412404537200928 0.75412404537200928 0.75412404537200928
0.77303069829940796 0.77303069829940796 0.77303069829940796
0.79730671644210815 0.79730671644210815 0.79730671644210815
0.82965683937072754 0.82965683937072754 0.82965683937072754
0.87382113933563232 0.87382113933563232 0.87382113933563232
0.7852790355682373 0.7852790355682373 0.7852790355682373
0.79921489953994751 0.79921489953994751 0.79921489953994751
0.81206101179122925 0.81206101179122925 0.81206101179122925
0.8263850212097168 0.8263850212097168 0.8263850212097168
0.84510195255279541 0.84510195255279541 0.84510195255279541
0.8718944787979126 0.8718944787979126 0.8718944787979126
0.91153049468994141 0.91153049468994141 0.91153049468994141
0.85412490367889404 0.85412490367889404 0.85412490367889404
0.86547070741653442 0.86547070741653442 0.86547070741653442
0.87593013048171997 0.87593013048171997 0.87593013048171997
0.88722807168960571 0.88722807168960571 0.88722807168960571
0.90267026424407959 0.90267026424407959 0.90267026424407959
0.92566472291946411 0.92566472291946411 0.92566472291946411
0.96104377508163452 0.96104377508163452 0.96104377508163452
