luts/bw/polaroid_664.cube
# Created by: G'MIC (https://gmic.eu)
TITLE "polaroid_664"
# LUT size
LUT_3D_SIZE 7
# Data domain
DOMAIN_MIN 0.0 0.0 0.0
DOMAIN_MAX 1.0 1.0 1.0
# LUT data points
0.015362010337412357 0.015362010337412357 0.015362010337412357
0.054402325302362442 0.054402325302362442 0.054402325302362442
0.2115425318479538 0.2115425318479538 0.2115425318479538
0.40191656351089478 0.40191656351089478 0.40191656351089478
0.52448475360870361 0.52448475360870361 0.52448475360870361
0.59874439239501953 0.59874439239501953 0.59874439239501953
0.67416292428970337 0.67416292428970337 0.67416292428970337
0.051302023231983185 0.051302023231983185 0.051302023231983185
0.1165274977684021 0.1165274977684021 0.1165274977684021
0.28173026442527771 0.28173026442527771 0.28173026442527771
0.44070184230804443 0.44070184230804443 0.44070184230804443
0.53575915098190308 0.53575915098190308 0.53575915098190308
0.60709530115127563 0.60709530115127563 0.60709530115127563
0.68480581045150757 0.68480581045150757 0.68480581045150757
0.16812652349472046 0.16812652349472046 0.16812652349472046
0.24034139513969421 0.24034139513969421 0.24034139513969421
0.36839008331298828 0.36839008331298828 0.36839008331298828
0.48592022061347961 0.48592022061347961 0.48592022061347961
0.55923932790756226 0.55923932790756226 0.55923932790756226
0.62502139806747437 0.62502139806747437 0.62502139806747437
0.69897913932800293 0.69897913932800293 0.69897913932800293
0.34227302670478821 0.34227302670478821 0.34227302670478821
0.37959146499633789 0.37959146499633789 0.37959146499633789
0.44775485992431641 0.44775485992431641 0.44775485992431641
0.52189916372299194 0.52189916372299194 0.52189916372299194
0.58449262380599976 0.58449262380599976 0.58449262380599976
0.64769673347473145 0.64769673347473145 0.64769673347473145
0.71981066465377808 0.71981066465377808 0.71981066465377808
0.46796521544456482 0.46796521544456482 0.46796521544456482
0.47873696684837341 0.47873696684837341 0.47873696684837341
0.50871258974075317 0.50871258974075317 0.50871258974075317
0.55418127775192261 0.55418127775192261 0.55418127775192261
0.60708165168762207 0.60708165168762207 0.60708165168762207
0.67044878005981445 0.67044878005981445 0.67044878005981445
0.74512279033660889 0.74512279033660889 0.74512279033660889
0.53259956836700439 0.53259956836700439 0.53259956836700439
0.53911817073822021 0.53911817073822021 0.53911817073822021
0.55561673641204834 0.55561673641204834 0.55561673641204834
0.5856519341468811 0.5856519341468811 0.5856519341468811
0.6304328441619873 0.6304328441619873 0.6304328441619873
0.69576126337051392 0.69576126337051392 0.69576126337051392
0.776863694190979 0.776863694190979 0.776863694190979
0.58670401573181152 0.58670401573181152 0.58670401573181152
0.59156894683837891 0.59156894683837891 0.59156894683837891
0.6019054651260376 0.6019054651260376 0.6019054651260376
0.62387180328369141 0.62387180328369141 0.62387180328369141
0.66180896759033203 0.66180896759033203 0.66180896759033203
0.72878241539001465 0.72878241539001465 0.72878241539001465
0.8173784613609314 0.8173784613609314 0.8173784613609314
0.049871422350406647 0.049871422350406647 0.049871422350406647
0.16958105564117432 0.16958105564117432 0.16958105564117432
0.32615891098976135 0.32615891098976135 0.32615891098976135
0.46116873621940613 0.46116873621940613 0.46116873621940613
0.54908078908920288 0.54908078908920288 0.54908078908920288
0.61374813318252563 0.61374813318252563 0.61374813318252563
0.68358296155929565 0.68358296155929565 0.68358296155929565
0.13803744316101074 0.13803744316101074 0.13803744316101074
0.23055398464202881 0.23055398464202881 0.23055398464202881
0.36945134401321411 0.36945134401321411 0.36945134401321411
0.4878883957862854 0.4878883957862854 0.4878883957862854
0.55801457166671753 0.55801457166671753 0.55801457166671753
0.61834836006164551 0.61834836006164551 0.61834836006164551
0.69167524576187134 0.69167524576187134 0.69167524576187134
0.27018579840660095 0.27018579840660095 0.27018579840660095
0.33037364482879639 0.33037364482879639 0.33037364482879639
0.42671945691108704 0.42671945691108704 0.42671945691108704
0.51642811298370361 0.51642811298370361 0.51642811298370361
0.57727491855621338 0.57727491855621338 0.57727491855621338
0.63518702983856201 0.63518702983856201 0.63518702983856201
0.70543748140335083 0.70543748140335083 0.70543748140335083
0.40807759761810303 0.40807759761810303 0.40807759761810303
0.4368445873260498 0.4368445873260498 0.4368445873260498
0.48750999569892883 0.48750999569892883 0.48750999569892883
0.54641377925872803 0.54641377925872803 0.54641377925872803
0.59999114274978638 0.59999114274978638 0.59999114274978638
0.6574709415435791 0.6574709415435791 0.6574709415435791
0.72623598575592041 0.72623598575592041 0.72623598575592041
0.49658375978469849 0.49658375978469849 0.49658375978469849
0.50642234086990356 0.50642234086990356 0.50642234086990356
0.53352779150009155 0.53352779150009155 0.53352779150009155
0.57358503341674805 0.57358503341674805 0.57358503341674805
0.62140274047851562 0.62140274047851562 0.62140274047851562
0.68052774667739868 0.68052774667739868 0.68052774667739868
0.75205636024475098 0.75205636024475098 0.75205636024475098
0.54873865842819214 0.54873865842819214 0.54873865842819214
0.55165296792984009 0.55165296792984009 0.55165296792984009
0.5711333155632019 0.5711333155632019 0.5711333155632019
0.60178136825561523 0.60178136825561523 0.60178136825561523
0.64557033777236938 0.64557033777236938 0.64557033777236938
0.7071874737739563 0.7071874737739563 0.7071874737739563
0.78369295597076416 0.78369295597076416 0.78369295597076416
0.59941649436950684 0.59941649436950684 0.59941649436950684
0.60233628749847412 0.60233628749847412 0.60233628749847412
0.61477053165435791 0.61477053165435791 0.61477053165435791
0.63924866914749146 0.63924866914749146 0.63924866914749146
0.67976444959640503 0.67976444959640503 0.67976444959640503
0.7428022027015686 0.7428022027015686 0.7428022027015686
0.82336395978927612 0.82336395978927612 0.82336395978927612
0.13375189900398254 0.13375189900398254 0.13375189900398254
0.28442952036857605 0.28442952036857605 0.28442952036857605
0.40884369611740112 0.40884369611740112 0.40884369611740112
0.50310683250427246 0.50310683250427246 0.50310683250427246
0.56918412446975708 0.56918412446975708 0.56918412446975708
0.62509852647781372 0.62509852647781372 0.62509852647781372
0.690082848072052 0.690082848072052 0.690082848072052
0.25172054767608643 0.25172054767608643 0.25172054767608643
0.33644440770149231 0.33644440770149231 0.33644440770149231
0.44057974219322205 0.44057974219322205 0.44057974219322205
0.52312695980072021 0.52312695980072021 0.52312695980072021
0.57958328723907471 0.57958328723907471 0.57958328723907471
0.63188093900680542 0.63188093900680542 0.63188093900680542
0.69811952114105225 0.69811952114105225 0.69811952114105225
0.38074454665184021 0.38074454665184021 0.38074454665184021
0.42118746042251587 0.42118746042251587 0.42118746042251587
0.48193958401679993 0.48193958401679993 0.48193958401679993
0.54355192184448242 0.54355192184448242 0.54355192184448242
0.59449386596679688 0.59449386596679688 0.59449386596679688
0.64705944061279297 0.64705944061279297 0.64705944061279297
0.71284961700439453 0.71284961700439453 0.71284961700439453
0.47975048422813416 0.47975048422813416 0.47975048422813416
0.49605861306190491 0.49605861306190491 0.49605861306190491
0.52620518207550049 0.52620518207550049 0.52620518207550049
0.56868159770965576 0.56868159770965576 0.56868159770965576
0.61455905437469482 0.61455905437469482 0.61455905437469482
0.6681172251701355 0.6681172251701355 0.6681172251701355
0.73403191566467285 0.73403191566467285 0.73403191566467285
0.53399920463562012 0.53399920463562012 0.53399920463562012
0.54213207960128784 0.54213207960128784 0.54213207960128784
0.56131911277770996 0.56131911277770996 0.56131911277770996
0.59393310546875 0.59393310546875 0.59393310546875
0.63708937168121338 0.63708937168121338 0.63708937168121338
0.69231718778610229 0.69231718778610229 0.69231718778610229
0.76044446229934692 0.76044446229934692 0.76044446229934692
0.57248169183731079 0.57248169183731079 0.57248169183731079
0.57647168636322021 0.57647168636322021 0.57647168636322021
0.59322106838226318 0.59322106838226318 0.59322106838226318
0.62243551015853882 0.62243551015853882 0.62243551015853882
0.66467982530593872 0.66467982530593872 0.66467982530593872
0.72204941511154175 0.72204941511154175 0.72204941511154175
0.79309511184692383 0.79309511184692383 0.79309511184692383
0.61548852920532227 0.61548852920532227 0.61548852920532227
0.61958259344100952 0.61958259344100952 0.61958259344100952
0.63415336608886719 0.63415336608886719 0.63415336608886719
0.66109222173690796 0.66109222173690796 0.66109222173690796
0.70265763998031616 0.70265763998031616 0.70265763998031616
0.76119667291641235 0.76119667291641235 0.76119667291641235
0.83439463376998901 0.83439463376998901 0.83439463376998901
0.27650365233421326 0.27650365233421326 0.27650365233421326
0.40115803480148315 0.40115803480148315 0.40115803480148315
0.48393294215202332 0.48393294215202332 0.48393294215202332
0.54351085424423218 0.54351085424423218 0.54351085424423218
0.59284371137619019 0.59284371137619019 0.59284371137619019
0.64174622297286987 0.64174622297286987 0.64174622297286987
0.70306020975112915 0.70306020975112915 0.70306020975112915
0.39883333444595337 0.39883333444595337 0.39883333444595337
0.44736889004707336 0.44736889004707336 0.44736889004707336
0.50491189956665039 0.50491189956665039 0.50491189956665039
0.55722904205322266 0.55722904205322266 0.55722904205322266
0.60197985172271729 0.60197985172271729 0.60197985172271729
0.64924055337905884 0.64924055337905884 0.64924055337905884
0.71140974760055542 0.71140974760055542 0.71140974760055542
0.48196631669998169 0.48196631669998169 0.48196631669998169
0.50192731618881226 0.50192731618881226 0.50192731618881226
0.53230220079421997 0.53230220079421997 0.53230220079421997
0.57243049144744873 0.57243049144744873 0.57243049144744873
0.61491233110427856 0.61491233110427856 0.61491233110427856
0.66391819715499878 0.66391819715499878 0.66391819715499878
0.72651094198226929 0.72651094198226929 0.72651094198226929
0.53929513692855835 0.53929513692855835 0.53929513692855835
0.54842841625213623 0.54842841625213623 0.54842841625213623
0.56428098678588867 0.56428098678588867 0.56428098678588867
0.59386992454528809 0.59386992454528809 0.59386992454528809
0.63365077972412109 0.63365077972412109 0.63365077972412109
0.68436360359191895 0.68436360359191895 0.68436360359191895
0.74762684106826782 0.74762684106826782 0.74762684106826782
0.57534623146057129 0.57534623146057129 0.57534623146057129
0.58051937818527222 0.58051937818527222 0.58051937818527222
0.59300714731216431 0.59300714731216431 0.59300714731216431
0.61894088983535767 0.61894088983535767 0.61894088983535767
0.6578870415687561 0.6578870415687561 0.6578870415687561
0.70973706245422363 0.70973706245422363 0.70973706245422363
0.77474677562713623 0.77474677562713623 0.77474677562713623
0.60399508476257324 0.60399508476257324 0.60399508476257324
0.60889101028442383 0.60889101028442383 0.60889101028442383
0.62314581871032715 0.62314581871032715 0.62314581871032715
0.64950180053710938 0.64950180053710938 0.64950180053710938
0.68892908096313477 0.68892908096313477 0.68892908096313477
0.74234390258789062 0.74234390258789062 0.74234390258789062
0.80915969610214233 0.80915969610214233 0.80915969610214233
0.63972914218902588 0.63972914218902588 0.63972914218902588
0.64652365446090698 0.64652365446090698 0.64652365446090698
0.66285908222198486 0.66285908222198486 0.66285908222198486
0.69029772281646729 0.69029772281646729 0.69029772281646729
0.73040187358856201 0.73040187358856201 0.73040187358856201
0.78453803062438965 0.78453803062438965 0.78453803062438965
0.85208374261856079 0.85208374261856079 0.85208374261856079
0.4410126805305481 0.4410126805305481 0.4410126805305481
0.49472126364707947 0.49472126364707947 0.49472126364707947
0.5387081503868103 0.5387081503868103 0.5387081503868103
0.58131629228591919 0.58131629228591919 0.58131629228591919
0.62283730506896973 0.62283730506896973 0.62283730506896973
0.66932350397109985 0.66932350397109985 0.66932350397109985
0.72685891389846802 0.72685891389846802 0.72685891389846802
0.50766342878341675 0.50766342878341675 0.50766342878341675
0.52402681112289429 0.52402681112289429 0.52402681112289429
0.55221635103225708 0.55221635103225708 0.55221635103225708
0.59020179510116577 0.59020179510116577 0.59020179510116577
0.63029688596725464 0.63029688596725464 0.63029688596725464
0.67672848701477051 0.67672848701477051 0.67672848701477051
0.73548257350921631 0.73548257350921631 0.73548257350921631
0.55540138483047485 0.55540138483047485 0.55540138483047485
0.5594022274017334 0.5594022274017334 0.5594022274017334
0.57293355464935303 0.57293355464935303 0.57293355464935303
0.60277897119522095 0.60277897119522095 0.60277897119522095
0.641490638256073 0.641490638256073 0.641490638256073
0.68944603204727173 0.68944603204727173 0.68944603204727173
0.74958473443984985 0.74958473443984985 0.74958473443984985
0.59033793210983276 0.59033793210983276 0.59033793210983276
0.59205996990203857 0.59205996990203857 0.59205996990203857
0.59997451305389404 0.59997451305389404 0.59997451305389404
0.6234927773475647 0.6234927773475647 0.6234927773475647
0.6601719856262207 0.6601719856262207 0.6601719856262207
0.70891493558883667 0.70891493558883667 0.70891493558883667
0.77025091648101807 0.77025091648101807 0.77025091648101807
0.61828458309173584 0.61828458309173584 0.61828458309173584
0.62026286125183105 0.62026286125183105 0.62026286125183105
0.62877875566482544 0.62877875566482544 0.62877875566482544
0.65071862936019897 0.65071862936019897 0.65071862936019897
0.68658590316772461 0.68658590316772461 0.68658590316772461
0.73560571670532227 0.73560571670532227 0.73560571670532227
0.79762101173400879 0.79762101173400879 0.79762101173400879
0.64367067813873291 0.64367067813873291 0.64367067813873291
0.64863181114196777 0.64863181114196777 0.64863181114196777
0.66141629219055176 0.66141629219055176 0.66141629219055176
0.68477368354797363 0.68477368354797363 0.68477368354797363
0.72112226486206055 0.72112226486206055 0.72112226486206055
0.77070647478103638 0.77070647478103638 0.77070647478103638
0.83307331800460815 0.83307331800460815 0.83307331800460815
0.6761772632598877 0.6761772632598877 0.6761772632598877
0.68592923879623413 0.68592923879623413 0.68592923879623413
0.7033502459526062 0.7033502459526062 0.7033502459526062
0.72890710830688477 0.72890710830688477 0.72890710830688477
0.76573610305786133 0.76573610305786133 0.76573610305786133
0.81553095579147339 0.81553095579147339 0.81553095579147339
0.87826216220855713 0.87826216220855713 0.87826216220855713
0.54306018352508545 0.54306018352508545 0.54306018352508545
0.56482982635498047 0.56482982635498047 0.56482982635498047
0.58785051107406616 0.58785051107406616 0.58785051107406616
0.62088817358016968 0.62088817358016968 0.62088817358016968
0.65925341844558716 0.65925341844558716 0.65925341844558716
0.70451563596725464 0.70451563596725464 0.70451563596725464
0.75961244106292725 0.75961244106292725 0.75961244106292725
0.57661861181259155 0.57661861181259155 0.57661861181259155
0.57820254564285278 0.57820254564285278 0.57820254564285278
0.59593707323074341 0.59593707323074341 0.59593707323074341
0.62787729501724243 0.62787729501724243 0.62787729501724243
0.66620075702667236 0.66620075702667236 0.66620075702667236
0.71233206987380981 0.71233206987380981 0.71233206987380981
0.76900994777679443 0.76900994777679443 0.76900994777679443
0.60722702741622925 0.60722702741622925 0.60722702741622925
0.60417217016220093 0.60417217016220093 0.60417217016220093
0.61270689964294434 0.61270689964294434 0.61270689964294434
0.63960415124893188 0.63960415124893188 0.63960415124893188
0.67741400003433228 0.67741400003433228 0.67741400003433228
0.7247123122215271 0.7247123122215271 0.7247123122215271
0.78292220830917358 0.78292220830917358 0.78292220830917358
0.63814371824264526 0.63814371824264526 0.63814371824264526
0.634543776512146 0.634543776512146 0.634543776512146
0.63925611972808838 0.63925611972808838 0.63925611972808838
0.66125339269638062 0.66125339269638062 0.66125339269638062
0.69701766967773438 0.69701766967773438 0.69701766967773438
0.74445414543151855 0.74445414543151855 0.74445414543151855
0.80362898111343384 0.80362898111343384 0.80362898111343384
0.66903489828109741 0.66903489828109741 0.66903489828109741
0.66733777523040771 0.66733777523040771 0.66733777523040771
0.67285120487213135 0.67285120487213135 0.67285120487213135
0.69245332479476929 0.69245332479476929 0.69245332479476929
0.72583180665969849 0.72583180665969849 0.72583180665969849
0.77241092920303345 0.77241092920303345 0.77241092920303345
0.83158296346664429 0.83158296346664429 0.83158296346664429
0.7013353705406189 0.7013353705406189 0.7013353705406189
0.70336008071899414 0.70336008071899414 0.70336008071899414
0.7122189998626709 0.7122189998626709 0.7122189998626709
0.73177444934844971 0.73177444934844971 0.73177444934844971
0.76415586471557617 0.76415586471557617 0.76415586471557617
0.8093377947807312 0.8093377947807312 0.8093377947807312
0.86781787872314453 0.86781787872314453 0.86781787872314453
0.73922610282897949 0.73922610282897949 0.73922610282897949
0.74618351459503174 0.74618351459503174 0.74618351459503174
0.75883036851882935 0.75883036851882935 0.75883036851882935
0.77980297803878784 0.77980297803878784 0.77980297803878784
0.81180661916732788 0.81180661916732788 0.81180661916732788
0.85659360885620117 0.85659360885620117 0.85659360885620117
0.91438406705856323 0.91438406705856323 0.91438406705856323
0.60080587863922119 0.60080587863922119 0.60080587863922119
0.62185418605804443 0.62185418605804443 0.62185418605804443
0.64072948694229126 0.64072948694229126 0.64072948694229126
0.66827154159545898 0.66827154159545898 0.66827154159545898
0.70393389463424683 0.70393389463424683 0.70393389463424683
0.74762219190597534 0.74762219190597534 0.74762219190597534
0.80085808038711548 0.80085808038711548 0.80085808038711548
0.63265812397003174 0.63265812397003174 0.63265812397003174
0.63904529809951782 0.63904529809951782 0.63904529809951782
0.65094947814941406 0.65094947814941406 0.65094947814941406
0.67682480812072754 0.67682480812072754 0.67682480812072754
0.71258056163787842 0.71258056163787842 0.71258056163787842
0.75733989477157593 0.75733989477157593 0.75733989477157593
0.8119933009147644 0.8119933009147644 0.8119933009147644
0.66027367115020752 0.66027367115020752 0.66027367115020752
0.65823894739151001 0.65823894739151001 0.65823894739151001
0.66493111848831177 0.66493111848831177 0.66493111848831177
0.68932312726974487 0.68932312726974487 0.68932312726974487
0.72528290748596191 0.72528290748596191 0.72528290748596191
0.7710801362991333 0.7710801362991333 0.7710801362991333
0.82732194662094116 0.82732194662094116 0.82732194662094116
0.69214069843292236 0.69214069843292236 0.69214069843292236
0.68727278709411621 0.68727278709411621 0.68727278709411621
0.6911386251449585 0.6911386251449585 0.6911386251449585
0.71257168054580688 0.71257168054580688 0.71257168054580688
0.74669390916824341 0.74669390916824341 0.74669390916824341
0.7921261191368103 0.7921261191368103 0.7921261191368103
0.84882855415344238 0.84882855415344238 0.84882855415344238
0.73034024238586426 0.73034024238586426 0.73034024238586426
0.72704285383224487 0.72704285383224487 0.72704285383224487
0.73019564151763916 0.73019564151763916 0.73019564151763916
0.74735081195831299 0.74735081195831299 0.74735081195831299
0.77854382991790771 0.77854382991790771 0.77854382991790771
0.82165420055389404 0.82165420055389404 0.82165420055389404
0.87779039144515991 0.87779039144515991 0.87779039144515991
0.77509576082229614 0.77509576082229614 0.77509576082229614
0.77270019054412842 0.77270019054412842 0.77270019054412842
0.77606123685836792 0.77606123685836792 0.77606123685836792
0.79114091396331787 0.79114091396331787 0.79114091396331787
0.81919008493423462 0.81919008493423462 0.81919008493423462
0.86036306619644165 0.86036306619644165 0.86036306619644165
0.91511005163192749 0.91511005163192749 0.91511005163192749
0.82637101411819458 0.82637101411819458 0.82637101411819458
0.82388037443161011 0.82388037443161011 0.82388037443161011
0.82783395051956177 0.82783395051956177 0.82783395051956177
0.84267580509185791 0.84267580509185791 0.84267580509185791
0.86964327096939087 0.86964327096939087 0.86964327096939087
0.9093133807182312 0.9093133807182312 0.9093133807182312
0.96222466230392456 0.96222466230392456 0.96222466230392456
