luts/bw/rollei_retro_100_tonal.cube
# Created by: G'MIC (https://gmic.eu)
TITLE "rollei_retro_100_tonal"
# LUT size
LUT_3D_SIZE 5
# Data domain
DOMAIN_MIN 0.0 0.0 0.0
DOMAIN_MAX 1.0 1.0 1.0
# LUT data points
0.060847114771604538 0.060847114771604538 0.060847114771604538
0.069369882345199585 0.069369882345199585 0.069369882345199585
0.070547573268413544 0.070547573268413544 0.070547573268413544
0.064311861991882324 0.064311861991882324 0.064311861991882324
0.068543814122676849 0.068543814122676849 0.068543814122676849
0.20423047244548798 0.20423047244548798 0.20423047244548798
0.20652526617050171 0.20652526617050171 0.20652526617050171
0.21326971054077148 0.21326971054077148 0.21326971054077148
0.21771775186061859 0.21771775186061859 0.21771775186061859
0.22788403928279877 0.22788403928279877 0.22788403928279877
0.37404587864875793 0.37404587864875793 0.37404587864875793
0.37648755311965942 0.37648755311965942 0.37648755311965942
0.38829827308654785 0.38829827308654785 0.38829827308654785
0.40135794878005981 0.40135794878005981 0.40135794878005981
0.4147123396396637 0.4147123396396637 0.4147123396396637
0.58707588911056519 0.58707588911056519 0.58707588911056519
0.58921915292739868 0.58921915292739868 0.58921915292739868
0.59744715690612793 0.59744715690612793 0.59744715690612793
0.61058622598648071 0.61058622598648071 0.61058622598648071
0.62447172403335571 0.62447172403335571 0.62447172403335571
0.82301396131515503 0.82301396131515503 0.82301396131515503
0.81386613845825195 0.81386613845825195 0.81386613845825195
0.81248122453689575 0.81248122453689575 0.81248122453689575
0.82260501384735107 0.82260501384735107 0.82260501384735107
0.83743131160736084 0.83743131160736084 0.83743131160736084
0.14490406215190887 0.14490406215190887 0.14490406215190887
0.15529046952724457 0.15529046952724457 0.15529046952724457
0.16215015947818756 0.16215015947818756 0.16215015947818756
0.16277439892292023 0.16277439892292023 0.16277439892292023
0.17505171895027161 0.17505171895027161 0.17505171895027161
0.28025075793266296 0.28025075793266296 0.28025075793266296
0.28349345922470093 0.28349345922470093 0.28349345922470093
0.2935338020324707 0.2935338020324707 0.2935338020324707
0.30061560869216919 0.30061560869216919 0.30061560869216919
0.31173530220985413 0.31173530220985413 0.31173530220985413
0.43887796998023987 0.43887796998023987 0.43887796998023987
0.44109836220741272 0.44109836220741272 0.44109836220741272
0.45436269044876099 0.45436269044876099 0.45436269044876099
0.46520763635635376 0.46520763635635376 0.46520763635635376
0.47397622466087341 0.47397622466087341 0.47397622466087341
0.62918382883071899 0.62918382883071899 0.62918382883071899
0.63331001996994019 0.63331001996994019 0.63331001996994019
0.64299798011779785 0.64299798011779785 0.64299798011779785
0.65256530046463013 0.65256530046463013 0.65256530046463013
0.66198402643203735 0.66198402643203735 0.66198402643203735
0.83429604768753052 0.83429604768753052 0.83429604768753052
0.83284366130828857 0.83284366130828857 0.83284366130828857
0.83552885055541992 0.83552885055541992 0.83552885055541992
0.84290856122970581 0.84290856122970581 0.84290856122970581
0.85250473022460938 0.85250473022460938 0.85250473022460938
0.26313900947570801 0.26313900947570801 0.26313900947570801
0.27859139442443848 0.27859139442443848 0.27859139442443848
0.29006007313728333 0.29006007313728333 0.29006007313728333
0.29749566316604614 0.29749566316604614 0.29749566316604614
0.31772127747535706 0.31772127747535706 0.31772127747535706
0.39804628491401672 0.39804628491401672 0.39804628491401672
0.40654861927032471 0.40654861927032471 0.40654861927032471
0.41742485761642456 0.41742485761642456 0.41742485761642456
0.42358127236366272 0.42358127236366272 0.42358127236366272
0.43422055244445801 0.43422055244445801 0.43422055244445801
0.54423397779464722 0.54423397779464722 0.54423397779464722
0.55107903480529785 0.55107903480529785 0.55107903480529785
0.56236249208450317 0.56236249208450317 0.56236249208450317
0.56419390439987183 0.56419390439987183 0.56419390439987183
0.56579232215881348 0.56579232215881348 0.56579232215881348
0.69819241762161255 0.69819241762161255 0.69819241762161255
0.70466607809066772 0.70466607809066772 0.70466607809066772
0.71378952264785767 0.71378952264785767 0.71378952264785767
0.71430861949920654 0.71430861949920654 0.71430861949920654
0.71560335159301758 0.71560335159301758 0.71560335159301758
0.8573615550994873 0.8573615550994873 0.8573615550994873
0.86045092344284058 0.86045092344284058 0.86045092344284058
0.86569291353225708 0.86569291353225708 0.86569291353225708
0.8681100606918335 0.8681100606918335 0.8681100606918335
0.8724629282951355 0.8724629282951355 0.8724629282951355
0.43780940771102905 0.43780940771102905 0.43780940771102905
0.44892489910125732 0.44892489910125732 0.44892489910125732
0.46027299761772156 0.46027299761772156 0.46027299761772156
0.47417613863945007 0.47417613863945007 0.47417613863945007
0.49316048622131348 0.49316048622131348 0.49316048622131348
0.55578482151031494 0.55578482151031494 0.55578482151031494
0.5653340220451355 0.5653340220451355 0.5653340220451355
0.57422536611557007 0.57422536611557007 0.57422536611557007
0.58011418581008911 0.58011418581008911 0.58011418581008911
0.58842015266418457 0.58842015266418457 0.58842015266418457
0.6751520037651062 0.6751520037651062 0.6751520037651062
0.68400144577026367 0.68400144577026367 0.68400144577026367
0.69299006462097168 0.69299006462097168 0.69299006462097168
0.68770045042037964 0.68770045042037964 0.68770045042037964
0.68477040529251099 0.68477040529251099 0.68477040529251099
0.78692036867141724 0.78692036867141724 0.78692036867141724
0.79404234886169434 0.79404234886169434 0.79404234886169434
0.80144006013870239 0.80144006013870239 0.80144006013870239
0.79391008615493774 0.79391008615493774 0.79391008615493774
0.78881627321243286 0.78881627321243286 0.78881627321243286
0.89620894193649292 0.89620894193649292 0.89620894193649292
0.90265899896621704 0.90265899896621704 0.90265899896621704
0.90920615196228027 0.90920615196228027 0.90920615196228027
0.90729367733001709 0.90729367733001709 0.90729367733001709
0.90728205442428589 0.90728205442428589 0.90728205442428589
0.62675052881240845 0.62675052881240845 0.62675052881240845
0.63082784414291382 0.63082784414291382 0.63082784414291382
0.63848614692687988 0.63848614692687988 0.63848614692687988
0.65433228015899658 0.65433228015899658 0.65433228015899658
0.67381948232650757 0.67381948232650757 0.67381948232650757
0.72172749042510986 0.72172749042510986 0.72172749042510986
0.72799080610275269 0.72799080610275269 0.72799080610275269
0.73255801200866699 0.73255801200866699 0.73255801200866699
0.73853707313537598 0.73853707313537598 0.73853707313537598
0.74579095840454102 0.74579095840454102 0.74579095840454102
0.81194168329238892 0.81194168329238892 0.81194168329238892
0.81547486782073975 0.81547486782073975 0.81547486782073975
0.81657236814498901 0.81657236814498901 0.81657236814498901
0.81245177984237671 0.81245177984237671 0.81245177984237671
0.80991029739379883 0.80991029739379883 0.80991029739379883
0.88918262720108032 0.88918262720108032 0.88918262720108032
0.8894539475440979 0.8894539475440979 0.8894539475440979
0.89053189754486084 0.89053189754486084 0.89053189754486084
0.88293206691741943 0.88293206691741943 0.88293206691741943
0.87826251983642578 0.87826251983642578 0.87826251983642578
0.95186537504196167 0.95186537504196167 0.95186537504196167
0.96309250593185425 0.96309250593185425 0.96309250593185425
0.97064810991287231 0.97064810991287231 0.97064810991287231
0.96664506196975708 0.96664506196975708 0.96664506196975708
0.96316784620285034 0.96316784620285034 0.96316784620285034
