luts/bw/rollei_ortho_25.cube
# Created by: G'MIC (https://gmic.eu)
TITLE "rollei_ortho_25"
# LUT size
LUT_3D_SIZE 13
# Data domain
DOMAIN_MIN 0.0 0.0 0.0
DOMAIN_MAX 1.0 1.0 1.0
# LUT data points
0.044461522251367569 0.044461522251367569 0.044461522251367569
0.047154773026704788 0.047154773026704788 0.047154773026704788
0.04957498237490654 0.04957498237490654 0.04957498237490654
0.051210936158895493 0.051210936158895493 0.051210936158895493
0.052323523908853531 0.052323523908853531 0.052323523908853531
0.053234443068504333 0.053234443068504333 0.053234443068504333
0.054434832185506821 0.054434832185506821 0.054434832185506821
0.056686431169509888 0.056686431169509888 0.056686431169509888
0.059269551187753677 0.059269551187753677 0.059269551187753677
0.061507806181907654 0.061507806181907654 0.061507806181907654
0.062477979809045792 0.062477979809045792 0.062477979809045792
0.062414970248937607 0.062414970248937607 0.062414970248937607
0.062328621745109558 0.062328621745109558 0.062328621745109558
0.077808618545532227 0.077808618545532227 0.077808618545532227
0.080295592546463013 0.080295592546463013 0.080295592546463013
0.08261522650718689 0.08261522650718689 0.08261522650718689
0.084183305501937866 0.084183305501937866 0.084183305501937866
0.085422351956367493 0.085422351956367493 0.085422351956367493
0.086400873959064484 0.086400873959064484 0.086400873959064484
0.087494313716888428 0.087494313716888428 0.087494313716888428
0.089120738208293915 0.089120738208293915 0.089120738208293915
0.090977795422077179 0.090977795422077179 0.090977795422077179
0.092556148767471313 0.092556148767471313 0.092556148767471313
0.093777313828468323 0.093777313828468323 0.093777313828468323
0.094126425683498383 0.094126425683498383 0.094126425683498383
0.09452134370803833 0.09452134370803833 0.09452134370803833
0.11036502569913864 0.11036502569913864 0.11036502569913864
0.11254995316267014 0.11254995316267014 0.11254995316267014
0.11443319916725159 0.11443319916725159 0.11443319916725159
0.11603414267301559 0.11603414267301559 0.11603414267301559
0.11750468611717224 0.11750468611717224 0.11750468611717224
0.1188507080078125 0.1188507080078125 0.1188507080078125
0.12000764161348343 0.12000764161348343 0.12000764161348343
0.12070580571889877 0.12070580571889877 0.12070580571889877
0.12137740105390549 0.12137740105390549 0.12137740105390549
0.12237728387117386 0.12237728387117386 0.12237728387117386
0.12380298972129822 0.12380298972129822 0.12380298972129822
0.12546168267726898 0.12546168267726898 0.12546168267726898
0.12673819065093994 0.12673819065093994 0.12673819065093994
0.14292588829994202 0.14292588829994202 0.14292588829994202
0.14469891786575317 0.14469891786575317 0.14469891786575317
0.14600399136543274 0.14600399136543274 0.14600399136543274
0.14736670255661011 0.14736670255661011 0.14736670255661011
0.14925166964530945 0.14925166964530945 0.14925166964530945
0.15105316042900085 0.15105316042900085 0.15105316042900085
0.15182268619537354 0.15182268619537354 0.15182268619537354
0.15154945850372314 0.15154945850372314 0.15154945850372314
0.15111126005649567 0.15111126005649567 0.15111126005649567
0.15191945433616638 0.15191945433616638 0.15191945433616638
0.1543615311384201 0.1543615311384201 0.1543615311384201
0.15729579329490662 0.15729579329490662 0.15729579329490662
0.15999430418014526 0.15999430418014526 0.15999430418014526
0.17640312016010284 0.17640312016010284 0.17640312016010284
0.1775592714548111 0.1775592714548111 0.1775592714548111
0.17810356616973877 0.17810356616973877 0.17810356616973877
0.17947521805763245 0.17947521805763245 0.17947521805763245
0.18194790184497833 0.18194790184497833 0.18194790184497833
0.18448364734649658 0.18448364734649658 0.18448364734649658
0.18496665358543396 0.18496665358543396 0.18496665358543396
0.18314164876937866 0.18314164876937866 0.18314164876937866
0.18189245462417603 0.18189245462417603 0.18189245462417603
0.18298651278018951 0.18298651278018951 0.18298651278018951
0.1868249773979187 0.1868249773979187 0.1868249773979187
0.1916792094707489 0.1916792094707489 0.1916792094707489
0.19561164081096649 0.19561164081096649 0.19561164081096649
0.21121610701084137 0.21121610701084137 0.21121610701084137
0.21121922135353088 0.21121922135353088 0.21121922135353088
0.21190644800662994 0.21190644800662994 0.21190644800662994
0.21395199000835419 0.21395199000835419 0.21395199000835419
0.2179352194070816 0.2179352194070816 0.2179352194070816
0.22129708528518677 0.22129708528518677 0.22129708528518677
0.22124999761581421 0.22124999761581421 0.22124999761581421
0.21813027560710907 0.21813027560710907 0.21813027560710907
0.21577642858028412 0.21577642858028412 0.21577642858028412
0.21778462827205658 0.21778462827205658 0.21778462827205658
0.22355100512504578 0.22355100512504578 0.22355100512504578
0.23042471706867218 0.23042471706867218 0.23042471706867218
0.23472590744495392 0.23472590744495392 0.23472590744495392
0.24944567680358887 0.24944567680358887 0.24944567680358887
0.24919557571411133 0.24919557571411133 0.24919557571411133
0.25085693597793579 0.25085693597793579 0.25085693597793579
0.25431793928146362 0.25431793928146362 0.25431793928146362
0.25975048542022705 0.25975048542022705 0.25975048542022705
0.26531475782394409 0.26531475782394409 0.26531475782394409
0.26501500606536865 0.26501500606536865 0.26501500606536865
0.25950220227241516 0.25950220227241516 0.25950220227241516
0.25668224692344666 0.25668224692344666 0.25668224692344666
0.25955498218536377 0.25955498218536377 0.25955498218536377
0.26739329099655151 0.26739329099655151 0.26739329099655151
0.27611246705055237 0.27611246705055237 0.27611246705055237
0.27976757287979126 0.27976757287979126 0.27976757287979126
0.29987955093383789 0.29987955093383789 0.29987955093383789
0.30086854100227356 0.30086854100227356 0.30086854100227356
0.3030204176902771 0.3030204176902771 0.3030204176902771
0.30544173717498779 0.30544173717498779 0.30544173717498779
0.31037893891334534 0.31037893891334534 0.31037893891334534
0.31590917706489563 0.31590917706489563 0.31590917706489563
0.3157767653465271 0.3157767653465271 0.3157767653465271
0.31114464998245239 0.31114464998245239 0.31114464998245239
0.30968549847602844 0.30968549847602844 0.30968549847602844
0.31336992979049683 0.31336992979049683 0.31336992979049683
0.320975661277771 0.320975661277771 0.320975661277771
0.32952773571014404 0.32952773571014404 0.32952773571014404
0.33225306868553162 0.33225306868553162 0.33225306868553162
0.37487247586250305 0.37487247586250305 0.37487247586250305
0.37850314378738403 0.37850314378738403 0.37850314378738403
0.37880602478981018 0.37880602478981018 0.37880602478981018
0.37529584765434265 0.37529584765434265 0.37529584765434265
0.37740775942802429 0.37740775942802429 0.37740775942802429
0.38315445184707642 0.38315445184707642 0.38315445184707642
0.38326624035835266 0.38326624035835266 0.38326624035835266
0.38204595446586609 0.38204595446586609 0.38204595446586609
0.38521090149879456 0.38521090149879456 0.38521090149879456
0.38706868886947632 0.38706868886947632 0.38706868886947632
0.39152640104293823 0.39152640104293823 0.39152640104293823
0.39786309003829956 0.39786309003829956 0.39786309003829956
0.3997768759727478 0.3997768759727478 0.3997768759727478
0.48403850197792053 0.48403850197792053 0.48403850197792053
0.48880982398986816 0.48880982398986816 0.48880982398986816
0.48615154623985291 0.48615154623985291 0.48615154623985291
0.47600269317626953 0.47600269317626953 0.47600269317626953
0.47509345412254333 0.47509345412254333 0.47509345412254333
0.4811556339263916 0.4811556339263916 0.4811556339263916
0.48212870955467224 0.48212870955467224 0.48212870955467224
0.4856465756893158 0.4856465756893158 0.4856465756893158
0.49278995394706726 0.49278995394706726 0.49278995394706726
0.49094322323799133 0.49094322323799133 0.49094322323799133
0.49088701605796814 0.49088701605796814 0.49088701605796814
0.49918031692504883 0.49918031692504883 0.49918031692504883
0.50148177146911621 0.50148177146911621 0.50148177146911621
0.61180931329727173 0.61180931329727173 0.61180931329727173
0.61880147457122803 0.61880147457122803 0.61880147457122803
0.61696970462799072 0.61696970462799072 0.61696970462799072
0.6131436824798584 0.6131436824798584 0.6131436824798584
0.60880708694458008 0.60880708694458008 0.60880708694458008
0.60581141710281372 0.60581141710281372 0.60581141710281372
0.60811227560043335 0.60811227560043335 0.60811227560043335
0.61757606267929077 0.61757606267929077 0.61757606267929077
0.62662273645401001 0.62662273645401001 0.62662273645401001
0.62226921319961548 0.62226921319961548 0.62226921319961548
0.61993288993835449 0.61993288993835449 0.61993288993835449
0.6302417516708374 0.6302417516708374 0.6302417516708374
0.6370924711227417 0.6370924711227417 0.6370924711227417
0.72958052158355713 0.72958052158355713 0.72958052158355713
0.73606914281845093 0.73606914281845093 0.73606914281845093
0.7368239164352417 0.7368239164352417 0.7368239164352417
0.7393004298210144 0.7393004298210144 0.7393004298210144
0.73477286100387573 0.73477286100387573 0.73477286100387573
0.72706246376037598 0.72706246376037598 0.72706246376037598
0.72929507493972778 0.72929507493972778 0.72929507493972778
0.74105894565582275 0.74105894565582275 0.74105894565582275
0.75112003087997437 0.75112003087997437 0.75112003087997437
0.74803125858306885 0.74803125858306885 0.74803125858306885
0.74590069055557251 0.74590069055557251 0.74590069055557251
0.75347816944122314 0.75347816944122314 0.75347816944122314
0.75888252258300781 0.75888252258300781 0.75888252258300781
0.82521176338195801 0.82521176338195801 0.82521176338195801
0.82732629776000977 0.82732629776000977 0.82732629776000977
0.82761037349700928 0.82761037349700928 0.82761037349700928
0.83013594150543213 0.83013594150543213 0.83013594150543213
0.82836121320724487 0.82836121320724487 0.82836121320724487
0.82411873340606689 0.82411873340606689 0.82411873340606689
0.82808023691177368 0.82808023691177368 0.82808023691177368
0.83895677328109741 0.83895677328109741 0.83895677328109741
0.84712845087051392 0.84712845087051392 0.84712845087051392
0.84759968519210815 0.84759968519210815 0.84759968519210815
0.84640610218048096 0.84640610218048096 0.84640610218048096
0.84868574142456055 0.84868574142456055 0.84868574142456055
0.84913343191146851 0.84913343191146851 0.84913343191146851
0.07719796895980835 0.07719796895980835 0.07719796895980835
0.080124586820602417 0.080124586820602417 0.080124586820602417
0.082661375403404236 0.082661375403404236 0.082661375403404236
0.084537908434867859 0.084537908434867859 0.084537908434867859
0.085763581097126007 0.085763581097126007 0.085763581097126007
0.086350895464420319 0.086350895464420319 0.086350895464420319
0.087466686964035034 0.087466686964035034 0.087466686964035034
0.09019654244184494 0.09019654244184494 0.09019654244184494
0.093428142368793488 0.093428142368793488 0.093428142368793488
0.096253365278244019 0.096253365278244019 0.096253365278244019
0.097508452832698822 0.097508452832698822 0.097508452832698822
0.096716128289699554 0.096716128289699554 0.096716128289699554
0.095023088157176971 0.095023088157176971 0.095023088157176971
0.10836292058229446 0.10836292058229446 0.10836292058229446
0.11119625717401505 0.11119625717401505 0.11119625717401505
0.11357978731393814 0.11357978731393814 0.11357978731393814
0.11540008336305618 0.11540008336305618 0.11540008336305618
0.1167895570397377 0.1167895570397377 0.1167895570397377
0.11779706180095673 0.11779706180095673 0.11779706180095673
0.11906919628381729 0.11906919628381729 0.11906919628381729
0.12085170298814774 0.12085170298814774 0.12085170298814774
0.1229625940322876 0.1229625940322876 0.1229625940322876
0.12492722272872925 0.12492722272872925 0.12492722272872925
0.12615631520748138 0.12615631520748138 0.12615631520748138
0.12605480849742889 0.12605480849742889 0.12605480849742889
0.1252870112657547 0.1252870112657547 0.1252870112657547
0.13844041526317596 0.13844041526317596 0.13844041526317596
0.14101488888263702 0.14101488888263702 0.14101488888263702
0.14288255572319031 0.14288255572319031 0.14288255572319031
0.14458194375038147 0.14458194375038147 0.14458194375038147
0.14638692140579224 0.14638692140579224 0.14638692140579224
0.14825965464115143 0.14825965464115143 0.14825965464115143
0.14965976774692535 0.14965976774692535 0.14965976774692535
0.15041573345661163 0.15041573345661163 0.15041573345661163
0.15061032772064209 0.15061032772064209 0.15061032772064209
0.15152816474437714 0.15152816474437714 0.15152816474437714
0.15295951068401337 0.15295951068401337 0.15295951068401337
0.15454089641571045 0.15454089641571045 0.15454089641571045
0.15556542575359344 0.15556542575359344 0.15556542575359344
0.16859324276447296 0.16859324276447296 0.16859324276447296
0.17081178724765778 0.17081178724765778 0.17081178724765778
0.17191383242607117 0.17191383242607117 0.17191383242607117
0.1732802540063858 0.1732802540063858 0.1732802540063858
0.17523586750030518 0.17523586750030518 0.17523586750030518
0.17783905565738678 0.17783905565738678 0.17783905565738678
0.17921726405620575 0.17921726405620575 0.17921726405620575
0.17856265604496002 0.17856265604496002 0.17856265604496002
0.17715500295162201 0.17715500295162201 0.17715500295162201
0.17768478393554688 0.17768478393554688 0.17768478393554688
0.1803768128156662 0.1803768128156662 0.1803768128156662
0.18417249619960785 0.18417249619960785 0.18417249619960785
0.18732409179210663 0.18732409179210663 0.18732409179210663
0.19940811395645142 0.19940811395645142 0.19940811395645142
0.2010028064250946 0.2010028064250946 0.2010028064250946
0.20162419974803925 0.20162419974803925 0.20162419974803925
0.20275454223155975 0.20275454223155975 0.20275454223155975
0.20498919486999512 0.20498919486999512 0.20498919486999512
0.20777992904186249 0.20777992904186249 0.20777992904186249
0.20857447385787964 0.20857447385787964 0.20857447385787964
0.2065417468547821 0.2065417468547821 0.2065417468547821
0.20454193651676178 0.20454193651676178 0.20454193651676178
0.20560741424560547 0.20560741424560547 0.20560741424560547
0.20988431572914124 0.20988431572914124 0.20988431572914124
0.21575981378555298 0.21575981378555298 0.21575981378555298
0.22094267606735229 0.22094267606735229 0.22094267606735229
0.23140877485275269 0.23140877485275269 0.23140877485275269
0.23234501481056213 0.23234501481056213 0.23234501481056213
0.23370811343193054 0.23370811343193054 0.23370811343193054
0.23587378859519958 0.23587378859519958 0.23587378859519958
0.23905967175960541 0.23905967175960541 0.23905967175960541
0.24145159125328064 0.24145159125328064 0.24145159125328064
0.24098919332027435 0.24098919332027435 0.24098919332027435
0.23789049685001373 0.23789049685001373 0.23789049685001373
0.23577883839607239 0.23577883839607239 0.23577883839607239
0.23815563321113586 0.23815563321113586 0.23815563321113586
0.24438302218914032 0.24438302218914032 0.24438302218914032
0.25140219926834106 0.25140219926834106 0.25140219926834106
0.2568851113319397 0.2568851113319397 0.2568851113319397
0.26855689287185669 0.26855689287185669 0.26855689287185669
0.26904654502868652 0.26904654502868652 0.26904654502868652
0.2729247510433197 0.2729247510433197 0.2729247510433197
0.27788862586021423 0.27788862586021423 0.27788862586021423
0.28229328989982605 0.28229328989982605 0.28229328989982605
0.28454285860061646 0.28454285860061646 0.28454285860061646
0.28253227472305298 0.28253227472305298 0.28253227472305298
0.27763062715530396 0.27763062715530396 0.27763062715530396
0.27582910656929016 0.27582910656929016 0.27582910656929016
0.27972027659416199 0.27972027659416199 0.27972027659416199
0.2873290479183197 0.2873290479183197 0.2873290479183197
0.29447323083877563 0.29447323083877563 0.29447323083877563
0.29897430539131165 0.29897430539131165 0.29897430539131165
0.3188551664352417 0.3188551664352417 0.3188551664352417
0.32157054543495178 0.32157054543495178 0.32157054543495178
0.32800835371017456 0.32800835371017456 0.32800835371017456
0.33454734086990356 0.33454734086990356 0.33454734086990356
0.3391057550907135 0.3391057550907135 0.3391057550907135
0.34032726287841797 0.34032726287841797 0.34032726287841797
0.33722198009490967 0.33722198009490967 0.33722198009490967
0.33215877413749695 0.33215877413749695 0.33215877413749695
0.33123773336410522 0.33123773336410522 0.33123773336410522
0.33621999621391296 0.33621999621391296 0.33621999621391296
0.34412935376167297 0.34412935376167297 0.34412935376167297
0.35021856427192688 0.35021856427192688 0.35021856427192688
0.35311076045036316 0.35311076045036316 0.35311076045036316
0.39376720786094666 0.39376720786094666 0.39376720786094666
0.40122714638710022 0.40122714638710022 0.40122714638710022
0.40782880783081055 0.40782880783081055 0.40782880783081055
0.41116383671760559 0.41116383671760559 0.41116383671760559
0.41405081748962402 0.41405081748962402 0.41405081748962402
0.41568142175674438 0.41568142175674438 0.41568142175674438
0.41304272413253784 0.41304272413253784 0.41304272413253784
0.40996581315994263 0.40996581315994263 0.40996581315994263
0.41124564409255981 0.41124564409255981 0.41124564409255981
0.41540977358818054 0.41540977358818054 0.41540977358818054
0.42155367136001587 0.42155367136001587 0.42155367136001587
0.42695426940917969 0.42695426940917969 0.42695426940917969
0.43029463291168213 0.43029463291168213 0.43029463291168213
0.50230169296264648 0.50230169296264648 0.50230169296264648
0.5111851692199707 0.5111851692199707 0.5111851692199707
0.51583594083786011 0.51583594083786011 0.51583594083786011
0.51488023996353149 0.51488023996353149 0.51488023996353149
0.51513618230819702 0.51513618230819702 0.51513618230819702
0.51728582382202148 0.51728582382202148 0.51728582382202148
0.51725757122039795 0.51725757122039795 0.51725757122039795
0.51791530847549438 0.51791530847549438 0.51791530847549438
0.52103954553604126 0.52103954553604126 0.52103954553604126
0.5215303897857666 0.5215303897857666 0.5215303897857666
0.52439314126968384 0.52439314126968384 0.52439314126968384
0.5308040976524353 0.5308040976524353 0.5308040976524353
0.53601521253585815 0.53601521253585815 0.53601521253585815
0.62702846527099609 0.62702846527099609 0.62702846527099609
0.63527047634124756 0.63527047634124756 0.63527047634124756
0.63833367824554443 0.63833367824554443 0.63833367824554443
0.63767808675765991 0.63767808675765991 0.63767808675765991
0.63637274503707886 0.63637274503707886 0.63637274503707886
0.63677173852920532 0.63677173852920532 0.63677173852920532
0.63991129398345947 0.63991129398345947 0.63991129398345947
0.64535212516784668 0.64535212516784668 0.64535212516784668
0.64839810132980347 0.64839810132980347 0.64839810132980347
0.6454041600227356 0.6454041600227356 0.6454041600227356
0.64460963010787964 0.64460963010787964 0.64460963010787964
0.65134716033935547 0.65134716033935547 0.65134716033935547
0.65809983015060425 0.65809983015060425 0.65809983015060425
0.73965686559677124 0.73965686559677124 0.73965686559677124
0.74580991268157959 0.74580991268157959 0.74580991268157959
0.74860578775405884 0.74860578775405884 0.74860578775405884
0.75061899423599243 0.75061899423599243 0.75061899423599243
0.75006186962127686 0.75006186962127686 0.75006186962127686
0.74921494722366333 0.74921494722366333 0.74921494722366333
0.75352448225021362 0.75352448225021362 0.75352448225021362
0.76122331619262695 0.76122331619262695 0.76122331619262695
0.76482939720153809 0.76482939720153809 0.76482939720153809
0.76136898994445801 0.76136898994445801 0.76136898994445801
0.75845050811767578 0.75845050811767578 0.75845050811767578
0.76229369640350342 0.76229369640350342 0.76229369640350342
0.76738446950912476 0.76738446950912476 0.76738446950912476
0.83119815587997437 0.83119815587997437 0.83119815587997437
0.83285176753997803 0.83285176753997803 0.83285176753997803
0.833362877368927 0.833362877368927 0.833362877368927
0.83758485317230225 0.83758485317230225 0.83758485317230225
0.83924078941345215 0.83924078941345215 0.83924078941345215
0.83947378396987915 0.83947378396987915 0.83947378396987915
0.84493082761764526 0.84493082761764526 0.84493082761764526
0.85317564010620117 0.85317564010620117 0.85317564010620117
0.85719597339630127 0.85719597339630127 0.85719597339630127
0.85499733686447144 0.85499733686447144 0.85499733686447144
0.85095131397247314 0.85095131397247314 0.85095131397247314
0.85089391469955444 0.85089391469955444 0.85089391469955444
0.85296100378036499 0.85296100378036499 0.85296100378036499
0.11259502172470093 0.11259502172470093 0.11259502172470093
0.11564669013023376 0.11564669013023376 0.11564669013023376
0.11842308938503265 0.11842308938503265 0.11842308938503265
0.12062786519527435 0.12062786519527435 0.12062786519527435
0.12202388048171997 0.12202388048171997 0.12202388048171997
0.12262265384197235 0.12262265384197235 0.12262265384197235
0.12371716648340225 0.12371716648340225 0.12371716648340225
0.12625725567340851 0.12625725567340851 0.12625725567340851
0.13014829158782959 0.13014829158782959 0.13014829158782959
0.13387049734592438 0.13387049734592438 0.13387049734592438
0.13546611368656158 0.13546611368656158 0.13546611368656158
0.13363084197044373 0.13363084197044373 0.13363084197044373
0.13011826574802399 0.13011826574802399 0.13011826574802399
0.14185437560081482 0.14185437560081482 0.14185437560081482
0.14489522576332092 0.14489522576332092 0.14489522576332092
0.14719462394714355 0.14719462394714355 0.14719462394714355
0.14939300715923309 0.14939300715923309 0.14939300715923309
0.15092447400093079 0.15092447400093079 0.15092447400093079
0.15237052738666534 0.15237052738666534 0.15237052738666534
0.15385492146015167 0.15385492146015167 0.15385492146015167
0.15556974709033966 0.15556974709033966 0.15556974709033966
0.15772628784179688 0.15772628784179688 0.15772628784179688
0.16022405028343201 0.16022405028343201 0.16022405028343201
0.16143167018890381 0.16143167018890381 0.16143167018890381
0.16041585803031921 0.16041585803031921 0.16041585803031921
0.15832404792308807 0.15832404792308807 0.15832404792308807
0.16970798373222351 0.16970798373222351 0.16970798373222351
0.17245697975158691 0.17245697975158691 0.17245697975158691
0.17442023754119873 0.17442023754119873 0.17442023754119873
0.17591707408428192 0.17591707408428192 0.17591707408428192
0.17808876931667328 0.17808876931667328 0.17808876931667328
0.18085959553718567 0.18085959553718567 0.18085959553718567
0.18307743966579437 0.18307743966579437 0.18307743966579437
0.18351638317108154 0.18351638317108154 0.18351638317108154
0.18317706882953644 0.18317706882953644 0.18317706882953644
0.18380230665206909 0.18380230665206909 0.18380230665206909
0.18522082269191742 0.18522082269191742 0.18522082269191742
0.18636888265609741 0.18636888265609741 0.18636888265609741
0.18715664744377136 0.18715664744377136 0.18715664744377136
0.19833673536777496 0.19833673536777496 0.19833673536777496
0.20109373331069946 0.20109373331069946 0.20109373331069946
0.20206210017204285 0.20206210017204285 0.20206210017204285
0.20240001380443573 0.20240001380443573 0.20240001380443573
0.20448659360408783 0.20448659360408783 0.20448659360408783
0.20863628387451172 0.20863628387451172 0.20863628387451172
0.2116609513759613 0.2116609513759613 0.2116609513759613
0.21057546138763428 0.21057546138763428 0.21057546138763428
0.20801794528961182 0.20801794528961182 0.20801794528961182
0.20770424604415894 0.20770424604415894 0.20770424604415894
0.21059918403625488 0.21059918403625488 0.21059918403625488
0.21492308378219604 0.21492308378219604 0.21492308378219604
0.21888397634029388 0.21888397634029388 0.21888397634029388
0.22896838188171387 0.22896838188171387 0.22896838188171387
0.23153774440288544 0.23153774440288544 0.23153774440288544
0.23107504844665527 0.23107504844665527 0.23107504844665527
0.23009198904037476 0.23009198904037476 0.23009198904037476
0.23208585381507874 0.23208585381507874 0.23208585381507874
0.23620520532131195 0.23620520532131195 0.23620520532131195
0.23876087367534637 0.23876087367534637 0.23876087367534637
