luts/bw/rollei_ir_400.cube
# Created by: G'MIC (https://gmic.eu)
TITLE "rollei_ir_400"
# LUT size
LUT_3D_SIZE 7
# Data domain
DOMAIN_MIN 0.0 0.0 0.0
DOMAIN_MAX 1.0 1.0 1.0
# LUT data points
0.024560082703828812 0.024560082703828812 0.024560082703828812
0.041455674916505814 0.041455674916505814 0.041455674916505814
0.072104811668395996 0.072104811668395996 0.072104811668395996
0.1415640115737915 0.1415640115737915 0.1415640115737915
0.22083383798599243 0.22083383798599243 0.22083383798599243
0.31899762153625488 0.31899762153625488 0.31899762153625488
0.39385345578193665 0.39385345578193665 0.39385345578193665
0.17501571774482727 0.17501571774482727 0.17501571774482727
0.19711320102214813 0.19711320102214813 0.19711320102214813
0.23351956903934479 0.23351956903934479 0.23351956903934479
0.29305353760719299 0.29305353760719299 0.29305353760719299
0.37412679195404053 0.37412679195404053 0.37412679195404053
0.46452108025550842 0.46452108025550842 0.46452108025550842
0.53877371549606323 0.53877371549606323 0.53877371549606323
0.38797062635421753 0.38797062635421753 0.38797062635421753
0.40678137540817261 0.40678137540817261 0.40678137540817261
0.44466516375541687 0.44466516375541687 0.44466516375541687
0.50102883577346802 0.50102883577346802 0.50102883577346802
0.58253616094589233 0.58253616094589233 0.58253616094589233
0.66997766494750977 0.66997766494750977 0.66997766494750977
0.73408180475234985 0.73408180475234985 0.73408180475234985
0.71610677242279053 0.71610677242279053 0.71610677242279053
0.7369154691696167 0.7369154691696167 0.7369154691696167
0.77904796600341797 0.77904796600341797 0.77904796600341797
0.82333129644393921 0.82333129644393921 0.82333129644393921
0.89257997274398804 0.89257997274398804 0.89257997274398804
0.95204716920852661 0.95204716920852661 0.95204716920852661
0.98519212007522583 0.98519212007522583 0.98519212007522583
0.99103081226348877 0.99103081226348877 0.99103081226348877
0.99480760097503662 0.99480760097503662 0.99480760097503662
0.99267035722732544 0.99267035722732544 0.99267035722732544
0.99518996477127075 0.99518996477127075 0.99518996477127075
0.99430149793624878 0.99430149793624878 0.99430149793624878
0.99801313877105713 0.99801313877105713 0.99801313877105713
0.99925929307937622 0.99925929307937622 0.99925929307937622
0.99607843160629272 0.99607843160629272 0.99607843160629272
0.99737578630447388 0.99737578630447388 0.99737578630447388
0.99950587749481201 0.99950587749481201 0.99950587749481201
0.99995332956314087 0.99995332956314087 0.99995332956314087
0.99967056512832642 0.99967056512832642 0.99967056512832642
1 1 1
1 1 1
1 1 1
1 1 1
1 1 1
1 1 1
1 1 1
1 1 1
1 1 1
0.0056384219788014889 0.0056384219788014889 0.0056384219788014889
0.0052139284089207649 0.0052139284089207649 0.0052139284089207649
0.012792444787919521 0.012792444787919521 0.012792444787919521
0.044234540313482285 0.044234540313482285 0.044234540313482285
0.12065424025058746 0.12065424025058746 0.12065424025058746
0.21920745074748993 0.21920745074748993 0.21920745074748993
0.29357665777206421 0.29357665777206421 0.29357665777206421
0.080657437443733215 0.080657437443733215 0.080657437443733215
0.10641126334667206 0.10641126334667206 0.10641126334667206
0.14596627652645111 0.14596627652645111 0.14596627652645111
0.20209743082523346 0.20209743082523346 0.20209743082523346
0.28093132376670837 0.28093132376670837 0.28093132376670837
0.37814688682556152 0.37814688682556152 0.37814688682556152
0.44682428240776062 0.44682428240776062 0.44682428240776062
0.31826013326644897 0.31826013326644897 0.31826013326644897
0.34290620684623718 0.34290620684623718 0.34290620684623718
0.37177816033363342 0.37177816033363342 0.37177816033363342
0.42409723997116089 0.42409723997116089 0.42409723997116089
0.51332706212997437 0.51332706212997437 0.51332706212997437
0.59162962436676025 0.59162962436676025 0.59162962436676025
0.65664541721343994 0.65664541721343994 0.65664541721343994
0.65025299787521362 0.65025299787521362 0.65025299787521362
0.66210520267486572 0.66210520267486572 0.66210520267486572
0.70121914148330688 0.70121914148330688 0.70121914148330688
0.75136828422546387 0.75136828422546387 0.75136828422546387
0.82625055313110352 0.82625055313110352 0.82625055313110352
0.89721369743347168 0.89721369743347168 0.89721369743347168
0.94008392095565796 0.94008392095565796 0.94008392095565796
0.98198312520980835 0.98198312520980835 0.98198312520980835
0.98825454711914062 0.98825454711914062 0.98825454711914062
0.99263912439346313 0.99263912439346313 0.99263912439346313
0.99510854482650757 0.99510854482650757 0.99510854482650757
0.99894368648529053 0.99894368648529053 0.99894368648529053
0.99702805280685425 0.99702805280685425 0.99702805280685425
0.99953913688659668 0.99953913688659668 0.99953913688659668
0.99607843160629272 0.99607843160629272 0.99607843160629272
0.99623501300811768 0.99623501300811768 0.99623501300811768
0.99849063158035278 0.99849063158035278 0.99849063158035278
0.99983465671539307 0.99983465671539307 0.99983465671539307
0.99990642070770264 0.99990642070770264 0.99990642070770264
1 1 1
1 1 1
0.9962124228477478 0.9962124228477478 0.9962124228477478
0.99607843160629272 0.99607843160629272 0.99607843160629272
0.99938017129898071 0.99938017129898071 0.99938017129898071
1 1 1
1 1 1
1 1 1
1 1 1
0.0041273226961493492 0.0041273226961493492 0.0041273226961493492
0.0055123274214565754 0.0055123274214565754 0.0055123274214565754
0.0057583530433475971 0.0057583530433475971 0.0057583530433475971
0.01468333788216114 0.01468333788216114 0.01468333788216114
0.023430170491337776 0.023430170491337776 0.023430170491337776
0.10138987749814987 0.10138987749814987 0.10138987749814987
0.17318260669708252 0.17318260669708252 0.17318260669708252
0.0086546055972576141 0.0086546055972576141 0.0086546055972576141
0.011541254818439484 0.011541254818439484 0.011541254818439484
0.031350769102573395 0.031350769102573395 0.031350769102573395
0.080033577978610992 0.080033577978610992 0.080033577978610992
0.15437969565391541 0.15437969565391541 0.15437969565391541
0.24474117159843445 0.24474117159843445 0.24474117159843445
0.31619346141815186 0.31619346141815186 0.31619346141815186
0.18370334804058075 0.18370334804058075 0.18370334804058075
0.1927381157875061 0.1927381157875061 0.1927381157875061
0.2308368980884552 0.2308368980884552 0.2308368980884552
0.29195624589920044 0.29195624589920044 0.29195624589920044
0.37429922819137573 0.37429922819137573 0.37429922819137573
0.45389008522033691 0.45389008522033691 0.45389008522033691
0.51477712392807007 0.51477712392807007 0.51477712392807007
0.50324106216430664 0.50324106216430664 0.50324106216430664
0.51516485214233398 0.51516485214233398 0.51516485214233398
0.55322980880737305 0.55322980880737305 0.55322980880737305
0.60564476251602173 0.60564476251602173 0.60564476251602173
0.67738544940948486 0.67738544940948486 0.67738544940948486
0.74986529350280762 0.74986529350280762 0.74986529350280762
0.80707454681396484 0.80707454681396484 0.80707454681396484
0.89940762519836426 0.89940762519836426 0.89940762519836426
0.90919786691665649 0.90919786691665649 0.90919786691665649
0.93421977758407593 0.93421977758407593 0.93421977758407593
0.96205717325210571 0.96205717325210571 0.96205717325210571
0.98551386594772339 0.98551386594772339 0.98551386594772339
0.99659353494644165 0.99659353494644165 0.99659353494644165
0.99553322792053223 0.99553322792053223 0.99553322792053223
0.99535703659057617 0.99535703659057617 0.99535703659057617
0.99555158615112305 0.99555158615112305 0.99555158615112305
0.99786347150802612 0.99786347150802612 0.99786347150802612
0.99596858024597168 0.99596858024597168 0.99596858024597168
0.99819284677505493 0.99819284677505493 0.99819284677505493
0.99987256526947021 0.99987256526947021 0.99987256526947021
1 1 1
0.99583715200424194 0.99583715200424194 0.99583715200424194
0.99607843160629272 0.99607843160629272 0.99607843160629272
0.99905616044998169 0.99905616044998169 0.99905616044998169
1 1 1
0.9999387264251709 0.9999387264251709 0.9999387264251709
1 1 1
1 1 1
0.0039215688593685627 0.0039215688593685627 0.0039215688593685627
0.0039845784194767475 0.0039845784194767475 0.0039845784194767475
0.00030460732523351908 0.00030460732523351908 0.00030460732523351908
0.0028480230830609798 0.0028480230830609798 0.0028480230830609798
0.0023501229006797075 0.0023501229006797075 0.0023501229006797075
0.0083384048193693161 0.0083384048193693161 0.0083384048193693161
0.016599468886852264 0.016599468886852264 0.016599468886852264
0.0061170691624283791 0.0061170691624283791 0.0061170691624283791
0.0041013080626726151 0.0041013080626726151 0.0041013080626726151
0.0045045292936265469 0.0045045292936265469 0.0045045292936265469
0.0041392459534108639 0.0041392459534108639 0.0041392459534108639
0.0089359953999519348 0.0089359953999519348 0.0089359953999519348
0.059266678988933563 0.059266678988933563 0.059266678988933563
0.1183798685669899 0.1183798685669899 0.1183798685669899
0.023888247087597847 0.023888247087597847 0.023888247087597847
0.030333485454320908 0.030333485454320908 0.030333485454320908
0.052785538136959076 0.052785538136959076 0.052785538136959076
0.098695732653141022 0.098695732653141022 0.098695732653141022
0.18118979036808014 0.18118979036808014 0.18118979036808014
0.27138113975524902 0.27138113975524902 0.27138113975524902
0.33301636576652527 0.33301636576652527 0.33301636576652527
0.32026144862174988 0.32026144862174988 0.32026144862174988
0.33878520131111145 0.33878520131111145 0.33878520131111145
0.36875820159912109 0.36875820159912109 0.36875820159912109
0.41988655924797058 0.41988655924797058 0.41988655924797058
0.50225043296813965 0.50225043296813965 0.50225043296813965
0.57498586177825928 0.57498586177825928 0.57498586177825928
0.6389157772064209 0.6389157772064209 0.6389157772064209
0.71979886293411255 0.71979886293411255 0.71979886293411255
0.73669910430908203 0.73669910430908203 0.73669910430908203
0.76171445846557617 0.76171445846557617 0.76171445846557617
0.81107413768768311 0.81107413768768311 0.81107413768768311
0.87379699945449829 0.87379699945449829 0.87379699945449829
0.92830383777618408 0.92830383777618408 0.92830383777618408
0.96045601367950439 0.96045601367950439 0.96045601367950439
0.99098831415176392 0.99098831415176392 0.99098831415176392
0.99233758449554443 0.99233758449554443 0.99233758449554443
0.99426543712615967 0.99426543712615967 0.99426543712615967
0.99342411756515503 0.99342411756515503 0.99342411756515503
0.99585962295532227 0.99585962295532227 0.99585962295532227
0.9965970516204834 0.9965970516204834 0.9965970516204834
0.99882334470748901 0.99882334470748901 0.99882334470748901
0.99429666996002197 0.99429666996002197 0.99429666996002197
0.9927331805229187 0.9927331805229187 0.9927331805229187
0.99627214670181274 0.99627214670181274 0.99627214670181274
0.99543929100036621 0.99543929100036621 0.99543929100036621
0.99629509449005127 0.99629509449005127 0.99629509449005127
0.99800342321395874 0.99800342321395874 0.99800342321395874
1 1 1
0.0033017178066074848 0.0033017178066074848 0.0033017178066074848
9.3347889560391195e-06 9.3347889560391195e-06 9.3347889560391195e-06
0 0 0
0 0 0
0.0017884497065097094 0.0017884497065097094 0.0017884497065097094
0.0054454430937767029 0.0054454430937767029 0.0054454430937767029
0.0031797820702195168 0.0031797820702195168 0.0031797820702195168
9.8404227173887193e-05 9.8404227173887193e-05 9.8404227173887193e-05
0.0010173872578889132 0.0010173872578889132 0.0010173872578889132
1.5557981896563433e-05 1.5557981896563433e-05 1.5557981896563433e-05
0.003784239524975419 0.003784239524975419 0.003784239524975419
0.0011491812765598297 0.0011491812765598297 0.0011491812765598297
0.0053844377398490906 0.0053844377398490906 0.0053844377398490906
0.006394494790583849 0.006394494790583849 0.006394494790583849
0.004921378567814827 0.004921378567814827 0.004921378567814827
0.0071284123696386814 0.0071284123696386814 0.0071284123696386814
0.0041631958447396755 0.0041631958447396755 0.0041631958447396755
0.0046212142333388329 0.0046212142333388329 0.0046212142333388329
0.014413945376873016 0.014413945376873016 0.014413945376873016
0.044984497129917145 0.044984497129917145 0.044984497129917145
0.091692365705966949 0.091692365705966949 0.091692365705966949
0.081354103982448578 0.081354103982448578 0.081354103982448578
0.093659497797489166 0.093659497797489166 0.093659497797489166
0.12600724399089813 0.12600724399089813 0.12600724399089813
0.18380530178546906 0.18380530178546906 0.18380530178546906
0.26147851347923279 0.26147851347923279 0.26147851347923279
0.33741176128387451 0.33741176128387451 0.33741176128387451
0.38729134202003479 0.38729134202003479 0.38729134202003479
0.48267281055450439 0.48267281055450439 0.48267281055450439
0.49864473938941956 0.49864473938941956 0.49864473938941956
0.53139901161193848 0.53139901161193848 0.53139901161193848
0.57886308431625366 0.57886308431625366 0.57886308431625366
0.64793390035629272 0.64793390035629272 0.64793390035629272
0.71385931968688965 0.71385931968688965 0.71385931968688965
0.75770318508148193 0.75770318508148193 0.75770318508148193
0.8336675763130188 0.8336675763130188 0.8336675763130188
0.84580761194229126 0.84580761194229126 0.84580761194229126
0.87391817569732666 0.87391817569732666 0.87391817569732666
0.91215693950653076 0.91215693950653076 0.91215693950653076
0.9549451470375061 0.9549451470375061 0.9549451470375061
0.98355090618133545 0.98355090618133545 0.98355090618133545
0.99099850654602051 0.99099850654602051 0.99099850654602051
0.9918791651725769 0.9918791651725769 0.9918791651725769
0.98993003368377686 0.98993003368377686 0.98993003368377686
0.99596476554870605 0.99596476554870605 0.99596476554870605
0.99473029375076294 0.99473029375076294 0.99473029375076294
0.9960753321647644 0.9960753321647644 0.9960753321647644
0.99602985382080078 0.99602985382080078 0.99602985382080078
0.99643784761428833 0.99643784761428833 0.99643784761428833
0 0 0
0 0 0
0 0 0
0 0 0
0.00016898360627237707 0.00016898360627237707 0.00016898360627237707
0.0024830088950693607 0.0024830088950693607 0.0024830088950693607
0 0 0
0.0014807308325544 0.0014807308325544 0.0014807308325544
0 0 0
0 0 0
0.0013378517469391227 0.0013378517469391227 0.0013378517469391227
0.00026098513626493514 0.00026098513626493514 0.00026098513626493514
0.00069472368340939283 0.00069472368340939283 0.00069472368340939283
0.00033060708665288985 0.00033060708665288985 0.00033060708665288985
0.002684484701603651 0.002684484701603651 0.002684484701603651
4.607555820257403e-05 4.607555820257403e-05 4.607555820257403e-05
0.0010781381279230118 0.0010781381279230118 0.0010781381279230118
0.0013885198859497905 0.0013885198859497905 0.0013885198859497905
0.0039091221988201141 0.0039091221988201141 0.0039091221988201141
0.0042333416640758514 0.0042333416640758514 0.0042333416640758514
0.0028882643673568964 0.0028882643673568964 0.0028882643673568964
0.0022608886938542128 0.0022608886938542128 0.0022608886938542128
0.0032398449257016182 0.0032398449257016182 0.0032398449257016182
0.0059657227247953415 0.0059657227247953415 0.0059657227247953415
0.011168880388140678 0.011168880388140678 0.011168880388140678
0.037119578570127487 0.037119578570127487 0.037119578570127487
0.090369187295436859 0.090369187295436859 0.090369187295436859
0.1502050906419754 0.1502050906419754 0.1502050906419754
0.26477232575416565 0.26477232575416565 0.26477232575416565
0.28108358383178711 0.28108358383178711 0.28108358383178711
0.31462150812149048 0.31462150812149048 0.31462150812149048
0.36538326740264893 0.36538326740264893 0.36538326740264893
0.43671312928199768 0.43671312928199768 0.43671312928199768
0.50313711166381836 0.50313711166381836 0.50313711166381836
0.55083608627319336 0.55083608627319336 0.55083608627319336
0.64504384994506836 0.64504384994506836 0.64504384994506836
0.65409594774246216 0.65409594774246216 0.65409594774246216
0.68347382545471191 0.68347382545471191 0.68347382545471191
0.73165798187255859 0.73165798187255859 0.73165798187255859
0.78822416067123413 0.78822416067123413 0.78822416067123413
0.83867019414901733 0.83867019414901733 0.83867019414901733
0.87889021635055542 0.87889021635055542 0.87889021635055542
0.87700110673904419 0.87700110673904419 0.87700110673904419
0.8921046257019043 0.8921046257019043 0.8921046257019043
0.91572993993759155 0.91572993993759155 0.91572993993759155
0.95304930210113525 0.95304930210113525 0.95304930210113525
0.98022037744522095 0.98022037744522095 0.98022037744522095
0.99329537153244019 0.99329537153244019 0.99329537153244019
0.99467140436172485 0.99467140436172485 0.99467140436172485
0 0 0
0 0 0
0 0 0
0 0 0
0 0 0
0 0 0
0 0 0
0 0 0
0 0 0
0 0 0
0 0 0
0 0 0
0 0 0
4.8618690925650299e-05 4.8618690925650299e-05 4.8618690925650299e-05
0 0 0
0 0 0
0 0 0
0 0 0
2.2080364942667075e-05 2.2080364942667075e-05 2.2080364942667075e-05
0.0018838022369891405 0.0018838022369891405 0.0018838022369891405
0.0014879264635965228 0.0014879264635965228 0.0014879264635965228
0.0038935642223805189 0.0038935642223805189 0.0038935642223805189
0.001873076194897294 0.001873076194897294 0.001873076194897294
0 0 0
0.0031511643901467323 0.0031511643901467323 0.0031511643901467323
0.0044262902811169624 0.0044262902811169624 0.0044262902811169624
0.0065000196918845177 0.0065000196918845177 0.0065000196918845177
0.016941025853157043 0.016941025853157043 0.016941025853157043
0.09409969300031662 0.09409969300031662 0.09409969300031662
0.10515913367271423 0.10515913367271423 0.10515913367271423
0.1345428079366684 0.1345428079366684 0.1345428079366684
0.19465836882591248 0.19465836882591248 0.19465836882591248
0.26769968867301941 0.26769968867301941 0.26769968867301941
0.34341156482696533 0.34341156482696533 0.34341156482696533
0.40024560689926147 0.40024560689926147 0.40024560689926147
0.49728617072105408 0.49728617072105408 0.49728617072105408
0.50225824117660522 0.50225824117660522 0.50225824117660522
0.53447443246841431 0.53447443246841431 0.53447443246841431
0.58882886171340942 0.58882886171340942 0.58882886171340942
0.65339165925979614 0.65339165925979614 0.65339165925979614
0.71082013845443726 0.71082013845443726 0.71082013845443726
0.75209265947341919 0.75209265947341919 0.75209265947341919
0.76152294874191284 0.76152294874191284 0.76152294874191284
0.77037912607192993 0.77037912607192993 0.77037912607192993
0.80314069986343384 0.80314069986343384 0.80314069986343384
0.84565025568008423 0.84565025568008423 0.84565025568008423
0.88647383451461792 0.88647383451461792 0.88647383451461792
0.93491846323013306 0.93491846323013306 0.93491846323013306
0.95685148239135742 0.95685148239135742 0.95685148239135742
