luts/bw/rollei_ir_400.cube
# Created by: G'MIC (https://gmic.eu)
TITLE "rollei_ir_400"
# LUT size
LUT_3D_SIZE 13
# Data domain
DOMAIN_MIN 0.0 0.0 0.0
DOMAIN_MAX 1.0 1.0 1.0
# LUT data points
0.024560082703828812 0.024560082703828812 0.024560082703828812
0.030134223401546478 0.030134223401546478 0.030134223401546478
0.041455674916505814 0.041455674916505814 0.041455674916505814
0.054955128580331802 0.054955128580331802 0.054955128580331802
0.072104811668395996 0.072104811668395996 0.072104811668395996
0.10208573937416077 0.10208573937416077 0.10208573937416077
0.1415640115737915 0.1415640115737915 0.1415640115737915
0.1805129200220108 0.1805129200220108 0.1805129200220108
0.22083383798599243 0.22083383798599243 0.22083383798599243
0.27389723062515259 0.27389723062515259 0.27389723062515259
0.31899762153625488 0.31899762153625488 0.31899762153625488
0.35872849822044373 0.35872849822044373 0.35872849822044373
0.39385345578193665 0.39385345578193665 0.39385345578193665
0.090739279985427856 0.090739279985427856 0.090739279985427856
0.10114319622516632 0.10114319622516632 0.10114319622516632
0.1163969486951828 0.1163969486951828 0.1163969486951828
0.13294677436351776 0.13294677436351776 0.13294677436351776
0.15328234434127808 0.15328234434127808 0.15328234434127808
0.18154725432395935 0.18154725432395935 0.18154725432395935
0.21656087040901184 0.21656087040901184 0.21656087040901184
0.25588488578796387 0.25588488578796387 0.25588488578796387
0.29915794730186462 0.29915794730186462 0.29915794730186462
0.34844595193862915 0.34844595193862915 0.34844595193862915
0.39519289135932922 0.39519289135932922 0.39519289135932922
0.43411445617675781 0.43411445617675781 0.43411445617675781
0.4691682755947113 0.4691682755947113 0.4691682755947113
0.17501571774482727 0.17501571774482727 0.17501571774482727
0.18530811369419098 0.18530811369419098 0.18530811369419098
0.19711320102214813 0.19711320102214813 0.19711320102214813
0.21245749294757843 0.21245749294757843 0.21245749294757843
0.23351956903934479 0.23351956903934479 0.23351956903934479
0.26043704152107239 0.26043704152107239 0.26043704152107239
0.29305353760719299 0.29305353760719299 0.29305353760719299
0.33001425862312317 0.33001425862312317 0.33001425862312317
0.37412679195404053 0.37412679195404053 0.37412679195404053
0.41999304294586182 0.41999304294586182 0.41999304294586182
0.46452108025550842 0.46452108025550842 0.46452108025550842
0.50434833765029907 0.50434833765029907 0.50434833765029907
0.53877371549606323 0.53877371549606323 0.53877371549606323
0.26733294129371643 0.26733294129371643 0.26733294129371643
0.27739635109901428 0.27739635109901428 0.27739635109901428
0.28791517019271851 0.28791517019271851 0.28791517019271851
0.30149444937705994 0.30149444937705994 0.30149444937705994
0.32191547751426697 0.32191547751426697 0.32191547751426697
0.34781721234321594 0.34781721234321594 0.34781721234321594
0.37958782911300659 0.37958782911300659 0.37958782911300659
0.41893038153648376 0.41893038153648376 0.41893038153648376
0.45992544293403625 0.45992544293403625 0.45992544293403625
0.50180882215499878 0.50180882215499878 0.50180882215499878
0.54377394914627075 0.54377394914627075 0.54377394914627075
0.58392465114593506 0.58392465114593506 0.58392465114593506
0.61623078584671021 0.61623078584671021 0.61623078584671021
0.38797062635421753 0.38797062635421753 0.38797062635421753
0.39411830902099609 0.39411830902099609 0.39411830902099609
0.40678137540817261 0.40678137540817261 0.40678137540817261
0.42353594303131104 0.42353594303131104 0.42353594303131104
0.44466516375541687 0.44466516375541687 0.44466516375541687
0.47017696499824524 0.47017696499824524 0.47017696499824524
0.50102883577346802 0.50102883577346802 0.50102883577346802
0.54076182842254639 0.54076182842254639 0.54076182842254639
0.58253616094589233 0.58253616094589233 0.58253616094589233
0.6277925968170166 0.6277925968170166 0.6277925968170166
0.66997766494750977 0.66997766494750977 0.66997766494750977
0.70664632320404053 0.70664632320404053 0.70664632320404053
0.73408180475234985 0.73408180475234985 0.73408180475234985
0.54718577861785889 0.54718577861785889 0.54718577861785889
0.55218106508255005 0.55218106508255005 0.55218106508255005
0.56539046764373779 0.56539046764373779 0.56539046764373779
0.5850074291229248 0.5850074291229248 0.5850074291229248
0.60657882690429688 0.60657882690429688 0.60657882690429688
0.62780505418777466 0.62780505418777466 0.62780505418777466
0.65721827745437622 0.65721827745437622 0.65721827745437622
0.69040423631668091 0.69040423631668091 0.69040423631668091
0.73298156261444092 0.73298156261444092 0.73298156261444092
0.7802850604057312 0.7802850604057312 0.7802850604057312
0.81961321830749512 0.81961321830749512 0.81961321830749512
0.85225486755371094 0.85225486755371094 0.85225486755371094
0.87783163785934448 0.87783163785934448 0.87783163785934448
0.71610677242279053 0.71610677242279053 0.71610677242279053
0.7235913872718811 0.7235913872718811 0.7235913872718811
0.7369154691696167 0.7369154691696167 0.7369154691696167
0.75555944442749023 0.75555944442749023 0.75555944442749023
0.77904796600341797 0.77904796600341797 0.77904796600341797
0.7938385009765625 0.7938385009765625 0.7938385009765625
0.82333129644393921 0.82333129644393921 0.82333129644393921
0.85460066795349121 0.85460066795349121 0.85460066795349121
0.89257997274398804 0.89257997274398804 0.89257997274398804
0.92819339036941528 0.92819339036941528 0.92819339036941528
0.95204716920852661 0.95204716920852661 0.95204716920852661
0.97303944826126099 0.97303944826126099 0.97303944826126099
0.98519212007522583 0.98519212007522583 0.98519212007522583
0.90421611070632935 0.90421611070632935 0.90421611070632935
0.91072052717208862 0.91072052717208862 0.91072052717208862
0.92105633020401001 0.92105633020401001 0.92105633020401001
0.92905265092849731 0.92905265092849731 0.92905265092849731
0.94503587484359741 0.94503587484359741 0.94503587484359741
0.95826512575149536 0.95826512575149536 0.95826512575149536
0.9716452956199646 0.9716452956199646 0.9716452956199646
0.98004180192947388 0.98004180192947388 0.98004180192947388
0.98540133237838745 0.98540133237838745 0.98540133237838745
0.99191784858703613 0.99191784858703613 0.99191784858703613
0.99251532554626465 0.99251532554626465 0.99251532554626465
0.99481207132339478 0.99481207132339478 0.99481207132339478
0.99612265825271606 0.99612265825271606 0.99612265825271606
0.99103081226348877 0.99103081226348877 0.99103081226348877
0.9926723837852478 0.9926723837852478 0.9926723837852478
0.99480760097503662 0.99480760097503662 0.99480760097503662
0.99437391757965088 0.99437391757965088 0.99437391757965088
0.99267035722732544 0.99267035722732544 0.99267035722732544
0.99438983201980591 0.99438983201980591 0.99438983201980591
0.99518996477127075 0.99518996477127075 0.99518996477127075
0.99325257539749146 0.99325257539749146 0.99325257539749146
0.99430149793624878 0.99430149793624878 0.99430149793624878
0.99746781587600708 0.99746781587600708 0.99746781587600708
0.99801313877105713 0.99801313877105713 0.99801313877105713
0.99771130084991455 0.99771130084991455 0.99771130084991455
0.99925929307937622 0.99925929307937622 0.99925929307937622
0.99458891153335571 0.99458891153335571 0.99458891153335571
0.99486082792282104 0.99486082792282104 0.99486082792282104
0.99595165252685547 0.99595165252685547 0.99595165252685547
0.99616730213165283 0.99616730213165283 0.99616730213165283
0.99619841575622559 0.99619841575622559 0.99619841575622559
0.99631613492965698 0.99631613492965698 0.99631613492965698
0.99723678827285767 0.99723678827285767 0.99723678827285767
0.99616330862045288 0.99616330862045288 0.99616330862045288
0.9974324107170105 0.9974324107170105 0.9974324107170105
0.9999842643737793 0.9999842643737793 0.9999842643737793
1 1 1
1 1 1
1 1 1
0.99607843160629272 0.99607843160629272 0.99607843160629272
0.99614930152893066 0.99614930152893066 0.99614930152893066
0.99737578630447388 0.99737578630447388 0.99737578630447388
0.9987022876739502 0.9987022876739502 0.9987022876739502
0.99950587749481201 0.99950587749481201 0.99950587749481201
0.99947690963745117 0.99947690963745117 0.99947690963745117
0.99995332956314087 0.99995332956314087 0.99995332956314087
0.99899494647979736 0.99899494647979736 0.99899494647979736
0.99967056512832642 0.99967056512832642 0.99967056512832642
1 1 1
1 1 1
1 1 1
1 1 1
0.99798083305358887 0.99798083305358887 0.99798083305358887
0.99967789649963379 0.99967789649963379 0.99967789649963379
1 1 1
1 1 1
1 1 1
1 1 1
1 1 1
1 1 1
1 1 1
1 1 1
1 1 1
1 1 1
1 1 1
1 1 1
1 1 1
1 1 1
1 1 1
1 1 1
1 1 1
1 1 1
1 1 1
1 1 1
1 1 1
1 1 1
1 1 1
1 1 1
0.013574996963143349 0.013574996963143349 0.013574996963143349
0.01028626412153244 0.01028626412153244 0.01028626412153244
0.016069404780864716 0.016069404780864716 0.016069404780864716
0.023057736456394196 0.023057736456394196 0.023057736456394196
0.032137658447027206 0.032137658447027206 0.032137658447027206
0.053119391202926636 0.053119391202926636 0.053119391202926636
0.089682996273040771 0.089682996273040771 0.089682996273040771
0.12667916715145111 0.12667916715145111 0.12667916715145111
0.16830334067344666 0.16830334067344666 0.16830334067344666
0.22211377322673798 0.22211377322673798 0.22211377322673798
0.26707684993743896 0.26707684993743896 0.26707684993743896
0.30649685859680176 0.30649685859680176 0.30649685859680176
0.34094992280006409 0.34094992280006409 0.34094992280006409
0.043891068547964096 0.043891068547964096 0.043891068547964096
0.054871175438165665 0.054871175438165665 0.054871175438165665
0.069945134222507477 0.069945134222507477 0.069945134222507477
0.088189907371997833 0.088189907371997833 0.088189907371997833
0.10798630118370056 0.10798630118370056 0.10798630118370056
0.13526660203933716 0.13526660203933716 0.13526660203933716
0.16949170827865601 0.16949170827865601 0.16949170827865601
0.20682616531848907 0.20682616531848907 0.20682616531848907
0.25141453742980957 0.25141453742980957 0.25141453742980957
0.30194360017776489 0.30194360017776489 0.30194360017776489
0.34638392925262451 0.34638392925262451 0.34638392925262451
0.38364282250404358 0.38364282250404358 0.38364282250404358
0.41844034194946289 0.41844034194946289 0.41844034194946289
0.12830260396003723 0.12830260396003723 0.12830260396003723
0.14038020372390747 0.14038020372390747 0.14038020372390747
0.154428631067276 0.154428631067276 0.154428631067276
0.16963545978069305 0.16963545978069305 0.16963545978069305
0.19269341230392456 0.19269341230392456 0.19269341230392456
0.21853739023208618 0.21853739023208618 0.21853739023208618
0.24951250851154327 0.24951250851154327 0.24951250851154327
0.2840237021446228 0.2840237021446228 0.2840237021446228
0.32934540510177612 0.32934540510177612 0.32934540510177612
0.37919613718986511 0.37919613718986511 0.37919613718986511
0.42296159267425537 0.42296159267425537 0.42296159267425537
0.46021768450737 0.46021768450737 0.46021768450737
0.49288845062255859 0.49288845062255859 0.49288845062255859
0.22823216021060944 0.22823216021060944 0.22823216021060944
0.23921751976013184 0.23921751976013184 0.23921751976013184
0.25053408741950989 0.25053408741950989 0.25053408741950989
0.26330035924911499 0.26330035924911499 0.26330035924911499
0.28474894165992737 0.28474894165992737 0.28474894165992737
0.30956906080245972 0.30956906080245972 0.30956906080245972
0.34184575080871582 0.34184575080871582 0.34184575080871582
0.38030818104743958 0.38030818104743958 0.38030818104743958
0.42314392328262329 0.42314392328262329 0.42314392328262329
0.4658055305480957 0.4658055305480957 0.4658055305480957
0.50722092390060425 0.50722092390060425 0.50722092390060425
0.54594379663467407 0.54594379663467407 0.54594379663467407
0.57743662595748901 0.57743662595748901 0.57743662595748901
0.36094409227371216 0.36094409227371216 0.36094409227371216
0.36776825785636902 0.36776825785636902 0.36776825785636902
0.37850597500801086 0.37850597500801086 0.37850597500801086
0.39157310128211975 0.39157310128211975 0.39157310128211975
0.41073122620582581 0.41073122620582581 0.41073122620582581
0.43337306380271912 0.43337306380271912 0.43337306380271912
0.46953418850898743 0.46953418850898743 0.46953418850898743
0.50898414850234985 0.50898414850234985 0.50898414850234985
0.55527365207672119 0.55527365207672119 0.55527365207672119
0.59737908840179443 0.59737908840179443 0.59737908840179443
0.6361965537071228 0.6361965537071228 0.6361965537071228
0.67045497894287109 0.67045497894287109 0.67045497894287109
0.70007181167602539 0.70007181167602539 0.70007181167602539
0.52188622951507568 0.52188622951507568 0.52188622951507568
0.52949005365371704 0.52949005365371704 0.52949005365371704
0.54185312986373901 0.54185312986373901 0.54185312986373901
0.55370515584945679 0.55370515584945679 0.55370515584945679
0.57478392124176025 0.57478392124176025 0.57478392124176025
0.5973699688911438 0.5973699688911438 0.5973699688911438
0.62571704387664795 0.62571704387664795 0.62571704387664795
0.65728133916854858 0.65728133916854858 0.65728133916854858
0.7056267261505127 0.7056267261505127 0.7056267261505127
0.74886631965637207 0.74886631965637207 0.74886631965637207
0.78902631998062134 0.78902631998062134 0.78902631998062134
0.81668078899383545 0.81668078899383545 0.81668078899383545
0.84519904851913452 0.84519904851913452 0.84519904851913452
0.69038456678390503 0.69038456678390503 0.69038456678390503
0.69881165027618408 0.69881165027618408 0.69881165027618408
0.71022230386734009 0.71022230386734009 0.71022230386734009
0.72570991516113281 0.72570991516113281 0.72570991516113281
0.74707245826721191 0.74707245826721191 0.74707245826721191
0.76778250932693481 0.76778250932693481 0.76778250932693481
0.79654192924499512 0.79654192924499512 0.79654192924499512
0.82782649993896484 0.82782649993896484 0.82782649993896484
0.86973804235458374 0.86973804235458374 0.86973804235458374
0.90316265821456909 0.90316265821456909 0.90316265821456909
0.93379223346710205 0.93379223346710205 0.93379223346710205
0.95372891426086426 0.95372891426086426 0.95372891426086426
0.97077697515487671 0.97077697515487671 0.97077697515487671
0.88201993703842163 0.88201993703842163 0.88201993703842163
0.88802742958068848 0.88802742958068848 0.88802742958068848
0.89806902408599854 0.89806902408599854 0.89806902408599854
0.9108424186706543 0.9108424186706543 0.9108424186706543
0.92549878358840942 0.92549878358840942 0.92549878358840942
0.94127267599105835 0.94127267599105835 0.94127267599105835
0.95746821165084839 0.95746821165084839 0.95746821165084839
0.97240632772445679 0.97240632772445679 0.97240632772445679
0.98494863510131836 0.98494863510131836 0.98494863510131836
0.99247211217880249 0.99247211217880249 0.99247211217880249
0.99257993698120117 0.99257993698120117 0.99257993698120117
0.99260860681533813 0.99260860681533813 0.99260860681533813
0.99555236101150513 0.99555236101150513 0.99555236101150513
0.99188047647476196 0.99188047647476196 0.99188047647476196
0.99315774440765381 0.99315774440765381 0.99315774440765381
0.99459689855575562 0.99459689855575562 0.99459689855575562
0.99379581212997437 0.99379581212997437 0.99379581212997437
0.99316781759262085 0.99316781759262085 0.99316781759262085
0.99392861127853394 0.99392861127853394 0.99392861127853394
0.99703961610794067 0.99703961610794067 0.99703961610794067
0.99471807479858398 0.99471807479858398 0.99471807479858398
0.99754822254180908 0.99754822254180908 0.99754822254180908
0.99918264150619507 0.99918264150619507 0.99918264150619507
0.9971390962600708 0.9971390962600708 0.9971390962600708
0.99681329727172852 0.99681329727172852 0.99681329727172852
0.9989858865737915 0.9989858865737915 0.9989858865737915
0.99543553590774536 0.99543553590774536 0.99543553590774536
0.99607843160629272 0.99607843160629272 0.99607843160629272
0.99633359909057617 0.99633359909057617 0.99633359909057617
0.99743556976318359 0.99743556976318359 0.99743556976318359
0.9978259801864624 0.9978259801864624 0.9978259801864624
0.99777323007583618 0.99777323007583618 0.99777323007583618
0.99990713596343994 0.99990713596343994 0.99990713596343994
0.99814587831497192 0.99814587831497192 0.99814587831497192
0.99933516979217529 0.99933516979217529 0.99933516979217529
1 1 1
1 1 1
1 1 1
1 1 1
0.99607843160629272 0.99607843160629272 0.99607843160629272
0.99608379602432251 0.99608379602432251 0.99608379602432251
0.99749809503555298 0.99749809503555298 0.99749809503555298
0.99921435117721558 0.99921435117721558 0.99921435117721558
0.99999940395355225 0.99999940395355225 0.99999940395355225
1 1 1
1 1 1
0.99999535083770752 0.99999535083770752 0.99999535083770752
0.99999880790710449 0.99999880790710449 0.99999880790710449
1 1 1
1 1 1
1 1 1
1 1 1
0.99614161252975464 0.99614161252975464 0.99614161252975464
0.99661368131637573 0.99661368131637573 0.99661368131637573
0.99747735261917114 0.99747735261917114 0.99747735261917114
0.99902379512786865 0.99902379512786865 0.99902379512786865
1 1 1
1 1 1
1 1 1
1 1 1
1 1 1
1 1 1
1 1 1
1 1 1
1 1 1
0.99845588207244873 0.99845588207244873 0.99845588207244873
0.99765658378601074 0.99765658378601074 0.99765658378601074
0.9983026385307312 0.9983026385307312 0.9983026385307312
0.99958568811416626 0.99958568811416626 0.99958568811416626
1 1 1
1 1 1
1 1 1
1 1 1
1 1 1
1 1 1
1 1 1
1 1 1
1 1 1
0.0056384219788014889 0.0056384219788014889 0.0056384219788014889
0.003969110082834959 0.003969110082834959 0.003969110082834959
0.0052139284089207649 0.0052139284089207649 0.0052139284089207649
0.0079230517148971558 0.0079230517148971558 0.0079230517148971558
0.012792444787919521 0.012792444787919521 0.012792444787919521
0.021337680518627167 0.021337680518627167 0.021337680518627167
0.044234540313482285 0.044234540313482285 0.044234540313482285
0.07577783614397049 0.07577783614397049 0.07577783614397049
0.12065424025058746 0.12065424025058746 0.12065424025058746
0.17365087568759918 0.17365087568759918 0.17365087568759918
0.21920745074748993 0.21920745074748993 0.21920745074748993
0.25814110040664673 0.25814110040664673 0.25814110040664673
0.29357665777206421 0.29357665777206421 0.29357665777206421
0.014618712477385998 0.014618712477385998 0.014618712477385998
0.019357329234480858 0.019357329234480858 0.019357329234480858
0.029997911304235458 0.029997911304235458 0.029997911304235458
0.043288495391607285 0.043288495391607285 0.043288495391607285
0.062272448092699051 0.062272448092699051 0.062272448092699051
0.08582751452922821 0.08582751452922821 0.08582751452922821
0.11971426755189896 0.11971426755189896 0.11971426755189896
0.15678204596042633 0.15678204596042633 0.15678204596042633
0.20270779728889465 0.20270779728889465 0.20270779728889465
0.25494644045829773 0.25494644045829773 0.25494644045829773
0.29893174767494202 0.29893174767494202 0.29893174767494202
0.33497160673141479 0.33497160673141479 0.33497160673141479
0.36946108937263489 0.36946108937263489 0.36946108937263489
0.080657437443733215 0.080657437443733215 0.080657437443733215
0.090605795383453369 0.090605795383453369 0.090605795383453369
0.10641126334667206 0.10641126334667206 0.10641126334667206
0.12302947789430618 0.12302947789430618 0.12302947789430618
0.14596627652645111 0.14596627652645111 0.14596627652645111
0.17214304208755493 0.17214304208755493 0.17214304208755493
0.20209743082523346 0.20209743082523346 0.20209743082523346
0.23575605452060699 0.23575605452060699 0.23575605452060699
0.28093132376670837 0.28093132376670837 0.28093132376670837
0.33365514874458313 0.33365514874458313 0.33365514874458313
0.37814688682556152 0.37814688682556152 0.37814688682556152
0.41391757130622864 0.41391757130622864 0.41391757130622864
0.44682428240776062 0.44682428240776062 0.44682428240776062
0.18417845666408539 0.18417845666408539 0.18417845666408539
0.19636575877666473 0.19636575877666473 0.19636575877666473
0.20993739366531372 0.20993739366531372 0.20993739366531372
0.22200526297092438 0.22200526297092438 0.22200526297092438
0.24327349662780762 0.24327349662780762 0.24327349662780762
0.27054572105407715 0.27054572105407715 0.27054572105407715
0.30183109641075134 0.30183109641075134 0.30183109641075134
0.33639314770698547 0.33639314770698547 0.33639314770698547
0.37887027859687805 0.37887027859687805 0.37887027859687805
0.42267858982086182 0.42267858982086182 0.42267858982086182
0.46381300687789917 0.46381300687789917 0.46381300687789917
0.49991101026535034 0.49991101026535034 0.49991101026535034
0.5337146520614624 0.5337146520614624 0.5337146520614624
0.31826013326644897 0.31826013326644897 0.31826013326644897
0.33043709397315979 0.33043709397315979 0.33043709397315979
0.34290620684623718 0.34290620684623718 0.34290620684623718
0.35344231128692627 0.35344231128692627 0.35344231128692627
0.37177816033363342 0.37177816033363342 0.37177816033363342
0.39223149418830872 0.39223149418830872 0.39223149418830872
0.42409723997116089 0.42409723997116089 0.42409723997116089
0.46633416414260864 0.46633416414260864 0.46633416414260864
0.51332706212997437 0.51332706212997437 0.51332706212997437
0.5551876425743103 0.5551876425743103 0.5551876425743103
0.59162962436676025 0.59162962436676025 0.59162962436676025
0.62491834163665771 0.62491834163665771 0.62491834163665771
0.65664541721343994 0.65664541721343994 0.65664541721343994
0.48008093237876892 0.48008093237876892 0.48008093237876892
0.48789569735527039 0.48789569735527039 0.48789569735527039
0.50163739919662476 0.50163739919662476 0.50163739919662476
0.51377195119857788 0.51377195119857788 0.51377195119857788
0.53162544965744019 0.53162544965744019 0.53162544965744019
0.5515637993812561 0.5515637993812561 0.5515637993812561
0.57855653762817383 0.57855653762817383 0.57855653762817383
0.61595100164413452 0.61595100164413452 0.61595100164413452
0.66586077213287354 0.66586077213287354 0.66586077213287354
0.70948439836502075 0.70948439836502075 0.70948439836502075
0.74447441101074219 0.74447441101074219 0.74447441101074219
0.77142560482025146 0.77142560482025146 0.77142560482025146
0.797588050365448 0.797588050365448 0.797588050365448
0.65025299787521362 0.65025299787521362 0.65025299787521362
0.65381348133087158 0.65381348133087158 0.65381348133087158
0.66210520267486572 0.66210520267486572 0.66210520267486572
0.67782819271087646 0.67782819271087646 0.67782819271087646
0.70121914148330688 0.70121914148330688 0.70121914148330688
0.72436356544494629 0.72436356544494629 0.72436356544494629
0.75136828422546387 0.75136828422546387 0.75136828422546387
0.7836761474609375 0.7836761474609375 0.7836761474609375
0.82625055313110352 0.82625055313110352 0.82625055313110352
0.86559927463531494 0.86559927463531494 0.86559927463531494
0.89721369743347168 0.89721369743347168 0.89721369743347168
0.9201464056968689 0.9201464056968689 0.9201464056968689
0.94008392095565796 0.94008392095565796 0.94008392095565796
0.83851867914199829 0.83851867914199829 0.83851867914199829
0.84549909830093384 0.84549909830093384 0.84549909830093384
0.85341376066207886 0.85341376066207886 0.85341376066207886
0.87039065361022949 0.87039065361022949 0.87039065361022949
0.88842624425888062 0.88842624425888062 0.88842624425888062
0.90725815296173096 0.90725815296173096 0.90725815296173096
0.92681944370269775 0.92681944370269775 0.92681944370269775
0.95017063617706299 0.95017063617706299 0.95017063617706299
0.97166293859481812 0.97166293859481812 0.97166293859481812
0.98300492763519287 0.98300492763519287 0.98300492763519287
0.98758518695831299 0.98758518695831299 0.98758518695831299
0.99068713188171387 0.99068713188171387 0.99068713188171387
0.99376207590103149 0.99376207590103149 0.99376207590103149
0.98198312520980835 0.98198312520980835 0.98198312520980835
0.98448276519775391 0.98448276519775391 0.98448276519775391
0.98825454711914062 0.98825454711914062 0.98825454711914062
0.99270915985107422 0.99270915985107422 0.99270915985107422
0.99263912439346313 0.99263912439346313 0.99263912439346313
0.99430125951766968 0.99430125951766968 0.99430125951766968
0.99510854482650757 0.99510854482650757 0.99510854482650757
0.99606859683990479 0.99606859683990479 0.99606859683990479
