luts/bw/rollei_retro_80s.cube
# Created by: G'MIC (https://gmic.eu)
TITLE "rollei_retro_80s"
# LUT size
LUT_3D_SIZE 13
# Data domain
DOMAIN_MIN 0.0 0.0 0.0
DOMAIN_MAX 1.0 1.0 1.0
# LUT data points
0.0071358024142682552 0.0071358024142682552 0.0071358024142682552
0.013976003974676132 0.013976003974676132 0.013976003974676132
0.023174555972218513 0.023174555972218513 0.023174555972218513
0.038379356265068054 0.038379356265068054 0.038379356265068054
0.062848456203937531 0.062848456203937531 0.062848456203937531
0.099912934005260468 0.099912934005260468 0.099912934005260468
0.15349413454532623 0.15349413454532623 0.15349413454532623
0.22909380495548248 0.22909380495548248 0.22909380495548248
0.32713550329208374 0.32713550329208374 0.32713550329208374
0.4380241334438324 0.4380241334438324 0.4380241334438324
0.5541570782661438 0.5541570782661438 0.5541570782661438
0.66943943500518799 0.66943943500518799 0.66943943500518799
0.77867722511291504 0.77867722511291504 0.77867722511291504
0.014431852847337723 0.014431852847337723 0.014431852847337723
0.020465431734919548 0.020465431734919548 0.020465431734919548
0.029070999473333359 0.029070999473333359 0.029070999473333359
0.044151995331048965 0.044151995331048965 0.044151995331048965
0.069170616567134857 0.069170616567134857 0.069170616567134857
0.10795904695987701 0.10795904695987701 0.10795904695987701
0.16431070864200592 0.16431070864200592 0.16431070864200592
0.24174465239048004 0.24174465239048004 0.24174465239048004
0.33880841732025146 0.33880841732025146 0.33880841732025146
0.44881170988082886 0.44881170988082886 0.44881170988082886
0.56413239240646362 0.56413239240646362 0.56413239240646362
0.6781696081161499 0.6781696081161499 0.6781696081161499
0.78580856323242188 0.78580856323242188 0.78580856323242188
0.023629477247595787 0.023629477247595787 0.023629477247595787
0.029090596362948418 0.029090596362948418 0.029090596362948418
0.038053281605243683 0.038053281605243683 0.038053281605243683
0.053872950375080109 0.053872950375080109 0.053872950375080109
0.080543056130409241 0.080543056130409241 0.080543056130409241
0.12179454416036606 0.12179454416036606 0.12179454416036606
0.18093141913414001 0.18093141913414001 0.18093141913414001
0.25954747200012207 0.25954747200012207 0.25954747200012207
0.35567495226860046 0.35567495226860046 0.35567495226860046
0.46402767300605774 0.46402767300605774 0.46402767300605774
0.5770685076713562 0.5770685076713562 0.5770685076713562
0.68856227397918701 0.68856227397918701 0.68856227397918701
0.79360771179199219 0.79360771179199219 0.79360771179199219
0.0367557592689991 0.0367557592689991 0.0367557592689991
0.041721224784851074 0.041721224784851074 0.041721224784851074
0.050944279879331589 0.050944279879331589 0.050944279879331589
0.067915238440036774 0.067915238440036774 0.067915238440036774
0.096332654356956482 0.096332654356956482 0.096332654356956482
0.13981837034225464 0.13981837034225464 0.13981837034225464
0.20042017102241516 0.20042017102241516 0.20042017102241516
0.28006044030189514 0.28006044030189514 0.28006044030189514
0.37625223398208618 0.37625223398208618 0.37625223398208618
0.48304066061973572 0.48304066061973572 0.48304066061973572
0.59395700693130493 0.59395700693130493 0.59395700693130493
0.70219314098358154 0.70219314098358154 0.70219314098358154
0.80390638113021851 0.80390638113021851 0.80390638113021851
0.054718930274248123 0.054718930274248123 0.054718930274248123
0.059055224061012268 0.059055224061012268 0.059055224061012268
0.068827368319034576 0.068827368319034576 0.068827368319034576
0.086789526045322418 0.086789526045322418 0.086789526045322418
0.11671703308820724 0.11671703308820724 0.11671703308820724
0.16110751032829285 0.16110751032829285 0.16110751032829285
0.22297188639640808 0.22297188639640808 0.22297188639640808
0.30319559574127197 0.30319559574127197 0.30319559574127197
0.39958077669143677 0.39958077669143677 0.39958077669143677
0.50607544183731079 0.50607544183731079 0.50607544183731079
0.61488276720046997 0.61488276720046997 0.61488276720046997
0.71993505954742432 0.71993505954742432 0.71993505954742432
0.81732666492462158 0.81732666492462158 0.81732666492462158
0.076937489211559296 0.076937489211559296 0.076937489211559296
0.08149266242980957 0.08149266242980957 0.08149266242980957
0.091940939426422119 0.091940939426422119 0.091940939426422119
0.11168357729911804 0.11168357729911804 0.11168357729911804
0.14321233332157135 0.14321233332157135 0.14321233332157135
0.18848472833633423 0.18848472833633423 0.18848472833633423
0.25008365511894226 0.25008365511894226 0.25008365511894226
0.3303629457950592 0.3303629457950592 0.3303629457950592
0.42729926109313965 0.42729926109313965 0.42729926109313965
0.53338438272476196 0.53338438272476196 0.53338438272476196
0.6402580738067627 0.6402580738067627 0.6402580738067627
0.7414168119430542 0.7414168119430542 0.7414168119430542
0.83349418640136719 0.83349418640136719 0.83349418640136719
0.1036442294716835 0.1036442294716835 0.1036442294716835
0.10876195877790451 0.10876195877790451 0.10876195877790451
0.12112408876419067 0.12112408876419067 0.12112408876419067
0.14363054931163788 0.14363054931163788 0.14363054931163788
0.17737427353858948 0.17737427353858948 0.17737427353858948
0.22417476773262024 0.22417476773262024 0.22417476773262024
0.28580594062805176 0.28580594062805176 0.28580594062805176
0.36480924487113953 0.36480924487113953 0.36480924487113953
0.46082794666290283 0.46082794666290283 0.46082794666290283
0.56497019529342651 0.56497019529342651 0.56497019529342651
0.66908687353134155 0.66908687353134155 0.66908687353134155
0.76500403881072998 0.76500403881072998 0.76500403881072998
0.85038042068481445 0.85038042068481445 0.85038042068481445
0.13700211048126221 0.13700211048126221 0.13700211048126221
0.14270986616611481 0.14270986616611481 0.14270986616611481
0.15782883763313293 0.15782883763313293 0.15782883763313293
0.18376293778419495 0.18376293778419495 0.18376293778419495
0.22087447345256805 0.22087447345256805 0.22087447345256805
0.27000001072883606 0.27000001072883606 0.27000001072883606
0.33214768767356873 0.33214768767356873 0.33214768767356873
0.40963342785835266 0.40963342785835266 0.40963342785835266
0.50037068128585815 0.50037068128585815 0.50037068128585815
0.59849977493286133 0.59849977493286133 0.59849977493286133
0.69662195444107056 0.69662195444107056 0.69662195444107056
0.78615373373031616 0.78615373373031616 0.78615373373031616
0.86541330814361572 0.86541330814361572 0.86541330814361572
0.17990273237228394 0.17990273237228394 0.17990273237228394
0.18615812063217163 0.18615812063217163 0.18615812063217163
0.20379073917865753 0.20379073917865753 0.20379073917865753
0.23330304026603699 0.23330304026603699 0.23330304026603699
0.27339914441108704 0.27339914441108704 0.27339914441108704
0.32432061433792114 0.32432061433792114 0.32432061433792114
0.38661673665046692 0.38661673665046692 0.38661673665046692
0.46016672253608704 0.46016672253608704 0.46016672253608704
0.54357105493545532 0.54357105493545532 0.54357105493545532
0.63232362270355225 0.63232362270355225 0.63232362270355225
0.72059023380279541 0.72059023380279541 0.72059023380279541
0.80295777320861816 0.80295777320861816 0.80295777320861816
0.87766635417938232 0.87766635417938232 0.87766635417938232
0.23549932241439819 0.23549932241439819 0.23549932241439819
0.24179466068744659 0.24179466068744659 0.24179466068744659
0.26130720973014832 0.26130720973014832 0.26130720973014832
0.29322031140327454 0.29322031140327454 0.29322031140327454
0.33485785126686096 0.33485785126686096 0.33485785126686096
0.38577240705490112 0.38577240705490112 0.38577240705490112
0.44563993811607361 0.44563993811607361 0.44563993811607361
0.51395463943481445 0.51395463943481445 0.51395463943481445
0.58873069286346436 0.58873069286346436 0.58873069286346436
0.66722142696380615 0.66722142696380615 0.66722142696380615
0.74508315324783325 0.74508315324783325 0.74508315324783325
0.81955868005752563 0.81955868005752563 0.81955868005752563
0.88907772302627563 0.88907772302627563 0.88907772302627563
0.30647704005241394 0.30647704005241394 0.30647704005241394
0.31344294548034668 0.31344294548034668 0.31344294548034668
0.33266338706016541 0.33266338706016541 0.33266338706016541
0.36373484134674072 0.36373484134674072 0.36373484134674072
0.40420028567314148 0.40420028567314148 0.40420028567314148
0.45250925421714783 0.45250925421714783 0.45250925421714783
0.50819212198257446 0.50819212198257446 0.50819212198257446
0.56993770599365234 0.56993770599365234 0.56993770599365234
0.63606363534927368 0.63606363534927368 0.63606363534927368
0.70421457290649414 0.70421457290649414 0.70421457290649414
0.7722894549369812 0.7722894549369812 0.7722894549369812
0.83839499950408936 0.83839499950408936 0.83839499950408936
0.90226596593856812 0.90226596593856812 0.90226596593856812
0.39034250378608704 0.39034250378608704 0.39034250378608704
0.39790865778923035 0.39790865778923035 0.39790865778923035
0.41483652591705322 0.41483652591705322 0.41483652591705322
0.44240447878837585 0.44240447878837585 0.44240447878837585
0.4790741503238678 0.4790741503238678 0.4790741503238678
0.52299362421035767 0.52299362421035767 0.52299362421035767
0.57297617197036743 0.57297617197036743 0.57297617197036743
0.62758022546768188 0.62758022546768188 0.62758022546768188
0.68501675128936768 0.68501675128936768 0.68501675128936768
0.74380922317504883 0.74380922317504883 0.74380922317504883
0.80250197649002075 0.80250197649002075 0.80250197649002075
0.86080121994018555 0.86080121994018555 0.86080121994018555
0.91853910684585571 0.91853910684585571 0.91853910684585571
0.47945305705070496 0.47945305705070496 0.47945305705070496
0.4867669939994812 0.4867669939994812 0.4867669939994812
0.50094753503799438 0.50094753503799438 0.50094753503799438
0.5243716835975647 0.5243716835975647 0.5243716835975647
0.5561671257019043 0.5561671257019043 0.5561671257019043
0.59483200311660767 0.59483200311660767 0.59483200311660767
0.63869446516036987 0.63869446516036987 0.63869446516036987
0.68609267473220825 0.68609267473220825 0.68609267473220825
0.73554003238677979 0.73554003238677979 0.73554003238677979
0.78583270311355591 0.78583270311355591 0.78583270311355591
0.83670890331268311 0.83670890331268311 0.83670890331268311
0.8875579833984375 0.8875579833984375 0.8875579833984375
0.9396209716796875 0.9396209716796875 0.9396209716796875
0.011703401803970337 0.011703401803970337 0.011703401803970337
0.02038949728012085 0.02038949728012085 0.02038949728012085
0.031626563519239426 0.031626563519239426 0.031626563519239426
0.048645693808794022 0.048645693808794022 0.048645693808794022
0.074995540082454681 0.074995540082454681 0.074995540082454681
0.114960677921772 0.114960677921772 0.114960677921772
0.17207387089729309 0.17207387089729309 0.17207387089729309
0.24992084503173828 0.24992084503173828 0.24992084503173828
0.3473241925239563 0.3473241925239563 0.3473241925239563
0.45694157481193542 0.45694157481193542 0.45694157481193542
0.57177901268005371 0.57177901268005371 0.57177901268005371
0.68482905626296997 0.68482905626296997 0.68482905626296997
0.79100334644317627 0.79100334644317627 0.79100334644317627
0.019742868840694427 0.019742868840694427 0.019742868840694427
0.027264313772320747 0.027264313772320747 0.027264313772320747
0.037690781056880951 0.037690781056880951 0.037690781056880951
0.054382339119911194 0.054382339119911194 0.054382339119911194
0.081469498574733734 0.081469498574733734 0.081469498574733734
0.12251501530408859 0.12251501530408859 0.12251501530408859
0.18149766325950623 0.18149766325950623 0.18149766325950623
0.26044070720672607 0.26044070720672607 0.26044070720672607
0.35778528451919556 0.35778528451919556 0.35778528451919556
0.46705177426338196 0.46705177426338196 0.46705177426338196
0.58109569549560547 0.58109569549560547 0.58109569549560547
0.6933828592300415 0.6933828592300415 0.6933828592300415
0.79863601922988892 0.79863601922988892 0.79863601922988892
0.029843078926205635 0.029843078926205635 0.029843078926205635
0.036478769034147263 0.036478769034147263 0.036478769034147263
0.046627193689346313 0.046627193689346313 0.046627193689346313
0.063936538994312286 0.063936538994312286 0.063936538994312286
0.092404216527938843 0.092404216527938843 0.092404216527938843
0.13545255362987518 0.13545255362987518 0.13545255362987518
0.19658267498016357 0.19658267498016357 0.19658267498016357
0.27641671895980835 0.27641671895980835 0.27641671895980835
0.37306475639343262 0.37306475639343262 0.37306475639343262
0.48100358247756958 0.48100358247756958 0.48100358247756958
0.59304225444793701 0.59304225444793701 0.59304225444793701
0.70296961069107056 0.70296961069107056 0.70296961069107056
0.80596071481704712 0.80596071481704712 0.80596071481704712
0.043779037892818451 0.043779037892818451 0.043779037892818451
0.049613010138273239 0.049613010138273239 0.049613010138273239
0.059746507555246353 0.059746507555246353 0.059746507555246353
0.07788722962141037 0.07788722962141037 0.07788722962141037
0.10746298730373383 0.10746298730373383 0.10746298730373383
0.15226677060127258 0.15226677060127258 0.15226677060127258
0.21547004580497742 0.21547004580497742 0.21547004580497742
0.29592925310134888 0.29592925310134888 0.29592925310134888
0.39219999313354492 0.39219999313354492 0.39219999313354492
0.49877578020095825 0.49877578020095825 0.49877578020095825
0.60831308364868164 0.60831308364868164 0.60831308364868164
0.71515887975692749 0.71515887975692749 0.71515887975692749
0.81514602899551392 0.81514602899551392 0.81514602899551392
0.062775298953056335 0.062775298953056335 0.062775298953056335
0.067707940936088562 0.067707940936088562 0.067707940936088562
0.077796265482902527 0.077796265482902527 0.077796265482902527
0.096899010241031647 0.096899010241031647 0.096899010241031647
0.12805972993373871 0.12805972993373871 0.12805972993373871
0.17445485293865204 0.17445485293865204 0.17445485293865204
0.2380249947309494 0.2380249947309494 0.2380249947309494
0.31925055384635925 0.31925055384635925 0.31925055384635925
0.41536575555801392 0.41536575555801392 0.41536575555801392
0.52049702405929565 0.52049702405929565 0.52049702405929565
0.62767112255096436 0.62767112255096436 0.62767112255096436
0.73097360134124756 0.73097360134124756 0.73097360134124756
0.82700788974761963 0.82700788974761963 0.82700788974761963
0.086138240993022919 0.086138240993022919 0.086138240993022919
0.090709269046783447 0.090709269046783447 0.090709269046783447
0.10153000801801682 0.10153000801801682 0.10153000801801682
0.12214356660842896 0.12214356660842896 0.12214356660842896
0.15509355068206787 0.15509355068206787 0.15509355068206787
0.20225803554058075 0.20225803554058075 0.20225803554058075
0.26629495620727539 0.26629495620727539 0.26629495620727539
0.34715008735656738 0.34715008735656738 0.34715008735656738
0.44284668564796448 0.44284668564796448 0.44284668564796448
0.54665672779083252 0.54665672779083252 0.54665672779083252
0.65118086338043213 0.65118086338043213 0.65118086338043213
0.75022757053375244 0.75022757053375244 0.75022757053375244
0.84116882085800171 0.84116882085800171 0.84116882085800171
0.11270491778850555 0.11270491778850555 0.11270491778850555
0.11828821152448654 0.11828821152448654 0.11828821152448654
0.13131870329380035 0.13131870329380035 0.13131870329380035
0.15482395887374878 0.15482395887374878 0.15482395887374878
0.19016039371490479 0.19016039371490479 0.19016039371490479
0.23893828690052032 0.23893828690052032 0.23893828690052032
0.30300113558769226 0.30300113558769226 0.30300113558769226
0.38276779651641846 0.38276779651641846 0.38276779651641846
0.47661569714546204 0.47661569714546204 0.47661569714546204
0.57696765661239624 0.57696765661239624 0.57696765661239624
0.67751473188400269 0.67751473188400269 0.67751473188400269
0.771370530128479 0.771370530128479 0.771370530128479
0.85626322031021118 0.85626322031021118 0.85626322031021118
0.14565576612949371 0.14565576612949371 0.14565576612949371
0.15269595384597778 0.15269595384597778 0.15269595384597778
0.16886304318904877 0.16886304318904877 0.16886304318904877
0.19604372978210449 0.19604372978210449 0.19604372978210449
0.23461920022964478 0.23461920022964478 0.23461920022964478
0.28510364890098572 0.28510364890098572 0.28510364890098572
0.34901192784309387 0.34901192784309387 0.34901192784309387
0.42629227042198181 0.42629227042198181 0.42629227042198181
0.51507681608200073 0.51507681608200073 0.51507681608200073
0.60963058471679688 0.60963058471679688 0.60963058471679688
0.70374703407287598 0.70374703407287598 0.70374703407287598
0.79139935970306396 0.79139935970306396 0.79139935970306396
0.8703693151473999 0.8703693151473999 0.8703693151473999
0.18847179412841797 0.18847179412841797 0.18847179412841797
0.1967809647321701 0.1967809647321701 0.1967809647321701
0.21600204706192017 0.21600204706192017 0.21600204706192017
0.24625465273857117 0.24625465273857117 0.24625465273857117
0.28801238536834717 0.28801238536834717 0.28801238536834717
0.33990412950515747 0.33990412950515747 0.33990412950515747
0.40260237455368042 0.40260237455368042 0.40260237455368042
0.47596573829650879 0.47596573829650879 0.47596573829650879
0.55770814418792725 0.55770814418792725 0.55770814418792725
0.64372068643569946 0.64372068643569946 0.64372068643569946
0.72894942760467529 0.72894942760467529 0.72894942760467529
0.80906796455383301 0.80906796455383301 0.80906796455383301
0.88256990909576416 0.88256990909576416 0.88256990909576416
0.24427402019500732 0.24427402019500732 0.24427402019500732
0.25344404578208923 0.25344404578208923 0.25344404578208923
0.27474832534790039 0.27474832534790039 0.27474832534790039
0.30756634473800659 0.30756634473800659 0.30756634473800659
0.35019242763519287 0.35019242763519287 0.35019242763519287
0.40167698264122009 0.40167698264122009 0.40167698264122009
0.4619927704334259 0.4619927704334259 0.4619927704334259
0.52975034713745117 0.52975034713745117 0.52975034713745117
0.60299474000930786 0.60299474000930786 0.60299474000930786
0.67906492948532104 0.67906492948532104 0.67906492948532104
0.75475203990936279 0.75475203990936279 0.75475203990936279
0.82676702737808228 0.82676702737808228 0.82676702737808228
0.89446878433227539 0.89446878433227539 0.89446878433227539
0.31510105729103088 0.31510105729103088 0.31510105729103088
0.32504463195800781 0.32504463195800781 0.32504463195800781
0.34637230634689331 0.34637230634689331 0.34637230634689331
0.3784385621547699 0.3784385621547699 0.3784385621547699
0.41999384760856628 0.41999384760856628 0.41999384760856628
0.4690297544002533 0.4690297544002533 0.4690297544002533
0.52479898929595947 0.52479898929595947 0.52479898929595947
0.58598965406417847 0.58598965406417847 0.58598965406417847
0.65054082870483398 0.65054082870483398 0.65054082870483398
0.71663391590118408 0.71663391590118408 0.71663391590118408
0.78242713212966919 0.78242713212966919 0.78242713212966919
0.84618228673934937 0.84618228673934937 0.84618228673934937
0.90795189142227173 0.90795189142227173 0.90795189142227173
0.39901015162467957 0.39901015162467957 0.39901015162467957
0.4091401994228363 0.4091401994228363 0.4091401994228363
0.42868724465370178 0.42868724465370178 0.42868724465370178
0.45760506391525269 0.45760506391525269 0.45760506391525269
0.49549853801727295 0.49549853801727295 0.49549853801727295
0.54003572463989258 0.54003572463989258 0.54003572463989258
0.59036356210708618 0.59036356210708618 0.59036356210708618
0.64455306529998779 0.64455306529998779 0.64455306529998779
0.69978338479995728 0.69978338479995728 0.69978338479995728
0.75630170106887817 0.75630170106887817 0.75630170106887817
0.81277191638946533 0.81277191638946533 0.81277191638946533
0.86882001161575317 0.86882001161575317 0.86882001161575317
0.92441684007644653 0.92441684007644653 0.92441684007644653
0.48855307698249817 0.48855307698249817 0.48855307698249817
0.49825969338417053 0.49825969338417053 0.49825969338417053
0.5148736834526062 0.5148736834526062 0.5148736834526062
0.53973501920700073 0.53973501920700073 0.53973501920700073
0.57340914011001587 0.57340914011001587 0.57340914011001587
0.61206519603729248 0.61206519603729248 0.61206519603729248
0.65619027614593506 0.65619027614593506 0.65619027614593506
0.70285129547119141 0.70285129547119141 0.70285129547119141
0.75020456314086914 0.75020456314086914 0.75020456314086914
0.79824739694595337 0.79824739694595337 0.79824739694595337
0.84662091732025146 0.84662091732025146 0.84662091732025146
0.89552783966064453 0.89552783966064453 0.89552783966064453
0.94541710615158081 0.94541710615158081 0.94541710615158081
0.017671907320618629 0.017671907320618629 0.017671907320618629
0.029490631073713303 0.029490631073713303 0.029490631073713303
0.043559487909078598 0.043559487909078598 0.043559487909078598
0.063340328633785248 0.063340328633785248 0.063340328633785248
0.092683963477611542 0.092683963477611542 0.092683963477611542
0.13616587221622467 0.13616587221622467 0.13616587221622467
0.19703759253025055 0.19703759253025055 0.19703759253025055
0.27679494023323059 0.27679494023323059 0.27679494023323059
0.37335684895515442 0.37335684895515442 0.37335684895515442
0.48100051283836365 0.48100051283836365 0.48100051283836365
0.59275370836257935 0.59275370836257935 0.59275370836257935
0.70203834772109985 0.70203834772109985 0.70203834772109985
0.8040086030960083 0.8040086030960083 0.8040086030960083
0.026666363701224327 0.026666363701224327 0.026666363701224327
0.036898445338010788 0.036898445338010788 0.036898445338010788
0.050019104033708572 0.050019104033708572 0.050019104033708572
0.069313943386077881 0.069313943386077881 0.069313943386077881
0.099101126194000244 0.099101126194000244 0.099101126194000244
0.14352425932884216 0.14352425932884216 0.14352425932884216
0.2055714875459671 0.2055714875459671 0.2055714875459671
0.2859208881855011 0.2859208881855011 0.2859208881855011
0.38276255130767822 0.38276255130767822 0.38276255130767822
0.49026623368263245 0.49026623368263245 0.49026623368263245
0.60141170024871826 0.60141170024871826 0.60141170024871826
0.71015173196792603 0.71015173196792603 0.71015173196792603
0.81148087978363037 0.81148087978363037 0.81148087978363037
0.037798069417476654 0.037798069417476654 0.037798069417476654
0.046326596289873123 0.046326596289873123 0.046326596289873123
0.059050794690847397 0.059050794690847397 0.059050794690847397
0.078883364796638489 0.078883364796638489 0.078883364796638489
0.11002378165721893 0.11002378165721893 0.11002378165721893
0.1559327244758606 0.1559327244758606 0.1559327244758606
0.21920044720172882 0.21920044720172882 0.21920044720172882
0.30030170083045959 0.30030170083045959 0.30030170083045959
0.39655435085296631 0.39655435085296631 0.39655435085296631
0.50259405374526978 0.50259405374526978 0.50259405374526978
0.61199015378952026 0.61199015378952026 0.61199015378952026
0.71859312057495117 0.71859312057495117 0.71859312057495117
0.81825166940689087 0.81825166940689087 0.81825166940689087
0.052485417574644089 0.052485417574644089 0.052485417574644089
0.060061823576688766 0.060061823576688766 0.060061823576688766
0.072379946708679199 0.072379946708679199 0.072379946708679199
0.093074232339859009 0.093074232339859009 0.093074232339859009
0.12527762353420258 0.12527762353420258 0.12527762353420258
0.17277684807777405 0.17277684807777405 0.17277684807777405
0.23747043311595917 0.23747043311595917 0.23747043311595917
0.31899359822273254 0.31899359822273254 0.31899359822273254
0.41434416174888611 0.41434416174888611 0.41434416174888611
0.51862037181854248 0.51862037181854248 0.51862037181854248
0.62540602684020996 0.62540602684020996 0.62540602684020996
0.72915112972259521 0.72915112972259521 0.72915112972259521
0.82604527473449707 0.82604527473449707 0.82604527473449707
0.072244323790073395 0.072244323790073395 0.072244323790073395
0.078853264451026917 0.078853264451026917 0.078853264451026917
0.091215766966342926 0.091215766966342926 0.091215766966342926
0.11268479377031326 0.11268479377031326 0.11268479377031326
0.14629743993282318 0.14629743993282318 0.14629743993282318
