luts/bw/rollei_ortho_25.cube
# Created by: G'MIC (https://gmic.eu)
TITLE "rollei_ortho_25"
# LUT size
LUT_3D_SIZE 7
# Data domain
DOMAIN_MIN 0.0 0.0 0.0
DOMAIN_MAX 1.0 1.0 1.0
# LUT data points
0.044461522251367569 0.044461522251367569 0.044461522251367569
0.04957498237490654 0.04957498237490654 0.04957498237490654
0.052323523908853531 0.052323523908853531 0.052323523908853531
0.054434832185506821 0.054434832185506821 0.054434832185506821
0.059269551187753677 0.059269551187753677 0.059269551187753677
0.062477979809045792 0.062477979809045792 0.062477979809045792
0.062328621745109558 0.062328621745109558 0.062328621745109558
0.11036502569913864 0.11036502569913864 0.11036502569913864
0.11443319916725159 0.11443319916725159 0.11443319916725159
0.11750468611717224 0.11750468611717224 0.11750468611717224
0.12000764161348343 0.12000764161348343 0.12000764161348343
0.12137740105390549 0.12137740105390549 0.12137740105390549
0.12380298972129822 0.12380298972129822 0.12380298972129822
0.12673819065093994 0.12673819065093994 0.12673819065093994
0.17640312016010284 0.17640312016010284 0.17640312016010284
0.17810356616973877 0.17810356616973877 0.17810356616973877
0.18194790184497833 0.18194790184497833 0.18194790184497833
0.18496665358543396 0.18496665358543396 0.18496665358543396
0.18189245462417603 0.18189245462417603 0.18189245462417603
0.1868249773979187 0.1868249773979187 0.1868249773979187
0.19561164081096649 0.19561164081096649 0.19561164081096649
0.24944567680358887 0.24944567680358887 0.24944567680358887
0.25085693597793579 0.25085693597793579 0.25085693597793579
0.25975048542022705 0.25975048542022705 0.25975048542022705
0.26501500606536865 0.26501500606536865 0.26501500606536865
0.25668224692344666 0.25668224692344666 0.25668224692344666
0.26739329099655151 0.26739329099655151 0.26739329099655151
0.27976757287979126 0.27976757287979126 0.27976757287979126
0.37487247586250305 0.37487247586250305 0.37487247586250305
0.37880602478981018 0.37880602478981018 0.37880602478981018
0.37740775942802429 0.37740775942802429 0.37740775942802429
0.38326624035835266 0.38326624035835266 0.38326624035835266
0.38521090149879456 0.38521090149879456 0.38521090149879456
0.39152640104293823 0.39152640104293823 0.39152640104293823
0.3997768759727478 0.3997768759727478 0.3997768759727478
0.61180931329727173 0.61180931329727173 0.61180931329727173
0.61696970462799072 0.61696970462799072 0.61696970462799072
0.60880708694458008 0.60880708694458008 0.60880708694458008
0.60811227560043335 0.60811227560043335 0.60811227560043335
0.62662273645401001 0.62662273645401001 0.62662273645401001
0.61993288993835449 0.61993288993835449 0.61993288993835449
0.6370924711227417 0.6370924711227417 0.6370924711227417
0.82521176338195801 0.82521176338195801 0.82521176338195801
0.82761037349700928 0.82761037349700928 0.82761037349700928
0.82836121320724487 0.82836121320724487 0.82836121320724487
0.82808023691177368 0.82808023691177368 0.82808023691177368
0.84712845087051392 0.84712845087051392 0.84712845087051392
0.84640610218048096 0.84640610218048096 0.84640610218048096
0.84913343191146851 0.84913343191146851 0.84913343191146851
0.11259502172470093 0.11259502172470093 0.11259502172470093
0.11842308938503265 0.11842308938503265 0.11842308938503265
0.12202388048171997 0.12202388048171997 0.12202388048171997
0.12371716648340225 0.12371716648340225 0.12371716648340225
0.13014829158782959 0.13014829158782959 0.13014829158782959
0.13546611368656158 0.13546611368656158 0.13546611368656158
0.13011826574802399 0.13011826574802399 0.13011826574802399
0.16970798373222351 0.16970798373222351 0.16970798373222351
0.17442023754119873 0.17442023754119873 0.17442023754119873
0.17808876931667328 0.17808876931667328 0.17808876931667328
0.18307743966579437 0.18307743966579437 0.18307743966579437
0.18317706882953644 0.18317706882953644 0.18317706882953644
0.18522082269191742 0.18522082269191742 0.18522082269191742
0.18715664744377136 0.18715664744377136 0.18715664744377136
0.22896838188171387 0.22896838188171387 0.22896838188171387
0.23107504844665527 0.23107504844665527 0.23107504844665527
0.23208585381507874 0.23208585381507874 0.23208585381507874
0.23876087367534637 0.23876087367534637 0.23876087367534637
0.23384709656238556 0.23384709656238556 0.23384709656238556
0.23963502049446106 0.23963502049446106 0.23963502049446106
0.25365528464317322 0.25365528464317322 0.25365528464317322
0.30163401365280151 0.30163401365280151 0.30163401365280151
0.30421453714370728 0.30421453714370728 0.30421453714370728
0.31174501776695251 0.31174501776695251 0.31174501776695251
0.31107759475708008 0.31107759475708008 0.31107759475708008
0.30806905031204224 0.30806905031204224 0.30806905031204224
0.32278785109519958 0.32278785109519958 0.32278785109519958
0.3357011079788208 0.3357011079788208 0.3357011079788208
0.44018727540969849 0.44018727540969849 0.44018727540969849
0.45309057831764221 0.45309057831764221 0.45309057831764221
0.46352148056030273 0.46352148056030273 0.46352148056030273
0.46101817488670349 0.46101817488670349 0.46101817488670349
0.45548617839813232 0.45548617839813232 0.45548617839813232
0.47163620591163635 0.47163620591163635 0.47163620591163635
0.48503482341766357 0.48503482341766357 0.48503482341766357
0.66105055809020996 0.66105055809020996 0.66105055809020996
0.6755099892616272 0.6755099892616272 0.6755099892616272
0.67668920755386353 0.67668920755386353 0.67668920755386353
0.6868242621421814 0.6868242621421814 0.6868242621421814
0.68564647436141968 0.68564647436141968 0.68564647436141968
0.68198734521865845 0.68198734521865845 0.68198734521865845
0.69779676198959351 0.69779676198959351 0.69779676198959351
0.84419423341751099 0.84419423341751099 0.84419423341751099
0.84945017099380493 0.84945017099380493 0.84945017099380493
0.85603755712509155 0.85603755712509155 0.85603755712509155
0.86641895771026611 0.86641895771026611 0.86641895771026611
0.87063968181610107 0.87063968181610107 0.87063968181610107
0.8590017557144165 0.8590017557144165 0.8590017557144165
0.8618394136428833 0.8618394136428833 0.8618394136428833
0.18973623216152191 0.18973623216152191 0.18973623216152191
0.19729191064834595 0.19729191064834595 0.19729191064834595
0.20321621000766754 0.20321621000766754 0.20321621000766754
0.20015914738178253 0.20015914738178253 0.20015914738178253
0.20814597606658936 0.20814597606658936 0.20814597606658936
0.2161252498626709 0.2161252498626709 0.2161252498626709
0.20499220490455627 0.20499220490455627 0.20499220490455627
0.24246285855770111 0.24246285855770111 0.24246285855770111
0.24762146174907684 0.24762146174907684 0.24762146174907684
0.24984608590602875 0.24984608590602875 0.24984608590602875
0.25490909814834595 0.25490909814834595 0.25490909814834595
0.25789478421211243 0.25789478421211243 0.25789478421211243
0.26070320606231689 0.26070320606231689 0.26070320606231689
0.25955086946487427 0.25955086946487427 0.25955086946487427
0.3042793869972229 0.3042793869972229 0.3042793869972229
0.30942222476005554 0.30942222476005554 0.30942222476005554
0.30734622478485107 0.30734622478485107 0.30734622478485107
0.31863299012184143 0.31863299012184143 0.31863299012184143
0.317548006772995 0.317548006772995 0.317548006772995
0.32609212398529053 0.32609212398529053 0.32609212398529053
0.33366566896438599 0.33366566896438599 0.33366566896438599
0.41005009412765503 0.41005009412765503 0.41005009412765503
0.40595537424087524 0.40595537424087524 0.40595537424087524
0.4035801887512207 0.4035801887512207 0.4035801887512207
0.41295889019966125 0.41295889019966125 0.41295889019966125
0.42741122841835022 0.42741122841835022 0.42741122841835022
0.44793424010276794 0.44793424010276794 0.44793424010276794
0.45997267961502075 0.45997267961502075 0.45997267961502075
0.58474874496459961 0.58474874496459961 0.58474874496459961
0.58774632215499878 0.58774632215499878 0.58774632215499878
0.59223586320877075 0.59223586320877075 0.59223586320877075
0.59556412696838379 0.59556412696838379 0.59556412696838379
0.60691970586776733 0.60691970586776733 0.60691970586776733
0.62138420343399048 0.62138420343399048 0.62138420343399048
0.63512766361236572 0.63512766361236572 0.63512766361236572
0.76321208477020264 0.76321208477020264 0.76321208477020264
0.77578961849212646 0.77578961849212646 0.77578961849212646
0.77140671014785767 0.77140671014785767 0.77140671014785767
0.77953511476516724 0.77953511476516724 0.77953511476516724
0.78094685077667236 0.78094685077667236 0.78094685077667236
0.78099817037582397 0.78099817037582397 0.78099817037582397
0.79693466424942017 0.79693466424942017 0.79693466424942017
0.88574618101119995 0.88574618101119995 0.88574618101119995
0.89060533046722412 0.89060533046722412 0.89060533046722412
0.89536386728286743 0.89536386728286743 0.89536386728286743
0.90572744607925415 0.90572744607925415 0.90572744607925415
0.90443617105484009 0.90443617105484009 0.90443617105484009
0.89556849002838135 0.89556849002838135 0.89556849002838135
0.90201199054718018 0.90201199054718018 0.90201199054718018
0.280291348695755 0.280291348695755 0.280291348695755
0.29397076368331909 0.29397076368331909 0.29397076368331909
0.29215344786643982 0.29215344786643982 0.29215344786643982
0.28780588507652283 0.28780588507652283 0.28780588507652283
0.30502879619598389 0.30502879619598389 0.30502879619598389
0.30864956974983215 0.30864956974983215 0.30864956974983215
0.30415409803390503 0.30415409803390503 0.30415409803390503
0.35128375887870789 0.35128375887870789 0.35128375887870789
0.35905063152313232 0.35905063152313232 0.35905063152313232
0.35702639818191528 0.35702639818191528 0.35702639818191528
0.36052268743515015 0.36052268743515015 0.36052268743515015
0.37172380089759827 0.37172380089759827 0.37172380089759827
0.38183656334877014 0.38183656334877014 0.38183656334877014
0.38399326801300049 0.38399326801300049 0.38399326801300049
0.44731217622756958 0.44731217622756958 0.44731217622756958
0.45762169361114502 0.45762169361114502 0.45762169361114502
0.45882600545883179 0.45882600545883179 0.45882600545883179
0.46301966905593872 0.46301966905593872 0.46301966905593872
0.47484961152076721 0.47484961152076721 0.47484961152076721
0.48802721500396729 0.48802721500396729 0.48802721500396729
0.4988609254360199 0.4988609254360199 0.4988609254360199
0.58584105968475342 0.58584105968475342 0.58584105968475342
0.5942578911781311 0.5942578911781311 0.5942578911781311
0.60754168033599854 0.60754168033599854 0.60754168033599854
0.61191475391387939 0.61191475391387939 0.61191475391387939
0.61693519353866577 0.61693519353866577 0.61693519353866577
0.62959057092666626 0.62959057092666626 0.62959057092666626
0.63841897249221802 0.63841897249221802 0.63841897249221802
0.75289255380630493 0.75289255380630493 0.75289255380630493
0.75394219160079956 0.75394219160079956 0.75394219160079956
0.75214993953704834 0.75214993953704834 0.75214993953704834
0.75523984432220459 0.75523984432220459 0.75523984432220459
0.77273464202880859 0.77273464202880859 0.77273464202880859
0.77429282665252686 0.77429282665252686 0.77429282665252686
0.77686017751693726 0.77686017751693726 0.77686017751693726
0.84870213270187378 0.84870213270187378 0.84870213270187378
0.85496419668197632 0.85496419668197632 0.85496419668197632
0.84858441352844238 0.84858441352844238 0.84858441352844238
0.85558390617370605 0.85558390617370605 0.85558390617370605
0.86601448059082031 0.86601448059082031 0.86601448059082031
0.86736571788787842 0.86736571788787842 0.86736571788787842
0.8730657696723938 0.8730657696723938 0.8730657696723938
0.92178541421890259 0.92178541421890259 0.92178541421890259
0.92188084125518799 0.92188084125518799 0.92188084125518799
0.92560213804244995 0.92560213804244995 0.92560213804244995
0.93340450525283813 0.93340450525283813 0.93340450525283813
0.93347084522247314 0.93347084522247314 0.93347084522247314
0.92802160978317261 0.92802160978317261 0.92802160978317261
0.93774187564849854 0.93774187564849854 0.93774187564849854
0.41990560293197632 0.41990560293197632 0.41990560293197632
0.43445265293121338 0.43445265293121338 0.43445265293121338
0.44040042161941528 0.44040042161941528 0.44040042161941528
0.46176135540008545 0.46176135540008545 0.46176135540008545
0.4740939736366272 0.4740939736366272 0.4740939736366272
0.47513434290885925 0.47513434290885925 0.47513434290885925
0.4903719425201416 0.4903719425201416 0.4903719425201416
0.53374689817428589 0.53374689817428589 0.53374689817428589
0.54600131511688232 0.54600131511688232 0.54600131511688232
0.55715370178222656 0.55715370178222656 0.55715370178222656
0.57016533613204956 0.57016533613204956 0.57016533613204956
0.58773314952850342 0.58773314952850342 0.58773314952850342
0.5932498574256897 0.5932498574256897 0.5932498574256897
0.60503137111663818 0.60503137111663818 0.60503137111663818
0.67112016677856445 0.67112016677856445 0.67112016677856445
0.66581559181213379 0.66581559181213379 0.66581559181213379
0.6817287802696228 0.6817287802696228 0.6817287802696228
0.68524461984634399 0.68524461984634399 0.68524461984634399
0.70205944776535034 0.70205944776535034 0.70205944776535034
0.70202493667602539 0.70202493667602539 0.70202493667602539
0.72330421209335327 0.72330421209335327 0.72330421209335327
0.76444554328918457 0.76444554328918457 0.76444554328918457
0.76926028728485107 0.76926028728485107 0.76926028728485107
0.7855302095413208 0.7855302095413208 0.7855302095413208
0.78477072715759277 0.78477072715759277 0.78477072715759277
0.78700613975524902 0.78700613975524902 0.78700613975524902
0.7938377857208252 0.7938377857208252 0.7938377857208252
0.80502355098724365 0.80502355098724365 0.80502355098724365
0.8427422046661377 0.8427422046661377 0.8427422046661377
0.85088115930557251 0.85088115930557251 0.85088115930557251
0.85316997766494751 0.85316997766494751 0.85316997766494751
0.8550715446472168 0.8550715446472168 0.8550715446472168
0.86392122507095337 0.86392122507095337 0.86392122507095337
0.86871057748794556 0.86871057748794556 0.86871057748794556
0.86921858787536621 0.86921858787536621 0.86921858787536621
0.8959510326385498 0.8959510326385498 0.8959510326385498
0.90422272682189941 0.90422272682189941 0.90422272682189941
0.90274453163146973 0.90274453163146973 0.90274453163146973
0.9087989330291748 0.9087989330291748 0.9087989330291748
0.91621696949005127 0.91621696949005127 0.91621696949005127
0.91927319765090942 0.91927319765090942 0.91927319765090942
0.92048734426498413 0.92048734426498413 0.92048734426498413
0.94701570272445679 0.94701570272445679 0.94701570272445679
0.95080327987670898 0.95080327987670898 0.95080327987670898
0.95354878902435303 0.95354878902435303 0.95354878902435303
0.95744675397872925 0.95744675397872925 0.95744675397872925
0.95742005109786987 0.95742005109786987 0.95742005109786987
0.95524418354034424 0.95524418354034424 0.95524418354034424
0.96096658706665039 0.96096658706665039 0.96096658706665039
0.68825095891952515 0.68825095891952515 0.68825095891952515
0.68669372797012329 0.68669372797012329 0.68669372797012329
0.70616167783737183 0.70616167783737183 0.70616167783737183
0.72416740655899048 0.72416740655899048 0.72416740655899048
0.73834192752838135 0.73834192752838135 0.73834192752838135
0.75007468461990356 0.75007468461990356 0.75007468461990356
0.75634622573852539 0.75634622573852539 0.75634622573852539
0.75792771577835083 0.75792771577835083 0.75792771577835083
0.76600086688995361 0.76600086688995361 0.76600086688995361
0.77545619010925293 0.77545619010925293 0.77545619010925293
0.78103059530258179 0.78103059530258179 0.78103059530258179
0.79356616735458374 0.79356616735458374 0.79356616735458374
0.79791229963302612 0.79791229963302612 0.79791229963302612
0.81196457147598267 0.81196457147598267 0.81196457147598267
0.82390016317367554 0.82390016317367554 0.82390016317367554
0.82437610626220703 0.82437610626220703 0.82437610626220703
0.83180195093154907 0.83180195093154907 0.83180195093154907
0.8409116268157959 0.8409116268157959 0.8409116268157959
0.85117626190185547 0.85117626190185547 0.85117626190185547
0.85001653432846069 0.85001653432846069 0.85001653432846069
0.85789769887924194 0.85789769887924194 0.85789769887924194
0.87166619300842285 0.87166619300842285 0.87166619300842285
0.87011492252349854 0.87011492252349854 0.87011492252349854
0.87774884700775146 0.87774884700775146 0.87774884700775146
0.88565742969512939 0.88565742969512939 0.88565742969512939
0.88993769884109497 0.88993769884109497 0.88993769884109497
0.88918590545654297 0.88918590545654297 0.88918590545654297
0.89037513732910156 0.89037513732910156 0.89037513732910156
0.90678393840789795 0.90678393840789795 0.90678393840789795
0.91347742080688477 0.91347742080688477 0.91347742080688477
0.91753071546554565 0.91753071546554565 0.91753071546554565
0.91939085721969604 0.91939085721969604 0.91939085721969604
0.92165082693099976 0.92165082693099976 0.92165082693099976
0.92095845937728882 0.92095845937728882 0.92095845937728882
0.92025166749954224 0.92025166749954224 0.92025166749954224
0.93624001741409302 0.93624001741409302 0.93624001741409302
0.9478764533996582 0.9478764533996582 0.9478764533996582
0.95187515020370483 0.95187515020370483 0.95187515020370483
0.95091277360916138 0.95091277360916138 0.95091277360916138
0.94975441694259644 0.94975441694259644 0.94975441694259644
0.94700533151626587 0.94700533151626587 0.94700533151626587
0.94721090793609619 0.94721090793609619 0.94721090793609619
0.96883726119995117 0.96883726119995117 0.96883726119995117
0.97826981544494629 0.97826981544494629 0.97826981544494629
0.98372370004653931 0.98372370004653931 0.98372370004653931
0.98262053728103638 0.98262053728103638 0.98262053728103638
0.97806274890899658 0.97806274890899658 0.97806274890899658
0.97299683094024658 0.97299683094024658 0.97299683094024658
0.97439408302307129 0.97439408302307129 0.97439408302307129
0.83806115388870239 0.83806115388870239 0.83806115388870239
0.84100103378295898 0.84100103378295898 0.84100103378295898
0.84805351495742798 0.84805351495742798 0.84805351495742798
0.85820430517196655 0.85820430517196655 0.85820430517196655
0.86221039295196533 0.86221039295196533 0.86221039295196533
0.86481064558029175 0.86481064558029175 0.86481064558029175
0.87566870450973511 0.87566870450973511 0.87566870450973511
0.88520824909210205 0.88520824909210205 0.88520824909210205
0.88595110177993774 0.88595110177993774 0.88595110177993774
0.88659954071044922 0.88659954071044922 0.88659954071044922
0.88694870471954346 0.88694870471954346 0.88694870471954346
0.88778787851333618 0.88778787851333618 0.88778787851333618
0.89261007308959961 0.89261007308959961 0.89261007308959961
0.91060441732406616 0.91060441732406616 0.91060441732406616
0.90807723999023438 0.90807723999023438 0.90807723999023438
0.9128614068031311 0.9128614068031311 0.9128614068031311
0.91342568397521973 0.91342568397521973 0.91342568397521973
0.9154011607170105 0.9154011607170105 0.9154011607170105
0.91928637027740479 0.91928637027740479 0.91928637027740479
0.92209380865097046 0.92209380865097046 0.92209380865097046
0.93336945772171021 0.93336945772171021 0.93336945772171021
0.93333756923675537 0.93333756923675537 0.93333756923675537
0.93648737668991089 0.93648737668991089 0.93648737668991089
0.93929481506347656 0.93929481506347656 0.93929481506347656
0.94312417507171631 0.94312417507171631 0.94312417507171631
0.94474869966506958 0.94474869966506958 0.94474869966506958
0.94482862949371338 0.94482862949371338 0.94482862949371338
0.94941443204879761 0.94941443204879761 0.94941443204879761
0.95504951477050781 0.95504951477050781 0.95504951477050781
0.96261954307556152 0.96261954307556152 0.96261954307556152
0.9662330150604248 0.9662330150604248 0.9662330150604248
0.96520960330963135 0.96520960330963135 0.96520960330963135
0.96256911754608154 0.96256911754608154 0.96256911754608154
0.95945274829864502 0.95945274829864502 0.95945274829864502
0.96095210313796997 0.96095210313796997 0.96095210313796997
0.97228968143463135 0.97228968143463135 0.97228968143463135
0.98672229051589966 0.98672229051589966 0.98672229051589966
0.9916379451751709 0.9916379451751709 0.9916379451751709
0.98615986108779907 0.98615986108779907 0.98615986108779907
0.97897350788116455 0.97897350788116455 0.97897350788116455
0.97229450941085815 0.97229450941085815 0.97229450941085815
0.97183012962341309 0.97183012962341309 0.97183012962341309
0.9911157488822937 0.9911157488822937 0.9911157488822937
0.99957537651062012 0.99957537651062012 0.99957537651062012
1 1 1
0.99993103742599487 0.99993103742599487 0.99993103742599487
0.99797940254211426 0.99797940254211426 0.99797940254211426
0.99127018451690674 0.99127018451690674 0.99127018451690674
0.98889541625976562 0.98889541625976562 0.98889541625976562
