luts/bw/rollei_retro_100_tonal.cube
# Created by: G'MIC (https://gmic.eu)
TITLE "rollei_retro_100_tonal"
# LUT size
LUT_3D_SIZE 7
# Data domain
DOMAIN_MIN 0.0 0.0 0.0
DOMAIN_MAX 1.0 1.0 1.0
# LUT data points
0.060847114771604538 0.060847114771604538 0.060847114771604538
0.065790213644504547 0.065790213644504547 0.065790213644504547
0.072368144989013672 0.072368144989013672 0.072368144989013672
0.070547573268413544 0.070547573268413544 0.070547573268413544
0.065798349678516388 0.065798349678516388 0.065798349678516388
0.063679039478302002 0.063679039478302002 0.063679039478302002
0.068543814122676849 0.068543814122676849 0.068543814122676849
0.15445643663406372 0.15445643663406372 0.15445643663406372
0.15633346140384674 0.15633346140384674 0.15633346140384674
0.16119711101055145 0.16119711101055145 0.16119711101055145
0.16330799460411072 0.16330799460411072 0.16330799460411072
0.163260817527771 0.163260817527771 0.163260817527771
0.16479647159576416 0.16479647159576416 0.16479647159576416
0.17162783443927765 0.17162783443927765 0.17162783443927765
0.257210373878479 0.257210373878479 0.257210373878479
0.25636148452758789 0.25636148452758789 0.25636148452758789
0.26040041446685791 0.26040041446685791 0.26040041446685791
0.26677080988883972 0.26677080988883972 0.26677080988883972
0.27311748266220093 0.27311748266220093 0.27311748266220093
0.27848619222640991 0.27848619222640991 0.27848619222640991
0.28717330098152161 0.28717330098152161 0.28717330098152161
0.37404587864875793 0.37404587864875793 0.37404587864875793
0.37433436512947083 0.37433436512947083 0.37433436512947083
0.37960696220397949 0.37960696220397949 0.37960696220397949
0.38829827308654785 0.38829827308654785 0.38829827308654785
0.39725318551063538 0.39725318551063538 0.39725318551063538
0.40541639924049377 0.40541639924049377 0.40541639924049377
0.4147123396396637 0.4147123396396637 0.4147123396396637
0.51045304536819458 0.51045304536819458 0.51045304536819458
0.51243233680725098 0.51243233680725098 0.51243233680725098
0.51780033111572266 0.51780033111572266 0.51780033111572266
0.52549940347671509 0.52549940347671509 0.52549940347671509
0.53447669744491577 0.53447669744491577 0.53447669744491577
0.54376095533370972 0.54376095533370972 0.54376095533370972
0.5529288649559021 0.5529288649559021 0.5529288649559021
0.66632354259490967 0.66632354259490967 0.66632354259490967
0.66495382785797119 0.66495382785797119 0.66495382785797119
0.66574084758758545 0.66574084758758545 0.66574084758758545
0.67001068592071533 0.67001068592071533 0.67001068592071533
0.67764753103256226 0.67764753103256226 0.67764753103256226
0.68734616041183472 0.68734616041183472 0.68734616041183472
0.69647222757339478 0.69647222757339478 0.69647222757339478
0.82301396131515503 0.82301396131515503 0.82301396131515503
0.81677699089050293 0.81677699089050293 0.81677699089050293
0.81203484535217285 0.81203484535217285 0.81203484535217285
0.81248122453689575 0.81248122453689575 0.81248122453689575
0.81813859939575195 0.81813859939575195 0.81813859939575195
0.82772499322891235 0.82772499322891235 0.82772499322891235
0.83743131160736084 0.83743131160736084 0.83743131160736084
0.11416719853878021 0.11416719853878021 0.11416719853878021
0.12006222456693649 0.12006222456693649 0.12006222456693649
0.12799343466758728 0.12799343466758728 0.12799343466758728
0.12885287404060364 0.12885287404060364 0.12885287404060364
0.12663097679615021 0.12663097679615021 0.12663097679615021
0.12770800292491913 0.12770800292491913 0.12770800292491913
0.13562595844268799 0.13562595844268799 0.13562595844268799
0.20323185622692108 0.20323185622692108 0.20323185622692108
0.2057248055934906 0.2057248055934906 0.2057248055934906
0.21151718497276306 0.21151718497276306 0.21151718497276306
0.21573880314826965 0.21573880314826965 0.21573880314826965
0.21782636642456055 0.21782636642456055 0.21782636642456055
0.22064626216888428 0.22064626216888428 0.22064626216888428
0.22919882833957672 0.22919882833957672 0.22919882833957672
0.30129864811897278 0.30129864811897278 0.30129864811897278
0.30022785067558289 0.30022785067558289 0.30022785067558289
0.3039529025554657 0.3039529025554657 0.3039529025554657
0.31294727325439453 0.31294727325439453 0.31294727325439453
0.32012295722961426 0.32012295722961426 0.32012295722961426
0.32557252049446106 0.32557252049446106 0.32557252049446106
0.33403515815734863 0.33403515815734863 0.33403515815734863
0.41220349073410034 0.41220349073410034 0.41220349073410034
0.41202914714813232 0.41202914714813232 0.41202914714813232
0.41744109988212585 0.41744109988212585 0.41744109988212585
0.42770674824714661 0.42770674824714661 0.42770674824714661
0.43715313076972961 0.43715313076972961 0.43715313076972961
0.44386330246925354 0.44386330246925354 0.44386330246925354
0.45182150602340698 0.45182150602340698 0.45182150602340698
0.54036074876785278 0.54036074876785278 0.54036074876785278
0.54275119304656982 0.54275119304656982 0.54275119304656982
0.54914760589599609 0.54914760589599609 0.54914760589599609
0.5578121542930603 0.5578121542930603 0.5578121542930603
0.56610387563705444 0.56610387563705444 0.56610387563705444
0.5735853910446167 0.5735853910446167 0.5735853910446167
0.58141863346099854 0.58141863346099854 0.58141863346099854
0.68536853790283203 0.68536853790283203 0.68536853790283203
0.68569141626358032 0.68569141626358032 0.68569141626358032
0.68838655948638916 0.68838655948638916 0.68838655948638916
0.693634033203125 0.693634033203125 0.693634033203125
0.70058953762054443 0.70058953762054443 0.70058953762054443
0.70833456516265869 0.70833456516265869 0.70833456516265869
0.71602964401245117 0.71602964401245117 0.71602964401245117
0.83033275604248047 0.83033275604248047 0.83033275604248047
0.82771694660186768 0.82771694660186768 0.82771694660186768
0.82587593793869019 0.82587593793869019 0.82587593793869019
0.8276793360710144 0.8276793360710144 0.8276793360710144
0.83290547132492065 0.83290547132492065 0.83290547132492065
0.84050184488296509 0.84050184488296509 0.84050184488296509
0.84798175096511841 0.84798175096511841 0.84798175096511841
0.17927630245685577 0.17927630245685577 0.17927630245685577
0.1862298846244812 0.1862298846244812 0.1862298846244812
0.19503039121627808 0.19503039121627808 0.19503039121627808
0.19954380393028259 0.19954380393028259 0.19954380393028259
0.20111584663391113 0.20111584663391113 0.20111584663391113
0.20653238892555237 0.20653238892555237 0.20653238892555237
0.21836642920970917 0.21836642920970917 0.21836642920970917
0.26739099621772766 0.26739099621772766 0.26739099621772766
0.27100005745887756 0.27100005745887756 0.27100005745887756
0.27816012501716614 0.27816012501716614 0.27816012501716614
0.28404894471168518 0.28404894471168518 0.28404894471168518
0.28773626685142517 0.28773626685142517 0.28773626685142517
0.29270485043525696 0.29270485043525696 0.29270485043525696
0.30262216925621033 0.30262216925621033 0.30262216925621033
0.36401909589767456 0.36401909589767456 0.36401909589767456
0.36476990580558777 0.36476990580558777 0.36476990580558777
0.37042373418807983 0.37042373418807983 0.37042373418807983
0.37858599424362183 0.37858599424362183 0.37858599424362183
0.38439014554023743 0.38439014554023743 0.38439014554023743
0.38849183917045593 0.38849183917045593 0.38849183917045593
0.39526152610778809 0.39526152610778809 0.39526152610778809
0.47009465098381042 0.47009465098381042 0.47009465098381042
0.47098824381828308 0.47098824381828308 0.47098824381828308
0.47715291380882263 0.47715291380882263 0.47715291380882263
0.48600754141807556 0.48600754141807556 0.48600754141807556
0.49223268032073975 0.49223268032073975 0.49223268032073975
0.49535924196243286 0.49535924196243286 0.49535924196243286
0.4997650682926178 0.4997650682926178 0.4997650682926178
0.58717191219329834 0.58717191219329834 0.58717191219329834
0.58924573659896851 0.58924573659896851 0.58924573659896851
0.59586352109909058 0.59586352109909058 0.59586352109909058
0.60340172052383423 0.60340172052383423 0.60340172052383423
0.60874974727630615 0.60874974727630615 0.60874974727630615
0.61224758625030518 0.61224758625030518 0.61224758625030518
0.61699819564819336 0.61699819564819336 0.61699819564819336
0.71320110559463501 0.71320110559463501 0.71320110559463501
0.71475100517272949 0.71475100517272949 0.71475100517272949
0.71900421380996704 0.71900421380996704 0.71900421380996704
0.72403645515441895 0.72403645515441895 0.72403645515441895
0.72857582569122314 0.72857582569122314 0.72857582569122314
0.73266780376434326 0.73266780376434326 0.73266780376434326
0.73786944150924683 0.73786944150924683 0.73786944150924683
0.84011471271514893 0.84011471271514893 0.84011471271514893
0.83995532989501953 0.83995532989501953 0.83995532989501953
0.84147685766220093 0.84147685766220093 0.84147685766220093
0.84413993358612061 0.84413993358612061 0.84413993358612061
0.8479880690574646 0.8479880690574646 0.8479880690574646
0.85255616903305054 0.85255616903305054 0.85255616903305054
0.85783052444458008 0.85783052444458008 0.85783052444458008
0.26313900947570801 0.26313900947570801 0.26313900947570801
0.27296566963195801 0.27296566963195801 0.27296566963195801
0.28363582491874695 0.28363582491874695 0.28363582491874695
0.29006007313728333 0.29006007313728333 0.29006007313728333
0.29383891820907593 0.29383891820907593 0.29383891820907593
0.30346834659576416 0.30346834659576416 0.30346834659576416
0.31772127747535706 0.31772127747535706 0.31772127747535706
0.35160413384437561 0.35160413384437561 0.35160413384437561
0.35754621028900146 0.35754621028900146 0.35754621028900146
0.36631816625595093 0.36631816625595093 0.36631816625595093
0.37297859787940979 0.37297859787940979 0.37297859787940979
0.37729838490486145 0.37729838490486145 0.37729838490486145
0.38356977701187134 0.38356977701187134 0.38356977701187134
0.39400216937065125 0.39400216937065125 0.39400216937065125
0.44584104418754578 0.44584104418754578 0.44584104418754578
0.4494938850402832 0.4494938850402832 0.4494938850402832
0.45694905519485474 0.45694905519485474 0.45694905519485474
0.463987797498703 0.463987797498703 0.463987797498703
0.46772709488868713 0.46772709488868713 0.46772709488868713
0.47006598114967346 0.47006598114967346 0.47006598114967346
0.47576195001602173 0.47576195001602173 0.47576195001602173
0.54423397779464722 0.54423397779464722 0.54423397779464722
0.54747629165649414 0.54747629165649414 0.54747629165649414
0.55515342950820923 0.55515342950820923 0.55515342950820923
0.56236249208450317 0.56236249208450317 0.56236249208450317
0.56451177597045898 0.56451177597045898 0.56451177597045898
0.56323522329330444 0.56323522329330444 0.56323522329330444
0.56579232215881348 0.56579232215881348 0.56579232215881348
0.64615863561630249 0.64615863561630249 0.64615863561630249
0.64964765310287476 0.64964765310287476 0.64964765310287476
0.65705388784408569 0.65705388784408569 0.65705388784408569
0.66355907917022705 0.66355907917022705 0.66355907917022705
0.66465538740158081 0.66465538740158081 0.66465538740158081
0.66283524036407471 0.66283524036407471 0.66283524036407471
0.6643984317779541 0.6643984317779541 0.6643984317779541
0.75077831745147705 0.75077831745147705 0.75077831745147705
0.75377053022384644 0.75377053022384644 0.75377053022384644
0.75928604602813721 0.75928604602813721 0.75928604602813721
0.76403725147247314 0.76403725147247314 0.76403725147247314
0.76518410444259644 0.76518410444259644 0.76518410444259644
0.76496040821075439 0.76496040821075439 0.76496040821075439
0.76722180843353271 0.76722180843353271 0.76722180843353271
0.8573615550994873 0.8573615550994873 0.8573615550994873
0.85887956619262695 0.85887956619262695 0.85887956619262695
0.8623468279838562 0.8623468279838562 0.8623468279838562
0.86569291353225708 0.86569291353225708 0.86569291353225708
0.86750781536102295 0.86750781536102295 0.86750781536102295
0.8689911961555481 0.8689911961555481 0.8689911961555481
0.8724629282951355 0.8724629282951355 0.8724629282951355
0.3749329149723053 0.3749329149723053 0.3749329149723053
0.38340029120445251 0.38340029120445251 0.38340029120445251
0.39317697286605835 0.39317697286605835 0.39317697286605835
0.40035083889961243 0.40035083889961243 0.40035083889961243
0.40773236751556396 0.40773236751556396 0.40773236751556396
0.4187244176864624 0.4187244176864624 0.4187244176864624
0.43225780129432678 0.43225780129432678 0.43225780129432678
0.45751377940177917 0.45751377940177917 0.45751377940177917
0.46412450075149536 0.46412450075149536 0.46412450075149536
0.47246077656745911 0.47246077656745911 0.47246077656745911
0.47891494631767273 0.47891494631767273 0.47891494631767273
0.48454049229621887 0.48454049229621887 0.48454049229621887
0.49111640453338623 0.49111640453338623 0.49111640453338623
0.50074577331542969 0.50074577331542969 0.50074577331542969
0.54334139823913574 0.54334139823913574 0.54334139823913574
0.5489686131477356 0.5489686131477356 0.5489686131477356
0.55660051107406616 0.55660051107406616 0.55660051107406616
0.56255513429641724 0.56255513429641724 0.56255513429641724
0.56476569175720215 0.56476569175720215 0.56476569175720215
0.56611377000808716 0.56611377000808716 0.56611377000808716
0.57021600008010864 0.57021600008010864 0.57021600008010864
0.62961828708648682 0.62961828708648682 0.62961828708648682
0.63494032621383667 0.63494032621383667 0.63494032621383667
0.64312046766281128 0.64312046766281128 0.64312046766281128
0.64965897798538208 0.64965897798538208 0.64965897798538208
0.64786338806152344 0.64786338806152344 0.64786338806152344
0.64349567890167236 0.64349567890167236 0.64349567890167236
0.64331650733947754 0.64331650733947754 0.64331650733947754
0.71435916423797607 0.71435916423797607 0.71435916423797607
0.71901988983154297 0.71901988983154297 0.71901988983154297
0.72695773839950562 0.72695773839950562 0.72695773839950562
0.73298269510269165 0.73298269510269165 0.73298269510269165
0.72948122024536133 0.72948122024536133 0.72948122024536133
0.72320449352264404 0.72320449352264404 0.72320449352264404
0.72178554534912109 0.72178554534912109 0.72178554534912109
0.79679715633392334 0.79679715633392334 0.79679715633392334
0.80051535367965698 0.80051535367965698 0.80051535367965698
0.80681884288787842 0.80681884288787842 0.80681884288787842
0.81100940704345703 0.81100940704345703 0.81100940704345703
0.8093220591545105 0.8093220591545105 0.8093220591545105
0.80515551567077637 0.80515551567077637 0.80515551567077637
0.80480426549911499 0.80480426549911499 0.80480426549911499
0.88193356990814209 0.88193356990814209 0.88193356990814209
0.88438606262207031 0.88438606262207031 0.88438606262207031
0.88954252004623413 0.88954252004623413 0.88954252004623413
0.89315330982208252 0.89315330982208252 0.89315330982208252
0.89317411184310913 0.89317411184310913 0.89317411184310913
0.89156937599182129 0.89156937599182129 0.89156937599182129
0.89381015300750732 0.89381015300750732 0.89381015300750732
0.50200194120407104 0.50200194120407104 0.50200194120407104
0.50766748189926147 0.50766748189926147 0.50766748189926147
0.51374596357345581 0.51374596357345581 0.51374596357345581
0.52074700593948364 0.52074700593948364 0.52074700593948364
0.53006857633590698 0.53006857633590698 0.53006857633590698
0.54241979122161865 0.54241979122161865 0.54241979122161865
0.55481410026550293 0.55481410026550293 0.55481410026550293
0.57569509744644165 0.57569509744644165 0.57569509744644165
0.58126819133758545 0.58126819133758545 0.58126819133758545
0.58674782514572144 0.58674782514572144 0.58674782514572144
0.59247958660125732 0.59247958660125732 0.59247958660125732
0.59834855794906616 0.59834855794906616 0.59834855794906616
0.60595858097076416 0.60595858097076416 0.60595858097076416
0.61406236886978149 0.61406236886978149 0.61406236886978149
0.64906412363052368 0.64906412363052368 0.64906412363052368
0.65450787544250488 0.65450787544250488 0.65450787544250488
0.66003215312957764 0.66003215312957764 0.66003215312957764
0.66408580541610718 0.66408580541610718 0.66408580541610718
0.66573745012283325 0.66573745012283325 0.66573745012283325
0.66688013076782227 0.66688013076782227 0.66688013076782227
0.66976368427276611 0.66976368427276611 0.66976368427276611
0.72154146432876587 0.72154146432876587 0.72154146432876587
0.72608309984207153 0.72608309984207153 0.72608309984207153
0.73167592287063599 0.73167592287063599 0.73167592287063599
0.73550087213516235 0.73550087213516235 0.73550087213516235
0.73220884799957275 0.73220884799957275 0.73220884799957275
0.72742611169815063 0.72742611169815063 0.72742611169815063
0.72641867399215698 0.72641867399215698 0.72641867399215698
0.78920543193817139 0.78920543193817139 0.78920543193817139
0.79241782426834106 0.79241782426834106 0.79241782426834106
0.79743236303329468 0.79743236303329468 0.79743236303329468
0.80049830675125122 0.80049830675125122 0.80049830675125122
0.79548543691635132 0.79548543691635132 0.79548543691635132
0.78813236951828003 0.78813236951828003 0.78813236951828003
0.78552544116973877 0.78552544116973877 0.78552544116973877
0.84942680597305298 0.84942680597305298 0.84942680597305298
0.85273146629333496 0.85273146629333496 0.85273146629333496
0.8581731915473938 0.8581731915473938 0.8581731915473938
0.86097729206085205 0.86097729206085205 0.86097729206085205
0.85726308822631836 0.85726308822631836 0.85726308822631836
0.85103195905685425 0.85103195905685425 0.85103195905685425
0.849415123462677 0.849415123462677 0.849415123462677
0.91246742010116577 0.91246742010116577 0.91246742010116577
0.91657674312591553 0.91657674312591553 0.91657674312591553
0.92340773344039917 0.92340773344039917 0.92340773344039917
0.92685294151306152 0.92685294151306152 0.92685294151306152
0.92638909816741943 0.92638909816741943 0.92638909816741943
0.92254668474197388 0.92254668474197388 0.92254668474197388
0.92284810543060303 0.92284810543060303 0.92284810543060303
0.62675052881240845 0.62675052881240845 0.62675052881240845
0.62981194257736206 0.62981194257736206 0.62981194257736206
0.63263899087905884 0.63263899087905884 0.63263899087905884
0.63848614692687988 0.63848614692687988 0.63848614692687988
0.64806199073791504 0.64806199073791504 0.64806199073791504
0.66127151250839233 0.66127151250839233 0.66127151250839233
0.67381948232650757 0.67381948232650757 0.67381948232650757
0.6909216046333313 0.6909216046333313 0.6909216046333313
0.69532650709152222 0.69532650709152222 0.69532650709152222
0.69827461242675781 0.69827461242675781 0.69827461242675781
0.70237290859222412 0.70237290859222412 0.70237290859222412
0.70837712287902832 0.70837712287902832 0.70837712287902832
0.71630603075027466 0.71630603075027466 0.71630603075027466
0.72350859642028809 0.72350859642028809 0.72350859642028809
0.75224214792251587 0.75224214792251587 0.75224214792251587
0.75671660900115967 0.75671660900115967 0.75671660900115967
0.75977718830108643 0.75977718830108643 0.75977718830108643
0.76185381412506104 0.76185381412506104 0.76185381412506104
0.76318120956420898 0.76318120956420898 0.76318120956420898
0.76488405466079712 0.76488405466079712 0.76488405466079712
0.76734364032745361 0.76734364032745361 0.76734364032745361
0.81194168329238892 0.81194168329238892 0.81194168329238892
0.81452655792236328 0.81452655792236328 0.81452655792236328
0.81626969575881958 0.81626969575881958 0.81626969575881958
0.81657236814498901 0.81657236814498901 0.81657236814498901
0.81420218944549561 0.81420218944549561 0.81420218944549561
0.81082415580749512 0.81082415580749512 0.81082415580749512
0.80991029739379883 0.80991029739379883 0.80991029739379883
0.86676669120788574 0.86676669120788574 0.86676669120788574
0.86601239442825317 0.86601239442825317 0.86601239442825317
0.86691510677337646 0.86691510677337646 0.86691510677337646
0.86660170555114746 0.86660170555114746 0.86660170555114746
0.86226123571395874 0.86226123571395874 0.86226123571395874
0.85657358169555664 0.85657358169555664 0.85657358169555664
0.85449051856994629 0.85449051856994629 0.85449051856994629
0.90824073553085327 0.90824073553085327 0.90824073553085327
0.91010302305221558 0.91010302305221558 0.91010302305221558
0.91390126943588257 0.91390126943588257 0.91390126943588257
0.9150281548500061 0.9150281548500061 0.9150281548500061
0.91118097305297852 0.91118097305297852 0.91118097305297852
0.90503621101379395 0.90503621101379395 0.90503621101379395
0.90357077121734619 0.90357077121734619 0.90357077121734619
0.95186537504196167 0.95186537504196167 0.95186537504196167
0.95868635177612305 0.95868635177612305 0.95868635177612305
0.96682703495025635 0.96682703495025635 0.96682703495025635
0.97064810991287231 0.97064810991287231 0.97064810991287231
0.96879225969314575 0.96879225969314575 0.96879225969314575
0.96411454677581787 0.96411454677581787 0.96411454677581787
0.96316784620285034 0.96316784620285034 0.96316784620285034
