luts/bw/rollei_ir_400.cube
# Created by: G'MIC (https://gmic.eu)
TITLE "rollei_ir_400"
# LUT size
LUT_3D_SIZE 5
# Data domain
DOMAIN_MIN 0.0 0.0 0.0
DOMAIN_MAX 1.0 1.0 1.0
# LUT data points
0.024560082703828812 0.024560082703828812 0.024560082703828812
0.054955128580331802 0.054955128580331802 0.054955128580331802
0.1415640115737915 0.1415640115737915 0.1415640115737915
0.27389723062515259 0.27389723062515259 0.27389723062515259
0.39385345578193665 0.39385345578193665 0.39385345578193665
0.26733294129371643 0.26733294129371643 0.26733294129371643
0.30149444937705994 0.30149444937705994 0.30149444937705994
0.37958782911300659 0.37958782911300659 0.37958782911300659
0.50180882215499878 0.50180882215499878 0.50180882215499878
0.61623078584671021 0.61623078584671021 0.61623078584671021
0.71610677242279053 0.71610677242279053 0.71610677242279053
0.75555944442749023 0.75555944442749023 0.75555944442749023
0.82333129644393921 0.82333129644393921 0.82333129644393921
0.92819339036941528 0.92819339036941528 0.92819339036941528
0.98519212007522583 0.98519212007522583 0.98519212007522583
0.99458891153335571 0.99458891153335571 0.99458891153335571
0.99616730213165283 0.99616730213165283 0.99616730213165283
0.99723678827285767 0.99723678827285767 0.99723678827285767
0.9999842643737793 0.9999842643737793 0.9999842643737793
1 1 1
1 1 1
1 1 1
1 1 1
1 1 1
1 1 1
0.0039939130656421185 0.0039939130656421185 0.0039939130656421185
0.0063072354532778263 0.0063072354532778263 0.0063072354532778263
0.019175780937075615 0.019175780937075615 0.019175780937075615
0.1174381896853447 0.1174381896853447 0.1174381896853447
0.24057343602180481 0.24057343602180481 0.24057343602180481
0.12621338665485382 0.12621338665485382 0.12621338665485382
0.16495025157928467 0.16495025157928467 0.16495025157928467
0.24909074604511261 0.24909074604511261 0.24909074604511261
0.3667604923248291 0.3667604923248291 0.3667604923248291
0.47339051961898804 0.47339051961898804 0.47339051961898804
0.5854986310005188 0.5854986310005188 0.5854986310005188
0.60807979106903076 0.60807979106903076 0.60807979106903076
0.68587744235992432 0.68587744235992432 0.68587744235992432
0.80051541328430176 0.80051541328430176 0.80051541328430176
0.88554054498672485 0.88554054498672485 0.88554054498672485
0.99556678533554077 0.99556678533554077 0.99556678533554077
0.99597156047821045 0.99597156047821045 0.99597156047821045
0.99840462207794189 0.99840462207794189 0.99840462207794189
0.99719452857971191 0.99719452857971191 0.99719452857971191
1 1 1
0.99607843160629272 0.99607843160629272 0.99607843160629272
0.99607843160629272 0.99607843160629272 0.99607843160629272
1 1 1
1 1 1
1 1 1
0.0039215688593685627 0.0039215688593685627 0.0039215688593685627
0.0018792544724419713 0.0018792544724419713 0.0018792544724419713
0.0028480230830609798 0.0028480230830609798 0.0028480230830609798
0.0044664870947599411 0.0044664870947599411 0.0044664870947599411
0.016599468886852264 0.016599468886852264 0.016599468886852264
0.0045570372603833675 0.0045570372603833675 0.0045570372603833675
0.0052069569937884808 0.0052069569937884808 0.0052069569937884808
0.015256260521709919 0.015256260521709919 0.015256260521709919
0.099443085491657257 0.099443085491657257 0.099443085491657257
0.20849205553531647 0.20849205553531647 0.20849205553531647
0.32026144862174988 0.32026144862174988 0.32026144862174988
0.3498460054397583 0.3498460054397583 0.3498460054397583
0.41988655924797058 0.41988655924797058 0.41988655924797058
0.54261624813079834 0.54261624813079834 0.54261624813079834
0.6389157772064209 0.6389157772064209 0.6389157772064209
0.90397125482559204 0.90397125482559204 0.90397125482559204
0.9195324182510376 0.9195324182510376 0.9195324182510376
0.96602606773376465 0.96602606773376465 0.96602606773376465
0.99244153499603271 0.99244153499603271 0.99244153499603271
0.99560630321502686 0.99560630321502686 0.99560630321502686
0.99429666996002197 0.99429666996002197 0.99429666996002197
0.99574190378189087 0.99574190378189087 0.99574190378189087
0.99543929100036621 0.99543929100036621 0.99543929100036621
0.99713253974914551 0.99713253974914551 0.99713253974914551
1 1 1
0.00028062707860954106 0.00028062707860954106 0.00028062707860954106
0 0 0
0 0 0
0.0039215688593685627 0.0039215688593685627 0.0039215688593685627
0.00032263362663798034 0.00032263362663798034 0.00032263362663798034
0.0030687518883496523 0.0030687518883496523 0.0030687518883496523
0.00091347785200923681 0.00091347785200923681 0.00091347785200923681
0.0039215688593685627 0.0039215688593685627 0.0039215688593685627
0.0018101112218573689 0.0018101112218573689 0.0018101112218573689
0.0046920329332351685 0.0046920329332351685 0.0046920329332351685
0.014251753687858582 0.014251753687858582 0.014251753687858582
0.023114956915378571 0.023114956915378571 0.023114956915378571
0.061289470642805099 0.061289470642805099 0.061289470642805099
0.16927002370357513 0.16927002370357513 0.16927002370357513
0.26659196615219116 0.26659196615219116 0.26659196615219116
0.56916123628616333 0.56916123628616333 0.56916123628616333
0.59944480657577515 0.59944480657577515 0.59944480657577515
0.65866953134536743 0.65866953134536743 0.65866953134536743
0.75087136030197144 0.75087136030197144 0.75087136030197144
0.81955826282501221 0.81955826282501221 0.81955826282501221
0.95470809936523438 0.95470809936523438 0.95470809936523438
0.9711453914642334 0.9711453914642334 0.9711453914642334
0.99055373668670654 0.99055373668670654 0.99055373668670654
0.99134546518325806 0.99134546518325806 0.99134546518325806
0.99590104818344116 0.99590104818344116 0.99590104818344116
0 0 0
0 0 0
0 0 0
0 0 0
0 0 0
0 0 0
0 0 0
0 0 0
0.00017677755386102945 0.00017677755386102945 0.00017677755386102945
0.0007771211676299572 0.0007771211676299572 0.0007771211676299572
0.0038935642223805189 0.0038935642223805189 0.0038935642223805189
0.00012361115659587085 0.00012361115659587085 0.00012361115659587085
0.0031511643901467323 0.0031511643901467323 0.0031511643901467323
0.0035847681574523449 0.0035847681574523449 0.0035847681574523449
0.016941025853157043 0.016941025853157043 0.016941025853157043
0.3074471652507782 0.3074471652507782 0.3074471652507782
0.32887527346611023 0.32887527346611023 0.32887527346611023
0.41151392459869385 0.41151392459869385 0.41151392459869385
0.50804424285888672 0.50804424285888672 0.50804424285888672
0.59508258104324341 0.59508258104324341 0.59508258104324341
0.76152294874191284 0.76152294874191284 0.76152294874191284
0.78195905685424805 0.78195905685424805 0.78195905685424805
0.84565025568008423 0.84565025568008423 0.84565025568008423
0.90809756517410278 0.90809756517410278 0.90809756517410278
0.95685148239135742 0.95685148239135742 0.95685148239135742
