luts/bw/rollei_retro_80s.cube
# Created by: G'MIC (https://gmic.eu)
TITLE "rollei_retro_80s"
# LUT size
LUT_3D_SIZE 5
# Data domain
DOMAIN_MIN 0.0 0.0 0.0
DOMAIN_MAX 1.0 1.0 1.0
# LUT data points
0.0071358024142682552 0.0071358024142682552 0.0071358024142682552
0.038379356265068054 0.038379356265068054 0.038379356265068054
0.15349413454532623 0.15349413454532623 0.15349413454532623
0.4380241334438324 0.4380241334438324 0.4380241334438324
0.77867722511291504 0.77867722511291504 0.77867722511291504
0.0367557592689991 0.0367557592689991 0.0367557592689991
0.067915238440036774 0.067915238440036774 0.067915238440036774
0.20042017102241516 0.20042017102241516 0.20042017102241516
0.48304066061973572 0.48304066061973572 0.48304066061973572
0.80390638113021851 0.80390638113021851 0.80390638113021851
0.1036442294716835 0.1036442294716835 0.1036442294716835
0.14363054931163788 0.14363054931163788 0.14363054931163788
0.28580594062805176 0.28580594062805176 0.28580594062805176
0.56497019529342651 0.56497019529342651 0.56497019529342651
0.85038042068481445 0.85038042068481445 0.85038042068481445
0.23549932241439819 0.23549932241439819 0.23549932241439819
0.29322031140327454 0.29322031140327454 0.29322031140327454
0.44563993811607361 0.44563993811607361 0.44563993811607361
0.66722142696380615 0.66722142696380615 0.66722142696380615
0.88907772302627563 0.88907772302627563 0.88907772302627563
0.47945305705070496 0.47945305705070496 0.47945305705070496
0.5243716835975647 0.5243716835975647 0.5243716835975647
0.63869446516036987 0.63869446516036987 0.63869446516036987
0.78583270311355591 0.78583270311355591 0.78583270311355591
0.9396209716796875 0.9396209716796875 0.9396209716796875
0.026068519800901413 0.026068519800901413 0.026068519800901413
0.080689750611782074 0.080689750611782074 0.080689750611782074
0.22367343306541443 0.22367343306541443 0.22367343306541443
0.50725537538528442 0.50725537538528442 0.50725537538528442
0.81810134649276733 0.81810134649276733 0.81810134649276733
0.06294906884431839 0.06294906884431839 0.06294906884431839
0.11206562072038651 0.11206562072038651 0.11206562072038651
0.26432543992996216 0.26432543992996216 0.26432543992996216
0.54113399982452393 0.54113399982452393 0.54113399982452393
0.83665746450424194 0.83665746450424194 0.83665746450424194
0.14143049716949463 0.14143049716949463 0.14143049716949463
0.19761599600315094 0.19761599600315094 0.19761599600315094
0.35676079988479614 0.35676079988479614 0.35676079988479614
0.61052095890045166 0.61052095890045166 0.61052095890045166
0.86672401428222656 0.86672401428222656 0.86672401428222656
0.28494107723236084 0.28494107723236084 0.28494107723236084
0.35913223028182983 0.35913223028182983 0.35913223028182983
0.51137447357177734 0.51137447357177734 0.51137447357177734
0.71038812398910522 0.71038812398910522 0.71038812398910522
0.90561890602111816 0.90561890602111816 0.90561890602111816
0.52896654605865479 0.52896654605865479 0.52896654605865479
0.5871964693069458 0.5871964693069458 0.5871964693069458
0.69997334480285645 0.69997334480285645 0.69997334480285645
0.82799792289733887 0.82799792289733887 0.82799792289733887
0.95970052480697632 0.95970052480697632 0.95970052480697632
0.061505470424890518 0.061505470424890518 0.061505470424890518
0.13679033517837524 0.13679033517837524 0.13679033517837524
0.29723396897315979 0.29723396897315979 0.29723396897315979
0.57698315382003784 0.57698315382003784 0.57698315382003784
0.85056197643280029 0.85056197643280029 0.85056197643280029
0.11517038941383362 0.11517038941383362 0.11517038941383362
0.18829947710037231 0.18829947710037231 0.18829947710037231
0.35767656564712524 0.35767656564712524 0.35767656564712524
0.61316901445388794 0.61316901445388794 0.61316901445388794
0.86538732051849365 0.86538732051849365 0.86538732051849365
0.22497467696666718 0.22497467696666718 0.22497467696666718
0.29901498556137085 0.29901498556137085 0.29901498556137085
0.46354389190673828 0.46354389190673828 0.46354389190673828
0.68125349283218384 0.68125349283218384 0.68125349283218384
0.89007598161697388 0.89007598161697388 0.89007598161697388
0.41149428486824036 0.41149428486824036 0.41149428486824036
0.47773054242134094 0.47773054242134094 0.47773054242134094
0.61052030324935913 0.61052030324935913 0.61052030324935913
0.77398312091827393 0.77398312091827393 0.77398312091827393
0.92672157287597656 0.92672157287597656 0.92672157287597656
0.64716452360153198 0.64716452360153198 0.64716452360153198
0.68843322992324829 0.68843322992324829 0.68843322992324829
0.77327382564544678 0.77327382564544678 0.77327382564544678
0.87469077110290527 0.87469077110290527 0.87469077110290527
0.9762653112411499 0.9762653112411499 0.9762653112411499
0.14643307030200958 0.14643307030200958 0.14643307030200958
0.24814124405384064 0.24814124405384064 0.24814124405384064
0.4113762378692627 0.4113762378692627 0.4113762378692627
0.6496397852897644 0.6496397852897644 0.6496397852897644
0.86884772777557373 0.86884772777557373 0.86884772777557373
0.23308219015598297 0.23308219015598297 0.23308219015598297
0.32141613960266113 0.32141613960266113 0.32141613960266113
0.48771178722381592 0.48771178722381592 0.48771178722381592
0.69719403982162476 0.69719403982162476 0.69719403982162476
0.89288073778152466 0.89288073778152466 0.89288073778152466
0.38591930270195007 0.38591930270195007 0.38591930270195007
0.45486545562744141 0.45486545562744141 0.45486545562744141
0.59680783748626709 0.59680783748626709 0.59680783748626709
0.76650762557983398 0.76650762557983398 0.76650762557983398
0.92024850845336914 0.92024850845336914 0.92024850845336914
0.57837855815887451 0.57837855815887451 0.57837855815887451
0.62870043516159058 0.62870043516159058 0.62870043516159058
0.72765612602233887 0.72765612602233887 0.72765612602233887
0.84771817922592163 0.84771817922592163 0.84771817922592163
0.94898474216461182 0.94898474216461182 0.94898474216461182
0.76804095506668091 0.76804095506668091 0.76804095506668091
0.80094754695892334 0.80094754695892334 0.80094754695892334
0.85775291919708252 0.85775291919708252 0.85775291919708252
0.92503625154495239 0.92503625154495239 0.92503625154495239
0.98282158374786377 0.98282158374786377 0.98282158374786377
0.30478337407112122 0.30478337407112122 0.30478337407112122
0.44589945673942566 0.44589945673942566 0.44589945673942566
0.60514599084854126 0.60514599084854126 0.60514599084854126
0.76844322681427002 0.76844322681427002 0.76844322681427002
0.91266787052154541 0.91266787052154541 0.91266787052154541
0.44059377908706665 0.44059377908706665 0.44059377908706665
0.53105437755584717 0.53105437755584717 0.53105437755584717
0.66405367851257324 0.66405367851257324 0.66405367851257324
0.80645787715911865 0.80645787715911865 0.80645787715911865
0.93895560503005981 0.93895560503005981 0.93895560503005981
0.62884831428527832 0.62884831428527832 0.62884831428527832
0.66193604469299316 0.66193604469299316 0.66193604469299316
0.74890261888504028 0.74890261888504028 0.74890261888504028
0.85595160722732544 0.85595160722732544 0.85595160722732544
0.95932388305664062 0.95932388305664062 0.95932388305664062
0.76718378067016602 0.76718378067016602 0.76718378067016602
0.79510343074798584 0.79510343074798584 0.79510343074798584
0.84761279821395874 0.84761279821395874 0.84761279821395874
0.91346859931945801 0.91346859931945801 0.91346859931945801
0.97175139188766479 0.97175139188766479 0.97175139188766479
0.8942103385925293 0.8942103385925293 0.8942103385925293
0.91628092527389526 0.91628092527389526 0.91628092527389526
0.94392913579940796 0.94392913579940796 0.94392913579940796
0.97156304121017456 0.97156304121017456 0.97156304121017456
0.98198431730270386 0.98198431730270386 0.98198431730270386
