luts/bw/rollei_retro_100_tonal.cube
# Created by: G'MIC (https://gmic.eu)
TITLE "rollei_retro_100_tonal"
# LUT size
LUT_3D_SIZE 13
# Data domain
DOMAIN_MIN 0.0 0.0 0.0
DOMAIN_MAX 1.0 1.0 1.0
# LUT data points
0.060847114771604538 0.060847114771604538 0.060847114771604538
0.062533371150493622 0.062533371150493622 0.062533371150493622
0.065790213644504547 0.065790213644504547 0.065790213644504547
0.069369882345199585 0.069369882345199585 0.069369882345199585
0.072368144989013672 0.072368144989013672 0.072368144989013672
0.072509914636611938 0.072509914636611938 0.072509914636611938
0.070547573268413544 0.070547573268413544 0.070547573268413544
0.068069487810134888 0.068069487810134888 0.068069487810134888
0.065798349678516388 0.065798349678516388 0.065798349678516388
0.064311861991882324 0.064311861991882324 0.064311861991882324
0.063679039478302002 0.063679039478302002 0.063679039478302002
0.065104164183139801 0.065104164183139801 0.065104164183139801
0.068543814122676849 0.068543814122676849 0.068543814122676849
0.10679356008768082 0.10679356008768082 0.10679356008768082
0.10787408798933029 0.10787408798933029 0.10787408798933029
0.11048368364572525 0.11048368364572525 0.11048368364572525
0.11370143294334412 0.11370143294334412 0.11370143294334412
0.11628993600606918 0.11628993600606918 0.11628993600606918
0.11701591312885284 0.11701591312885284 0.11701591312885284
0.11620290577411652 0.11620290577411652 0.11620290577411652
0.11472070962190628 0.11472070962190628 0.11472070962190628
0.11337519437074661 0.11337519437074661 0.11337519437074661
0.11261589080095291 0.11261589080095291 0.11261589080095291
0.11274871975183487 0.11274871975183487 0.11274871975183487
0.11457971483469009 0.11457971483469009 0.11457971483469009
0.11846217513084412 0.11846217513084412 0.11846217513084412
0.15445643663406372 0.15445643663406372 0.15445643663406372
0.15471060574054718 0.15471060574054718 0.15471060574054718
0.15633346140384674 0.15633346140384674 0.15633346140384674
0.15882599353790283 0.15882599353790283 0.15882599353790283
0.16119711101055145 0.16119711101055145 0.16119711101055145
0.16276417672634125 0.16276417672634125 0.16276417672634125
0.16330799460411072 0.16330799460411072 0.16330799460411072
0.16350176930427551 0.16350176930427551 0.16350176930427551
0.163260817527771 0.163260817527771 0.163260817527771
0.16370557248592377 0.16370557248592377 0.16370557248592377
0.16479647159576416 0.16479647159576416 0.16479647159576416
0.1673009991645813 0.1673009991645813 0.1673009991645813
0.17162783443927765 0.17162783443927765 0.17162783443927765
0.20423047244548798 0.20423047244548798 0.20423047244548798
0.20370207726955414 0.20370207726955414 0.20370207726955414
0.20466448366641998 0.20466448366641998 0.20466448366641998
0.20652526617050171 0.20652526617050171 0.20652526617050171
0.20871701836585999 0.20871701836585999 0.20871701836585999
0.2110266387462616 0.2110266387462616 0.2110266387462616
0.21326971054077148 0.21326971054077148 0.21326971054077148
0.21484029293060303 0.21484029293060303 0.21484029293060303
0.21651825308799744 0.21651825308799744 0.21651825308799744
0.21771775186061859 0.21771775186061859 0.21771775186061859
0.22010938823223114 0.22010938823223114 0.22010938823223114
0.22310855984687805 0.22310855984687805 0.22310855984687805
0.22788403928279877 0.22788403928279877 0.22788403928279877
0.257210373878479 0.257210373878479 0.257210373878479
0.25590077042579651 0.25590077042579651 0.25590077042579651
0.25636148452758789 0.25636148452758789 0.25636148452758789
0.25798872113227844 0.25798872113227844 0.25798872113227844
0.26040041446685791 0.26040041446685791 0.26040041446685791
0.26351574063301086 0.26351574063301086 0.26351574063301086
0.26677080988883972 0.26677080988883972 0.26677080988883972
0.27017098665237427 0.27017098665237427 0.27017098665237427
0.27311748266220093 0.27311748266220093 0.27311748266220093
0.27527949213981628 0.27527949213981628 0.27527949213981628
0.27848619222640991 0.27848619222640991 0.27848619222640991
0.28227606415748596 0.28227606415748596 0.28227606415748596
0.28717330098152161 0.28717330098152161 0.28717330098152161
0.31328299641609192 0.31328299641609192 0.31328299641609192
0.31264838576316833 0.31264838576316833 0.31264838576316833
0.31279602646827698 0.31279602646827698 0.31279602646827698
0.31440314650535583 0.31440314650535583 0.31440314650535583
0.31727924942970276 0.31727924942970276 0.31727924942970276
0.32104852795600891 0.32104852795600891 0.32104852795600891
0.32524779438972473 0.32524779438972473 0.32524779438972473
0.32936131954193115 0.32936131954193115 0.32936131954193115
0.3331788182258606 0.3331788182258606 0.3331788182258606
0.33685010671615601 0.33685010671615601 0.33685010671615601
0.34032902121543884 0.34032902121543884 0.34032902121543884
0.34441140294075012 0.34441140294075012 0.34441140294075012
0.34941968321800232 0.34941968321800232 0.34941968321800232
0.37404587864875793 0.37404587864875793 0.37404587864875793
0.3734494149684906 0.3734494149684906 0.3734494149684906
0.37433436512947083 0.37433436512947083 0.37433436512947083
0.37648755311965942 0.37648755311965942 0.37648755311965942
0.37960696220397949 0.37960696220397949 0.37960696220397949
0.3836686909198761 0.3836686909198761 0.3836686909198761
0.38829827308654785 0.38829827308654785 0.38829827308654785
0.39296934008598328 0.39296934008598328 0.39296934008598328
0.39725318551063538 0.39725318551063538 0.39725318551063538
0.40135794878005981 0.40135794878005981 0.40135794878005981
0.40541639924049377 0.40541639924049377 0.40541639924049377
0.40982288122177124 0.40982288122177124 0.40982288122177124
0.4147123396396637 0.4147123396396637 0.4147123396396637
0.43934246897697449 0.43934246897697449 0.43934246897697449
0.43936112523078918 0.43936112523078918 0.43936112523078918
0.44095158576965332 0.44095158576965332 0.44095158576965332
0.44347965717315674 0.44347965717315674 0.44347965717315674
0.4468352198600769 0.4468352198600769 0.4468352198600769
0.45088908076286316 0.45088908076286316 0.45088908076286316
0.45537576079368591 0.45537576079368591 0.45537576079368591
0.46001231670379639 0.46001231670379639 0.46001231670379639
0.46470555663108826 0.46470555663108826 0.46470555663108826
0.46904408931732178 0.46904408931732178 0.46904408931732178
0.47349965572357178 0.47349965572357178 0.47349965572357178
0.47798797488212585 0.47798797488212585 0.47798797488212585
0.48277845978736877 0.48277845978736877 0.48277845978736877
0.51045304536819458 0.51045304536819458 0.51045304536819458
0.51088112592697144 0.51088112592697144 0.51088112592697144
0.51243233680725098 0.51243233680725098 0.51243233680725098
0.51484549045562744 0.51484549045562744 0.51484549045562744
0.51780033111572266 0.51780033111572266 0.51780033111572266
0.52138739824295044 0.52138739824295044 0.52138739824295044
0.52549940347671509 0.52549940347671509 0.52549940347671509
0.52996456623077393 0.52996456623077393 0.52996456623077393
0.53447669744491577 0.53447669744491577 0.53447669744491577
0.53912287950515747 0.53912287950515747 0.53912287950515747
0.54376095533370972 0.54376095533370972 0.54376095533370972
0.54827219247817993 0.54827219247817993 0.54827219247817993
0.5529288649559021 0.5529288649559021 0.5529288649559021
0.58707588911056519 0.58707588911056519 0.58707588911056519
0.58738899230957031 0.58738899230957031 0.58738899230957031
0.58778649568557739 0.58778649568557739 0.58778649568557739
0.58921915292739868 0.58921915292739868 0.58921915292739868
0.59120196104049683 0.59120196104049683 0.59120196104049683
0.59398180246353149 0.59398180246353149 0.59398180246353149
0.59744715690612793 0.59744715690612793 0.59744715690612793
0.60147392749786377 0.60147392749786377 0.60147392749786377
0.60586535930633545 0.60586535930633545 0.60586535930633545
0.61058622598648071 0.61058622598648071 0.61058622598648071
0.61544996500015259 0.61544996500015259 0.61544996500015259
0.62006074190139771 0.62006074190139771 0.62006074190139771
0.62447172403335571 0.62447172403335571 0.62447172403335571
0.66632354259490967 0.66632354259490967 0.66632354259490967
0.6656804084777832 0.6656804084777832 0.6656804084777832
0.66495382785797119 0.66495382785797119 0.66495382785797119
0.6649620532989502 0.6649620532989502 0.6649620532989502
0.66574084758758545 0.66574084758758545 0.66574084758758545
0.66739058494567871 0.66739058494567871 0.66739058494567871
0.67001068592071533 0.67001068592071533 0.67001068592071533
0.67345124483108521 0.67345124483108521 0.67345124483108521
0.67764753103256226 0.67764753103256226 0.67764753103256226
0.68231028318405151 0.68231028318405151 0.68231028318405151
0.68734616041183472 0.68734616041183472 0.68734616041183472
0.69230461120605469 0.69230461120605469 0.69230461120605469
0.69647222757339478 0.69647222757339478 0.69647222757339478
0.74614530801773071 0.74614530801773071 0.74614530801773071
0.74444890022277832 0.74444890022277832 0.74444890022277832
0.74217039346694946 0.74217039346694946 0.74217039346694946
0.74054443836212158 0.74054443836212158 0.74054443836212158
0.73973411321640015 0.73973411321640015 0.73973411321640015
0.74031555652618408 0.74031555652618408 0.74031555652618408
0.74204325675964355 0.74204325675964355 0.74204325675964355
0.74476379156112671 0.74476379156112671 0.74476379156112671
0.74870985746383667 0.74870985746383667 0.74870985746383667
0.75339978933334351 0.75339978933334351 0.75339978933334351
0.75847256183624268 0.75847256183624268 0.75847256183624268
0.76358169317245483 0.76358169317245483 0.76358169317245483
0.76797610521316528 0.76797610521316528 0.76797610521316528
0.82301396131515503 0.82301396131515503 0.82301396131515503
0.8203660249710083 0.8203660249710083 0.8203660249710083
0.81677699089050293 0.81677699089050293 0.81677699089050293
0.81386613845825195 0.81386613845825195 0.81386613845825195
0.81203484535217285 0.81203484535217285 0.81203484535217285
0.81149846315383911 0.81149846315383911 0.81149846315383911
0.81248122453689575 0.81248122453689575 0.81248122453689575
0.81462752819061279 0.81462752819061279 0.81462752819061279
0.81813859939575195 0.81813859939575195 0.81813859939575195
0.82260501384735107 0.82260501384735107 0.82260501384735107
0.82772499322891235 0.82772499322891235 0.82772499322891235
0.83296871185302734 0.83296871185302734 0.83296871185302734
0.83743131160736084 0.83743131160736084 0.83743131160736084
0.086310259997844696 0.086310259997844696 0.086310259997844696
0.088325634598731995 0.088325634598731995 0.088325634598731995
0.092038683593273163 0.092038683593273163 0.092038683593273163
0.096397995948791504 0.096397995948791504 0.096397995948791504
0.10000365227460861 0.10000365227460861 0.10000365227460861
0.10048412531614304 0.10048412531614304 0.10048412531614304
0.098875708878040314 0.098875708878040314 0.098875708878040314
0.096633553504943848 0.096633553504943848 0.096633553504943848
0.09478180855512619 0.09478180855512619 0.09478180855512619
0.093543708324432373 0.093543708324432373 0.093543708324432373
0.093865431845188141 0.093865431845188141 0.093865431845188141
0.095929674804210663 0.095929674804210663 0.095929674804210663
0.10010760277509689 0.10010760277509689 0.10010760277509689
0.13079412281513214 0.13079412281513214 0.13079412281513214
0.13230873644351959 0.13230873644351959 0.13230873644351959
0.13524104654788971 0.13524104654788971 0.13524104654788971
0.13893279433250427 0.13893279433250427 0.13893279433250427
0.14202834665775299 0.14202834665775299 0.14202834665775299
0.14339619874954224 0.14339619874954224 0.14339619874954224
0.14272595942020416 0.14272595942020416 0.14272595942020416
0.14163286983966827 0.14163286983966827 0.14163286983966827
0.14058791100978851 0.14058791100978851 0.14058791100978851
0.14041724801063538 0.14041724801063538 0.14041724801063538
0.14084805548191071 0.14084805548191071 0.14084805548191071
0.14337405562400818 0.14337405562400818 0.14337405562400818
0.14786049723625183 0.14786049723625183 0.14786049723625183
0.17721505463123322 0.17721505463123322 0.17721505463123322
0.17759867012500763 0.17759867012500763 0.17759867012500763
0.17946048080921173 0.17946048080921173 0.17946048080921173
0.18216356635093689 0.18216356635093689 0.18216356635093689
0.18493171036243439 0.18493171036243439 0.18493171036243439
0.18690288066864014 0.18690288066864014 0.18690288066864014
0.18800652027130127 0.18800652027130127 0.18800652027130127
0.18854928016662598 0.18854928016662598 0.18854928016662598
0.18901081383228302 0.18901081383228302 0.18901081383228302
0.18948143720626831 0.18948143720626831 0.18948143720626831
0.19095319509506226 0.19095319509506226 0.19095319509506226
0.19386552274227142 0.19386552274227142 0.19386552274227142
0.19860541820526123 0.19860541820526123 0.19860541820526123
0.22573511302471161 0.22573511302471161 0.22573511302471161
0.22516004741191864 0.22516004741191864 0.22516004741191864
0.22607576847076416 0.22607576847076416 0.22607576847076416
0.22798508405685425 0.22798508405685425 0.22798508405685425
0.23047049343585968 0.23047049343585968 0.23047049343585968
0.23334181308746338 0.23334181308746338 0.23334181308746338
0.23600991070270538 0.23600991070270538 0.23600991070270538
0.2382369190454483 0.2382369190454483 0.2382369190454483
0.24000301957130432 0.24000301957130432 0.24000301957130432
0.24181592464447021 0.24181592464447021 0.24181592464447021
0.24409018456935883 0.24409018456935883 0.24409018456935883
0.24731609225273132 0.24731609225273132 0.24731609225273132
0.25227129459381104 0.25227129459381104 0.25227129459381104
0.27719223499298096 0.27719223499298096 0.27719223499298096
0.27583810687065125 0.27583810687065125 0.27583810687065125
0.27608314156532288 0.27608314156532288 0.27608314156532288
0.27738898992538452 0.27738898992538452 0.27738898992538452
0.27998453378677368 0.27998453378677368 0.27998453378677368
0.2837778627872467 0.2837778627872467 0.2837778627872467
0.28798666596412659 0.28798666596412659 0.28798666596412659
0.29157820343971252 0.29157820343971252 0.29157820343971252
0.29471227526664734 0.29471227526664734 0.29471227526664734
0.29757672548294067 0.29757672548294067 0.29757672548294067
0.30042782425880432 0.30042782425880432 0.30042782425880432
0.30413895845413208 0.30413895845413208 0.30413895845413208
0.30910250544548035 0.30910250544548035 0.30910250544548035
0.33197572827339172 0.33197572827339172 0.33197572827339172
0.33186274766921997 0.33186274766921997 0.33186274766921997
0.33186274766921997 0.33186274766921997 0.33186274766921997
0.33191630244255066 0.33191630244255066 0.33191630244255066
0.33512505888938904 0.33512505888938904 0.33512505888938904
0.33942466974258423 0.33942466974258423 0.33942466974258423
0.34464606642723083 0.34464606642723083 0.34464606642723083
0.34926474094390869 0.34926474094390869 0.34926474094390869
0.35321655869483948 0.35321655869483948 0.35321655869483948
0.35676571726799011 0.35676571726799011 0.35676571726799011
0.36024713516235352 0.36024713516235352 0.36024713516235352
0.36415815353393555 0.36415815353393555 0.36415815353393555
0.36908012628555298 0.36908012628555298 0.36908012628555298
0.390390545129776 0.390390545129776 0.390390545129776
0.39010053873062134 0.39010053873062134 0.39010053873062134
0.39080914855003357 0.39080914855003357 0.39080914855003357
0.39279699325561523 0.39279699325561523 0.39279699325561523
0.3962235152721405 0.3962235152721405 0.3962235152721405
0.40079796314239502 0.40079796314239502 0.40079796314239502
0.4061008095741272 0.4061008095741272 0.4061008095741272
0.41122281551361084 0.41122281551361084 0.41122281551361084
0.41557428240776062 0.41557428240776062 0.41557428240776062
0.41959092020988464 0.41959092020988464 0.41959092020988464
0.42342075705528259 0.42342075705528259 0.42342075705528259
0.42754891514778137 0.42754891514778137 0.42754891514778137
0.43236133456230164 0.43236133456230164 0.43236133456230164
0.45372435450553894 0.45372435450553894 0.45372435450553894
0.45415061712265015 0.45415061712265015 0.45415061712265015
0.45591846108436584 0.45591846108436584 0.45591846108436584
0.45871955156326294 0.45871955156326294 0.45871955156326294
0.46232366561889648 0.46232366561889648 0.46232366561889648
0.46673399209976196 0.46673399209976196 0.46673399209976196
0.47168248891830444 0.47168248891830444 0.47168248891830444
0.4765532910823822 0.4765532910823822 0.4765532910823822
0.48124843835830688 0.48124843835830688 0.48124843835830688
0.48545879125595093 0.48545879125595093 0.48545879125595093
0.48954877257347107 0.48954877257347107 0.48954877257347107
0.49374812841415405 0.49374812841415405 0.49374812841415405
0.4984239935874939 0.4984239935874939 0.4984239935874939
0.52249348163604736 0.52249348163604736 0.52249348163604736
0.523609459400177 0.523609459400177 0.523609459400177
0.52573716640472412 0.52573716640472412 0.52573716640472412
0.52850669622421265 0.52850669622421265 0.52850669622421265
0.53185796737670898 0.53185796737670898 0.53185796737670898
0.53581351041793823 0.53581351041793823 0.53581351041793823
0.54020196199417114 0.54020196199417114 0.54020196199417114
0.54478555917739868 0.54478555917739868 0.54478555917739868
0.54927760362625122 0.54927760362625122 0.54927760362625122
0.55372744798660278 0.55372744798660278 0.55372744798660278
0.55798941850662231 0.55798941850662231 0.55798941850662231
0.56227999925613403 0.56227999925613403 0.56227999925613403
0.56679832935333252 0.56679832935333252 0.56679832935333252
0.59758943319320679 0.59758943319320679 0.59758943319320679
0.59779220819473267 0.59779220819473267 0.59779220819473267
0.59923577308654785 0.59923577308654785 0.59923577308654785
0.60121434926986694 0.60121434926986694 0.60121434926986694
0.60363101959228516 0.60363101959228516 0.60363101959228516
0.60682457685470581 0.60682457685470581 0.60682457685470581
0.61048686504364014 0.61048686504364014 0.61048686504364014
0.61449968814849854 0.61449968814849854 0.61449968814849854
0.6188730001449585 0.6188730001449585 0.6188730001449585
0.62326133251190186 0.62326133251190186 0.62326133251190186
0.62774378061294556 0.62774378061294556 0.62774378061294556
0.63219761848449707 0.63219761848449707 0.63219761848449707
0.63639336824417114 0.63639336824417114 0.63639336824417114
0.67495435476303101 0.67495435476303101 0.67495435476303101
0.67432224750518799 0.67432224750518799 0.67432224750518799
0.67449295520782471 0.67449295520782471 0.67449295520782471
0.67516660690307617 0.67516660690307617 0.67516660690307617
0.67641270160675049 0.67641270160675049 0.67641270160675049
0.67840725183486938 0.67840725183486938 0.67840725183486938
0.68122833967208862 0.68122833967208862 0.68122833967208862
0.68477463722229004 0.68477463722229004 0.68477463722229004
0.68878823518753052 0.68878823518753052 0.68878823518753052
0.69320249557495117 0.69320249557495117 0.69320249557495117
0.69788950681686401 0.69788950681686401 0.69788950681686401
0.70242524147033691 0.70242524147033691 0.70242524147033691
0.70654338598251343 0.70654338598251343 0.70654338598251343
0.75265592336654663 0.75265592336654663 0.75265592336654663
0.75147885084152222 0.75147885084152222 0.75147885084152222
0.74988675117492676 0.74988675117492676 0.74988675117492676
0.74881422519683838 0.74881422519683838 0.74881422519683838
0.74875921010971069 0.74875921010971069 0.74875921010971069
0.74950253963470459 0.74950253963470459 0.74950253963470459
0.75146228075027466 0.75146228075027466 0.75146228075027466
0.75435489416122437 0.75435489416122437 0.75435489416122437
0.75804179906845093 0.75804179906845093 0.75804179906845093
0.76237821578979492 0.76237821578979492 0.76237821578979492
0.76721608638763428 0.76721608638763428 0.76721608638763428
0.77193999290466309 0.77193999290466309 0.77193999290466309
0.77600669860839844 0.77600669860839844 0.77600669860839844
0.82706719636917114 0.82706719636917114 0.82706719636917114
0.82527494430541992 0.82527494430541992 0.82527494430541992
0.82265388965606689 0.82265388965606689 0.82265388965606689
0.82044094800949097 0.82044094800949097 0.82044094800949097
0.81926870346069336 0.81926870346069336 0.81926870346069336
0.81922745704650879 0.81922745704650879 0.81922745704650879
0.82021456956863403 0.82021456956863403 0.82021456956863403
0.82246792316436768 0.82246792316436768 0.82246792316436768
0.82581526041030884 0.82581526041030884 0.82581526041030884
0.82996797561645508 0.82996797561645508 0.82996797561645508
0.83471947908401489 0.83471947908401489 0.83471947908401489
0.83946341276168823 0.83946341276168823 0.83946341276168823
0.8434712290763855 0.8434712290763855 0.8434712290763855
0.11416719853878021 0.11416719853878021 0.11416719853878021
0.11622640490531921 0.11622640490531921 0.11622640490531921
0.12006222456693649 0.12006222456693649 0.12006222456693649
0.12437214702367783 0.12437214702367783 0.12437214702367783
0.12799343466758728 0.12799343466758728 0.12799343466758728
0.12937776744365692 0.12937776744365692 0.12937776744365692
0.12885287404060364 0.12885287404060364 0.12885287404060364
0.12758544087409973 0.12758544087409973 0.12758544087409973
0.12663097679615021 0.12663097679615021 0.12663097679615021
0.1264956146478653 0.1264956146478653 0.1264956146478653
0.12770800292491913 0.12770800292491913 0.12770800292491913
0.13069882988929749 0.13069882988929749 0.13069882988929749
0.13562595844268799 0.13562595844268799 0.13562595844268799
0.15769888460636139 0.15769888460636139 0.15769888460636139
0.15915435552597046 0.15915435552597046 0.15915435552597046
0.16220115125179291 0.16220115125179291 0.16220115125179291
0.166031613945961 0.166031613945961 0.166031613945961
0.16944468021392822 0.16944468021392822 0.16944468021392822
0.17108695209026337 0.17108695209026337 0.17108695209026337
0.17138008773326874 0.17138008773326874 0.17138008773326874
0.17112985253334045 0.17112985253334045 0.17112985253334045
0.17068253457546234 0.17068253457546234 0.17068253457546234
0.17115674912929535 0.17115674912929535 0.17115674912929535
0.1727701872587204 0.1727701872587204 0.1727701872587204
0.17592467367649078 0.17592467367649078 0.17592467367649078
0.18109676241874695 0.18109676241874695 0.18109676241874695
0.20323185622692108 0.20323185622692108 0.20323185622692108
0.20360472798347473 0.20360472798347473 0.20360472798347473
0.2057248055934906 0.2057248055934906 0.2057248055934906
0.20853659510612488 0.20853659510612488 0.20853659510612488
0.21151718497276306 0.21151718497276306 0.21151718497276306
0.21407797932624817 0.21407797932624817 0.21407797932624817
0.21573880314826965 0.21573880314826965 0.21573880314826965
0.21669675409793854 0.21669675409793854 0.21669675409793854
0.21782636642456055 0.21782636642456055 0.21782636642456055
0.21870172023773193 0.21870172023773193 0.21870172023773193
0.22064626216888428 0.22064626216888428 0.22064626216888428
0.22397956252098083 0.22397956252098083 0.22397956252098083
0.22919882833957672 0.22919882833957672 0.22919882833957672
0.25083398818969727 0.25083398818969727 0.25083398818969727
0.25035247206687927 0.25035247206687927 0.25035247206687927
0.25121784210205078 0.25121784210205078 0.25121784210205078
0.25325870513916016 0.25325870513916016 0.25325870513916016
0.25591078400611877 0.25591078400611877 0.25591078400611877
0.25924420356750488 0.25924420356750488 0.25924420356750488
0.26252597570419312 0.26252597570419312 0.26252597570419312
0.26511785387992859 0.26511785387992859 0.26511785387992859
0.26723834872245789 0.26723834872245789 0.26723834872245789
0.26918932795524597 0.26918932795524597 0.26918932795524597
0.27156037092208862 0.27156037092208862 0.27156037092208862
0.27505993843078613 0.27505993843078613 0.27505993843078613
0.28021755814552307 0.28021755814552307 0.28021755814552307
0.30129864811897278 0.30129864811897278 0.30129864811897278
0.30014228820800781 0.30014228820800781 0.30014228820800781
0.30022785067558289 0.30022785067558289 0.30022785067558289
0.30142664909362793 0.30142664909362793 0.30142664909362793
0.3039529025554657 0.3039529025554657 0.3039529025554657
0.30830836296081543 0.30830836296081543 0.30830836296081543
0.31294727325439453 0.31294727325439453 0.31294727325439453
