luts/bw/rollei_retro_80s.cube
# Created by: G'MIC (https://gmic.eu)
TITLE "rollei_retro_80s"
# LUT size
LUT_3D_SIZE 7
# Data domain
DOMAIN_MIN 0.0 0.0 0.0
DOMAIN_MAX 1.0 1.0 1.0
# LUT data points
0.0071358024142682552 0.0071358024142682552 0.0071358024142682552
0.023174555972218513 0.023174555972218513 0.023174555972218513
0.062848456203937531 0.062848456203937531 0.062848456203937531
0.15349413454532623 0.15349413454532623 0.15349413454532623
0.32713550329208374 0.32713550329208374 0.32713550329208374
0.5541570782661438 0.5541570782661438 0.5541570782661438
0.77867722511291504 0.77867722511291504 0.77867722511291504
0.023629477247595787 0.023629477247595787 0.023629477247595787
0.038053281605243683 0.038053281605243683 0.038053281605243683
0.080543056130409241 0.080543056130409241 0.080543056130409241
0.18093141913414001 0.18093141913414001 0.18093141913414001
0.35567495226860046 0.35567495226860046 0.35567495226860046
0.5770685076713562 0.5770685076713562 0.5770685076713562
0.79360771179199219 0.79360771179199219 0.79360771179199219
0.054718930274248123 0.054718930274248123 0.054718930274248123
0.068827368319034576 0.068827368319034576 0.068827368319034576
0.11671703308820724 0.11671703308820724 0.11671703308820724
0.22297188639640808 0.22297188639640808 0.22297188639640808
0.39958077669143677 0.39958077669143677 0.39958077669143677
0.61488276720046997 0.61488276720046997 0.61488276720046997
0.81732666492462158 0.81732666492462158 0.81732666492462158
0.1036442294716835 0.1036442294716835 0.1036442294716835
0.12112408876419067 0.12112408876419067 0.12112408876419067
0.17737427353858948 0.17737427353858948 0.17737427353858948
0.28580594062805176 0.28580594062805176 0.28580594062805176
0.46082794666290283 0.46082794666290283 0.46082794666290283
0.66908687353134155 0.66908687353134155 0.66908687353134155
0.85038042068481445 0.85038042068481445 0.85038042068481445
0.17990273237228394 0.17990273237228394 0.17990273237228394
0.20379073917865753 0.20379073917865753 0.20379073917865753
0.27339914441108704 0.27339914441108704 0.27339914441108704
0.38661673665046692 0.38661673665046692 0.38661673665046692
0.54357105493545532 0.54357105493545532 0.54357105493545532
0.72059023380279541 0.72059023380279541 0.72059023380279541
0.87766635417938232 0.87766635417938232 0.87766635417938232
0.30647704005241394 0.30647704005241394 0.30647704005241394
0.33266338706016541 0.33266338706016541 0.33266338706016541
0.40420028567314148 0.40420028567314148 0.40420028567314148
0.50819212198257446 0.50819212198257446 0.50819212198257446
0.63606363534927368 0.63606363534927368 0.63606363534927368
0.7722894549369812 0.7722894549369812 0.7722894549369812
0.90226596593856812 0.90226596593856812 0.90226596593856812
0.47945305705070496 0.47945305705070496 0.47945305705070496
0.50094753503799438 0.50094753503799438 0.50094753503799438
0.5561671257019043 0.5561671257019043 0.5561671257019043
0.63869446516036987 0.63869446516036987 0.63869446516036987
0.73554003238677979 0.73554003238677979 0.73554003238677979
0.83670890331268311 0.83670890331268311 0.83670890331268311
0.9396209716796875 0.9396209716796875 0.9396209716796875
0.017671907320618629 0.017671907320618629 0.017671907320618629
0.043559487909078598 0.043559487909078598 0.043559487909078598
0.092683963477611542 0.092683963477611542 0.092683963477611542
0.19703759253025055 0.19703759253025055 0.19703759253025055
0.37335684895515442 0.37335684895515442 0.37335684895515442
0.59275370836257935 0.59275370836257935 0.59275370836257935
0.8040086030960083 0.8040086030960083 0.8040086030960083
0.037798069417476654 0.037798069417476654 0.037798069417476654
0.059050794690847397 0.059050794690847397 0.059050794690847397
0.11002378165721893 0.11002378165721893 0.11002378165721893
0.21920044720172882 0.21920044720172882 0.21920044720172882
0.39655435085296631 0.39655435085296631 0.39655435085296631
0.61199015378952026 0.61199015378952026 0.61199015378952026
0.81825166940689087 0.81825166940689087 0.81825166940689087
0.072244323790073395 0.072244323790073395 0.072244323790073395
0.091215766966342926 0.091215766966342926 0.091215766966342926
0.14629743993282318 0.14629743993282318 0.14629743993282318
0.26061537861824036 0.26061537861824036 0.26061537861824036
0.4365207850933075 0.4365207850933075 0.4365207850933075
0.64267581701278687 0.64267581701278687 0.64267581701278687
0.83593392372131348 0.83593392372131348 0.83593392372131348
0.12507803738117218 0.12507803738117218 0.12507803738117218
0.14786314964294434 0.14786314964294434 0.14786314964294434
0.21095296740531921 0.21095296740531921 0.21095296740531921
0.32742863893508911 0.32742863893508911 0.32742863893508911
0.49646055698394775 0.49646055698394775 0.49646055698394775
0.68761682510375977 0.68761682510375977 0.68761682510375977
0.86127984523773193 0.86127984523773193 0.86127984523773193
0.20394226908683777 0.20394226908683777 0.20394226908683777
0.23607508838176727 0.23607508838176727 0.23607508838176727
0.31061834096908569 0.31061834096908569 0.31061834096908569
0.4259321391582489 0.4259321391582489 0.4259321391582489
0.57597202062606812 0.57597202062606812 0.57597202062606812
0.73870629072189331 0.73870629072189331 0.73870629072189331
0.88691073656082153 0.88691073656082153 0.88691073656082153
0.33033886551856995 0.33033886551856995 0.33033886551856995
0.36808380484580994 0.36808380484580994 0.36808380484580994
0.44289839267730713 0.44289839267730713 0.44289839267730713
0.54683452844619751 0.54683452844619751 0.54683452844619751
0.66826224327087402 0.66826224327087402 0.66826224327087402
0.79401916265487671 0.79401916265487671 0.79401916265487671
0.9141695499420166 0.9141695499420166 0.9141695499420166
0.50411778688430786 0.50411778688430786 0.50411778688430786
0.53483706712722778 0.53483706712722778 0.53483706712722778
0.59431761503219604 0.59431761503219604 0.59431761503219604
0.67742341756820679 0.67742341756820679 0.67742341756820679
0.76741141080856323 0.76741141080856323 0.76741141080856323
0.85844725370407104 0.85844725370407104 0.85844725370407104
0.95256334543228149 0.95256334543228149 0.95256334543228149
0.035986792296171188 0.035986792296171188 0.035986792296171188
0.074388615787029266 0.074388615787029266 0.074388615787029266
0.13386188447475433 0.13386188447475433 0.13386188447475433
0.24941791594028473 0.24941791594028473 0.24941791594028473
0.42842981219291687 0.42842981219291687 0.42842981219291687
0.6401183009147644 0.6401183009147644 0.6401183009147644
0.83188366889953613 0.83188366889953613 0.83188366889953613
0.059110604226589203 0.059110604226589203 0.059110604226589203
0.091347679495811462 0.091347679495811462 0.091347679495811462
0.1550920158624649 0.1550920158624649 0.1550920158624649
0.2737317681312561 0.2737317681312561 0.2737317681312561
0.45016264915466309 0.45016264915466309 0.45016264915466309
0.65362280607223511 0.65362280607223511 0.65362280607223511
0.8422197699546814 0.8422197699546814 0.8422197699546814
0.098531536757946014 0.098531536757946014 0.098531536757946014
0.12866126000881195 0.12866126000881195 0.12866126000881195
0.19783499836921692 0.19783499836921692 0.19783499836921692
0.31922978162765503 0.31922978162765503 0.31922978162765503
0.48844563961029053 0.48844563961029053 0.48844563961029053
0.67778056859970093 0.67778056859970093 0.67778056859970093
0.85402756929397583 0.85402756929397583 0.85402756929397583
0.1629527360200882 0.1629527360200882 0.1629527360200882
0.19533883035182953 0.19533883035182953 0.19533883035182953
0.26949998736381531 0.26949998736381531 0.26949998736381531
0.38971361517906189 0.38971361517906189 0.38971361517906189
0.54688149690628052 0.54688149690628052 0.54688149690628052
0.71650749444961548 0.71650749444961548 0.71650749444961548
0.8734586238861084 0.8734586238861084 0.8734586238861084
0.25882706046104431 0.25882706046104431 0.25882706046104431
0.29650428891181946 0.29650428891181946 0.29650428891181946
0.37346920371055603 0.37346920371055603 0.37346920371055603
0.48598793148994446 0.48598793148994446 0.48598793148994446
0.62278896570205688 0.62278896570205688 0.62278896570205688
0.76581013202667236 0.76581013202667236 0.76581013202667236
0.89817476272583008 0.89817476272583008 0.89817476272583008
0.39346081018447876 0.39346081018447876 0.39346081018447876
0.43357202410697937 0.43357202410697937 0.43357202410697937
0.50452053546905518 0.50452053546905518 0.50452053546905518
0.60095858573913574 0.60095858573913574 0.60095858573913574
0.71067482233047485 0.71067482233047485 0.71067482233047485
0.82136231660842896 0.82136231660842896 0.82136231660842896
0.92755192518234253 0.92755192518234253 0.92755192518234253
0.56337916851043701 0.56337916851043701 0.56337916851043701
0.59381955862045288 0.59381955862045288 0.59381955862045288
0.64852994680404663 0.64852994680404663 0.64852994680404663
0.72331523895263672 0.72331523895263672 0.72331523895263672
0.80330318212509155 0.80330318212509155 0.80330318212509155
0.88347280025482178 0.88347280025482178 0.88347280025482178
0.96607846021652222 0.96607846021652222 0.96607846021652222
0.061505470424890518 0.061505470424890518 0.061505470424890518
0.10650371760129929 0.10650371760129929 0.10650371760129929
0.17616541683673859 0.17616541683673859 0.17616541683673859
0.29723396897315979 0.29723396897315979 0.29723396897315979
0.4765174388885498 0.4765174388885498 0.4765174388885498
0.67638188600540161 0.67638188600540161 0.67638188600540161
0.85056197643280029 0.85056197643280029 0.85056197643280029
0.09281514585018158 0.09281514585018158 0.09281514585018158
0.13363911211490631 0.13363911211490631 0.13363911211490631
0.20834231376647949 0.20834231376647949 0.20834231376647949
0.33223575353622437 0.33223575353622437 0.33223575353622437
0.50387120246887207 0.50387120246887207 0.50387120246887207
0.69137370586395264 0.69137370586395264 0.69137370586395264
0.86059695482254028 0.86059695482254028 0.86059695482254028
0.14384853839874268 0.14384853839874268 0.14384853839874268
0.18251186609268188 0.18251186609268188 0.18251186609268188
0.26323708891868591 0.26323708891868591 0.26323708891868591
0.38788726925849915 0.38788726925849915 0.38788726925849915
0.54681015014648438 0.54681015014648438 0.54681015014648438
0.71622228622436523 0.71622228622436523 0.71622228622436523
0.87186360359191895 0.87186360359191895 0.87186360359191895
0.22497467696666718 0.22497467696666718 0.22497467696666718
0.26319456100463867 0.26319456100463867 0.26319456100463867
0.34512040019035339 0.34512040019035339 0.34512040019035339
0.46354389190673828 0.46354389190673828 0.46354389190673828
0.60680067539215088 0.60680067539215088 0.60680067539215088
0.7543567419052124 0.7543567419052124 0.7543567419052124
0.89007598161697388 0.89007598161697388 0.89007598161697388
0.34209230542182922 0.34209230542182922 0.34209230542182922
0.3791973888874054 0.3791973888874054 0.3791973888874054
0.45369940996170044 0.45369940996170044 0.45369940996170044
0.55819463729858398 0.55819463729858398 0.55819463729858398
0.6798478364944458 0.6798478364944458 0.6798478364944458
0.8018871545791626 0.8018871545791626 0.8018871545791626
0.91357231140136719 0.91357231140136719 0.91357231140136719
0.48716524243354797 0.48716524243354797 0.48716524243354797
0.51998215913772583 0.51998215913772583 0.51998215913772583
0.58081626892089844 0.58081626892089844 0.58081626892089844
0.66453224420547485 0.66453224420547485 0.66453224420547485
0.75942116975784302 0.75942116975784302 0.75942116975784302
0.85303539037704468 0.85303539037704468 0.85303539037704468
0.94114488363265991 0.94114488363265991 0.94114488363265991
0.64716452360153198 0.64716452360153198 0.64716452360153198
0.66966521739959717 0.66966521739959717 0.66966521739959717
0.71267604827880859 0.71267604827880859 0.71267604827880859
0.77327382564544678 0.77327382564544678 0.77327382564544678
0.8409925103187561 0.8409925103187561 0.8409925103187561
0.90820848941802979 0.90820848941802979 0.90820848941802979
0.9762653112411499 0.9762653112411499 0.9762653112411499
0.10953938961029053 0.10953938961029053 0.10953938961029053
0.1641080230474472 0.1641080230474472 0.1641080230474472
0.2411016970872879 0.2411016970872879 0.2411016970872879
0.35967281460762024 0.35967281460762024 0.35967281460762024
0.53061950206756592 0.53061950206756592 0.53061950206756592
0.70595377683639526 0.70595377683639526 0.70595377683639526
0.86101806163787842 0.86101806163787842 0.86101806163787842
0.15348105132579803 0.15348105132579803 0.15348105132579803
0.20195871591567993 0.20195871591567993 0.20195871591567993
0.28497189283370972 0.28497189283370972 0.28497189283370972
0.40765443444252014 0.40765443444252014 0.40765443444252014
0.56535369157791138 0.56535369157791138 0.56535369157791138
0.72854804992675781 0.72854804992675781 0.72854804992675781
0.87532693147659302 0.87532693147659302 0.87532693147659302
0.22081863880157471 0.22081863880157471 0.22081863880157471
0.26396837830543518 0.26396837830543518 0.26396837830543518
0.35072630643844604 0.35072630643844604 0.35072630643844604
0.47111019492149353 0.47111019492149353 0.47111019492149353
0.6135287880897522 0.6135287880897522 0.6135287880897522
0.7583889365196228 0.7583889365196228 0.7583889365196228
0.89055103063583374 0.89055103063583374 0.89055103063583374
0.32012537121772766 0.32012537121772766 0.32012537121772766
0.35895529389381409 0.35895529389381409 0.35895529389381409
0.4399532675743103 0.4399532675743103 0.4399532675743103
0.54929041862487793 0.54929041862487793 0.54929041862487793
0.67438662052154541 0.67438662052154541 0.67438662052154541
0.79779922962188721 0.79779922962188721 0.79779922962188721
0.90949767827987671 0.90949767827987671 0.90949767827987671
0.44953581690788269 0.44953581690788269 0.44953581690788269
0.48322832584381104 0.48322832584381104 0.48322832584381104
0.54900026321411133 0.54900026321411133 0.54900026321411133
0.63983386754989624 0.63983386754989624 0.63983386754989624
0.74357759952545166 0.74357759952545166 0.74357759952545166
0.84350758790969849 0.84350758790969849 0.84350758790969849
0.93107998371124268 0.93107998371124268 0.93107998371124268
0.58891785144805908 0.58891785144805908 0.58891785144805908
0.61661309003829956 0.61661309003829956 0.61661309003829956
0.66634893417358398 0.66634893417358398 0.66634893417358398
0.73512113094329834 0.73512113094329834 0.73512113094329834
0.81331729888916016 0.81331729888916016 0.81331729888916016
0.88714712858200073 0.88714712858200073 0.88714712858200073
0.95354539155960083 0.95354539155960083 0.95354539155960083
0.72741419076919556 0.72741419076919556 0.72741419076919556
0.74793261289596558 0.74793261289596558 0.74793261289596558
0.78179943561553955 0.78179943561553955 0.78179943561553955
0.82890719175338745 0.82890719175338745 0.82890719175338745
0.88190478086471558 0.88190478086471558 0.88190478086471558
0.93275195360183716 0.93275195360183716 0.93275195360183716
0.98202979564666748 0.98202979564666748 0.98202979564666748
0.19236944615840912 0.19236944615840912 0.19236944615840912
0.26556819677352905 0.26556819677352905 0.26556819677352905
0.35566940903663635 0.35566940903663635 0.35566940903663635
0.47356748580932617 0.47356748580932617 0.47356748580932617
0.61552256345748901 0.61552256345748901 0.61552256345748901
0.75334912538528442 0.75334912538528442 0.75334912538528442
0.88001447916030884 0.88001447916030884 0.88001447916030884
0.25332048535346985 0.25332048535346985 0.25332048535346985
0.3131595253944397 0.3131595253944397 0.3131595253944397
0.40197879076004028 0.40197879076004028 0.40197879076004028
0.51682740449905396 0.51682740449905396 0.51682740449905396
0.64886724948883057 0.64886724948883057 0.64886724948883057
0.77795100212097168 0.77795100212097168 0.77795100212097168
0.89682918787002563 0.89682918787002563 0.89682918787002563
0.34159529209136963 0.34159529209136963 0.34159529209136963
0.38500136137008667 0.38500136137008667 0.38500136137008667
0.46862936019897461 0.46862936019897461 0.46862936019897461
0.574848473072052 0.574848473072052 0.574848473072052
0.69221013784408569 0.69221013784408569 0.69221013784408569
0.80756938457489014 0.80756938457489014 0.80756938457489014
0.9140472412109375 0.9140472412109375 0.9140472412109375
0.46231004595756531 0.46231004595756531 0.46231004595756531
0.49225911498069763 0.49225911498069763 0.49225911498069763
0.55752432346343994 0.55752432346343994 0.55752432346343994
0.64669239521026611 0.64669239521026611 0.64669239521026611
0.74648052453994751 0.74648052453994751 0.74648052453994751
0.84305357933044434 0.84305357933044434 0.84305357933044434
0.9315001368522644 0.9315001368522644 0.9315001368522644
0.58362418413162231 0.58362418413162231 0.58362418413162231
0.60895240306854248 0.60895240306854248 0.60895240306854248
0.65769332647323608 0.65769332647323608 0.65769332647323608
0.72725695371627808 0.72725695371627808 0.72725695371627808
0.80667400360107422 0.80667400360107422 0.80667400360107422
0.88181626796722412 0.88181626796722412 0.88181626796722412
0.94810909032821655 0.94810909032821655 0.94810909032821655
0.69847124814987183 0.69847124814987183 0.69847124814987183
0.7208937406539917 0.7208937406539917 0.7208937406539917
0.75743401050567627 0.75743401050567627 0.75743401050567627
0.80844932794570923 0.80844932794570923 0.80844932794570923
0.86683458089828491 0.86683458089828491 0.86683458089828491
0.92032039165496826 0.92032039165496826 0.92032039165496826
0.96310532093048096 0.96310532093048096 0.96310532093048096
0.80967056751251221 0.80967056751251221 0.80967056751251221
0.82756799459457397 0.82756799459457397 0.82756799459457397
0.8530116081237793 0.8530116081237793 0.8530116081237793
0.88641917705535889 0.88641917705535889 0.88641917705535889
0.92389583587646484 0.92389583587646484 0.92389583587646484
0.95681756734848022 0.95681756734848022 0.95681756734848022
0.98251509666442871 0.98251509666442871 0.98251509666442871
0.30478337407112122 0.30478337407112122 0.30478337407112122
0.4011559784412384 0.4011559784412384 0.4011559784412384
0.49411839246749878 0.49411839246749878 0.49411839246749878
0.60514599084854126 0.60514599084854126 0.60514599084854126
0.71837049722671509 0.71837049722671509 0.71837049722671509
0.81650710105895996 0.81650710105895996 0.81650710105895996
0.91266787052154541 0.91266787052154541 0.91266787052154541
0.38897722959518433 0.38897722959518433 0.38897722959518433
0.45824208855628967 0.45824208855628967 0.45824208855628967
0.54275792837142944 0.54275792837142944 0.54275792837142944
0.64230674505233765 0.64230674505233765 0.64230674505233765
0.74510914087295532 0.74510914087295532 0.74510914087295532
0.83938008546829224 0.83938008546829224 0.83938008546829224
0.93058329820632935 0.93058329820632935 0.93058329820632935
0.49993863701820374 0.49993863701820374 0.49993863701820374
0.54023879766464233 0.54023879766464233 0.54023879766464233
0.6062619686126709 0.6062619686126709 0.6062619686126709
0.68928283452987671 0.68928283452987671 0.68928283452987671
0.77786034345626831 0.77786034345626831 0.77786034345626831
0.86364156007766724 0.86364156007766724 0.86364156007766724
0.94651645421981812 0.94651645421981812 0.94651645421981812
0.62884831428527832 0.62884831428527832 0.62884831428527832
0.64473319053649902 0.64473319053649902 0.64473319053649902
0.68602746725082397 0.68602746725082397 0.68602746725082397
0.74890261888504028 0.74890261888504028 0.74890261888504028
0.82050049304962158 0.82050049304962158 0.82050049304962158
0.8906518816947937 0.8906518816947937 0.8906518816947937
0.95932388305664062 0.95932388305664062 0.95932388305664062
0.72478693723678589 0.72478693723678589 0.72478693723678589
0.74073988199234009 0.74073988199234009 0.74073988199234009
0.76940613985061646 0.76940613985061646 0.76940613985061646
0.81467801332473755 0.81467801332473755 0.81467801332473755
0.86780798435211182 0.86780798435211182 0.86780798435211182
0.91897541284561157 0.91897541284561157 0.91897541284561157
0.96855145692825317 0.96855145692825317 0.96855145692825317
0.80910396575927734 0.80910396575927734 0.80910396575927734
0.82574057579040527 0.82574057579040527 0.82574057579040527
0.84841346740722656 0.84841346740722656 0.84841346740722656
0.88000905513763428 0.88000905513763428 0.88000905513763428
0.9161033034324646 0.9161033034324646 0.9161033034324646
0.94767457246780396 0.94767457246780396 0.94767457246780396
0.97422569990158081 0.97422569990158081 0.97422569990158081
0.8942103385925293 0.8942103385925293 0.8942103385925293
0.90851116180419922 0.90851116180419922 0.90851116180419922
0.92469865083694458 0.92469865083694458 0.92469865083694458
0.94392913579940796 0.94392913579940796 0.94392913579940796
0.96345531940460205 0.96345531940460205 0.96345531940460205
0.97642183303833008 0.97642183303833008 0.97642183303833008
0.98198431730270386 0.98198431730270386 0.98198431730270386
