luts/bw/rollei_ortho_25.cube
# Created by: G'MIC (https://gmic.eu)
TITLE "rollei_ortho_25"
# LUT size
LUT_3D_SIZE 5
# Data domain
DOMAIN_MIN 0.0 0.0 0.0
DOMAIN_MAX 1.0 1.0 1.0
# LUT data points
0.044461522251367569 0.044461522251367569 0.044461522251367569
0.051210936158895493 0.051210936158895493 0.051210936158895493
0.054434832185506821 0.054434832185506821 0.054434832185506821
0.061507806181907654 0.061507806181907654 0.061507806181907654
0.062328621745109558 0.062328621745109558 0.062328621745109558
0.14292588829994202 0.14292588829994202 0.14292588829994202
0.14736670255661011 0.14736670255661011 0.14736670255661011
0.15182268619537354 0.15182268619537354 0.15182268619537354
0.15191945433616638 0.15191945433616638 0.15191945433616638
0.15999430418014526 0.15999430418014526 0.15999430418014526
0.24944567680358887 0.24944567680358887 0.24944567680358887
0.25431793928146362 0.25431793928146362 0.25431793928146362
0.26501500606536865 0.26501500606536865 0.26501500606536865
0.25955498218536377 0.25955498218536377 0.25955498218536377
0.27976757287979126 0.27976757287979126 0.27976757287979126
0.48403850197792053 0.48403850197792053 0.48403850197792053
0.47600269317626953 0.47600269317626953 0.47600269317626953
0.48212870955467224 0.48212870955467224 0.48212870955467224
0.49094322323799133 0.49094322323799133 0.49094322323799133
0.50148177146911621 0.50148177146911621 0.50148177146911621
0.82521176338195801 0.82521176338195801 0.82521176338195801
0.83013594150543213 0.83013594150543213 0.83013594150543213
0.82808023691177368 0.82808023691177368 0.82808023691177368
0.84759968519210815 0.84759968519210815 0.84759968519210815
0.84913343191146851 0.84913343191146851 0.84913343191146851
0.15057814121246338 0.15057814121246338 0.15057814121246338
0.15943872928619385 0.15943872928619385 0.15943872928619385
0.16168707609176636 0.16168707609176636 0.16168707609176636
0.17368580400943756 0.17368580400943756 0.17368580400943756
0.16673237085342407 0.16673237085342407 0.16673237085342407
0.23212815821170807 0.23212815821170807 0.23212815821170807
0.23536789417266846 0.23536789417266846 0.23536789417266846
0.24850977957248688 0.24850977957248688 0.24850977957248688
0.2425994873046875 0.2425994873046875 0.2425994873046875
0.25281944870948792 0.25281944870948792 0.25281944870948792
0.34805694222450256 0.34805694222450256 0.34805694222450256
0.34637549519538879 0.34637549519538879 0.34637549519538879
0.3531491756439209 0.3531491756439209 0.3531491756439209
0.36621266603469849 0.36621266603469849 0.36621266603469849
0.39102190732955933 0.39102190732955933 0.39102190732955933
0.60926252603530884 0.60926252603530884 0.60926252603530884
0.62467390298843384 0.62467390298843384 0.62467390298843384
0.63095366954803467 0.63095366954803467 0.63095366954803467
0.63032424449920654 0.63032424449920654 0.63032424449920654
0.66011762619018555 0.66011762619018555 0.66011762619018555
0.86403393745422363 0.86403393745422363 0.86403393745422363
0.87288761138916016 0.87288761138916016 0.87288761138916016
0.8876914381980896 0.8876914381980896 0.8876914381980896
0.88095057010650635 0.88095057010650635 0.88095057010650635
0.88007223606109619 0.88007223606109619 0.88007223606109619
0.280291348695755 0.280291348695755 0.280291348695755
0.2946237325668335 0.2946237325668335 0.2946237325668335
0.28780588507652283 0.28780588507652283 0.28780588507652283
0.31459379196166992 0.31459379196166992 0.31459379196166992
0.30415409803390503 0.30415409803390503 0.30415409803390503
0.39708423614501953 0.39708423614501953 0.39708423614501953
0.40443587303161621 0.40443587303161621 0.40443587303161621
0.40518561005592346 0.40518561005592346 0.40518561005592346
0.42344799637794495 0.42344799637794495 0.42344799637794495
0.43693014979362488 0.43693014979362488 0.43693014979362488
0.58584105968475342 0.58584105968475342 0.58584105968475342
0.59926378726959229 0.59926378726959229 0.59926378726959229
0.61191475391387939 0.61191475391387939 0.61191475391387939
0.62415027618408203 0.62415027618408203 0.62415027618408203
0.63841897249221802 0.63841897249221802 0.63841897249221802
0.80571013689041138 0.80571013689041138 0.80571013689041138
0.80964159965515137 0.80964159965515137 0.80964159965515137
0.80887293815612793 0.80887293815612793 0.80887293815612793
0.82746654748916626 0.82746654748916626 0.82746654748916626
0.8309253454208374 0.8309253454208374 0.8309253454208374
0.92178541421890259 0.92178541421890259 0.92178541421890259
0.92264121770858765 0.92264121770858765 0.92264121770858765
0.93340450525283813 0.93340450525283813 0.93340450525283813
0.92995935678482056 0.92995935678482056 0.92995935678482056
0.93774187564849854 0.93774187564849854 0.93774187564849854
0.54312270879745483 0.54312270879745483 0.54312270879745483
0.56796145439147949 0.56796145439147949 0.56796145439147949
0.59805142879486084 0.59805142879486084 0.59805142879486084
0.62063133716583252 0.62063133716583252 0.62063133716583252
0.63455307483673096 0.63455307483673096 0.63455307483673096
0.7069934606552124 0.7069934606552124 0.7069934606552124
0.71550977230072021 0.71550977230072021 0.71550977230072021
0.73292315006256104 0.73292315006256104 0.73292315006256104
0.75101834535598755 0.75101834535598755 0.75101834535598755
0.76068061590194702 0.76068061590194702 0.76068061590194702
0.82658141851425171 0.82658141851425171 0.82658141851425171
0.83076876401901245 0.83076876401901245 0.83076876401901245
0.84233438968658447 0.84233438968658447 0.84233438968658447
0.84860748052597046 0.84860748052597046 0.84860748052597046
0.85333830118179321 0.85333830118179321 0.85333830118179321
0.89701420068740845 0.89701420068740845 0.89701420068740845
0.90837669372558594 0.90837669372558594 0.90837669372558594
0.91099220514297485 0.91099220514297485 0.91099220514297485
0.91836816072463989 0.91836816072463989 0.91836816072463989
0.91876518726348877 0.91876518726348877 0.91876518726348877
0.95796424150466919 0.95796424150466919 0.95796424150466919
0.96690762042999268 0.96690762042999268 0.96690762042999268
0.96960896253585815 0.96960896253585815 0.96960896253585815
0.96610337495803833 0.96610337495803833 0.96610337495803833
0.968536376953125 0.968536376953125 0.968536376953125
0.83806115388870239 0.83806115388870239 0.83806115388870239
0.84260588884353638 0.84260588884353638 0.84260588884353638
0.85820430517196655 0.85820430517196655 0.85820430517196655
0.86394894123077393 0.86394894123077393 0.86394894123077393
0.87566870450973511 0.87566870450973511 0.87566870450973511
0.89700818061828613 0.89700818061828613 0.89700818061828613
0.89988428354263306 0.89988428354263306 0.89988428354263306
0.90008783340454102 0.90008783340454102 0.90008783340454102
0.90530383586883545 0.90530383586883545 0.90530383586883545
0.92263686656951904 0.92263686656951904 0.92263686656951904
0.93333756923675537 0.93333756923675537 0.93333756923675537
0.93751722574234009 0.93751722574234009 0.93751722574234009
0.94312417507171631 0.94312417507171631 0.94312417507171631
0.94477063417434692 0.94477063417434692 0.94477063417434692
0.94941443204879761 0.94941443204879761 0.94941443204879761
0.96409207582473755 0.96409207582473755 0.96409207582473755
0.97910743951797485 0.97910743951797485 0.97910743951797485
0.97580516338348389 0.97580516338348389 0.97580516338348389
0.96795409917831421 0.96795409917831421 0.96795409917831421
0.9664420485496521 0.9664420485496521 0.9664420485496521
0.9911157488822937 0.9911157488822937 0.9911157488822937
1 1 1
0.99993103742599487 0.99993103742599487 0.99993103742599487
0.99492305517196655 0.99492305517196655 0.99492305517196655
0.98889541625976562 0.98889541625976562 0.98889541625976562
