luts/print/fuji_3510_cuspclip.cube
# Created by: G'MIC (https://gmic.eu)
TITLE "fuji_3510_cuspclip"
# LUT size
LUT_3D_SIZE 13
# Data domain
DOMAIN_MIN 0.0 0.0 0.0
DOMAIN_MAX 1.0 1.0 1.0
# LUT data points
0.014779992401599884 0.016436513513326645 0.014895704574882984
0.030934890732169151 0.024131849408149719 0.019550653174519539
0.046646296977996826 0.030078573152422905 0.020640639588236809
0.077535234391689301 0.037236187607049942 0.021045565605163574
0.1400667130947113 0.048044063150882721 0.023674475029110909
0.22658231854438782 0.046560414135456085 0.01726163923740387
0.32654699683189392 0.034316584467887878 0.009319978766143322
0.42141139507293701 0.019386785104870796 0.0029623443260788918
0.49116873741149902 0.014175340533256531 0
0.53604906797409058 0.016999982297420502 0
0.57300251722335815 0.017118776217103004 0
0.59264051914215088 0.0082364697009325027 0
0.60949397087097168 0.019469168037176132 0
0.015536139719188213 0.041846767067909241 0.026743212714791298
0.034621071070432663 0.044889293611049652 0.029653660953044891
0.056012395769357681 0.05170745775103569 0.031299382448196411
0.096849851310253143 0.063119016587734222 0.031459014862775803
0.16277690231800079 0.072635769844055176 0.029446261003613472
0.2544625997543335 0.074522025883197784 0.016014054417610168
0.35243779420852661 0.064185440540313721 0.0058739306405186653
0.44403591752052307 0.052731860429048538 0.00090089684817939997
0.51725649833679199 0.053589913994073868 0
0.56281286478042603 0.062037643045186996 0
0.59977340698242188 0.071468591690063477 0
0.62453985214233398 0.068770512938499451 0
0.64754760265350342 0.086620032787322998 0
0.012298793531954288 0.071823388338088989 0.039851214736700058
0.030902937054634094 0.075131483376026154 0.042436622083187103
0.057797808200120926 0.079547226428985596 0.044019423425197601
0.10230527073144913 0.09397473931312561 0.042632203549146652
0.17988237738609314 0.10443808138370514 0.030004672706127167
0.28365200757980347 0.10928350687026978 0.010494785383343697
0.38382256031036377 0.11146426945924759 0.001150288269855082
0.47780203819274902 0.11915972828865051 2.8901940822834149e-05
0.55814021825790405 0.12427998334169388 0
0.60520762205123901 0.12816563248634338 0
0.63653993606567383 0.13537564873695374 0
0.66208261251449585 0.14428725838661194 0.00023244222393259406
0.68327730894088745 0.15639549493789673 0.00087956449715420604
0.0040171453729271889 0.11138196289539337 0.055061385035514832
0.01257934607565403 0.11402303725481033 0.055235948413610458
0.031306788325309753 0.11809437721967697 0.05394338071346283
0.09501330554485321 0.13447913527488708 0.047400441020727158
0.19203470647335052 0.14925716817378998 0.026457110419869423
0.29911813139915466 0.16275472939014435 0.0085172317922115326
0.41208621859550476 0.17575022578239441 0.0014441845705732703
0.51105433702468872 0.1872326135635376 3.7698184769396903e-06
0.59335052967071533 0.19519081711769104 0
0.64926403760910034 0.19727277755737305 4.8469096327607986e-06
0.67535656690597534 0.19732478260993958 0.00030040365527383983
0.69776350259780884 0.20311219990253448 0.0012812895001843572
0.71873384714126587 0.21897101402282715 0.0022512248251587152
0.0028815176337957382 0.17896752059459686 0.081559784710407257
0.0039301253855228424 0.17584103345870972 0.076232671737670898
0.0097449356690049171 0.1735505610704422 0.062212925404310226
0.08166009932756424 0.18847279250621796 0.044600915163755417
0.19516471028327942 0.21250608563423157 0.023684706538915634
0.30706506967544556 0.23449131846427917 0.0091053536161780357
0.43001636862754822 0.24773341417312622 0.0024306352715939283
0.54652696847915649 0.25670942664146423 3.3629174140514806e-05
0.62640583515167236 0.26905277371406555 0.00061193725559860468
0.68933755159378052 0.27158436179161072 0.0011215059785172343
0.71801877021789551 0.27582582831382751 0.0033952451776713133
0.73404222726821899 0.28399181365966797 0.0056584975682199001
0.75160515308380127 0.30021315813064575 0.0054335799068212509
0.0039215688593685627 0.26002725958824158 0.11355457454919815
0.0043735280632972717 0.25847029685974121 0.10354364663362503
0.0083519285544753075 0.2557026743888855 0.073150277137756348
0.044447071850299835 0.26040190458297729 0.037877339869737625
0.18240147829055786 0.2896992564201355 0.015626495704054832
0.3157857358455658 0.31673926115036011 0.0037150513380765915
0.45534315705299377 0.33982741832733154 0.0014327852986752987
0.5823134183883667 0.36008229851722717 0.0026050643064081669
0.66711932420730591 0.37456974387168884 0.0054321889765560627
0.73014086484909058 0.37928426265716553 0.0088417204096913338
0.75858360528945923 0.37954029440879822 0.013516264967620373
0.77224719524383545 0.38578134775161743 0.015997719019651413
0.78775179386138916 0.40293711423873901 0.016244640573859215
0.0072313197888433933 0.34847137331962585 0.14925335347652435
0.0042572468519210815 0.34839668869972229 0.13522157073020935
0.0042327283881604671 0.34891721606254578 0.098839536309242249
0.02694408968091011 0.35378915071487427 0.046049289405345917
0.16107842326164246 0.37460792064666748 0.0076368595473468304
0.33504894375801086 0.40746092796325684 0.00039137297426350415
0.4885522723197937 0.44272294640541077 0.0001534854673082009
0.62423133850097656 0.47287812829017639 0.0024893516674637794
0.71067625284194946 0.48865574598312378 0.010388782247900963
0.77070063352584839 0.49373933672904968 0.019115762785077095
0.79654067754745483 0.48811522126197815 0.024932382628321648
0.81046587228775024 0.49073469638824463 0.02779044397175312
0.83019602298736572 0.51194345951080322 0.025436505675315857
0.012432606890797615 0.43407413363456726 0.18897296488285065
0.0067895925603806973 0.43629041314125061 0.18232673406600952
0.0033753339666873217 0.44529110193252563 0.15817342698574066
0.0079049058258533478 0.45072445273399353 0.074485793709754944
0.12203717976808548 0.46554428339004517 0.0040697283111512661
0.34422129392623901 0.50440728664398193 0
0.51082020998001099 0.54616111516952515 0
0.66404169797897339 0.5834968090057373 0.00086547253886237741
0.76009780168533325 0.60204619169235229 0.011850574053823948
0.81334799528121948 0.60237282514572144 0.025615885853767395
0.83926832675933838 0.59568554162979126 0.01827787421643734
0.85430777072906494 0.60569244623184204 0.020259557291865349
0.87277668714523315 0.62350022792816162 0.020767467096447945
0.011323532089591026 0.50711935758590698 0.22337371110916138
0.01622752845287323 0.50897818803787231 0.21589915454387665
0.0034084992948919535 0.51951879262924194 0.19711218774318695
0.00095660641090944409 0.52701890468597412 0.10312283039093018
0.12024633586406708 0.54533660411834717 0.0065295947715640068
0.36188942193984985 0.5905611515045166 0
0.53811764717102051 0.63572335243225098 0.00014588599151466042
0.69622492790222168 0.67447823286056519 0.0061559192836284637
0.7998809814453125 0.69609004259109497 0.027019649744033813
0.84687495231628418 0.68846184015274048 0.037066888064146042
0.87154525518417358 0.67874825000762939 0.028406240046024323
0.8901294469833374 0.69360846281051636 0.02637748047709465
0.90765821933746338 0.70860970020294189 0.034726444631814957
0.018960870802402496 0.55060857534408569 0.24231116473674774
0.016598794609308243 0.55268710851669312 0.23277397453784943
0.0039575016126036644 0.56203323602676392 0.20681500434875488
0.0011276095174252987 0.57412075996398926 0.1247088685631752
0.12725085020065308 0.59981483221054077 0.0081412671133875847
0.3852325975894928 0.64926785230636597 0.00050120631931349635
0.57361328601837158 0.69860506057739258 0.0030320710502564907
0.72432571649551392 0.73652249574661255 0.013852093368768692
0.81445282697677612 0.74887144565582275 0.037725068628787994
0.86888164281845093 0.74687403440475464 0.053126703947782516
0.89500784873962402 0.74172115325927734 0.056150712072849274
0.9156266450881958 0.75054264068603516 0.056812644004821777
0.93403667211532593 0.76350367069244385 0.065230458974838257
0.017761828377842903 0.57113999128341675 0.25491473078727722
0.020398937165737152 0.57702791690826416 0.24548786878585815
0.014755128882825375 0.58779418468475342 0.21380381286144257
0.0066881966777145863 0.59851467609405518 0.1072598472237587
0.13855692744255066 0.62896627187728882 0.0067641763016581535
0.41327407956123352 0.68404078483581543 0.00099467858672142029
0.61161500215530396 0.7371068000793457 0.0048257266171276569
0.7517627477645874 0.77266812324523926 0.024523835629224777
0.83473086357116699 0.78410458564758301 0.045505121350288391
0.88694429397583008 0.78701305389404297 0.06437402218580246
0.91618704795837402 0.7897459864616394 0.073506735265254974
0.93564140796661377 0.79410535097122192 0.076605118811130524
0.94865798950195312 0.79969477653503418 0.080435402691364288
0.019353065639734268 0.5929679274559021 0.27234768867492676
0.025984566658735275 0.60100215673446655 0.24989502131938934
0.012834751047194004 0.60882079601287842 0.20330819487571716
0.021581312641501427 0.6203036904335022 0.075625762343406677
0.19471415877342224 0.65927869081497192 0.0093730399385094643
0.44226965308189392 0.71193897724151611 0.0026524262502789497
0.63185304403305054 0.76051920652389526 0.0075532952323555946
0.7632368803024292 0.79432189464569092 0.031904645264148712
0.85602313280105591 0.81011503934860229 0.057273566722869873
0.90757501125335693 0.81204158067703247 0.073617406189441681
0.93734532594680786 0.81495726108551025 0.075342394411563873
0.95591217279434204 0.81765782833099365 0.072412781417369843
0.96558183431625366 0.8213161826133728 0.078059777617454529
0.022321334108710289 0.62116128206253052 0.29472672939300537
0.023499492555856705 0.62670397758483887 0.25526481866836548
0.0089993793517351151 0.63407218456268311 0.15876653790473938
0.061381500214338303 0.65394103527069092 0.062046334147453308
0.29229170083999634 0.69583982229232788 0.016163665801286697
0.49275913834571838 0.73972779512405396 0.01032994594424963
0.65346032381057739 0.78035902976989746 0.0087980683892965317
0.77070081233978271 0.80568575859069824 0.023780433461070061
0.86501634120941162 0.82170289754867554 0.039134770631790161
0.92371928691864014 0.82868081331253052 0.063005931675434113
0.95679998397827148 0.83298450708389282 0.066077046096324921
0.97460794448852539 0.834308922290802 0.06595466285943985
0.98287421464920044 0.83732450008392334 0.072004549205303192
0.023745248094201088 0.023130724206566811 0.026068968698382378
0.033325478434562683 0.025673197582364082 0.025892714038491249
0.051402807235717773 0.032312668859958649 0.030100265517830849
0.087729513645172119 0.040471438318490982 0.033382311463356018
0.15516923367977142 0.049591034650802612 0.035378161817789078
0.24780929088592529 0.04258297011256218 0.025867581367492676
0.35013779997825623 0.025353135541081429 0.0094823352992534637
0.44078308343887329 0.012600588612258434 0.0023732802364975214
0.50795555114746094 0.0085575329139828682 3.3569336665095761e-05
0.55736047029495239 0.0093697644770145416 0.0015518786385655403
0.5947914719581604 0.008454401046037674 0.002228845376521349
0.62453621625900269 0.0062582278624176979 0.0010761634912341833
0.6383671760559082 0.017309285700321198 0.00030532537493854761
0.020688973367214203 0.045358605682849884 0.036918699741363525
0.034419294446706772 0.04728386178612709 0.036548152565956116
0.065538324415683746 0.056282583624124527 0.041518431156873703
0.10966941714286804 0.065750405192375183 0.043023936450481415
0.16913288831710815 0.072313345968723297 0.038702346384525299
0.26779484748840332 0.067790567874908447 0.021269839257001877
0.3726688027381897 0.054908242076635361 0.0059540243819355965
0.46637207269668579 0.03816947340965271 0.0010074989404529333
0.53914338350296021 0.032562479376792908 6.582222908946278e-07
0.58677160739898682 0.035476174205541611 8.3923341662739404e-06
0.62123304605484009 0.04392821341753006 1.4151778486848343e-05
0.64696973562240601 0.048955071717500687 0.00047646317398175597
0.66661256551742554 0.069012977182865143 0.0028851677197962999
0.013486839830875397 0.081853248178958893 0.057897739112377167
0.02496287040412426 0.084034204483032227 0.055671513080596924
0.060165990144014359 0.088081106543540955 0.059022553265094757
0.11228816956281662 0.097684405744075775 0.057257454842329025
0.18864662945270538 0.10616303980350494 0.039320956915616989
0.29627850651741028 0.11091730743646622 0.01066264696419239
0.40395382046699524 0.11035311967134476 0.0034121493808925152
0.5015379786491394 0.10844391584396362 0.0017484178533777595
0.58035379648208618 0.10559442639350891 0
0.62847220897674561 0.10636447370052338 0.00016071095888037235
0.65780544281005859 0.11170747131109238 0.0015551997348666191
0.68166112899780273 0.12066707015037537 0.0036334767937660217
0.70190167427062988 0.12833957374095917 0.0072634676471352577
0.0060879127122461796 0.1239689514040947 0.075848445296287537
0.010620042681694031 0.1231854036450386 0.071110837161540985
0.033179696649312973 0.12537564337253571 0.069465756416320801
0.10244825482368469 0.13810256123542786 0.065111242234706879
0.20126713812351227 0.15284644067287445 0.037886243313550949
0.31536141037940979 0.16846442222595215 0.013124293647706509
0.43239536881446838 0.17538648843765259 0.0046413647942245007
0.53422600030899048 0.18315614759922028 0.0018865547608584166
0.61812686920166016 0.18500880897045135 0.00052059395238757133
0.67092937231063843 0.18487666547298431 0.0014543869765475392
0.69925785064697266 0.18697981536388397 0.0041958675719797611
0.72173148393630981 0.19400851428508759 0.0059725292958319187
0.74026978015899658 0.20276115834712982 0.010726644657552242
0.0022926030214875937 0.18093946576118469 0.094555705785751343
0.0039272531867027283 0.17980842292308807 0.088613517582416534
0.010584228672087193 0.1810690313577652 0.075830109417438507
0.084000833332538605 0.19516973197460175 0.063478194177150726
0.20177483558654785 0.21846161782741547 0.032769549638032913
0.3295128345489502 0.23765605688095093 0.011563439853489399
0.45423829555511475 0.24730047583580017 0.0042772628366947174
0.56743568181991577 0.25606659054756165 0.0023799671325832605
0.65414679050445557 0.26775100827217102 0.0034244463313370943
0.71363133192062378 0.27128592133522034 0.0039865081198513508
0.74266642332077026 0.27609643340110779 0.0069775301963090897
0.76032310724258423 0.28692591190338135 0.011441713199019432
0.77458304166793823 0.29754704236984253 0.017879396677017212
0.0038914699107408524 0.26037541031837463 0.12556642293930054
0.0040222913958132267 0.26319980621337891 0.11565176397562027
0.0048275366425514221 0.26591622829437256 0.08725421130657196
0.048021100461483002 0.27085414528846741 0.051644686609506607
0.20639520883560181 0.29800224304199219 0.013757982291281223
0.34618660807609558 0.32384470105171204 0.0045235427096486092
0.48600763082504272 0.34142956137657166 0.0033747504930943251
0.60927015542984009 0.36200132966041565 0.0029808045364916325
0.69559359550476074 0.37751752138137817 0.0067032757215201855
0.75485807657241821 0.38488057255744934 0.010075901634991169
0.78646647930145264 0.38751071691513062 0.013860754668712616
0.80083101987838745 0.39622077345848083 0.018992584198713303
0.81322264671325684 0.41000396013259888 0.02807057648897171
0.01309548132121563 0.3562777042388916 0.16748811304569244
0.004696535412222147 0.3553033173084259 0.15402157604694366
0.0048713535070419312 0.35911136865615845 0.11714640259742737
0.027000546455383301 0.36189988255500793 0.055063717067241669
0.19301800429821014 0.38479971885681152 0.0088337315246462822
0.35758095979690552 0.41989594697952271 0.0032247058115899563
0.52159392833709717 0.45451757311820984 0.0004752364766318351
0.65297514200210571 0.48085978627204895 0.0027409123722463846
0.74087095260620117 0.49612653255462646 0.0065232221968472004
0.79486280679702759 0.50441765785217285 0.017242131754755974
0.82817387580871582 0.50763058662414551 0.026051988825201988
0.84267640113830566 0.51377123594284058 0.028770387172698975
0.85543662309646606 0.52481216192245483 0.029439814388751984
0.030512776225805283 0.45494970679283142 0.21376056969165802
0.0095293233171105385 0.45306169986724854 0.20344372093677521
0.0044098347425460815 0.45967179536819458 0.16706554591655731
0.0073030660860240459 0.45888584852218628 0.081194378435611725
0.14546869695186615 0.47705391049385071 0.004306404385715723
0.37091141939163208 0.52521783113479614 0.00089213054161518812
0.55127358436584473 0.5713382363319397 0
0.69675666093826294 0.60109782218933105 0.001443765708245337
0.78333365917205811 0.61030203104019165 0.0082518933340907097
0.83925420045852661 0.61178171634674072 0.014497959055006504
0.86863231658935547 0.61737948656082153 0.030562995001673698
0.88473904132843018 0.62621587514877319 0.032514624297618866
0.89754140377044678 0.63471299409866333 0.027744831517338753
0.024376334622502327 0.52630215883255005 0.24839267134666443
0.011357146315276623 0.5315622091293335 0.24091719090938568
0.016416482627391815 0.54024243354797363 0.21747629344463348
0.0029435250908136368 0.54188239574432373 0.12586839497089386
0.11810982227325439 0.56415408849716187 0.01184107456356287
0.38559743762016296 0.61723387241363525 0.00024207620299421251
0.57464981079101562 0.66166329383850098 0.00064807967282831669
0.73022603988647461 0.6967771053314209 0.013538749888539314
0.82109755277633667 0.70684337615966797 0.032244529575109482
0.87249726057052612 0.70135587453842163 0.038499869406223297
0.89828842878341675 0.70089995861053467 0.040519297122955322
0.91687613725662231 0.71349608898162842 0.046746827661991119
0.92873865365982056 0.72409123182296753 0.047591414302587509
0.027088988572359085 0.56587201356887817 0.27367481589317322
0.019372198730707169 0.57407015562057495 0.26606252789497375
0.014092478901147842 0.58289283514022827 0.24125459790229797
0.0019644943531602621 0.5916130542755127 0.15122152864933014
0.12374227494001389 0.61715471744537354 0.012299316935241222
0.40693536400794983 0.6707037091255188 0.00077932019485160708
0.60337978601455688 0.72070711851119995 0.0022786159534007311
0.75279682874679565 0.75588321685791016 0.014152497053146362
0.84270006418228149 0.76500982046127319 0.034079235047101974
0.89580065011978149 0.76311111450195312 0.05923810601234436
0.92232650518417358 0.76286077499389648 0.064769938588142395
0.94086098670959473 0.76934278011322021 0.067760080099105835
0.95157039165496826 0.77816855907440186 0.073469318449497223
0.030756348744034767 0.58804959058761597 0.29601010680198669
0.019348159432411194 0.59749877452850342 0.28544783592224121
0.020122647285461426 0.60721880197525024 0.2560722827911377
0.0055857039988040924 0.61911898851394653 0.15853708982467651
0.1336306631565094 0.64812082052230835 0.017871003597974777
0.42837932705879211 0.70234602689743042 0.0036816764622926712
0.62376612424850464 0.75141173601150513 0.0055767879821360111
0.76277017593383789 0.78545999526977539 0.014557423070073128
0.85605049133300781 0.80091363191604614 0.030080053955316544
0.91548913717269897 0.80483180284500122 0.067889243364334106
0.94430601596832275 0.80548357963562012 0.075761877000331879
0.96074753999710083 0.80879503488540649 0.075192727148532867
0.96951144933700562 0.813343346118927 0.083377733826637268
0.021156774833798409 0.60929864645004272 0.31889456510543823
0.020915161818265915 0.62195146083831787 0.30162376165390015
0.024059072136878967 0.63106065988540649 0.26269900798797607
0.012367487885057926 0.64341676235198975 0.1499173492193222
0.15808811783790588 0.67310959100723267 0.036149222403764725
0.44412469863891602 0.72568631172180176 0.011303740553557873
0.63380628824234009 0.7716485857963562 0.011388142593204975
0.76672095060348511 0.80272430181503296 0.02217336930334568
0.8690953254699707 0.82044017314910889 0.0461285300552845
0.93111103773117065 0.82656621932983398 0.055329609662294388
0.96274882555007935 0.8293641209602356 0.06467902660369873
0.97708016633987427 0.83366185426712036 0.066376045346260071
0.98379999399185181 0.83476084470748901 0.090102523565292358
0.025397760793566704 0.63991963863372803 0.34992986917495728
0.040699664503335953 0.6527780294418335 0.33414623141288757
0.01881064660847187 0.66149097681045532 0.28010061383247375
0.038180720061063766 0.67643678188323975 0.19231723248958588
0.24200713634490967 0.7121124267578125 0.11206443607807159
0.47595730423927307 0.75532454252243042 0.080933183431625366
0.64665865898132324 0.79048579931259155 0.054500024765729904
0.77186876535415649 0.81546235084533691 0.029408220201730728
0.88087773323059082 0.83656513690948486 0.031073387712240219
0.95084768533706665 0.8468552827835083 0.031872827559709549
0.98137408494949341 0.85115760564804077 0.041267171502113342
0.99103528261184692 0.8514176607131958 0.090362042188644409
0.99484497308731079 0.85225749015808105 0.12992492318153381
0.024975556880235672 0.02886199951171875 0.059242997318506241
0.032177373766899109 0.029781999066472054 0.054646346718072891
0.053575672209262848 0.036486353725194931 0.055552508682012558
0.10004740953445435 0.046295166015625 0.058068323880434036
0.16470286250114441 0.053682439029216766 0.057807549834251404
0.26380586624145508 0.041532717645168304 0.044180326163768768
0.36993902921676636 0.018164645880460739 0.023559778928756714
0.45801493525505066 0.0042851618491113186 0.012222469784319401
0.52527767419815063 0.0029083851259201765 0.013145536184310913
0.57747876644134521 0.0028361002914607525 0.015882918611168861
0.61496078968048096 0.0020446628332138062 0.016711186617612839
0.64315122365951538 0.0025651669129729271 0.022757826372981071
0.65582764148712158 0.0035096711944788694 0.015224980190396309
0.020487722009420395 0.050755072385072708 0.068668156862258911
0.03117663785815239 0.052806660532951355 0.065485216677188873
0.063512615859508514 0.062881991267204285 0.066732175648212433
0.11025676131248474 0.072033777832984924 0.069694384932518005
0.18029668927192688 0.078239381313323975 0.069145515561103821
0.28616407513618469 0.071437492966651917 0.049443759024143219
0.39168670773506165 0.050238963216543198 0.026388294994831085
0.48813313245773315 0.022340452298521996 0.013182187452912331
0.56185746192932129 0.010723203420639038 0.012249531224370003
0.61145627498626709 0.011051836423575878 0.012832148000597954
0.64687800407409668 0.0093533089384436607 0.01228745374828577
0.6709282398223877 0.011042546480894089 0.014551320113241673
0.69075459241867065 0.013439028523862362 0.017629900947213173
0.013969825580716133 0.091695047914981842 0.087545953691005707
0.021020283922553062 0.090582907199859619 0.082514606416225433
0.059535756707191467 0.095459252595901489 0.081658080220222473
0.11212897300720215 0.10340109467506409 0.082489848136901855
0.19829602539539337 0.11083292961120605 0.072015203535556793
0.3079870343208313 0.11630630493164062 0.056135125458240509
0.4231414794921875 0.11097760498523712 0.031684428453445435
0.5269504189491272 0.096365638077259064 0.01365242712199688
0.60672295093536377 0.081639640033245087 0.01119867991656065
0.65619951486587524 0.070339545607566833 0.01276213675737381
0.68526101112365723 0.069361716508865356 0.013683573342859745
0.70798265933990479 0.072268694639205933 0.015341650694608688
0.7310488224029541 0.08265955001115799 0.022028455510735512
0.0079848198220133781 0.1383337527513504 0.10298026353120804
0.0090386783704161644 0.1334250271320343 0.096188999712467194
0.032531227916479111 0.1326051652431488 0.092303559184074402
0.10625386238098145 0.14346516132354736 0.091108806431293488
0.20753291249275208 0.15703204274177551 0.075982145965099335
0.32694637775421143 0.1706339567899704 0.063033804297447205
0.4522688090801239 0.17498564720153809 0.031028417870402336
0.56115102767944336 0.17855674028396606 0.019122777506709099
0.64663887023925781 0.17351120710372925 0.014567566104233265
0.69630032777786255 0.16132141649723053 0.012836591340601444
0.72537171840667725 0.16196778416633606 0.014911068603396416
0.74741160869598389 0.17558696866035461 0.017972968518733978
0.76649606227874756 0.18308167159557343 0.023579271510243416
0.0028846741188317537 0.19135144352912903 0.11899786442518234
0.004272880032658577 0.19161301851272583 0.11599256098270416
0.0096124233677983284 0.19134929776191711 0.10755887627601624
