luts/print/fuji_3513_constlmap.cube
# Created by: G'MIC (https://gmic.eu)
TITLE "fuji_3513_constlmap"
# LUT size
LUT_3D_SIZE 7
# Data domain
DOMAIN_MIN 0.0 0.0 0.0
DOMAIN_MAX 1.0 1.0 1.0
# LUT data points
0.011328094638884068 0.017837120220065117 0.021432764828205109
0.051438692957162857 0.032058011740446091 0.023886647075414658
0.14235015213489532 0.044616654515266418 0.013767975382506847
0.30017203092575073 0.069549813866615295 0.006910241674631834
0.42541348934173584 0.085192553699016571 0.011305955238640308
0.50496268272399902 0.096186630427837372 0.010479616932570934
0.53155869245529175 0.10247982293367386 0.018766365945339203
0.018639000132679939 0.064690940082073212 0.041598659008741379
0.054457586258649826 0.074269689619541168 0.039832573384046555
0.17994539439678192 0.098024748265743256 0.025576019659638405
0.36097094416618347 0.13144390285015106 0.012824099510908127
0.49782487750053406 0.14512185752391815 0.0065454817377030849
0.57589441537857056 0.15942810475826263 0.0047581242397427559
0.60862177610397339 0.17249898612499237 0.010188338346779346
0.013305185362696648 0.13774071633815765 0.072949320077896118
0.018318654969334602 0.1562846302986145 0.063266843557357788
0.20463438332080841 0.20064651966094971 0.012893333099782467
0.42681792378425598 0.23837146162986755 0.0057100034318864346
0.58410656452178955 0.25985223054885864 0.011033660732209682
0.66268020868301392 0.27754586935043335 0.013006756082177162
0.70438772439956665 0.29931557178497314 0.0073036043904721737
0.0045994031243026257 0.26327580213546753 0.12574425339698792
0.020381582900881767 0.28984549641609192 0.114017054438591
0.21023754775524139 0.3620852530002594 0.025324802845716476
0.50060373544692993 0.43007650971412659 0.0075017591007053852
0.67945319414138794 0.45830744504928589 0.015691271051764488
0.76220715045928955 0.47648912668228149 0.011662756092846394
0.7923012375831604 0.49494385719299316 0.016578240320086479
0.014531094580888748 0.38231989741325378 0.16891267895698547
0.0081018637865781784 0.42131468653678894 0.15444496273994446
0.22585248947143555 0.52003580331802368 0.023537758737802505
0.56089907884597778 0.61211585998535156 0.0056273369118571281
0.76171785593032837 0.65678930282592773 0.02380136214196682
0.85044413805007935 0.67247653007507324 0.0272993054240942
0.89473062753677368 0.69966995716094971 0.035987045615911484
0.010851332917809486 0.43766629695892334 0.19779419898986816
0.027129573747515678 0.48588484525680542 0.16958072781562805
0.25574898719787598 0.59843474626541138 0.040824443101882935
0.59841221570968628 0.69637036323547363 0.011422086507081985
0.81284457445144653 0.7558596134185791 0.057645220309495926
0.90742194652557373 0.77195781469345093 0.070372670888900757
0.93719768524169922 0.78212541341781616 0.076304085552692413
0.01549892034381628 0.49932485818862915 0.23579853773117065
0.02891916036605835 0.58279567956924438 0.17321887612342834
0.33358579874038696 0.6753685474395752 0.021415112540125847
0.64802855253219604 0.7517620325088501 0.011914526112377644
0.86276936531066895 0.80594652891159058 0.065706498920917511
0.95566850900650024 0.82385498285293579 0.091349944472312927
0.97351092100143433 0.82735782861709595 0.122813880443573
0.012547452002763748 0.031898126006126404 0.049059264361858368
0.050252459943294525 0.033568840473890305 0.05501893162727356
0.15409083664417267 0.045120015740394592 0.053101394325494766
0.33153772354125977 0.059971604496240616 0.050198018550872803
0.47735422849655151 0.050759274512529373 0.044159445911645889
0.55451345443725586 0.044820718467235565 0.046551663428544998
0.58376693725585938 0.036059405654668808 0.0514487624168396
0.02026836946606636 0.073247455060482025 0.069771438837051392
0.061377745121717453 0.081269025802612305 0.07355181872844696
0.19165530800819397 0.10531074553728104 0.074555583298206329
0.39069253206253052 0.13510558009147644 0.072475999593734741
0.55403667688369751 0.13768918812274933 0.056619875133037567
0.6434473991394043 0.11683080345392227 0.019246254116296768
0.67779135704040527 0.10696201771497726 0.042331904172897339
0.016665754839777946 0.15223364531993866 0.11121457815170288
0.058969251811504364 0.17368969321250916 0.11350009590387344
0.2185991108417511 0.21341085433959961 0.087633676826953888
0.46232804656028748 0.2574785053730011 0.092541791498661041
0.64692956209182739 0.2685207724571228 0.064382083714008331
0.74127048254013062 0.27139559388160706 0.022036848589777946
0.77118015289306641 0.28442263603210449 0.01818949356675148
0.011956068687140942 0.29302129149436951 0.17581337690353394
0.077287785708904266 0.31999558210372925 0.17335200309753418
0.23130153119564056 0.39687281847000122 0.13536418974399567
0.53510898351669312 0.46264612674713135 0.12803049385547638
0.73204410076141357 0.48439300060272217 0.11051823943853378
0.83723253011703491 0.50423270463943481 0.039968885481357574
0.87372761964797974 0.52642703056335449 0.015161417424678802
0.015394517220556736 0.41152682900428772 0.22852702438831329
0.062272179871797562 0.45318979024887085 0.22432073950767517
0.23954498767852783 0.56733405590057373 0.14400839805603027
0.58985501527786255 0.65667998790740967 0.14942462742328644
0.8129584789276123 0.70489692687988281 0.16617697477340698
0.92195099592208862 0.72499918937683105 0.080872587859630585
0.94922870397567749 0.73805105686187744 0.061582062393426895
0.027257611975073814 0.4743979275226593 0.27749660611152649
0.018482686951756477 0.52635914087295532 0.26435303688049316
0.15906922519207001 0.64964479207992554 0.13090485334396362
0.62728917598724365 0.75281137228012085 0.067432790994644165
0.87107998132705688 0.80399167537689209 0.1109519824385643
0.9661981463432312 0.82215183973312378 0.13694101572036743
0.98853784799575806 0.82826870679855347 0.13607504963874817
0.012672992423176765 0.54656791687011719 0.36541286110877991
0.018946763128042221 0.6196170449256897 0.35269352793693542
0.21474249660968781 0.72755032777786255 0.2625114917755127
0.65129059553146362 0.8096771240234375 0.21494084596633911
0.9031938910484314 0.85612493753433228 0.16500777006149292
0.99040406942367554 0.86816155910491943 0.24795709550380707
0.99689263105392456 0.86970442533493042 0.32112282514572144
0.0050321989692747593 0.054479021579027176 0.11698156595230103
0.038792897015810013 0.042285319417715073 0.14929215610027313
0.16499720513820648 0.045940861105918884 0.16074566543102264
0.36078742146492004 0.047443553805351257 0.17277288436889648
0.51144587993621826 0.050309617072343826 0.18000030517578125
0.58408963680267334 0.046120092272758484 0.19264724850654602
0.61678445339202881 0.039060242474079132 0.19582615792751312
0.0084021026268601418 0.10097981244325638 0.15882442891597748
0.058893915265798569 0.10251675546169281 0.17097988724708557
0.20221351087093353 0.11938907206058502 0.20283280313014984
0.42094415426254272 0.14610724151134491 0.21274995803833008
0.59945875406265259 0.1286693662405014 0.21309693157672882
0.69270229339599609 0.070079922676086426 0.20342801511287689
0.72687429189682007 0.050342708826065063 0.21179115772247314
0.019536036998033524 0.19252718985080719 0.2156490683555603
0.086344793438911438 0.20889832079410553 0.22485311329364777
0.23022074997425079 0.24409650266170502 0.25748351216316223
0.49829357862472534 0.27872622013092041 0.26369848847389221
0.71917241811752319 0.26413220167160034 0.23876461386680603
0.80546170473098755 0.25485092401504517 0.22569380700588226
0.83345353603363037 0.27571260929107666 0.23038786649703979
0.024415409192442894 0.3387286365032196 0.28922012448310852
0.11345087736845016 0.36589875817298889 0.3027590811252594
0.28317093849182129 0.43996381759643555 0.32560107111930847
0.55779910087585449 0.51437920331954956 0.33261221647262573
0.80545282363891602 0.53448730707168579 0.28671714663505554
0.90957474708557129 0.53787481784820557 0.23317371308803558
0.93387633562088013 0.56079590320587158 0.25248855352401733
0.019576188176870346 0.46544128656387329 0.35645446181297302
0.10711847990751266 0.50519412755966187 0.37026941776275635
0.23515729606151581 0.62490212917327881 0.36394158005714417
0.60414987802505493 0.72787058353424072 0.33385232090950012
0.85756677389144897 0.76813936233520508 0.37389415502548218
0.97618776559829712 0.78386467695236206 0.29439607262611389
0.99758327007293701 0.7959708571434021 0.29958814382553101
0.020268114283680916 0.52408349514007568 0.41664272546768188
0.025811392813920975 0.57538187503814697 0.43246665596961975
0.10225779563188553 0.70194500684738159 0.41398841142654419
0.60264486074447632 0.81493711471557617 0.36314889788627625
0.89981508255004883 0.86503845453262329 0.33971261978149414
0.9866102933883667 0.87272441387176514 0.40951383113861084
0.99963629245758057 0.87871831655502319 0.43344941735267639
0.014200427569448948 0.58984708786010742 0.50371545553207397
0.021953897550702095 0.66328072547912598 0.53185582160949707
0.12156394869089127 0.76829385757446289 0.52041012048721313
0.62285661697387695 0.854117751121521 0.50716948509216309
0.89722013473510742 0.89988744258880615 0.491241455078125
0.99310684204101562 0.91078358888626099 0.51774805784225464
1 0.91237819194793701 0.57246100902557373
0.0066696763969957829 0.1087932214140892 0.22234785556793213
0.017389962449669838 0.066514022648334503 0.28289178013801575
0.17056307196617126 0.042359475046396255 0.32029953598976135
0.38121157884597778 0.059659592807292938 0.34225285053253174
0.53581029176712036 0.050287701189517975 0.35665646195411682
0.61284464597702026 0.040866777300834656 0.36611580848693848
0.64322519302368164 0.041801318526268005 0.37086033821105957
0.0061537651345133781 0.15736520290374756 0.27836531400680542
0.058925118297338486 0.15762920677661896 0.29751119017601013
0.18767398595809937 0.14540183544158936 0.38427075743675232
0.44376125931739807 0.16942089796066284 0.41140657663345337
0.6215323805809021 0.15437555313110352 0.42404279112815857
0.71447503566741943 0.073905438184738159 0.43452247977256775
0.74704134464263916 0.060373686254024506 0.44884401559829712
0.016335835680365562 0.2539919912815094 0.35471343994140625
0.092324212193489075 0.26466381549835205 0.37391769886016846
0.21952241659164429 0.28055515885353088 0.46656855940818787
0.50939631462097168 0.31291243433952332 0.49802470207214355
0.73284602165222168 0.29260724782943726 0.5084606409072876
0.81797248125076294 0.28361758589744568 0.51117902994155884
0.84395706653594971 0.30459362268447876 0.52005481719970703
0.019861243665218353 0.40082955360412598 0.44889664649963379
0.12837570905685425 0.43278646469116211 0.47295591235160828
0.30807653069496155 0.50110113620758057 0.52728885412216187
0.57349961996078491 0.56591176986694336 0.5817563533782959
0.81993168592453003 0.58384138345718384 0.57730543613433838
0.90953069925308228 0.58852231502532959 0.57672470808029175
0.93905973434448242 0.61160933971405029 0.5866159200668335
0.0080315088853240013 0.53221791982650757 0.52749937772750854
0.11789321899414062 0.57367277145385742 0.5560002326965332
0.26862448453903198 0.67812860012054443 0.60979986190795898
0.58581370115280151 0.79029005765914917 0.62759172916412354
0.87447327375411987 0.83251917362213135 0.63809770345687866
0.97251385450363159 0.83594471216201782 0.63233405351638794
0.99677616357803345 0.85164624452590942 0.63753032684326172
0.0013555788900703192 0.58194857835769653 0.57771092653274536
0.022367799654603004 0.63999241590499878 0.61517274379730225
0.088965430855751038 0.75709182024002075 0.66862982511520386
0.56192195415496826 0.86813229322433472 0.68178641796112061
0.87906134128570557 0.91621088981628418 0.69058835506439209
0.98260915279388428 0.92877578735351562 0.71104580163955688
0.9997294545173645 0.93259179592132568 0.72398817539215088
0.0017324709333479404 0.64624482393264771 0.64580422639846802
0.0043011833913624287 0.71312630176544189 0.70029515027999878
0.030658915638923645 0.80975258350372314 0.74382483959197998
0.57746666669845581 0.89729523658752441 0.76455944776535034
0.87637019157409668 0.94150823354721069 0.7548828125
0.99164092540740967 0.95752906799316406 0.75849723815917969
0.99990308284759521 0.95769202709197998 0.79692333936691284
0.0057628406211733818 0.15398852527141571 0.30565699934959412
0.011233101598918438 0.13490785658359528 0.35613670945167542
0.1772007942199707 0.062716513872146606 0.45567196607589722
0.39219388365745544 0.072993770241737366 0.48518559336662292
0.55182474851608276 0.075477153062820435 0.49953261017799377
0.62897777557373047 0.060500800609588623 0.51193678379058838
0.66160410642623901 0.036057401448488235 0.52848547697067261
0.0063255908899009228 0.21201126277446747 0.37980455160140991
0.027476485818624496 0.20023535192012787 0.41699638962745667
0.18245205283164978 0.1430901437997818 0.55497515201568604
0.45142978429794312 0.16509276628494263 0.58117914199829102
0.63516616821289062 0.17695650458335876 0.59525513648986816
0.72742027044296265 0.092294089496135712 0.61446994543075562
0.76379233598709106 0.060590319335460663 0.63468527793884277
0.0054457122460007668 0.30312931537628174 0.46826225519180298
0.029743539169430733 0.30942094326019287 0.49604910612106323
0.15365314483642578 0.29942607879638672 0.64842963218688965
0.51407480239868164 0.32323789596557617 0.69599968194961548
0.73361468315124512 0.32584461569786072 0.70434838533401489
0.82405263185501099 0.29098981618881226 0.71500527858734131
0.85009819269180298 0.31803390383720398 0.72593671083450317
0.0090758530423045158 0.45308825373649597 0.56705242395401001
0.11134225875139236 0.47805690765380859 0.59889113903045654
0.26803237199783325 0.5400618314743042 0.69512736797332764
0.54630059003829956 0.59949296712875366 0.7869451642036438
0.81615579128265381 0.61304724216461182 0.79631036520004272
0.91050362586975098 0.61069875955581665 0.79783642292022705
0.93558394908905029 0.63931602239608765 0.80628407001495361
0.011687185615301132 0.57922452688217163 0.64582967758178711
0.10694641619920731 0.62020426988601685 0.68287491798400879
0.28421390056610107 0.71917146444320679 0.76132071018218994
0.5628095269203186 0.82411718368530273 0.83601605892181396
0.85716497898101807 0.86326897144317627 0.85189896821975708
0.96668320894241333 0.87358939647674561 0.85207819938659668
0.98986846208572388 0.88625657558441162 0.85831934213638306
0.0055497563444077969 0.62474626302719116 0.68205744028091431
0.028593728318810463 0.67736721038818359 0.72769486904144287
0.094651691615581512 0.78684598207473755 0.81418466567993164
0.51472795009613037 0.90031349658966064 0.8784070611000061
0.86401492357254028 0.95000779628753662 0.88807803392410278
0.976737380027771 0.96299505233764648 0.89504218101501465
0.99902331829071045 0.96543127298355103 0.90062195062637329
8.5628736997023225e-05 0.6720198392868042 0.73302638530731201
0.0018142550252377987 0.74418258666992188 0.79419243335723877
0.026967082172632217 0.83446568250656128 0.86687535047531128
0.53571933507919312 0.9207073450088501 0.90791386365890503
0.8573920726776123 0.96687698364257812 0.91973763704299927
0.97848314046859741 0.9835314154624939 0.92517250776290894
0.99853986501693726 0.98499125242233276 0.93442416191101074
0.0017875222256407142 0.17896132171154022 0.35522013902664185
0.0088454149663448334 0.16493868827819824 0.39936080574989319
0.18086303770542145 0.04805055633187294 0.53655409812927246
0.40560927987098694 0.048627384006977081 0.57115596532821655
0.57048457860946655 0.068952776491641998 0.59248238801956177
0.65011441707611084 0.074270240962505341 0.5984501838684082
0.67714983224868774 0.059213541448116302 0.61197942495346069
0.0023742974735796452 0.23937639594078064 0.43429994583129883
0.0030567243229597807 0.23522847890853882 0.47916138172149658
0.17719927430152893 0.11714436858892441 0.65831863880157471
0.47040367126464844 0.12009268254041672 0.69795292615890503
0.65870791673660278 0.13113321363925934 0.70557814836502075
0.74115025997161865 0.12696513533592224 0.71191704273223877
0.77725255489349365 0.094048053026199341 0.73581612110137939
1.6515396055183373e-05 0.33265453577041626 0.52103573083877563
0.0024072236847132444 0.33814287185668945 0.5603715181350708
0.14210142195224762 0.31413921713829041 0.7294725775718689
0.51292163133621216 0.3238070011138916 0.79481655359268188
0.73905205726623535 0.31484007835388184 0.81132704019546509
0.82763367891311646 0.2985568642616272 0.81419813632965088
0.85522007942199707 0.33402657508850098 0.82646787166595459
0.0027497683186084032 0.48234289884567261 0.62789607048034668
0.048474211245775223 0.5009501576423645 0.65978538990020752
0.12273721396923065 0.56225943565368652 0.78034275770187378
0.5249754786491394 0.61265581846237183 0.88085508346557617
0.80482953786849976 0.6266750693321228 0.89576631784439087
0.90568685531616211 0.62409430742263794 0.89723140001296997
0.9342915415763855 0.65532916784286499 0.90691512823104858
0.003431597026064992 0.60117185115814209 0.69738161563873291
0.097174085676670074 0.6394113302230835 0.73493385314941406
0.20624454319477081 0.74041104316711426 0.83519011735916138
0.51848757266998291 0.83930438756942749 0.92615437507629395
0.84564149379730225 0.87827664613723755 0.94854843616485596
0.95916008949279785 0.88761729001998901 0.95219177007675171
0.98636329174041748 0.90184265375137329 0.95592391490936279
0.020930301398038864 0.64360684156417847 0.72335612773895264
0.025131763890385628 0.69524496793746948 0.77234655618667603
0.10152969509363174 0.80115175247192383 0.86734861135482788
0.49049404263496399 0.91052722930908203 0.94852066040039062
0.84950846433639526 0.96185487508773804 0.96745723485946655
0.97517985105514526 0.97697955369949341 0.97331959009170532
0.99607843160629272 0.97562205791473389 0.97329539060592651
0.0016667833551764488 0.68643766641616821 0.76613205671310425
0.044332094490528107 0.74807167053222656 0.82179421186447144
0.044488254934549332 0.83799260854721069 0.90000253915786743
0.52153092622756958 0.92913556098937988 0.95981001853942871
0.84879773855209351 0.97684240341186523 0.97569197416305542
0.96715688705444336 0.99092370271682739 0.97895020246505737
0.9969487190246582 0.99394887685775757 0.97942698001861572
0 0.20987069606781006 0.40405845642089844
0.0030811235774308443 0.20730438828468323 0.45481553673744202
0.18826672434806824 0.031335882842540741 0.63364678621292114
0.44780239462852478 0.043283723294734955 0.66293430328369141
0.6205059289932251 0.072668634355068207 0.66843992471694946
0.69319170713424683 0.08355693519115448 0.67361289262771606
0.72883498668670654 0.079393230378627777 0.69943183660507202
0 0.26588249206542969 0.47220519185066223
0.002856340492144227 0.2679741382598877 0.51828420162200928
0.17440330982208252 0.15225528180599213 0.71040993928909302
0.4923403263092041 0.15240418910980225 0.76156973838806152
0.69119554758071899 0.1275591105222702 0.77505248785018921
0.77669733762741089 0.12800243496894836 0.78095310926437378
0.8007236123085022 0.13612480461597443 0.79042893648147583
0 0.34711754322052002 0.53698152303695679
0.0028779872227460146 0.35744598507881165 0.5879707932472229
0.091375254094600677 0.34971877932548523 0.74843686819076538
0.49673980474472046 0.35438099503517151 0.83049458265304565
0.74660336971282959 0.35189267992973328 0.8518792986869812
0.83884191513061523 0.34188112616539001 0.8562731146812439
0.86588215827941895 0.37344339489936829 0.86735755205154419
8.4013096056878567e-05 0.4876716136932373 0.63370096683502197
0.023142632097005844 0.51561158895492554 0.6796678900718689
0.025827160105109215 0.57551342248916626 0.81483620405197144
0.5097612738609314 0.62364250421524048 0.90680974721908569
0.80402201414108276 0.64012813568115234 0.9262385368347168
0.9060664176940918 0.64278924465179443 0.93164736032485962
0.93309468030929565 0.66614484786987305 0.93633139133453369
0.003641405375674367 0.60768556594848633 0.71140867471694946
0.023532463237643242 0.64834356307983398 0.75320905447006226
0.043980676680803299 0.74775409698486328 0.85975354909896851
0.470571368932724 0.84383469820022583 0.95286953449249268
0.83749639987945557 0.88236385583877563 0.97296559810638428
0.95561325550079346 0.89039069414138794 0.97991514205932617
0.98195797204971313 0.89756017923355103 0.98091131448745728
0.015074861235916615 0.64889264106750488 0.73759996891021729
0.045785494148731232 0.70252913236618042 0.78709238767623901
0.048772625625133514 0.80787116289138794 0.88414055109024048
0.45948433876037598 0.91377419233322144 0.96708786487579346
0.83424031734466553 0.96110278367996216 0.98437398672103882
0.96581459045410156 0.97701537609100342 0.98999273777008057
0.99472218751907349 0.97531437873840332 0.98838585615158081
0.0096430014818906784 0.68927735090255737 0.77254825830459595
0.0075933570042252541 0.75776427984237671 0.83621317148208618
0.040562767535448074 0.84308147430419922 0.91369271278381348
0.50203752517700195 0.93001359701156616 0.97184771299362183
0.83361673355102539 0.97736799716949463 0.98845416307449341
0.96452462673187256 0.99407958984375 0.99629145860671997
0.99384790658950806 0.99470335245132446 0.99761557579040527
