luts/print/fuji_3513_constlclip.cube
# Created by: G'MIC (https://gmic.eu)
TITLE "fuji_3513_constlclip"
# LUT size
LUT_3D_SIZE 7
# Data domain
DOMAIN_MIN 0.0 0.0 0.0
DOMAIN_MAX 1.0 1.0 1.0
# LUT data points
0.01051692571491003 0.019761238247156143 0.023645289242267609
0.059628743678331375 0.032778527587652206 0.026319347321987152
0.14212930202484131 0.041598871350288391 0.013415646739304066
0.31283262372016907 0.063082784414291382 0.011409206315875053
0.42305555939674377 0.083511725068092346 0.007178617175668478
0.50110715627670288 0.093781597912311554 0.0185089111328125
0.53634297847747803 0.10621412843465805 0.023403601720929146
0.0091519970446825027 0.072701908648014069 0.046917125582695007
0.052801556885242462 0.080781944096088409 0.047934047877788544
0.17036043107509613 0.096285037696361542 0.017024964094161987
0.35421150922775269 0.12434004247188568 0.0077145295217633247
0.49978303909301758 0.14755432307720184 0.0087680444121360779
0.58143013715744019 0.15867254137992859 0.016982613131403923
0.60338455438613892 0.16944539546966553 0.026064705103635788
0.0041426117531955242 0.14310742914676666 0.076347559690475464
0.013898348435759544 0.15991142392158508 0.053852621465921402
0.18928788602352142 0.19633284211158752 0.0057095098309218884
0.41596981883049011 0.24550600349903107 0.0040091718547046185
0.5773082971572876 0.26462376117706299 0.0096308840438723564
0.65476322174072266 0.26872551441192627 0.019425919279456139
0.68658250570297241 0.29101166129112244 0.02621166780591011
0.0064945444464683533 0.26163998246192932 0.12673607468605042
0.01610596664249897 0.29553976655006409 0.10733319818973541
0.18970577418804169 0.36760851740837097 0.0087653212249279022
0.49846163392066956 0.43966585397720337 0.0085388636216521263
0.69502562284469604 0.47369971871376038 0.015285102650523186
0.76961570978164673 0.47879579663276672 0.015539969317615032
0.78977233171463013 0.49121668934822083 0.020241038873791695
0.019554078578948975 0.37257736921310425 0.16893438994884491
0.024630483239889145 0.41375869512557983 0.15551036596298218
0.20704703032970428 0.51598608493804932 0.01442254800349474
0.56309372186660767 0.61297279596328735 0.018758617341518402
0.7727089524269104 0.66376852989196777 0.012549949809908867
0.85495650768280029 0.67619752883911133 0.011303531005978584
0.88601070642471313 0.68916308879852295 0.026972496882081032
0.030265389010310173 0.43578007817268372 0.19569893181324005
0.016543444246053696 0.48803147673606873 0.16538682579994202
0.24911639094352722 0.59676814079284668 0.016023464500904083
0.59808099269866943 0.6908423900604248 0.0084359413012862206
0.8121868371963501 0.74809014797210693 0.038872826844453812
0.9052203893661499 0.77105545997619629 0.05764954537153244
0.93375903367996216 0.78042006492614746 0.076779462397098541
0.020766688510775566 0.49944040179252625 0.23469512164592743
0.011912371963262558 0.57774078845977783 0.16811592876911163
0.30521422624588013 0.67359054088592529 0.0091810189187526703
0.6425279974937439 0.75167644023895264 0.01380544900894165
0.85327351093292236 0.80170780420303345 0.037822514772415161
0.9510263204574585 0.82022756338119507 0.063086554408073425
0.97621023654937744 0.8303791880607605 0.10672638565301895
0.0089199887588620186 0.029819833114743233 0.055701941251754761
0.042921505868434906 0.031755007803440094 0.0531020388007164
0.15458138287067413 0.040436673909425735 0.055773250758647919
0.34831884503364563 0.020255429670214653 0.023974025622010231
0.48629900813102722 0.022780159488320351 0.022954978048801422
0.56737816333770752 0.033908214420080185 0.042035523802042007
0.59251636266708374 0.027408704161643982 0.030952723696827888
0.015474731102585793 0.081241622567176819 0.080933406949043274
0.045391127467155457 0.082997642457485199 0.077519252896308899
0.19371196627616882 0.098411828279495239 0.067947804927825928
0.42118650674819946 0.10407871752977371 0.018181581050157547
0.57870668172836304 0.086290590465068817 0.019909847527742386
0.65345340967178345 0.087471857666969299 0.017027687281370163
0.68646275997161865 0.091785937547683716 0.02226715162396431
0.0049876794219017029 0.15426838397979736 0.10806550830602646
0.011589857749640942 0.16899377107620239 0.10179313272237778
0.21336361765861511 0.21534913778305054 0.072291865944862366
0.48635596036911011 0.2492394745349884 0.020004795864224434
0.66342955827713013 0.26347178220748901 0.019620290026068687
0.74331903457641602 0.25495150685310364 0.012097167782485485
0.78557312488555908 0.27803099155426025 0.023210398852825165
0.0092940237373113632 0.28593644499778748 0.17478843033313751
0.01486358605325222 0.32144179940223694 0.15861570835113525
0.20004351437091827 0.40407252311706543 0.050070550292730331
0.55172687768936157 0.46217930316925049 0.012081400491297245
0.77106958627700806 0.49479621648788452 0.01178843155503273
0.85411602258682251 0.50373083353042603 0.0077859167940914631
0.87541431188583374 0.5189056396484375 0.01588929072022438
0.0080493399873375893 0.40843978524208069 0.22446000576019287
0.014783731661736965 0.45725542306900024 0.21577437222003937
0.14802280068397522 0.57570475339889526 0.041709646582603455
0.59647226333618164 0.66984099149703979 0.011282946914434433
0.839008629322052 0.71360939741134644 0.030613679438829422
0.92677587270736694 0.72741568088531494 0.036315470933914185
0.95192980766296387 0.7369459867477417 0.036561734974384308
0.018971268087625504 0.46826204657554626 0.27193233370780945
0.014155623503029346 0.52844595909118652 0.26153552532196045
0.12599414587020874 0.65208446979522705 0.10319802910089493
0.61902213096618652 0.75665277242660522 0.021329872310161591
0.87162190675735474 0.80668967962265015 0.015895454213023186
0.96948450803756714 0.82395929098129272 0.058972705155611038
0.98862308263778687 0.82956385612487793 0.10242211073637009
0.01888294517993927 0.54024863243103027 0.36087885499000549
0.029675038531422615 0.62454164028167725 0.35185599327087402
0.17254823446273804 0.7283705472946167 0.26378196477890015
0.64037013053894043 0.81132620573043823 0.23251907527446747
0.90096688270568848 0.85600751638412476 0.14348679780960083
0.99658000469207764 0.87206792831420898 0.1819387823343277
0.99936574697494507 0.87250536680221558 0.32503017783164978
0.001440579304471612 0.048168737441301346 0.13538990914821625
0.037907049059867859 0.028232065960764885 0.15623794496059418
0.16507111489772797 0.027395270764827728 0.16637697815895081
0.36385786533355713 0.013688944280147552 0.16721290349960327
0.51855486631393433 0.015915589407086372 0.17509265244007111
0.58733075857162476 0.032833397388458252 0.18052470684051514
0.63034993410110474 0.034914787858724594 0.19853954017162323
0.0040004504844546318 0.10262512415647507 0.16414682567119598
0.027519330382347107 0.098171994090080261 0.18231683969497681
0.20649449527263641 0.11150481551885605 0.21069268882274628
0.44322231411933899 0.090053066611289978 0.21289744973182678
0.63287389278411865 0.030074460431933403 0.2030809223651886
0.70464819669723511 0.026698019355535507 0.19359999895095825
0.73898512125015259 0.027602476999163628 0.2050529420375824
0.0080850785598158836 0.19377170503139496 0.21254315972328186
0.011163225397467613 0.20214606821537018 0.22643719613552094
0.20046913623809814 0.24194173514842987 0.25310695171356201
0.50016796588897705 0.27363863587379456 0.2466810941696167
0.71330046653747559 0.24863597750663757 0.22125829756259918
0.80400025844573975 0.25054672360420227 0.22414861619472504
0.83318233489990234 0.27565443515777588 0.23388563096523285
0.0079120714217424393 0.32662934064865112 0.28104731440544128
0.022820955142378807 0.37025311589241028 0.2943345308303833
0.12862980365753174 0.45417103171348572 0.2945103645324707
0.5735633373260498 0.51387143135070801 0.26302391290664673
0.80407679080963135 0.51739931106567383 0.24604243040084839
0.90346956253051758 0.53786605596542358 0.23323693871498108
0.9338262677192688 0.56020665168762207 0.23745836317539215
0.0071941153146326542 0.46622356772422791 0.35418054461479187
0.0091242324560880661 0.50825589895248413 0.3624521791934967
0.07988739013671875 0.62752670049667358 0.34545418620109558
0.59562414884567261 0.72827184200286865 0.26521444320678711
0.88577365875244141 0.77119719982147217 0.25233867764472961
0.98064517974853516 0.78050941228866577 0.22521281242370605
0.99673521518707275 0.79190909862518311 0.26769289374351501
0.014618518762290478 0.51923155784606934 0.41165304183959961
0.016781706362962723 0.57724928855895996 0.42398786544799805
0.047384046018123627 0.69981461763381958 0.40506255626678467
0.59876608848571777 0.81270962953567505 0.36275094747543335
0.90070033073425293 0.86472994089126587 0.32069244980812073
0.99034184217453003 0.87265646457672119 0.33516457676887512
1 0.87845820188522339 0.4158971905708313
0.0092600202187895775 0.59571743011474609 0.50674653053283691
0.025476867333054543 0.66546648740768433 0.52090692520141602
0.12096790969371796 0.76636284589767456 0.51529240608215332
0.60821783542633057 0.85054761171340942 0.49475216865539551
0.88227516412734985 0.8986402153968811 0.49712967872619629
0.99296599626541138 0.9137808084487915 0.48939713835716248
1 0.91389065980911255 0.55608123540878296
0.0037902831099927425 0.10601447522640228 0.23018261790275574
0.034352082759141922 0.029945896938443184 0.28633004426956177
0.17691320180892944 0.0050136190839111805 0.33302715420722961
0.38345825672149658 0.014005878008902073 0.33686164021492004
0.5391814112663269 0.026281259953975677 0.35013109445571899
0.61298829317092896 0.037797186523675919 0.35729685425758362
0.65115123987197876 0.034588385373353958 0.38422715663909912
0.0071795294061303139 0.1606777161359787 0.28087297081947327
0.013298004865646362 0.14384117722511292 0.31819459795951843
0.1924576610326767 0.1032254695892334 0.41345742344856262
0.45984005928039551 0.091028638184070587 0.42173141241073608
0.64668518304824829 0.025181369855999947 0.42943224310874939
0.72482961416244507 0.021455995738506317 0.43422228097915649
0.75599926710128784 0.020773988217115402 0.44549044966697693
0.0075759286992251873 0.25771749019622803 0.36028537154197693
0.012869068421423435 0.25276663899421692 0.38298782706260681
0.13943740725517273 0.26886230707168579 0.47340452671051025
0.51485705375671387 0.29522493481636047 0.50330919027328491
0.72868901491165161 0.27396282553672791 0.49471518397331238
0.81075114011764526 0.26694062352180481 0.49675199389457703
0.84005630016326904 0.2934277355670929 0.52697300910949707
0.0092041166499257088 0.39843720197677612 0.44688817858695984
0.023820271715521812 0.4296669065952301 0.47908982634544373
0.077520139515399933 0.49739885330200195 0.53930795192718506
0.5546843409538269 0.56538504362106323 0.57594424486160278
0.8188977837562561 0.5739748477935791 0.55653512477874756
0.90288501977920532 0.57923513650894165 0.57216709852218628
0.93080145120620728 0.60531651973724365 0.57238799333572388
0.017539722844958305 0.5295417308807373 0.52028316259384155
0.0050645568408071995 0.57584202289581299 0.55160003900527954
0.0087029701098799706 0.68710434436798096 0.60172200202941895
0.56808614730834961 0.78780806064605713 0.61921459436416626
0.87354785203933716 0.82644039392471313 0.62200713157653809
0.97546768188476562 0.83738332986831665 0.620533287525177
0.99414336681365967 0.84108412265777588 0.62289619445800781
0.011695562861859798 0.58186334371566772 0.56522315740585327
0.0049645518884062767 0.64507085084915161 0.60490041971206665
0.012746608816087246 0.75735783576965332 0.65920925140380859
0.5371403694152832 0.86502236127853394 0.68479341268539429
0.88336277008056641 0.91641473770141602 0.68354994058609009
0.98372548818588257 0.92437136173248291 0.68752139806747437
0.99923479557037354 0.92188179492950439 0.71034282445907593
0.002519016619771719 0.646453857421875 0.64974278211593628
0.008690972812473774 0.72254312038421631 0.69627302885055542
0.026866193860769272 0.80814087390899658 0.73321723937988281
0.57068371772766113 0.89595985412597656 0.75935441255569458
0.86122924089431763 0.94044476747512817 0.76242262125015259
0.98550307750701904 0.95536118745803833 0.75966930389404297
0.99925273656845093 0.95442891120910645 0.78854906558990479
0.0063692727126181126 0.15433800220489502 0.30830910801887512
0.016715854406356812 0.12524111568927765 0.35757526755332947
0.17891550064086914 0.0069625405594706535 0.46914079785346985
0.39792743325233459 0.021368438377976418 0.49162819981575012
0.55656003952026367 0.038328193128108978 0.49651572108268738
0.63123863935470581 0.033043012022972107 0.50867080688476562
0.66414451599121094 0.03413805365562439 0.52598327398300171
0.0017578573897480965 0.21003548800945282 0.38154175877571106
0.003190717427060008 0.20105448365211487 0.42998161911964417
0.18527218699455261 0.094352558255195618 0.56769096851348877
0.47339361906051636 0.065859429538249969 0.60584741830825806
0.65727829933166504 0.025892818346619606 0.61707943677902222
0.73568296432495117 0.022373422980308533 0.62041705846786499
0.76762306690216064 0.025223676115274429 0.6377444863319397
0.0027049793861806393 0.29539373517036438 0.45960134267807007
0.0043796463869512081 0.3010842502117157 0.50976103544235229
0.11019168794155121 0.2913418710231781 0.65254586935043335
0.5045045018196106 0.3000454306602478 0.69488006830215454
0.73591333627700806 0.29910895228385925 0.71017730236053467
0.82272881269454956 0.28773415088653564 0.7101171612739563
0.8509368896484375 0.32773298025131226 0.72073966264724731
0.013584795407950878 0.44475051760673523 0.56064051389694214
0.030436227098107338 0.47575080394744873 0.59932982921600342
0.020565856248140335 0.53530395030975342 0.71660768985748291
0.53507041931152344 0.59657549858093262 0.77736562490463257
0.80849260091781616 0.61171668767929077 0.78648018836975098
0.90449440479278564 0.6150704026222229 0.79246044158935547
0.93446135520935059 0.64889252185821533 0.80159574747085571
0.031232871115207672 0.57364797592163086 0.64140599966049194
0.019373875111341476 0.62199079990386963 0.68510299921035767
0.005446744617074728 0.71883118152618408 0.76824593544006348
0.50733095407485962 0.81726038455963135 0.8371613621711731
0.85032546520233154 0.85948860645294189 0.84580826759338379
0.95739781856536865 0.86924129724502563 0.8467411994934082
0.98745602369308472 0.87801110744476318 0.85298818349838257
0.02019856683909893 0.62460017204284668 0.67881560325622559
0.016414836049079895 0.68234968185424805 0.72415041923522949
0.016796441748738289 0.78556162118911743 0.8100895881652832
0.50753200054168701 0.89846116304397583 0.87235474586486816
0.8609468936920166 0.94661271572113037 0.88444727659225464
0.97368627786636353 0.95892208814620972 0.88628154993057251
0.99734663963317871 0.95850563049316406 0.89751064777374268
0.0073988819494843483 0.67659568786621094 0.73436969518661499
0.010027193464338779 0.74969577789306641 0.79271787405014038
0.012256831862032413 0.83059042692184448 0.85919523239135742
0.5346989631652832 0.92088395357131958 0.90849387645721436
0.8531917929649353 0.96672201156616211 0.91571813821792603
0.97520262002944946 0.98064315319061279 0.92031079530715942
0.99536538124084473 0.98185306787490845 0.9336092472076416
0.0015907586785033345 0.17922794818878174 0.36207517981529236
0.012669791467487812 0.15867266058921814 0.40369346737861633
0.17351630330085754 0.019156437367200851 0.54829698801040649
0.40487518906593323 0.017525063827633858 0.57525718212127686
0.58207893371582031 0.042345728725194931 0.60220575332641602
0.65337806940078735 0.044385708868503571 0.60611695051193237
0.68307524919509888 0.040752515196800232 0.61725789308547974
0.00070450728526338935 0.24224589765071869 0.43891721963882446
0.0075615975074470043 0.22572681307792664 0.49363061785697937
0.19027282297611237 0.097463794052600861 0.66904550790786743
0.46574926376342773 0.068082071840763092 0.70759743452072144
0.67369371652603149 0.023436512798070908 0.72062832117080688
0.74825513362884521 0.02396717481315136 0.72217613458633423
0.78151768445968628 0.029565684497356415 0.73550570011138916
0.0012578627793118358 0.33027774095535278 0.51626622676849365
0.010549194179475307 0.33864203095436096 0.57434797286987305
0.10642944276332855 0.31417670845985413 0.720317542552948
0.48952686786651611 0.31991437077522278 0.79527586698532104
0.73555916547775269 0.30636367201805115 0.80627560615539551
0.82322078943252563 0.28546854853630066 0.81050890684127808
0.85440254211425781 0.33571892976760864 0.8170241117477417
0.018238231539726257 0.47454321384429932 0.61718761920928955
0.032302588224411011 0.50821566581726074 0.66447168588638306
0.021211571991443634 0.55461597442626953 0.78944975137710571
0.51587694883346558 0.61051422357559204 0.88184034824371338
0.80105209350585938 0.63051599264144897 0.89138960838317871
0.89617270231246948 0.62230014801025391 0.88859349489212036
0.93025672435760498 0.6534876823425293 0.90687525272369385
0.027177443727850914 0.59075629711151123 0.68734115362167358
0.021574836224317551 0.64154672622680664 0.73970025777816772
0.03454965353012085 0.73686891794204712 0.8389086127281189
0.49422544240951538 0.83192771673202515 0.92870187759399414
0.83514606952667236 0.87182176113128662 0.94441717863082886
0.94923293590545654 0.88116574287414551 0.94137191772460938
0.97744500637054443 0.88597345352172852 0.94567745923995972
0.019986201077699661 0.64095252752304077 0.72198212146759033
0.015604086220264435 0.69516599178314209 0.77442586421966553
0.015493893995881081 0.80368173122406006 0.87176376581192017
0.46867120265960693 0.91237038373947144 0.94864773750305176
0.84926122426986694 0.95927685499191284 0.96564280986785889
0.96304929256439209 0.96852070093154907 0.95896941423416138
0.99136090278625488 0.97403937578201294 0.96375143527984619
0.01751130074262619 0.68626850843429565 0.76635825634002686
0.026068683713674545 0.74800604581832886 0.81968456506729126
0.021693823859095573 0.83712196350097656 0.90213912725448608
0.51357752084732056 0.92669975757598877 0.95798808336257935
0.84179520606994629 0.97162675857543945 0.96918100118637085
0.96786332130432129 0.98866719007492065 0.97899526357650757
0.98963624238967896 0.9875301718711853 0.97023230791091919
0 0.20689485967159271 0.40653896331787109
0.0055353054776787758 0.18889601528644562 0.4554314911365509
0.18612737953662872 0.011326509527862072 0.6335940957069397
0.43464183807373047 0.004794820211827755 0.65768855810165405
0.61324799060821533 0.027697889134287834 0.66678684949874878
0.7005731463432312 0.030407251790165901 0.68522393703460693
0.72301429510116577 0.025155415758490562 0.6900513768196106
0.00074907188536599278 0.26664638519287109 0.47605803608894348
0.005838985089212656 0.26045727729797363 0.52518802881240845
0.14885282516479492 0.15873391926288605 0.71253728866577148
0.48453161120414734 0.15060116350650787 0.76529741287231445
0.69098073244094849 0.092081151902675629 0.77938276529312134
0.78115200996398926 0.076259925961494446 0.78940588235855103
0.8063388466835022 0.11720253527164459 0.79764074087142944
0.005961728747934103 0.35335853695869446 0.54634231328964233
0.0086673814803361893 0.35908576846122742 0.59952813386917114
0.085341267287731171 0.34708228707313538 0.74795526266098022
0.50023895502090454 0.35564091801643372 0.8343241810798645
0.73726421594619751 0.34393751621246338 0.84639042615890503
0.83283960819244385 0.33457756042480469 0.84833121299743652
0.86238598823547363 0.36443889141082764 0.86328643560409546
0.032746467739343643 0.48884084820747375 0.63666605949401855
0.039623647928237915 0.5135844349861145 0.67843425273895264
0.016529202461242676 0.55840575695037842 0.81379091739654541
0.51613247394561768 0.61462962627410889 0.90615200996398926
0.80271166563034058 0.6398434042930603 0.92423540353775024
0.90121680498123169 0.64271944761276245 0.9260825514793396
0.92812341451644897 0.65360552072525024 0.92840933799743652
0.017303422093391418 0.60407888889312744 0.70625030994415283
0.024653401225805283 0.65165942907333374 0.75640410184860229
0.010831885039806366 0.73984497785568237 0.85819715261459351
0.47237303853034973 0.83505898714065552 0.95180583000183105
0.82133615016937256 0.87584197521209717 0.97093862295150757
0.94949495792388916 0.8853723406791687 0.97486585378646851
0.98005908727645874 0.89975529909133911 0.97958564758300781
0.011167997494339943 0.64985007047653198 0.73780792951583862
0.030877087265253067 0.70219427347183228 0.78822058439254761
0.030989238992333412 0.80264484882354736 0.88185012340545654
0.4470641016960144 0.91371357440948486 0.96662229299545288
0.83286792039871216 0.96155226230621338 0.98444968461990356
0.96764594316482544 0.97802972793579102 0.99156254529953003
0.98829656839370728 0.96802449226379395 0.98910427093505859
0.014978251419961452 0.69196194410324097 0.77720183134078979
0.011576633900403976 0.75686347484588623 0.83491718769073486
0.017577631399035454 0.83746552467346191 0.90957909822463989
0.49667558073997498 0.92846816778182983 0.97156143188476562
0.83383762836456299 0.97261965274810791 0.98535537719726562
0.95741152763366699 0.98800039291381836 0.99215686321258545
0.99004679918289185 0.99155813455581665 0.99408233165740967
