luts/print/fuji_3513_constlmap.cube
# Created by: G'MIC (https://gmic.eu)
TITLE "fuji_3513_constlmap"
# LUT size
LUT_3D_SIZE 13
# Data domain
DOMAIN_MIN 0.0 0.0 0.0
DOMAIN_MAX 1.0 1.0 1.0
# LUT data points
0.011328094638884068 0.017837120220065117 0.021432764828205109
0.027511522173881531 0.02687683142721653 0.025170180946588516
0.051438692957162857 0.032058011740446091 0.023886647075414658
0.079775355756282806 0.035965308547019958 0.020012963563203812
0.14235015213489532 0.044616654515266418 0.013767975382506847
0.22158697247505188 0.056380387395620346 0.0068704495206475258
0.30017203092575073 0.069549813866615295 0.006910241674631834
0.37036862969398499 0.07915922999382019 0.0090663833543658257
0.42541348934173584 0.085192553699016571 0.011305955238640308
0.46917751431465149 0.090667113661766052 0.012383390218019485
0.50496268272399902 0.096186630427837372 0.010479616932570934
0.52371871471405029 0.097866907715797424 0.013732221908867359
0.53155869245529175 0.10247982293367386 0.018766365945339203
0.018750553950667381 0.038507081568241119 0.029674544930458069
0.033654455095529556 0.045253738760948181 0.031402062624692917
0.058079048991203308 0.050302676856517792 0.030598688870668411
0.090586811304092407 0.054898727685213089 0.027722466737031937
0.15927004814147949 0.06435636430978775 0.020480407401919365
0.2466454952955246 0.079606704413890839 0.014221146702766418
0.32701015472412109 0.093551263213157654 0.011141190305352211
0.40028089284896851 0.10306188464164734 0.0094757676124572754
0.4643528163433075 0.11136674880981445 0.0070225284434854984
0.50669568777084351 0.11857800930738449 0.0085605243220925331
0.53464210033416748 0.11868965625762939 0.0077475751750171185
0.55533844232559204 0.12056168168783188 0.0065804426558315754
0.56734704971313477 0.13076730072498322 0.013350662775337696
0.018639000132679939 0.064690940082073212 0.041598659008741379
0.028466558083891869 0.068448416888713837 0.041706010699272156
0.054457586258649826 0.074269689619541168 0.039832573384046555
0.096753813326358795 0.082229524850845337 0.034408241510391235
0.17994539439678192 0.098024748265743256 0.025576019659638405
0.2732861340045929 0.11629153788089752 0.018433336168527603
0.36097094416618347 0.13144390285015106 0.012824099510908127
0.43514630198478699 0.14010581374168396 0.0092141246423125267
0.49782487750053406 0.14512185752391815 0.0065454817377030849
0.54631096124649048 0.15028853714466095 0.0047226552851498127
0.57589441537857056 0.15942810475826263 0.0047581242397427559
0.59778279066085815 0.1669352799654007 0.0051615848205983639
0.60862177610397339 0.17249898612499237 0.010188338346779346
0.016046620905399323 0.095230728387832642 0.05527183786034584
0.018658686429262161 0.099989965558052063 0.054152172058820724
0.035465750843286514 0.10895655304193497 0.051099859178066254
0.096407078206539154 0.12472044676542282 0.038481663912534714
0.19358141720294952 0.14489439129829407 0.022223858162760735
0.30147159099578857 0.16152724623680115 0.015679961070418358
0.39659580588340759 0.1759607344865799 0.0094749452546238899
0.47414317727088928 0.18551933765411377 0.0055283191613852978
0.5374760627746582 0.19230099022388458 0.006212316919118166
0.58974957466125488 0.19974835216999054 0.003761231666430831
0.61887472867965698 0.2120576947927475 0.0058459113352000713
0.64061444997787476 0.22083844244480133 0.0047404570505023003
0.65379387140274048 0.2235390841960907 0.0055114445276558399
0.013305185362696648 0.13774071633815765 0.072949320077896118
0.013662674464285374 0.14478220045566559 0.071340076625347137
0.018318654969334602 0.1562846302986145 0.063266843557357788
0.092356108129024506 0.17863437533378601 0.034882053732872009
0.20463438332080841 0.20064651966094971 0.012893333099782467
0.31932976841926575 0.22080940008163452 0.0095003917813301086
0.42681792378425598 0.23837146162986755 0.0057100034318864346
0.51494377851486206 0.24800337851047516 0.0070593291893601418
0.58410656452178955 0.25985223054885864 0.011033660732209682
0.63463443517684937 0.26850581169128418 0.0074984082020819187
0.66268020868301392 0.27754586935043335 0.013006756082177162
0.6884961724281311 0.289388507604599 0.0074939951300621033
0.70438772439956665 0.29931557178497314 0.0073036043904721737
0.010137894190847874 0.19757251441478729 0.09912390261888504
0.015579702332615852 0.20627406239509583 0.098163813352584839
0.01810983382165432 0.21908031404018402 0.085280969738960266
0.07266312837600708 0.24580734968185425 0.045010257512331009
0.20770157873630524 0.27649879455566406 0.013899903744459152
0.34364330768585205 0.30518379807472229 0.0048838299699127674
0.46219313144683838 0.32688423991203308 0.0041837505996227264
0.55394601821899414 0.33943438529968262 0.016053637489676476
0.63072866201400757 0.35184493660926819 0.024949690327048302
0.68291622400283813 0.35924562811851501 0.01163132581859827
0.71116995811462402 0.36731350421905518 0.011026090942323208
0.73191440105438232 0.37881952524185181 0.011879566125571728
0.74707126617431641 0.39090463519096375 0.012762869708240032
0.0045994031243026257 0.26327580213546753 0.12574425339698792
0.013444564305245876 0.27595311403274536 0.12568886578083038
0.020381582900881767 0.28984549641609192 0.114017054438591
0.046723101288080215 0.32117071747779846 0.073313392698764801
0.21023754775524139 0.3620852530002594 0.025324802845716476
0.36652693152427673 0.40054649114608765 0.013847590424120426
0.50060373544692993 0.43007650971412659 0.0075017591007053852
0.60511147975921631 0.44876143336296082 0.01236439123749733
0.67945319414138794 0.45830744504928589 0.015691271051764488
0.73453152179718018 0.46846204996109009 0.0074191521853208542
0.76220715045928955 0.47648912668228149 0.011662756092846394
0.77955448627471924 0.48240616917610168 0.017337454482913017
0.7923012375831604 0.49494385719299316 0.016578240320086479
0.0089194057509303093 0.32853436470031738 0.15023675560951233
0.014564409852027893 0.34241986274719238 0.1490481048822403
0.014595181681215763 0.36320269107818604 0.13523940742015839
0.042028345167636871 0.39897119998931885 0.087464004755020142
0.20796158909797668 0.44976732134819031 0.023287635296583176
0.38570967316627502 0.49740150570869446 0.029965508729219437
0.53321659564971924 0.52864366769790649 0.010979357175529003
0.65176284313201904 0.55694842338562012 0.0059715122915804386
0.72962206602096558 0.56889146566390991 0.0092439241707324982
0.78552716970443726 0.58016514778137207 0.0066359126940369606
0.80973243713378906 0.58461081981658936 0.016511190682649612
0.83053112030029297 0.5940672755241394 0.019855275750160217
0.84778070449829102 0.60852193832397461 0.016671169549226761
0.014531094580888748 0.38231989741325378 0.16891267895698547
0.013495486229658127 0.39817425608634949 0.16589801013469696
0.0081018637865781784 0.42131468653678894 0.15444496273994446
0.046415515244007111 0.46387466788291931 0.10117121785879135
0.22585248947143555 0.52003580331802368 0.023537758737802505
0.40467306971549988 0.57050842046737671 0.012217233888804913
0.56089907884597778 0.61211585998535156 0.0056273369118571281
0.68438225984573364 0.64427280426025391 0.0058410046622157097
0.76171785593032837 0.65678930282592773 0.02380136214196682
0.82215428352355957 0.66829317808151245 0.02474498376250267
0.85044413805007935 0.67247653007507324 0.0272993054240942
0.87339323759078979 0.68562281131744385 0.029905626550316811
0.89473062753677368 0.69966995716094971 0.035987045615911484
0.010132958181202412 0.4135458767414093 0.18307827413082123
0.014875523746013641 0.42966273427009583 0.1798890233039856
0.021072611212730408 0.45710840821266174 0.16665424406528473
0.060448814183473587 0.50696134567260742 0.10585958510637283
0.23896723985671997 0.56501483917236328 0.022231008857488632
0.42508861422538757 0.61907422542572021 0.0065725138410925865
0.58562290668487549 0.66648054122924805 0.0047329920344054699
0.70518916845321655 0.69618582725524902 0.01474106777459383
0.7877156138420105 0.71594852209091187 0.043997537344694138
0.84997719526290894 0.72997742891311646 0.05667528510093689
0.88181036710739136 0.73576909303665161 0.051988683640956879
0.90356945991516113 0.74358177185058594 0.055189184844493866
0.92311406135559082 0.75331920385360718 0.064697101712226868
0.010851332917809486 0.43766629695892334 0.19779419898986816
0.012362536042928696 0.45500555634498596 0.19045445322990417
0.027129573747515678 0.48588484525680542 0.16958072781562805
0.05958079919219017 0.53681689500808716 0.11007962375879288
0.25574898719787598 0.59843474626541138 0.040824443101882935
0.44691240787506104 0.65213930606842041 0.020522862672805786
0.59841221570968628 0.69637036323547363 0.011422086507081985
0.72014164924621582 0.72967493534088135 0.019866060465574265
0.81284457445144653 0.7558596134185791 0.057645220309495926
0.87715590000152588 0.76826256513595581 0.077326424419879913
0.90742194652557373 0.77195781469345093 0.070372670888900757
0.92480385303497314 0.77679252624511719 0.072374872863292694
0.93719768524169922 0.78212541341781616 0.076304085552692413
0.028872322291135788 0.46151989698410034 0.21322686970233917
0.015040229074656963 0.48936468362808228 0.20032742619514465
0.022110749036073685 0.52162045240402222 0.16652888059616089
0.067790180444717407 0.57377141714096069 0.083482451736927032
0.27036532759666443 0.6318366527557373 0.021523375064134598
0.46773380041122437 0.68020361661911011 0.021251978352665901
0.62377470731735229 0.72456717491149902 0.013417965732514858
0.74693971872329712 0.75862342119216919 0.027979502454400063
0.83441334962844849 0.78198182582855225 0.05801493301987648
0.89220672845840454 0.79171431064605713 0.077946290373802185
0.92694932222366333 0.79794442653656006 0.08213450014591217
0.94381695985794067 0.80331301689147949 0.087012529373168945
0.95316725969314575 0.80645859241485596 0.090079933404922485
0.01549892034381628 0.49932485818862915 0.23579853773117065
0.012936281971633434 0.5429384708404541 0.22052952647209167
0.02891916036605835 0.58279567956924438 0.17321887612342834
0.13355077803134918 0.62523096799850464 0.074474900960922241
0.33358579874038696 0.6753685474395752 0.021415112540125847
0.50360214710235596 0.71408331394195557 0.022049563005566597
0.64802855253219604 0.7517620325088501 0.011914526112377644
0.76843899488449097 0.77980321645736694 0.034066278487443924
0.86276936531066895 0.80594652891159058 0.065706498920917511
0.91804808378219604 0.81551253795623779 0.082421533763408661
0.95566850900650024 0.82385498285293579 0.091349944472312927
0.97305434942245483 0.82921141386032104 0.10513057559728622
0.97351092100143433 0.82735782861709595 0.122813880443573
0.010578394867479801 0.021485242992639542 0.027912214398384094
0.022009111940860748 0.025317173451185226 0.027260858565568924
0.050949934870004654 0.031917989253997803 0.030119668692350388
0.083824113011360168 0.036824814975261688 0.030448194593191147
0.14939738810062408 0.045948881655931473 0.025192933157086372
0.23888316750526428 0.058710567653179169 0.016490023583173752
0.31381237506866455 0.067352473735809326 0.013552781194448471
0.38878476619720459 0.07312329113483429 0.01123651210218668
0.45091280341148376 0.075830467045307159 0.013157878071069717
0.49446505308151245 0.081519722938537598 0.011754488572478294
0.52908134460449219 0.084829695522785187 0.018716370686888695
0.54769271612167358 0.081646114587783813 0.023286618292331696
0.55561655759811401 0.088078595697879791 0.027322970330715179
0.018048498779535294 0.04091937467455864 0.03673877939581871
0.029155880212783813 0.045391008257865906 0.037035759538412094
0.057879891246557236 0.052328146994113922 0.038656018674373627
0.095843419432640076 0.05716705322265625 0.037802916020154953
0.16524186730384827 0.064557366073131561 0.029019793495535851
0.25867807865142822 0.076852671802043915 0.017024021595716476
0.34156093001365662 0.092624559998512268 0.023023538291454315
0.42015367746353149 0.10048405081033707 0.014724447391927242
0.48584407567977905 0.10405590385198593 0.0069478652440011501
0.52976346015930176 0.10926157981157303 0.011836706660687923
0.55884253978729248 0.11348200589418411 0.017250435426831245
0.58161598443984985 0.10920209437608719 0.013948971405625343
0.59248048067092896 0.11953549832105637 0.024027490988373756
0.020472701638936996 0.066818401217460632 0.049335017800331116
0.028344951570034027 0.069329097867012024 0.048590239137411118
0.05859687551856041 0.077043958008289337 0.048087310045957565
0.1049620509147644 0.085981510579586029 0.044386260211467743
0.18489313125610352 0.099193304777145386 0.035714752972126007
0.28346887230873108 0.11716682463884354 0.024797866120934486
0.37318021059036255 0.1321350634098053 0.028686778619885445
0.45620214939117432 0.14118744432926178 0.028318921104073524
0.52499467134475708 0.1422545462846756 0.0202192272990942
0.57748138904571533 0.14095230400562286 0.010020970366895199
0.60583794116973877 0.14940227568149567 0.00857518520206213
0.62594103813171387 0.15211796760559082 0.0089134518057107925
0.63494193553924561 0.1644890159368515 0.022967798635363579
0.017944306135177612 0.10069209337234497 0.068625278770923615
0.02353343553841114 0.10396869480609894 0.064331188797950745
0.046185810118913651 0.11079593747854233 0.059407699853181839
0.10450189560651779 0.1269361823797226 0.051655564457178116
0.20185770094394684 0.1452363133430481 0.035754155367612839
0.3091585636138916 0.16113364696502686 0.020848890766501427
0.40674471855163574 0.17663596570491791 0.025135429576039314
0.49424031376838684 0.18802717328071594 0.02901090681552887
0.56668734550476074 0.19607377052307129 0.022635007277131081
0.6211169958114624 0.1948646605014801 0.009821498766541481
0.65008580684661865 0.20198547840118408 0.005836097989231348
0.66804397106170654 0.21122497320175171 0.0047185411676764488
0.67828172445297241 0.21970373392105103 0.013511687517166138
0.018243573606014252 0.14412790536880493 0.087659172713756561
0.024210507050156593 0.15103816986083984 0.083053067326545715
0.032897740602493286 0.16112937033176422 0.074154794216156006
0.092925146222114563 0.18526829779148102 0.056694060564041138
0.20806121826171875 0.20553030073642731 0.036740634590387344
0.33335182070732117 0.22580535709857941 0.022492635995149612
0.44174838066101074 0.24382133781909943 0.029059676453471184
0.53652799129486084 0.25635764002799988 0.030397556722164154
0.61515408754348755 0.2678590714931488 0.013873710297048092
0.6656530499458313 0.27165472507476807 0.010485510341823101
0.69409584999084473 0.27864792943000793 0.0098274825140833855
0.71323323249816895 0.29079362750053406 0.0042917290702462196
0.72647416591644287 0.30114144086837769 0.0081958994269371033
0.01834157295525074 0.20442381501197815 0.11023759841918945
0.026132456958293915 0.21262644231319427 0.10839595645666122
0.028475802391767502 0.23037302494049072 0.094715744256973267
0.063340313732624054 0.25501427054405212 0.067683696746826172
0.20975883305072784 0.28426191210746765 0.037939019501209259
0.35691341757774353 0.31457546353340149 0.033431138843297958
0.47852134704589844 0.33568233251571655 0.038980163633823395
0.57806211709976196 0.34968769550323486 0.046604141592979431
0.65805214643478394 0.36047160625457764 0.03319905698299408
0.71089833974838257 0.36556628346443176 0.023924196138978004
0.74383139610290527 0.37550210952758789 0.010203732177615166
0.76327729225158691 0.3907216489315033 0.0066326214000582695
0.77624475955963135 0.40326842665672302 0.0096491193398833275
0.0069272061809897423 0.27552974224090576 0.1405731588602066
0.023653216660022736 0.28622162342071533 0.13911151885986328
0.041220199316740036 0.30624738335609436 0.13085578382015228
0.056933488696813583 0.33551487326622009 0.093873731791973114
0.21165487170219421 0.37801596522331238 0.055582951754331589
0.37636834383010864 0.4149537980556488 0.052745070308446884
0.51230847835540771 0.44151586294174194 0.051006510853767395
0.62465786933898926 0.46053731441497803 0.050802808254957199
0.70277804136276245 0.4701840877532959 0.045605335384607315
0.76147621870040894 0.47961977124214172 0.039138823747634888
0.7956346869468689 0.49059352278709412 0.018836734816431999
0.81767314672470093 0.50330454111099243 0.013324498198926449
0.82776498794555664 0.5149950385093689 0.011873342096805573
0.007788549643009901 0.34217619895935059 0.16830724477767944
0.026473954319953918 0.35470029711723328 0.1662958562374115
0.04958077147603035 0.37570586800575256 0.15830042958259583
0.05495573952794075 0.41490736603736877 0.11698294430971146
0.21828889846801758 0.46682283282279968 0.068388693034648895
0.40083858370780945 0.51122367382049561 0.064348064363002777
0.54288852214813232 0.5429307222366333 0.05866076797246933
0.66726350784301758 0.57202637195587158 0.05712420865893364
0.75133860111236572 0.58570283651351929 0.051063105463981628
0.81082665920257568 0.59656238555908203 0.044021680951118469
0.8453211784362793 0.60701054334640503 0.024911019951105118
0.86490112543106079 0.61643075942993164 0.021493604406714439
0.87540799379348755 0.62473481893539429 0.019622324034571648
0.015984838828444481 0.39346843957901001 0.18820828199386597
0.020423604175448418 0.40873220562934875 0.18522891402244568
0.028393404558300972 0.43350613117218018 0.17529690265655518
0.046620883047580719 0.48052680492401123 0.12513633072376251
0.22550101578235626 0.53900313377380371 0.057113558053970337
0.41947498917579651 0.58736836910247803 0.052675988525152206
0.57380688190460205 0.62805330753326416 0.05594322457909584
0.70233488082885742 0.66147857904434204 0.064986377954483032
0.78826212882995605 0.67746210098266602 0.07591576874256134
0.84842127561569214 0.68792736530303955 0.069972336292266846
0.88472545146942139 0.69625604152679443 0.045932531356811523
0.90308356285095215 0.70700663328170776 0.042727064341306686
0.91497647762298584 0.71492224931716919 0.047438647598028183
0.018403520807623863 0.42820572853088379 0.20547802746295929
0.01564420759677887 0.44321408867835999 0.20282648503780365
0.012299406342208385 0.47412323951721191 0.18771028518676758
0.041621457785367966 0.52460116147994995 0.12600676715373993
0.21863085031509399 0.58727234601974487 0.028336469084024429
0.43747627735137939 0.64116311073303223 0.02084248885512352
0.59869444370269775 0.68438822031021118 0.047886013984680176
0.72610348463058472 0.71669882535934448 0.080211535096168518
0.81574887037277222 0.73687195777893066 0.1069880947470665
0.87478005886077881 0.74937289953231812 0.10826928913593292
0.91123318672180176 0.75589865446090698 0.093519769608974457
0.93054449558258057 0.7640271782875061 0.078815117478370667
0.94273668527603149 0.76900213956832886 0.073934562504291534
0.018304981291294098 0.45472279191017151 0.22942803800106049
0.0096032982692122459 0.46854719519615173 0.22087627649307251
0.015373783186078072 0.50279980897903442 0.20253889262676239
0.043888960033655167 0.55553853511810303 0.13796366751194
0.22688117623329163 0.62022757530212402 0.036586478352546692
0.44813704490661621 0.67404168844223022 0.020890224725008011
0.60988026857376099 0.718849778175354 0.029659360647201538
0.74427515268325806 0.75168919563293457 0.054196197539567947
0.83804214000701904 0.77366673946380615 0.085087478160858154
0.90056943893432617 0.78764480352401733 0.10264093428850174
0.9347609281539917 0.79514658451080322 0.10238189995288849
0.95376425981521606 0.79968905448913574 0.089327029883861542
0.96327048540115356 0.80180436372756958 0.08542168140411377
0.025582302361726761 0.48255118727684021 0.26007989048957825
0.016063077375292778 0.50779157876968384 0.24989762902259827
0.018618309870362282 0.53898340463638306 0.22657330334186554
0.032044503837823868 0.59496670961380005 0.14783135056495667
0.22037509083747864 0.65626496076583862 0.041168108582496643
0.4625205397605896 0.70617169141769409 0.025190973654389381
0.62725830078125 0.7478519082069397 0.033629205077886581
0.76516753435134888 0.78096169233322144 0.03900744765996933
0.86136209964752197 0.80239510536193848 0.068818636238574982
0.9235805869102478 0.81538033485412598 0.094580359756946564
0.95634651184082031 0.82239443063735962 0.098371513187885284
0.9743887186050415 0.8264840841293335 0.10251176357269287
0.97932898998260498 0.82755869626998901 0.11647804081439972
0.023858508095145226 0.52410387992858887 0.29862585663795471
0.03205578401684761 0.56374126672744751 0.29141032695770264
0.017135156318545341 0.59945130348205566 0.26245743036270142
0.051460955291986465 0.646037757396698 0.19455607235431671
0.26823762059211731 0.70269018411636353 0.098401494324207306
0.491606205701828 0.74820905923843384 0.08573538064956665
0.65404248237609863 0.77936965227127075 0.076703749597072601
0.7849164605140686 0.80634403228759766 0.060269180685281754
0.88612443208694458 0.82969367504119873 0.067921578884124756
0.95048242807388306 0.84170281887054443 0.098695166409015656
0.978645920753479 0.84608906507492065 0.12659694254398346
0.99057620763778687 0.84903925657272339 0.16303782165050507
0.99060201644897461 0.85052889585494995 0.21421428024768829
0.012547452002763748 0.031898126006126404 0.049059264361858368
0.020977677777409554 0.030287738889455795 0.051411990076303482
0.050252459943294525 0.033568840473890305 0.05501893162727356
0.089694380760192871 0.039040166884660721 0.055070359259843826
0.15409083664417267 0.045120015740394592 0.053101394325494766
0.24494567513465881 0.053673837333917618 0.04985378310084343
0.33153772354125977 0.059971604496240616 0.050198018550872803
0.41020914912223816 0.058001812547445297 0.046899847686290741
0.47735422849655151 0.050759274512529373 0.044159445911645889
0.52613341808319092 0.047719318419694901 0.044848766177892685
0.55451345443725586 0.044820718467235565 0.046551663428544998
0.57458162307739258 0.032239742577075958 0.043409369885921478
0.58376693725585938 0.036059405654668808 0.0514487624168396
0.018442895263433456 0.04809277132153511 0.056372534483671188
0.029223348945379257 0.048430364578962326 0.057878218591213226
0.057987961918115616 0.054053843021392822 0.061047274619340897
0.099051520228385925 0.059497535228729248 0.062151022255420685
0.16801396012306213 0.069799013435840607 0.063078723847866058
0.26657864451408386 0.081495024263858795 0.059556234627962112
0.36098924279212952 0.093106977641582489 0.062315594404935837
0.44356369972229004 0.096878275275230408 0.056833110749721527
0.51353055238723755 0.092022478580474854 0.047594662755727768
0.56471496820449829 0.083194702863693237 0.037995535880327225
0.5933767557144165 0.073766686022281647 0.03664836660027504
0.61625158786773682 0.069030016660690308 0.024081854149699211
0.62802034616470337 0.066710531711578369 0.045485924929380417
0.02026836946606636 0.073247455060482025 0.069771438837051392
0.032846875488758087 0.074984833598136902 0.071521475911140442
0.061377745121717453 0.081269025802612305 0.07355181872844696
0.11067219078540802 0.090879969298839569 0.074582658708095551
0.19165530800819397 0.10531074553728104 0.074555583298206329
0.29155784845352173 0.12089706212282181 0.071093000471591949
0.39069253206253052 0.13510558009147644 0.072475999593734741
0.48011365532875061 0.14145781099796295 0.071914628148078918
0.55403667688369751 0.13768918812274933 0.056619875133037567
0.61342716217041016 0.12442773580551147 0.027278091758489609
0.6434473991394043 0.11683080345392227 0.019246254116296768
0.66423362493515015 0.11361244320869446 0.01790923997759819
0.67779135704040527 0.10696201771497726 0.042331904172897339
0.016537221148610115 0.10819489508867264 0.090523704886436462
0.030575770884752274 0.11239258944988251 0.091962851583957672
0.057641841471195221 0.11900022625923157 0.092118419706821442
0.11308754980564117 0.13371118903160095 0.089085869491100311
0.20666807889938354 0.15110839903354645 0.081602714955806732
0.31884798407554626 0.16894382238388062 0.075245924293994904
0.42291375994682312 0.18571005761623383 0.080095566809177399
0.52054214477539062 0.19215795397758484 0.078943632543087006
0.59841728210449219 0.19431608915328979 0.059991858899593353
0.65461474657058716 0.18501774966716766 0.031762905418872833
0.69116353988647461 0.18049684166908264 0.014925160445272923
0.71133613586425781 0.18076938390731812 0.015775149688124657
