luts/print/fuji_3513_cuspclip.cube
# Created by: G'MIC (https://gmic.eu)
TITLE "fuji_3513_cuspclip"
# LUT size
LUT_3D_SIZE 13
# Data domain
DOMAIN_MIN 0.0 0.0 0.0
DOMAIN_MAX 1.0 1.0 1.0
# LUT data points
0.0064695468172430992 0.017945427447557449 0.022443434223532677
0.022871982306241989 0.025418449193239212 0.02545776404440403
0.042503237724304199 0.03114299476146698 0.027594277635216713
0.075894869863986969 0.035940073430538177 0.024455185979604721
0.13650140166282654 0.042277585715055466 0.012829305604100227
0.22501648962497711 0.039360705763101578 0.0035654404200613499
0.31985563039779663 0.027625288814306259 0.0026078915689140558
0.40185061097145081 0.015359587036073208 0.00097481225384399295
0.48638570308685303 0.004476629663258791 0
0.54485172033309937 0.0050980662927031517 0
0.57372736930847168 0.005971990991383791 0
0.59067714214324951 0.0093286698684096336 0
0.59726488590240479 0.034095317125320435 0
0.0045049930922687054 0.045799840241670609 0.033297758549451828
0.017337843775749207 0.04984549805521965 0.033879853785037994
0.039419781416654587 0.054678838700056076 0.035364069044589996
0.085414707660675049 0.060872111469507217 0.030496994033455849
0.16268418729305267 0.068676784634590149 0.01772226020693779
0.26242309808731079 0.072256691753864288 0.0074587804265320301
0.36199408769607544 0.066108375787734985 0.0039904126897454262
0.44651934504508972 0.060479693114757538 0.0038080702070146799
0.52379441261291504 0.052231315523386002 0.00038140988908708096
0.57250785827636719 0.051976688206195831 0
0.60122001171112061 0.054311670362949371 0
0.6181524395942688 0.071981407701969147 0
0.62902653217315674 0.11042297631502151 0
0.0019340665312483907 0.076607108116149902 0.044537577778100967
0.0098309386521577835 0.076921440660953522 0.042384158819913864
0.035805288702249527 0.082085013389587402 0.042415991425514221
0.090706981718540192 0.08982434868812561 0.035631831735372543
0.18218861520290375 0.098559148609638214 0.022066826000809669
0.29445379972457886 0.10958187282085419 0.010881192050874233
0.39988109469413757 0.11900501698255539 0.0049924212507903576
0.48685333132743835 0.12347882986068726 0.0039215688593685627
0.56806355714797974 0.12964649498462677 0.00087506161071360111
0.61613589525222778 0.12902051210403442 0
0.64313405752182007 0.13108766078948975 0
0.65724724531173706 0.15020351111888885 1.7951516610992257e-06
0.66775041818618774 0.16683198511600494 0.00024907730403356254
6.4625460254319478e-06 0.11263269186019897 0.054433304816484451
0.0022538877092301846 0.10828797519207001 0.050355486571788788
0.028313461691141129 0.11256757378578186 0.045804537832736969
0.094461642205715179 0.12340603768825531 0.036548316478729248
0.19452470541000366 0.14163757860660553 0.02036692388355732
0.30855953693389893 0.16399195790290833 0.0095590930432081223
0.42306739091873169 0.17975939810276031 0.0051289875991642475
0.52324116230010986 0.19084571301937103 0.0039215688593685627
0.6053016185760498 0.19986702501773834 0.0030808392912149429
0.64883208274841309 0.197482630610466 0.0009071649401448667
0.67679727077484131 0.19558976590633392 0.00022767011250834912
0.6962890625 0.21061423420906067 0.0019273346988484263
0.71176213026046753 0.22898682951927185 0.0038124683778733015
0.00031893860432319343 0.16811062395572662 0.074294820427894592
2.3336971935350448e-05 0.16741557419300079 0.06798158586025238
0.011150569655001163 0.17263168096542358 0.043937653303146362
0.080690495669841766 0.17990824580192566 0.0232047438621521
0.19851396977901459 0.19718778133392334 0.0083342306315898895
0.32183396816253662 0.2257806658744812 0.0049393447116017342
0.4430270791053772 0.24628213047981262 0.0034254635684192181
0.55653834342956543 0.26302796602249146 0.003928749356418848
0.64303261041641235 0.27441027760505676 0.0044994726777076721
0.68304431438446045 0.27791681885719299 0.0048777563497424126
0.71593248844146729 0.28061258792877197 0.0050929351709783077
0.73687964677810669 0.29396259784698486 0.0053120334632694721
0.75016158819198608 0.30716976523399353 0.0060303779318928719
0.0046226801350712776 0.2508523166179657 0.11210218071937561
0.001353155355900526 0.24713291227817535 0.096372045576572418
0.0029390670824795961 0.25103011727333069 0.052614174783229828
0.047007001936435699 0.25686728954315186 0.0084909023717045784
0.20254509150981903 0.28073599934577942 0.001302188029512763
0.35312128067016602 0.32105270028114319 0.0020509606692939997
0.4795374870300293 0.34639915823936462 0.0030935998074710369
0.59286808967590332 0.36450323462486267 0.0054466249421238899
0.68361616134643555 0.37960308790206909 0.0086500877514481544
0.72619843482971191 0.38786143064498901 0.010847054421901703
0.76178032159805298 0.39255437254905701 0.012184786610305309
0.78291451930999756 0.40297827124595642 0.010525033809244633
0.79309475421905518 0.4112417995929718 0.0096987253054976463
0.0082515189424157143 0.35063773393630981 0.1554785817861557
0.0049643572419881821 0.33884561061859131 0.13555718958377838
0.0018407783936709166 0.33665335178375244 0.089983813464641571
0.040519025176763535 0.35028249025344849 0.01233354490250349
0.20605941116809845 0.37582099437713623 0.00096454995218664408
0.37715226411819458 0.42601087689399719 0.00096425076480954885
0.52853554487228394 0.46458244323730469 0.0023896908387541771
0.64146089553833008 0.48123630881309509 0.0051563638262450695
0.73041075468063354 0.49425747990608215 0.0089068096131086349
0.77489852905273438 0.50178384780883789 0.013857822865247726
0.80808734893798828 0.50482696294784546 0.016559900715947151
0.82739275693893433 0.51550459861755371 0.012928981333971024
0.83779036998748779 0.52285158634185791 0.0093234637752175331
0.0087887635454535484 0.44286313652992249 0.19547298550605774
0.0085748108103871346 0.43896335363388062 0.1819315105676651
0.017740512266755104 0.43723234534263611 0.14575546979904175
0.035372864454984665 0.44172170758247375 0.034185148775577545
0.20153400301933289 0.47167012095451355 0.0022966573014855385
0.39866593480110168 0.52742981910705566 0
0.56801033020019531 0.57133811712265015 0.00075780833140015602
0.68865931034088135 0.59143620729446411 0.0047484752722084522
0.77746886014938354 0.60597407817840576 0.0081614777445793152
0.82379359006881714 0.6124158501625061 0.015805158764123917
0.8532024621963501 0.61506104469299316 0.021838095039129257
0.87127453088760376 0.62534588575363159 0.015656923875212669
0.87872600555419922 0.63065093755722046 0.0087496442720293999
0.010382184758782387 0.49608319997787476 0.21839113533496857
0.011497467756271362 0.50526338815689087 0.21274955570697784
0.027385607361793518 0.5122341513633728 0.18440219759941101
0.021033208817243576 0.51455521583557129 0.073295354843139648
0.1698564738035202 0.55407822132110596 0.0077049257233738899
0.40888932347297668 0.60793501138687134 0.00035264258622191846
0.59491610527038574 0.65319913625717163 0.003504195949062705
0.71847093105316162 0.67516076564788818 0.014976262114942074
0.8071364164352417 0.68736499547958374 0.025883423164486885
0.85742783546447754 0.69839620590209961 0.030735854059457779
0.88999348878860474 0.70799458026885986 0.033215779811143875
0.90687161684036255 0.71387147903442383 0.030766550451517105
0.91117715835571289 0.71380829811096191 0.027161601930856705
0.018488805741071701 0.53616756200790405 0.23563268780708313
0.02009798027575016 0.54289227724075317 0.22737489640712738
0.021751359105110168 0.55310362577438354 0.19794782996177673
0.022905101999640465 0.56530940532684326 0.092320717871189117
0.18033042550086975 0.60175162553787231 0.013361014425754547
0.41509184241294861 0.6537330150604248 0.0033918193075805902
0.60579007863998413 0.70172262191772461 0.0069509916938841343
0.74199795722961426 0.7350655198097229 0.020702781155705452
0.8280940055847168 0.75133335590362549 0.04226544126868248
0.88001722097396851 0.7599596381187439 0.051790829747915268
0.91089946031570435 0.76450049877166748 0.054518621414899826
0.9276849627494812 0.76696664094924927 0.057807143777608871
0.93439096212387085 0.76605314016342163 0.060925517231225967
0.019318390637636185 0.561695396900177 0.24957701563835144
0.026239536702632904 0.56921005249023438 0.2363092452287674
0.020561458542943001 0.57751011848449707 0.19455833733081818
0.031578782945871353 0.59436666965484619 0.079692676663398743
0.21587797999382019 0.63597297668457031 0.011709445156157017
0.43811467289924622 0.68910866975784302 0.004541344940662384
0.61635416746139526 0.73601639270782471 0.0097160637378692627
0.76192378997802734 0.77133899927139282 0.023387311026453972
0.84872746467590332 0.78554725646972656 0.051279660314321518
0.9035305380821228 0.79359561204910278 0.06628863513469696
0.93648630380630493 0.79968482255935669 0.07287520170211792
0.94927972555160522 0.80152630805969238 0.076525650918483734
0.95377069711685181 0.79988056421279907 0.079932242631912231
0.022138796746730804 0.58043229579925537 0.26199352741241455
0.015559476800262928 0.59172612428665161 0.23240257799625397
0.021569449454545975 0.59937047958374023 0.1669837087392807
0.042136099189519882 0.61871498823165894 0.037386335432529449
0.249151811003685 0.66732150316238403 0.0079239942133426666
0.45991557836532593 0.71274465322494507 0.0067506376653909683
0.63777202367782593 0.75880491733551025 0.007857348769903183
0.77829688787460327 0.79296642541885376 0.022027259692549706
0.86820375919342041 0.80862855911254883 0.059855829924345016
0.9250030517578125 0.81525468826293945 0.078147858381271362
0.95458394289016724 0.81992828845977783 0.083452634513378143
0.9662773609161377 0.82101184129714966 0.087020516395568848
0.97132855653762817 0.81849086284637451 0.089304126799106598
0.02114105224609375 0.60584139823913574 0.28313234448432922
0.017150236293673515 0.61826598644256592 0.23129212856292725
0.017345577478408813 0.63039189577102661 0.13861271739006042
0.071442395448684692 0.65084713697433472 0.03885689377784729
0.3075832724571228 0.69619911909103394 0.00639368686825037
0.49586081504821777 0.73891043663024902 0.014930754899978638
0.66113179922103882 0.77960580587387085 0.0099827190861105919
0.78882122039794922 0.80747455358505249 0.015479712747037411
0.88469576835632324 0.8248559832572937 0.037765905261039734
0.94020634889602661 0.83034014701843262 0.062841124832630157
0.96559149026870728 0.83267921209335327 0.068231306970119476
0.97992372512817383 0.83520036935806274 0.081030949950218201
0.98330634832382202 0.83517509698867798 0.10591229051351547
0.0075721889734268188 0.022781012579798698 0.032778512686491013
0.025537557899951935 0.028733108192682266 0.037156634032726288
0.049590524286031723 0.034133147448301315 0.041625317186117172
0.081710129976272583 0.03842659667134285 0.038120031356811523
0.14563208818435669 0.040165472775697708 0.026006301864981651
0.24454504251480103 0.026587601751089096 0.0090678343549370766
0.34223386645317078 0.01504910085350275 0.0023529352620244026
0.4266696572303772 0.0087507357820868492 0.0012595233274623752
0.50329911708831787 0.007683219388127327 6.9936118961777538e-05
0.56275361776351929 0.015791993588209152 0.0008791904547251761
0.59951448440551758 0.01011389959603548 0.00070313096512109041
0.61382406949996948 0.0097260866314172745 0
0.61759138107299805 0.021767381578683853 0.00096906773978844285
0.0059454375877976418 0.048157814890146255 0.044000200927257538
0.023500075563788414 0.052071560174226761 0.04649994894862175
0.048856697976589203 0.056484941393136978 0.050378389656543732
0.090150170028209686 0.061674155294895172 0.045868489891290665
0.17133127152919769 0.066454358398914337 0.030269322916865349
0.27443656325340271 0.066786594688892365 0.0099128270521759987
0.37496355175971985 0.055833045393228531 0.003458748571574688
0.46260249614715576 0.038032546639442444 0.0033829482272267342
0.53554606437683105 0.044954262673854828 0.00074165192199870944
0.59053021669387817 0.055314935743808746 0.00046404669410549104
0.62460827827453613 0.060897707939147949 0.0005813747993670404
0.64216357469558716 0.063905574381351471 0
0.65079683065414429 0.085871845483779907 5.3869509429205209e-05
0.0026984121650457382 0.075650356709957123 0.055289026349782944
0.017296450212597847 0.078465841710567474 0.055801793932914734
0.043600704520940781 0.083731226623058319 0.057885278016328812
0.099381342530250549 0.090401485562324524 0.050988934934139252
0.19392386078834534 0.098695896565914154 0.030369851738214493
0.30047783255577087 0.10769154876470566 0.01158460695296526
0.40917184948921204 0.1121567040681839 0.0042601493187248707
0.50231492519378662 0.10436692833900452 0.0038857255131006241
0.58145338296890259 0.10961727052927017 0.00064891739748418331
0.63282066583633423 0.11592978984117508 3.6202225601300597e-05
0.66524720191955566 0.12615260481834412 5.8910893130814657e-05
0.6807066798210144 0.13219292461872101 0.00055489630904048681
0.68982964754104614 0.15163065493106842 0.00080897012958303094
9.0475645265541971e-05 0.11586396396160126 0.066568903625011444
0.0045552272349596024 0.11428403854370117 0.06334889680147171
0.025095367804169655 0.11846020072698593 0.06076546385884285
0.097630143165588379 0.13025273382663727 0.051845207810401917
0.19964584708213806 0.14718210697174072 0.026306930929422379
0.31413298845291138 0.16005696356296539 0.0097410613670945168
0.43744134902954102 0.17088811099529266 0.0066224192269146442
0.54217708110809326 0.17514288425445557 0.0039084041491150856
0.6213146448135376 0.18482612073421478 0.0031321507412940264
0.66868990659713745 0.19025214016437531 0.0030134611297398806
0.70244884490966797 0.19064193964004517 0.002946322550997138
0.72162771224975586 0.20038840174674988 0.0043128221295773983
0.73220658302307129 0.21870978176593781 0.0042662527412176132
9.3347887741401792e-05 0.1708342581987381 0.082286596298217773
0.00015104704652912915 0.1694815456867218 0.07601630687713623
0.008001633919775486 0.17414328455924988 0.061553310602903366
0.084205642342567444 0.1858510822057724 0.043575916439294815
0.20275290310382843 0.20513501763343811 0.01725565642118454
0.33320659399032593 0.22825485467910767 0.0063664903864264488
0.46657738089561462 0.24665972590446472 0.0052347667515277863
0.5768311619758606 0.26191526651382446 0.0041936240158975124
0.65885764360427856 0.27257677912712097 0.0059026083908975124
0.70643585920333862 0.27396014332771301 0.0078682843595743179
0.74234426021575928 0.27504092454910278 0.0097058461979031563
0.76379919052124023 0.29438191652297974 0.0102131562307477
0.77542519569396973 0.30542320013046265 0.0086534237489104271
0.0087167927995324135 0.25738298892974854 0.12133738398551941
0.0037163230590522289 0.25200393795967102 0.10315222293138504
0.0041707954369485378 0.25722819566726685 0.071263931691646576
0.048857223242521286 0.26432690024375916 0.033067021518945694
0.20728158950805664 0.29012596607208252 0.0083750253543257713
0.36382666230201721 0.32764887809753418 0.0075182896107435226
0.50086265802383423 0.35182234644889832 0.0065692379139363766
0.61334913969039917 0.36925935745239258 0.0067790462635457516
0.70000344514846802 0.3804151713848114 0.01029313076287508
0.74846184253692627 0.38729217648506165 0.016797637566924095
0.78620105981826782 0.3929722011089325 0.021756431087851524
0.80741584300994873 0.40445238351821899 0.017815697938203812
0.81990081071853638 0.4075474739074707 0.012297267094254494
0.024872619658708572 0.36775735020637512 0.17608974874019623
0.012945002876222134 0.35847866535186768 0.15515574812889099
0.0070028118789196014 0.35633018612861633 0.11413832753896713
0.031712282449007034 0.35792583227157593 0.037684962153434753
0.2085249274969101 0.38489887118339539 0.0064785229042172432
0.38088703155517578 0.43308529257774353 0.0071185091510415077
0.5430561900138855 0.4723002016544342 0.010042138397693634
0.6639896035194397 0.49161228537559509 0.0056976466439664364
0.75072020292282104 0.50214797258377075 0.0099565396085381508
0.79667770862579346 0.50867205858230591 0.02098502404987812
0.83119392395019531 0.51210612058639526 0.029290053993463516
0.85115039348602295 0.52325302362442017 0.021361153572797775
0.86418181657791138 0.53051149845123291 0.017267892137169838
0.029951611533761024 0.46128398180007935 0.22106753289699554
0.014935931190848351 0.46083757281303406 0.20730547606945038
0.011787952855229378 0.45622184872627258 0.16417138278484344
0.017549792304635048 0.45490196347236633 0.059365306049585342
0.18479247391223907 0.48755326867103577 0.0030792236793786287
0.41303920745849609 0.54369264841079712 0.0017750309780240059
0.57991957664489746 0.58142334222793579 0.0030451307538896799
0.71159690618515015 0.60446494817733765 0.0044924416579306126
0.80269116163253784 0.62077796459197998 0.0084807155653834343
0.85078954696655273 0.62798011302947998 0.014511422254145145
0.87723183631896973 0.62966251373291016 0.022155597805976868
0.89623343944549561 0.6378287672996521 0.019010821357369423
0.90468764305114746 0.64633166790008545 0.027544433251023293
0.020676182582974434 0.51400089263916016 0.24742618203163147
0.014457463286817074 0.52499568462371826 0.24049019813537598
0.023723393678665161 0.52959787845611572 0.20710752904415131
0.010428200475871563 0.5383152961730957 0.10081027448177338
0.14177252352237701 0.573627769947052 0.0083470810204744339
0.42234784364700317 0.62798237800598145 0.0010963738895952702
0.61113077402114868 0.66788256168365479 0.003373763058334589
0.74173402786254883 0.69187140464782715 0.01452083233743906
0.83302271366119385 0.71302777528762817 0.032711658626794815
0.88616287708282471 0.71988821029663086 0.029591504484415054
0.91214686632156372 0.72149842977523804 0.033330924808979034
0.928993821144104 0.72491675615310669 0.036809541285037994
0.93543344736099243 0.72955983877182007 0.046264633536338806
0.017550420016050339 0.55316919088363647 0.26834395527839661
0.029439050704240799 0.56190639734268188 0.26058247685432434
0.029901646077632904 0.57636392116546631 0.23394976556301117
0.011888466775417328 0.5889211893081665 0.11905370652675629
0.14925779402256012 0.61972308158874512 0.014162145555019379
0.41751560568809509 0.67227590084075928 0.0037556069437414408
0.61764085292816162 0.72302746772766113 0.004440726712346077
0.76649326086044312 0.75744795799255371 0.01508515328168869
0.85512489080429077 0.77147084474563599 0.050803016871213913
0.90639817714691162 0.77647107839584351 0.062175136059522629
0.93462705612182617 0.77689510583877563 0.0604109987616539
0.94894534349441528 0.78001290559768677 0.058018822222948074
0.95724153518676758 0.78321832418441772 0.070167407393455505
0.021645130589604378 0.57937854528427124 0.28877094388008118
0.028546037152409554 0.58776193857192993 0.27778732776641846
0.01479777880012989 0.60029947757720947 0.24032941460609436
0.0094739282503724098 0.61639893054962158 0.12801210582256317
0.16622145473957062 0.65102368593215942 0.019775735214352608
0.43041813373565674 0.70257687568664551 0.004381516482681036
0.62486523389816284 0.75175195932388306 0.0072089103050529957
0.77846789360046387 0.7867322564125061 0.016529710963368416
0.86997216939926147 0.80002343654632568 0.049675330519676208
0.92393386363983154 0.80679780244827271 0.072837755084037781
0.95259600877761841 0.81065291166305542 0.075703322887420654
0.96570676565170288 0.81263768672943115 0.073494508862495422
0.97342073917388916 0.81457257270812988 0.084343075752258301
0.019784949719905853 0.60257327556610107 0.31696498394012451
0.016274875029921532 0.61342018842697144 0.29745849967002869
0.021647164598107338 0.62510675191879272 0.25262254476547241
0.020132312551140785 0.64114475250244141 0.12418187409639359
0.19313415884971619 0.67765462398529053 0.023643419146537781
0.45380175113677979 0.72824037075042725 0.023010538890957832
0.64072650671005249 0.77132999897003174 0.011837109923362732
0.78621774911880493 0.80239003896713257 0.014937232248485088
0.88020974397659302 0.82030647993087769 0.040158230811357498
0.94077044725418091 0.82758688926696777 0.06651962548494339
0.97096329927444458 0.83140915632247925 0.066245764493942261
0.98173797130584717 0.83322495222091675 0.082180999219417572
0.98478502035140991 0.8317529559135437 0.10658439248800278
0.03263937309384346 0.63515573740005493 0.36433497071266174
0.039820607751607895 0.65042108297348022 0.33510029315948486
0.025421276688575745 0.6585279107093811 0.27912232279777527
0.057186365127563477 0.67382586002349854 0.17756329476833344
0.24261859059333801 0.71004194021224976 0.097563363611698151
0.48556655645370483 0.75535756349563599 0.096294298768043518
0.65351444482803345 0.79211336374282837 0.075682125985622406
0.78233557939529419 0.816700279712677 0.041821766644716263
0.88938158750534058 0.83735793828964233 0.025214295834302902
0.96099311113357544 0.84771668910980225 0.030457410961389542
0.98777353763580322 0.84989804029464722 0.045346368104219437
0.9928702712059021 0.85046607255935669 0.10984057188034058
0.99431031942367554 0.85068356990814209 0.17268137633800507
0.0077107148244976997 0.026726920157670975 0.057041257619857788
0.026429120451211929 0.029598506167531013 0.062591895461082458
0.051801301538944244 0.034512359648942947 0.06813918799161911
0.087785236537456512 0.038613740354776382 0.064194865524768829
0.1512993723154068 0.041737262159585953 0.056926172226667404
0.25328421592712402 0.029741235077381134 0.039747815579175949
0.36556771397590637 0.014345849864184856 0.019279180094599724
0.44817322492599487 0.0070711770094931126 0.015568796545267105
0.51644164323806763 0.005884252954274416 0.013012515380978584
0.57053846120834351 0.009221978485584259 0.020368104800581932
0.60856550931930542 0.0046878592111170292 0.02544059045612812
0.6267821192741394 0.0029568241443485022 0.016188438981771469
0.63570398092269897 0.0046175490133464336 0.014168010093271732
0.0069675669074058533 0.049860455095767975 0.065556637942790985
0.027061477303504944 0.053274042904376984 0.069526448845863342
0.052355583757162094 0.057499080896377563 0.07380182296037674
0.09476345032453537 0.06173788383603096 0.070519357919692993
0.17228782176971436 0.065980948507785797 0.061861298978328705
0.2802773118019104 0.063134945929050446 0.042641539126634598
0.39324131608009338 0.036625370383262634 0.019250098615884781
0.48307323455810547 0.011351028457283974 0.01284453459084034
0.55815833806991577 0.015257681719958782 0.015586957335472107
0.61422073841094971 0.016774555668234825 0.017832618206739426
0.64304143190383911 0.021569838747382164 0.026297744363546371
0.66290485858917236 0.012927021831274033 0.016120610758662224
0.67602884769439697 0.015171544626355171 0.011322350241243839
0.0036254434380680323 0.078042872250080109 0.074403755366802216
0.021809343248605728 0.080362148582935333 0.077496536076068878
0.047276053577661514 0.084846004843711853 0.080315999686717987
0.10437692701816559 0.091228678822517395 0.076947487890720367
0.20577415823936462 0.098847977817058563 0.064497314393520355
0.31357777118682861 0.10425687581300735 0.054169867187738419
0.42436069250106812 0.091825641691684723 0.031815070658922195
0.5246816873550415 0.072441413998603821 0.014549195766448975
0.60208922624588013 0.063371054828166962 0.013003824278712273
0.65501135587692261 0.052454959601163864 0.012632930651307106
0.68581569194793701 0.047651972621679306 0.011396968737244606
0.7053762674331665 0.04412594810128212 0.0092713302001357079
0.71545451879501343 0.059870656579732895 0.013317586854100227
0.00021416159870568663 0.12634190917015076 0.095886662602424622
0.006328971590846777 0.12309747189283371 0.091844029724597931
0.025335289537906647 0.12440401315689087 0.090017683804035187
0.10151504725217819 0.13743221759796143 0.083358198404312134
0.2128387987613678 0.14933890104293823 0.067893341183662415
0.33516925573348999 0.15833450853824615 0.051793236285448074
0.45561838150024414 0.16233071684837341 0.021013058722019196
0.56451237201690674 0.16144256293773651 0.014319206587970257
0.64357089996337891 0.15824747085571289 0.012454403564333916
0.6918410062789917 0.15564318001270294 0.013894234783947468
0.72872120141983032 0.15706326067447662 0.012723780237138271
0.74848407506942749 0.16517531871795654 0.014346567913889885
0.75658184289932251 0.17371806502342224 0.016211835667490959
0.00046554266009479761 0.1903606504201889 0.12711301445960999
