luts/print/fuji_3510_cuspclip.cube
# Created by: G'MIC (https://gmic.eu)
TITLE "fuji_3510_cuspclip"
# LUT size
LUT_3D_SIZE 5
# Data domain
DOMAIN_MIN 0.0 0.0 0.0
DOMAIN_MAX 1.0 1.0 1.0
# LUT data points
0.014779992401599884 0.016436513513326645 0.014895704574882984
0.077535234391689301 0.037236187607049942 0.021045565605163574
0.32654699683189392 0.034316584467887878 0.009319978766143322
0.53604906797409058 0.016999982297420502 0
0.60949397087097168 0.019469168037176132 0
0.0040171453729271889 0.11138196289539337 0.055061385035514832
0.09501330554485321 0.13447913527488708 0.047400441020727158
0.41208621859550476 0.17575022578239441 0.0014441845705732703
0.64926403760910034 0.19727277755737305 4.8469096327607986e-06
0.71873384714126587 0.21897101402282715 0.0022512248251587152
0.0072313197888433933 0.34847137331962585 0.14925335347652435
0.02694408968091011 0.35378915071487427 0.046049289405345917
0.4885522723197937 0.44272294640541077 0.0001534854673082009
0.77070063352584839 0.49373933672904968 0.019115762785077095
0.83019602298736572 0.51194345951080322 0.025436505675315857
0.018960870802402496 0.55060857534408569 0.24231116473674774
0.0011276095174252987 0.57412075996398926 0.1247088685631752
0.57361328601837158 0.69860506057739258 0.0030320710502564907
0.86888164281845093 0.74687403440475464 0.053126703947782516
0.93403667211532593 0.76350367069244385 0.065230458974838257
0.022321334108710289 0.62116128206253052 0.29472672939300537
0.061381500214338303 0.65394103527069092 0.062046334147453308
0.65346032381057739 0.78035902976989746 0.0087980683892965317
0.92371928691864014 0.82868081331253052 0.063005931675434113
0.98287421464920044 0.83732450008392334 0.072004549205303192
0.022043101489543915 0.030937628820538521 0.1047390028834343
0.097024984657764435 0.049255207180976868 0.098493866622447968
0.37968641519546509 0.014457806944847107 0.087638422846794128
0.59419703483581543 0.0025380153674632311 0.091785445809364319
0.66552340984344482 1.3463637515087612e-05 0.083692826330661774
0.0067553650587797165 0.15515324473381042 0.15492960810661316
0.08555728942155838 0.14906878769397736 0.1442657858133316
0.45917662978172302 0.17974099516868591 0.13312484323978424
0.71358084678649902 0.13682214915752411 0.079202242195606232
0.78526592254638672 0.15143881738185883 0.081655226647853851
0.014375664293766022 0.42930546402931213 0.30220204591751099
0.020531687885522842 0.41421669721603394 0.21715517342090607
0.56292194128036499 0.47600707411766052 0.11152631044387817
0.86064332723617554 0.50899261236190796 0.051568139344453812
0.92151069641113281 0.5249323844909668 0.049141362309455872
0.028431102633476257 0.61099660396575928 0.3907909095287323
0.013188306242227554 0.64340353012084961 0.32311710715293884
0.60805779695510864 0.75486648082733154 0.074508100748062134
0.94603604078292847 0.81047523021697998 0.055728763341903687
0.99420571327209473 0.82152426242828369 0.10901468247175217
0.024236835539340973 0.68990111351013184 0.51469939947128296
0.0084419697523117065 0.72513949871063232 0.43306133151054382
0.62051260471343994 0.82933002710342407 0.35828816890716553
0.96496957540512085 0.88579291105270386 0.30474337935447693
1 0.88994795083999634 0.3746095597743988
0.0036273282021284103 0.075589857995510101 0.32780477404594421
0.10127396136522293 0.011486008763313293 0.33601671457290649
0.40014800429344177 0.0019512550206854939 0.36918845772743225
0.62874263525009155 0.00037060905015096068 0.38837781548500061
0.69947642087936401 0 0.39945808053016663
0.0020791147835552692 0.26754090189933777 0.44115337729454041
0.040909230709075928 0.20322132110595703 0.4377748966217041
0.47796529531478882 0.19448478519916534 0.46690773963928223
0.74621915817260742 0.13105985522270203 0.469806969165802
0.80747663974761963 0.17290373146533966 0.46352306008338928
0.015670342370867729 0.53207576274871826 0.58123654127120972
0.0096781114116311073 0.53002345561981201 0.58434939384460449
0.54517644643783569 0.552268385887146 0.55094027519226074
0.86841499805450439 0.57848018407821655 0.56402379274368286
0.9303818941116333 0.59811878204345703 0.56275081634521484
0.0058533460833132267 0.69613790512084961 0.67636120319366455
0.0066735958680510521 0.74057596921920776 0.68094408512115479
0.5467345118522644 0.83270394802093506 0.63095378875732422
0.94226062297821045 0.88875102996826172 0.63442301750183105
0.99656021595001221 0.88362711668014526 0.62945228815078735
0.0091683929786086082 0.75082671642303467 0.74260526895523071
0.0047702863812446594 0.80212950706481934 0.75562649965286255
0.56818073987960815 0.89134711027145386 0.74223393201828003
0.93876457214355469 0.94946092367172241 0.75506937503814697
0.99905252456665039 0.95393747091293335 0.74590599536895752
0.0036517723929136992 0.23354622721672058 0.52464586496353149
0.10716096311807632 0.021432211622595787 0.53532248735427856
0.42450085282325745 0.0046039056032896042 0.58252400159835815
0.65308880805969238 7.3690978751983494e-05 0.606495201587677
0.72637712955474854 0.0016453013522550464 0.61553698778152466
4.5372456952463835e-05 0.35887953639030457 0.62469208240509033
0.021519260480999947 0.28737980127334595 0.65128570795059204
0.48134240508079529 0.1890205442905426 0.70563715696334839
0.75907570123672485 0.15187375247478485 0.72824394702911377
0.82300728559494019 0.17256678640842438 0.74427109956741333
0.018922289833426476 0.56528884172439575 0.73437398672103882
0.024892320856451988 0.57465118169784546 0.77365005016326904
0.50885963439941406 0.58961600065231323 0.83180862665176392
0.86022001504898071 0.60878115892410278 0.84995156526565552
0.9308769702911377 0.63983011245727539 0.86208772659301758
0.025507489219307899 0.73089301586151123 0.81276226043701172
0.025472050532698631 0.77569204568862915 0.84929531812667847
0.47571644186973572 0.88050341606140137 0.90950167179107666
0.92380648851394653 0.9266778826713562 0.91303306818008423
0.99081212282180786 0.93224859237670898 0.91377633810043335
0.037476483732461929 0.76240819692611694 0.83931934833526611
0.023270940408110619 0.82319492101669312 0.88489937782287598
0.51381093263626099 0.9233742356300354 0.93441265821456909
0.91529166698455811 0.97784411907196045 0.94584846496582031
0.99574291706085205 0.98764461278915405 0.95192968845367432
0.00051437079673632979 0.30133572220802307 0.59818124771118164
0.084535740315914154 0.075792305171489716 0.62306833267211914
0.45659640431404114 0.0052682464011013508 0.69768911600112915
0.70017051696777344 0.0026043909601867199 0.70987141132354736
0.76110011339187622 0.0070689334534108639 0.72160613536834717
0 0.39836299419403076 0.67740994691848755
0.0063989674672484398 0.33236563205718994 0.71347886323928833
0.47004243731498718 0.24909932911396027 0.79143220186233521
0.77398669719696045 0.21598698198795319 0.81787103414535522
0.84146058559417725 0.25015658140182495 0.83168739080429077
0.0060100182890892029 0.57158553600311279 0.76316267251968384
0.010040088556706905 0.59314024448394775 0.81405287981033325
0.49069896340370178 0.60601174831390381 0.8996964693069458
0.85902422666549683 0.62826859951019287 0.91931647062301636
0.93113833665847778 0.65388935804367065 0.92954307794570923
0.016864955425262451 0.73243319988250732 0.83916252851486206
0.030836457386612892 0.77731144428253174 0.87560993432998657
0.43996065855026245 0.88516581058502197 0.95936799049377441
0.91099381446838379 0.93916994333267212 0.98397612571716309
0.98586958646774292 0.94582575559616089 0.98528128862380981
0.022216511890292168 0.76947945356369019 0.85864752531051636
0.014660794287919998 0.82693982124328613 0.9061705470085144
0.46953153610229492 0.92625331878662109 0.9695974588394165
0.90566462278366089 0.98486208915710449 0.98777669668197632
0.98769265413284302 0.99513816833496094 0.99380892515182495
