luts/print/fuji_3513_constlclip.cube
# Created by: G'MIC (https://gmic.eu)
TITLE "fuji_3513_constlclip"
# LUT size
LUT_3D_SIZE 13
# Data domain
DOMAIN_MIN 0.0 0.0 0.0
DOMAIN_MAX 1.0 1.0 1.0
# LUT data points
0.01051692571491003 0.019761238247156143 0.023645289242267609
0.033082429319620132 0.02612089179456234 0.025882301852107048
0.059628743678331375 0.032778527587652206 0.026319347321987152
0.090500339865684509 0.037592135369777679 0.022936683148145676
0.14212930202484131 0.041598871350288391 0.013415646739304066
0.22828248143196106 0.047864232212305069 0.0080627743154764175
0.31283262372016907 0.063082784414291382 0.011409206315875053
0.3732057511806488 0.076564475893974304 0.010279337875545025
0.42305555939674377 0.083511725068092346 0.007178617175668478
0.47016698122024536 0.089306235313415527 0.011766561307013035
0.50110715627670288 0.093781597912311554 0.0185089111328125
0.51904606819152832 0.097435534000396729 0.021620461717247963
0.53634297847747803 0.10621412843465805 0.023403601720929146
0.011765648610889912 0.045378606766462326 0.035266038030385971
0.031592171639204025 0.048633918166160583 0.037830159068107605
0.060140989720821381 0.05422249436378479 0.038761168718338013
0.096486382186412811 0.060388170182704926 0.03198574110865593
0.15548571944236755 0.066719934344291687 0.016522111371159554
0.24332362413406372 0.07322356104850769 0.0078167635947465897
0.33597397804260254 0.08762078732252121 0.011336487717926502
0.40925443172454834 0.10149861127138138 0.010601911693811417
0.46448105573654175 0.11052870005369186 0.0075817331671714783
0.5115731954574585 0.11625009030103683 0.0130423903465271
0.54435080289840698 0.12172835320234299 0.019023686647415161
0.55796724557876587 0.12802234292030334 0.021398955956101418
0.56477349996566772 0.13125964999198914 0.024185195565223694
0.0091519970446825027 0.072701908648014069 0.046917125582695007
0.022953871637582779 0.074698351323604584 0.048254199326038361
0.052801556885242462 0.080781944096088409 0.047934047877788544
0.10383503884077072 0.087987042963504791 0.035667404532432556
0.17036043107509613 0.096285037696361542 0.017024964094161987
0.2614019513130188 0.10680444538593292 0.0050928303971886635
0.35421150922775269 0.12434004247188568 0.0077145295217633247
0.43637830018997192 0.13967660069465637 0.008196752518415451
0.49978303909301758 0.14755432307720184 0.0087680444121360779
0.55035102367401123 0.15293952822685242 0.011046615429222584
0.58143013715744019 0.15867254137992859 0.016982613131403923
0.59601432085037231 0.16538055241107941 0.022759785875678062
0.60338455438613892 0.16944539546966553 0.026064705103635788
0.0048724454827606678 0.10145570337772369 0.058785635977983475
0.010329646989703178 0.10226670652627945 0.056785508990287781
0.032053496688604355 0.11192704737186432 0.050226412713527679
0.092286787927150726 0.12422516942024231 0.034315954893827438
0.17710386216640472 0.13937816023826599 0.012526732869446278
0.28169804811477661 0.15911005437374115 0.0035866233520209789
0.38629832863807678 0.17616665363311768 0.0046600792557001114
0.47602519392967224 0.19307121634483337 0.0071079027839004993
0.54001367092132568 0.20319923758506775 0.0098595861345529556
0.58886778354644775 0.20490662753582001 0.011261060833930969
0.61907362937927246 0.20712602138519287 0.016736049205064774
0.63283687829971313 0.21370401978492737 0.026069760322570801
0.64281892776489258 0.22125965356826782 0.030622668564319611
0.0041426117531955242 0.14310742914676666 0.076347559690475464
0.004996864590793848 0.14421524107456207 0.071489058434963226
0.013898348435759544 0.15991142392158508 0.053852621465921402
0.084079965949058533 0.17715439200401306 0.027608176693320274
0.18928788602352142 0.19633284211158752 0.0057095098309218884
0.30528014898300171 0.22885733842849731 0.0037720175459980965
0.41596981883049011 0.24550600349903107 0.0040091718547046185
0.51036858558654785 0.25413656234741211 0.0058473176322877407
0.5773082971572876 0.26462376117706299 0.0096308840438723564
0.62293630838394165 0.2695920467376709 0.014683487825095654
0.65476322174072266 0.26872551441192627 0.019425919279456139
0.67414814233779907 0.27644115686416626 0.025080049410462379
0.68658250570297241 0.29101166129112244 0.02621166780591011
0.0060826619155704975 0.20082052052021027 0.10112668573856354
0.014245186932384968 0.20622554421424866 0.096715070307254791
0.010910572484135628 0.22597083449363708 0.070989377796649933
0.048067100346088409 0.25007492303848267 0.031298320740461349
0.19504508376121521 0.27639958262443542 0.005352020263671875
0.335948646068573 0.31293520331382751 0.0028706269804388285
0.4588654637336731 0.33690294623374939 0.0050742654129862785
0.5601733922958374 0.35169222950935364 0.0094208959490060806
0.63519757986068726 0.36272129416465759 0.011549227871000767
0.68039679527282715 0.36451995372772217 0.015491381287574768
0.70863741636276245 0.36168873310089111 0.019283728674054146
0.72331339120864868 0.36691445112228394 0.022626884281635284
0.73261618614196777 0.37611567974090576 0.022895034402608871
0.0064945444464683533 0.26163998246192932 0.12673607468605042
0.019309563562273979 0.27180352807044983 0.12347869575023651
0.01610596664249897 0.29553976655006409 0.10733319818973541
0.042508278042078018 0.32855594158172607 0.063878096640110016
0.18970577418804169 0.36760851740837097 0.0087653212249279022
0.35300531983375549 0.40631401538848877 0.0044982759281992912
0.49846163392066956 0.43966585397720337 0.0085388636216521263
0.61200547218322754 0.46039959788322449 0.014955229125916958
0.69502562284469604 0.47369971871376038 0.015285102650523186
0.74716264009475708 0.47825360298156738 0.012357554398477077
0.76961570978164673 0.47879579663276672 0.015539969317615032
0.77944731712341309 0.48097237944602966 0.021677862852811813
0.78977233171463013 0.49121668934822083 0.020241038873791695
0.010576090775430202 0.32219913601875305 0.1498105376958847
0.019784156233072281 0.33702147006988525 0.14788544178009033
0.023131292313337326 0.35830315947532654 0.13629665970802307
0.041906889528036118 0.39489799737930298 0.083496943116188049
0.19887025654315948 0.4441978931427002 0.011475177481770515
0.3718332052230835 0.49232733249664307 0.011001347564160824
0.52976143360137939 0.53121083974838257 0.014152931049466133
0.65114486217498779 0.55959290266036987 0.016211027279496193
0.74053812026977539 0.57815736532211304 0.016362523660063744
0.79521298408508301 0.58698165416717529 0.011891907081007957
0.8187873363494873 0.58816468715667725 0.013295207172632217
0.82934880256652832 0.58773934841156006 0.020744053646922112
0.84544515609741211 0.60456609725952148 0.017605127766728401
0.019554078578948975 0.37257736921310425 0.16893438994884491
0.019937073811888695 0.38962879776954651 0.1664707362651825
0.024630483239889145 0.41375869512557983 0.15551036596298218
0.040990192443132401 0.4595072865486145 0.09512677788734436
0.20704703032970428 0.51598608493804932 0.01442254800349474
0.39409884810447693 0.56956809759140015 0.016809156164526939
0.56309372186660767 0.61297279596328735 0.018758617341518402
0.6861339807510376 0.64442324638366699 0.01187845878303051
0.7727089524269104 0.66376852989196777 0.012549949809908867
0.82248836755752563 0.67186808586120605 0.014177389442920685
0.85495650768280029 0.67619752883911133 0.011303531005978584
0.8702094554901123 0.67544788122177124 0.025487577542662621
0.88601070642471313 0.68916308879852295 0.026972496882081032
0.017017064616084099 0.41164526343345642 0.18173888325691223
0.014779842458665371 0.42915552854537964 0.17943154275417328
0.016175514087080956 0.46036538481712341 0.16015127301216125
0.045510865747928619 0.50504130125045776 0.10334565490484238
0.231602743268013 0.56912070512771606 0.021337037906050682
0.41532513499259949 0.62015295028686523 0.015878399834036827
0.58551853895187378 0.66266578435897827 0.015659481287002563
0.70843148231506348 0.69500577449798584 0.012431066483259201
0.7952193021774292 0.71680855751037598 0.02495238371193409
0.8453335165977478 0.72695815563201904 0.03481762483716011
0.88053315877914429 0.73433923721313477 0.036620810627937317
0.89956265687942505 0.73834902048110962 0.044304896146059036
0.91191554069519043 0.74084258079528809 0.053368497639894485
0.030265389010310173 0.43578007817268372 0.19569893181324005
0.015156031586229801 0.45527032017707825 0.18693387508392334
0.016543444246053696 0.48803147673606873 0.16538682579994202
0.06099243089556694 0.53418278694152832 0.10250686854124069
0.24911639094352722 0.59676814079284668 0.016023464500904083
0.42567828297615051 0.6476294994354248 0.008520686998963356
0.59808099269866943 0.6908423900604248 0.0084359413012862206
0.72032630443572998 0.72379988431930542 0.018339583650231361
0.8121868371963501 0.74809014797210693 0.038872826844453812
0.87070953845977783 0.76246225833892822 0.053696949034929276
0.9052203893661499 0.77105545997619629 0.05764954537153244
0.92247313261032104 0.77686780691146851 0.066201306879520416
0.93375903367996216 0.78042006492614746 0.076779462397098541
0.025105644017457962 0.45796310901641846 0.20680435001850128
0.012154657393693924 0.48842695355415344 0.19742602109909058
0.014138689264655113 0.52506726980209351 0.16327613592147827
0.056537792086601257 0.56992036104202271 0.077360399067401886
0.26730698347091675 0.62353122234344482 0.011835838668048382
0.4481666088104248 0.67730039358139038 0.0091725969687104225
0.6140328049659729 0.71929776668548584 0.0088455351069569588
0.73174399137496948 0.75131028890609741 0.025509374216198921
0.82347750663757324 0.77237790822982788 0.047203738242387772
0.89389896392822266 0.78953492641448975 0.069514662027359009
0.92960304021835327 0.79922926425933838 0.069960065186023712
0.94625532627105713 0.80445045232772827 0.075950503349304199
0.9536246657371521 0.80714625120162964 0.093217320740222931
0.020766688510775566 0.49944040179252625 0.23469512164592743
0.01785195991396904 0.54653429985046387 0.21448817849159241
0.011912371963262558 0.57774078845977783 0.16811592876911163
0.089248448610305786 0.62685859203338623 0.054197542369365692
0.30521422624588013 0.67359054088592529 0.0091810189187526703
0.49184480309486389 0.71758061647415161 0.02052651159465313
0.6425279974937439 0.75167644023895264 0.01380544900894165
0.76756459474563599 0.78826946020126343 0.021315749734640121
0.85327351093292236 0.80170780420303345 0.037822514772415161
0.91456788778305054 0.81138443946838379 0.057751763612031937
0.9510263204574585 0.82022756338119507 0.063086554408073425
0.96820700168609619 0.82648169994354248 0.070244826376438141
0.97621023654937744 0.8303791880607605 0.10672638565301895
0.011442625895142555 0.025756446644663811 0.037697136402130127
0.027197744697332382 0.027759402990341187 0.036362156271934509
0.051077749580144882 0.032515011727809906 0.036347482353448868
0.086144119501113892 0.037986800074577332 0.034640159457921982
0.14600571990013123 0.040209181606769562 0.025449236854910851
0.24466031789779663 0.034828230738639832 0.0096915001049637794
0.32722127437591553 0.049498137086629868 0.010000460781157017
0.3905082643032074 0.067935273051261902 0.014098028652369976
0.45236730575561523 0.072053246200084686 0.0093485666438937187
0.49925082921981812 0.081111565232276917 0.011825187131762505
0.53336524963378906 0.084572449326515198 0.019732516258955002
0.54856252670288086 0.080082222819328308 0.018308078870177269
0.56241905689239502 0.090462327003479004 0.016569400206208229
0.01840178482234478 0.050181940197944641 0.047008886933326721
0.033367529511451721 0.050642065703868866 0.044788077473640442
0.057504631578922272 0.054285310208797455 0.044334471225738525
0.093614213168621063 0.060804463922977448 0.042954642325639725
0.16171792149543762 0.064262434840202332 0.030293857678771019
0.26306015253067017 0.063034415245056152 0.011969906277954578
0.35181692242622375 0.077778786420822144 0.011339345015585423
0.4259287416934967 0.092323899269104004 0.014074303209781647
0.49319025874137878 0.097644403576850891 0.0072654723189771175
0.53484040498733521 0.10590174049139023 0.012870459817349911
0.56341230869293213 0.1101231724023819 0.017382977530360222
0.58398586511611938 0.11183938384056091 0.016933126375079155
0.5963815450668335 0.11857324093580246 0.016950435936450958
0.018208043649792671 0.077425666153430939 0.058158125728368759
0.030836591497063637 0.077049791812896729 0.05548546090722084
0.053523432463407516 0.080075986683368683 0.052758745849132538
0.098864413797855377 0.088012933731079102 0.048653978854417801
0.17745338380336761 0.095064900815486908 0.032512664794921875
0.28518843650817871 0.10062984377145767 0.013107075355947018
0.38313964009284973 0.11763857305049896 0.0092479931190609932
0.46764969825744629 0.13211023807525635 0.011886058375239372
0.52999043464660645 0.14154674112796783 0.017143892124295235
0.5796017050743103 0.14966216683387756 0.010734363459050655
0.60645514726638794 0.1473185122013092 0.010748590342700481
0.62410014867782593 0.15527945756912231 0.016778204590082169
0.63275778293609619 0.1610834151506424 0.020987328141927719
0.0088779078796505928 0.10614161938428879 0.070320814847946167
0.014949125237762928 0.10921712964773178 0.06539434939622879
0.028280729427933693 0.11548369377851486 0.05995279923081398
0.094562709331512451 0.12958446145057678 0.048870865255594254
0.18874688446521759 0.14144258201122284 0.025316230952739716
0.30066239833831787 0.15329839289188385 0.0085547352209687233
0.41752684116363525 0.17045311629772186 0.0057300790213048458
0.51131719350814819 0.18384593725204468 0.0085997041314840317
0.57283186912536621 0.19889490306377411 0.015102551318705082
0.62114852666854858 0.20572660863399506 0.0084926681593060493
0.64660263061523438 0.20601437985897064 0.013424578122794628
0.66299927234649658 0.21200309693813324 0.025292025879025459
0.67383968830108643 0.21928434073925018 0.031106626614928246
0.0053498363122344017 0.14789746701717377 0.087563455104827881
0.0054361680522561073 0.15135382115840912 0.080604627728462219
0.011595766991376877 0.15874199569225311 0.069514691829681396
0.087954714894294739 0.18243691325187683 0.045828185975551605
0.20064996182918549 0.201494961977005 0.017191674560308456
0.32448458671569824 0.22489355504512787 0.0063315895386040211
0.45079803466796875 0.24540311098098755 0.0060035553760826588
0.55045127868652344 0.25820761919021606 0.0099040912464261055
0.618915855884552 0.26926115155220032 0.013212076388299465
0.66587907075881958 0.26947936415672302 0.014094842597842216
0.69492661952972412 0.26723575592041016 0.016870327293872833
0.71314185857772827 0.27708926796913147 0.023405531421303749
0.72681599855422974 0.28883737325668335 0.025679539889097214
0.0094641894102096558 0.20922723412513733 0.11608462035655975
0.012835469096899033 0.21193499863147736 0.1097836047410965
0.0079337777569890022 0.2241673618555069 0.090912900865077972
0.054232951253652573 0.25351366400718689 0.053628284484148026
0.20532481372356415 0.28569012880325317 0.017456652596592903
0.35492128133773804 0.32021144032478333 0.011023502796888351
0.48754170536994934 0.34157207608222961 0.010165390558540821
0.59638369083404541 0.3544439971446991 0.013817432336509228
0.67300331592559814 0.36505845189094543 0.015423987992107868
0.72328722476959229 0.36302477121353149 0.015775030478835106
0.75152552127838135 0.36437049508094788 0.016135241836309433
0.7664419412612915 0.3729231059551239 0.018147172406315804
0.77679753303527832 0.38288795948028564 0.021919175982475281
0.0093850083649158478 0.27502557635307312 0.14731055498123169
0.016187241300940514 0.28213348984718323 0.14033497869968414
0.012491697445511818 0.30341875553131104 0.12356061488389969
0.036522645503282547 0.33414462208747864 0.07887604832649231
0.20042763650417328 0.38001373410224915 0.010947134345769882
0.36930763721466064 0.42208129167556763 0.0052283192053437233
0.52066707611083984 0.45071417093276978 0.010183431208133698
0.64303851127624512 0.46815788745880127 0.016348641365766525
0.73074162006378174 0.4829767644405365 0.016191549599170685
0.78480929136276245 0.48790782690048218 0.012588306330144405
0.80702394247055054 0.49090456962585449 0.011797856539487839
0.81612157821655273 0.49576428532600403 0.016071813181042671
0.82368934154510498 0.50266075134277344 0.024880668148398399
0.0056257960386574268 0.33825409412384033 0.16852971911430359
0.012207823805510998 0.34760779142379761 0.16320529580116272
0.015164184384047985 0.37366726994514465 0.15060640871524811
0.025557603687047958 0.41366252303123474 0.098462484776973724
0.20173534750938416 0.46899348497390747 0.011868031695485115
0.37990167737007141 0.50998073816299438 0.0083783920854330063
0.55132061243057251 0.54817086458206177 0.01324195135384798
0.68211466073989868 0.58146852254867554 0.014882300980389118
0.77332693338394165 0.59812915325164795 0.020555803552269936
0.82712823152542114 0.60717105865478516 0.016954384744167328
0.85179734230041504 0.60985732078552246 0.0092803807929158211
0.86475104093551636 0.61239063739776611 0.011648514308035374
0.87503522634506226 0.62226039171218872 0.027937166392803192
0.0058558895252645016 0.3902534544467926 0.18544115126132965
0.0084451409056782722 0.40381079912185669 0.18349389731884003
0.020016808062791824 0.43063652515411377 0.17231932282447815
0.025660974904894829 0.47943121194839478 0.11129023134708405
0.19392962753772736 0.54098594188690186 0.016352305188775063
0.39977294206619263 0.58815234899520874 0.01061325054615736
0.57764363288879395 0.63368755578994751 0.017262162640690804
0.70906001329421997 0.66727030277252197 0.01670520193874836
0.80332642793655396 0.68670505285263062 0.027216354385018349
0.85527145862579346 0.69633948802947998 0.030581904575228691
0.88585954904556274 0.70111531019210815 0.025545351207256317
0.90374529361724854 0.7034534215927124 0.026432501152157784
0.91530895233154297 0.71222370862960815 0.042531661689281464
0.012681669555604458 0.42500317096710205 0.20429305732250214
0.019295966252684593 0.44479376077651978 0.20399157702922821
0.021308211609721184 0.47798424959182739 0.18890088796615601
0.016419414430856705 0.52888691425323486 0.11847314238548279
0.18785680830478668 0.59202224016189575 0.022275602445006371
0.41347962617874146 0.6396183967590332 0.009671604260802269
0.59443408250808716 0.68730753660202026 0.015595918521285057
0.72850918769836426 0.72066831588745117 0.015232624486088753
0.82305675745010376 0.74073296785354614 0.034675043076276779
0.88047879934310913 0.75141268968582153 0.04980163648724556
0.91450178623199463 0.75948971509933472 0.052486777305603027
0.93052166700363159 0.76302081346511841 0.056996587663888931
0.94246554374694824 0.767955482006073 0.067921236157417297
0.027666863054037094 0.45003488659858704 0.22579512000083923
0.016449827700853348 0.46839115023612976 0.21909373998641968
0.018909065052866936 0.5045122504234314 0.20512419939041138
0.020196817815303802 0.55666786432266235 0.13541853427886963
0.19876405596733093 0.62566614151000977 0.019798055291175842
0.42611458897590637 0.67490726709365845 0.0070226183161139488
0.61164933443069458 0.72186672687530518 0.011243334040045738
0.74414551258087158 0.75343942642211914 0.015799310058355331
0.83899962902069092 0.77384459972381592 0.041715972125530243
0.90360236167907715 0.78811579942703247 0.063529863953590393
0.93813920021057129 0.79796123504638672 0.065723806619644165
0.95196437835693359 0.80051738023757935 0.072782181203365326
0.96192777156829834 0.80458754301071167 0.087516114115715027
0.018147516995668411 0.47839948534965515 0.2529112696647644
0.013203250244259834 0.50342255830764771 0.24492581188678741
0.022126305848360062 0.54106259346008301 0.22778303921222687
0.015164872631430626 0.59641247987747192 0.14193795621395111
0.192454993724823 0.65984106063842773 0.033748462796211243
0.45171073079109192 0.71098381280899048 0.013658471405506134
0.63041096925735474 0.75048750638961792 0.014796941541135311
0.7552027702331543 0.78021895885467529 0.017837673425674438
0.86367261409759521 0.80247789621353149 0.034362927079200745
0.92764377593994141 0.81412607431411743 0.052443932741880417
0.95938777923583984 0.82246249914169312 0.064004309475421906
0.97267639636993408 0.82574212551116943 0.088360220193862915
0.97846466302871704 0.82735979557037354 0.11442989110946655
0.021289302036166191 0.51851052045822144 0.29851809144020081
0.023298943415284157 0.56293869018554688 0.29478165507316589
0.022381920367479324 0.60111540555953979 0.25658783316612244
0.033079635351896286 0.65636307001113892 0.18320794403553009
0.23443035781383514 0.70446884632110596 0.10462199151515961
0.48107942938804626 0.74737882614135742 0.091490879654884338
0.6514325737953186 0.78396153450012207 0.070409320294857025
0.77982956171035767 0.80954861640930176 0.041179344058036804
0.88743007183074951 0.82806110382080078 0.027616702020168304
0.95611751079559326 0.84068328142166138 0.027484370395541191
0.98386698961257935 0.8476443886756897 0.046013642102479935
0.98852181434631348 0.84803658723831177 0.1367819607257843
0.99175524711608887 0.8504338264465332 0.20099321007728577
0.0089199887588620186 0.029819833114743233 0.055701941251754761
0.022436538711190224 0.031043661758303642 0.05419820174574852
0.042921505868434906 0.031755007803440094 0.0531020388007164
0.08597082644701004 0.037888649851083755 0.058828465640544891
0.15458138287067413 0.040436673909425735 0.055773250758647919
0.25590276718139648 0.031132133677601814 0.037737693637609482
0.34831884503364563 0.020255429670214653 0.023974025622010231
0.42307448387145996 0.017599815502762794 0.020166149362921715
0.48629900813102722 0.022780159488320351 0.022954978048801422
0.536304771900177 0.025819530710577965 0.025632387027144432
0.56737816333770752 0.033908214420080185 0.042035523802042007
0.5775381326675415 0.020927265286445618 0.038967940956354141
0.59251636266708374 0.027408704161643982 0.030952723696827888
0.015062504447996616 0.054217588156461716 0.068158738315105438
0.027880305424332619 0.054201643913984299 0.065923191606998444
0.050881776958703995 0.055996403098106384 0.066561542451381683
0.094490349292755127 0.062524832785129547 0.068062350153923035
0.17484612762928009 0.0646805539727211 0.061446633189916611
0.28395336866378784 0.061429582536220551 0.037816155701875687
0.38222801685333252 0.049415498971939087 0.017612487077713013
0.46471172571182251 0.029547553509473801 0.022258324548602104
0.5286184549331665 0.028397519141435623 0.016784787178039551
0.57434040307998657 0.037509486079216003 0.017326788976788521
0.60997569561004639 0.04204825684428215 0.028162309899926186
0.627236008644104 0.037638764828443527 0.027276955544948578
0.63755148649215698 0.031248848885297775 0.019011598080396652
0.015474731102585793 0.081241622567176819 0.080933406949043274
0.027134016156196594 0.081102095544338226 0.078390203416347504
0.045391127467155457 0.082997642457485199 0.077519252896308899
0.096260219812393188 0.090693168342113495 0.075326330959796906
0.19371196627616882 0.098411828279495239 0.067947804927825928
0.30849027633666992 0.10261786729097366 0.04459298774600029
0.42118650674819946 0.10407871752977371 0.018181581050157547
0.51368510723114014 0.090491168200969696 0.019656356424093246
0.57870668172836304 0.086290590465068817 0.019909847527742386
0.62397414445877075 0.091881513595581055 0.01725158654153347
0.65345340967178345 0.087471857666969299 0.017027687281370163
0.67580783367156982 0.096451401710510254 0.01656760461628437
0.68646275997161865 0.091785937547683716 0.02226715162396431
0.0093869231641292572 0.11043547093868256 0.089691370725631714
0.01245721522718668 0.11395329236984253 0.089929975569248199
0.022338028997182846 0.11982200294733047 0.088895909488201141
0.092459432780742645 0.13680244982242584 0.085532397031784058
0.20495373010635376 0.15013138949871063 0.077000685036182404
0.33055725693702698 0.15937097370624542 0.056642092764377594
0.45045822858810425 0.16438260674476624 0.019118858501315117
0.55087602138519287 0.16823956370353699 0.019954336807131767
0.62101882696151733 0.17643730342388153 0.018665298819541931
0.66822725534439087 0.17514969408512115 0.013766569085419178
0.69442766904830933 0.1678621768951416 0.018497856333851814
0.71412581205368042 0.17473126947879791 0.024268446490168571
