luts/print/fuji_3513_cuspclip.cube
# Created by: G'MIC (https://gmic.eu)
TITLE "fuji_3513_cuspclip"
# LUT size
LUT_3D_SIZE 5
# Data domain
DOMAIN_MIN 0.0 0.0 0.0
DOMAIN_MAX 1.0 1.0 1.0
# LUT data points
0.0064695468172430992 0.017945427447557449 0.022443434223532677
0.075894869863986969 0.035940073430538177 0.024455185979604721
0.31985563039779663 0.027625288814306259 0.0026078915689140558
0.54485172033309937 0.0050980662927031517 0
0.59726488590240479 0.034095317125320435 0
6.4625460254319478e-06 0.11263269186019897 0.054433304816484451
0.094461642205715179 0.12340603768825531 0.036548316478729248
0.42306739091873169 0.17975939810276031 0.0051289875991642475
0.64883208274841309 0.197482630610466 0.0009071649401448667
0.71176213026046753 0.22898682951927185 0.0038124683778733015
0.0082515189424157143 0.35063773393630981 0.1554785817861557
0.040519025176763535 0.35028249025344849 0.01233354490250349
0.52853554487228394 0.46458244323730469 0.0023896908387541771
0.77489852905273438 0.50178384780883789 0.013857822865247726
0.83779036998748779 0.52285158634185791 0.0093234637752175331
0.018488805741071701 0.53616756200790405 0.23563268780708313
0.022905101999640465 0.56530940532684326 0.092320717871189117
0.60579007863998413 0.70172262191772461 0.0069509916938841343
0.88001722097396851 0.7599596381187439 0.051790829747915268
0.93439096212387085 0.76605314016342163 0.060925517231225967
0.02114105224609375 0.60584139823913574 0.28313234448432922
0.071442395448684692 0.65084713697433472 0.03885689377784729
0.66113179922103882 0.77960580587387085 0.0099827190861105919
0.94020634889602661 0.83034014701843262 0.062841124832630157
0.98330634832382202 0.83517509698867798 0.10591229051351547
0.0061028273776173592 0.035032100975513458 0.098540917038917542
0.093519516289234161 0.034445624798536301 0.10421043634414673
0.37434667348861694 0.014176925644278526 0.087928757071495056
0.58636677265167236 0.0030178443994373083 0.089894600212574005
0.65358352661132812 5.7220458984375e-05 0.092081762850284576
0.00010663201101124287 0.14865203201770782 0.1602356880903244
0.09034709632396698 0.14288073778152466 0.14119623601436615
0.47100439667701721 0.16470165550708771 0.11758153885602951
0.71492606401443481 0.12614282965660095 0.081721298396587372
0.77782493829727173 0.12844271957874298 0.075894512236118317
0.009240289218723774 0.42771908640861511 0.30299752950668335
0.016698485240340233 0.42111712694168091 0.21835389733314514
0.56108289957046509 0.48801553249359131 0.10481447726488113
0.86498367786407471 0.4978698194026947 0.050194341689348221
0.92795968055725098 0.53796029090881348 0.056226365268230438
0.024758057668805122 0.60636019706726074 0.39864528179168701
0.030387159436941147 0.64561933279037476 0.32733669877052307
0.61980831623077393 0.7589300274848938 0.079675294458866119
0.96479004621505737 0.81861227750778198 0.057451285421848297
0.99826878309249878 0.82688301801681519 0.080963075160980225
0.015987979248166084 0.67885273694992065 0.51483845710754395
0.008431154303252697 0.72501093149185181 0.43857273459434509
0.63381165266036987 0.83136510848999023 0.36181759834289551
0.97243666648864746 0.88826280832290649 0.31747081875801086
1 0.89061594009399414 0.39261913299560547
0.0039775772020220757 0.15086163580417633 0.34474319219589233
0.10476776957511902 0.0094197141006588936 0.33306184411048889
0.40300992131233215 0.0016984827816486359 0.36663016676902771
0.62626582384109497 5.5200915085151792e-05 0.37641209363937378
0.69057750701904297 0 0.39508369565010071
0.0050594406202435493 0.28658249974250793 0.45513415336608887
0.034715957939624786 0.20696072280406952 0.4407324492931366
0.48344007134437561 0.18491142988204956 0.45981523394584656
0.74404090642929077 0.13680660724639893 0.46601676940917969
0.80177325010299683 0.16877742111682892 0.48579508066177368
0.020100882276892662 0.53380942344665527 0.59232228994369507
0.0068528568372130394 0.53416210412979126 0.58680206537246704
0.55900919437408447 0.56854581832885742 0.56765139102935791
0.8734239935874939 0.5736926794052124 0.56823515892028809
0.9391864538192749 0.61840295791625977 0.58542144298553467
0.0045005497522652149 0.70095270872116089 0.68354028463363647
0.006513932254165411 0.73843622207641602 0.67742031812667847
0.56073391437530518 0.8422585129737854 0.64446020126342773
0.95264643430709839 0.89344555139541626 0.64664065837860107
0.99656599760055542 0.89423692226409912 0.65380024909973145
0.0017474305350333452 0.75950509309768677 0.75946301221847534
0.0065443897619843483 0.8053780198097229 0.7629280686378479
0.57449555397033691 0.89578741788864136 0.76034379005432129
0.94508814811706543 0.95154261589050293 0.76185911893844604
0.99809902906417847 0.9561275839805603 0.76647078990936279
0.0093337260186672211 0.25274616479873657 0.51000666618347168
0.10109306871891022 0.027144264429807663 0.52563899755477905
0.42039358615875244 0.0026510949246585369 0.58946233987808228
0.65549987554550171 0.00024117862631101161 0.59945368766784668
0.71436351537704468 0.00032851274590939283 0.61414146423339844
0.0029054379556328058 0.35731244087219238 0.61283367872238159
0.023083196952939034 0.28752744197845459 0.6478537917137146
0.48611897230148315 0.18249435722827911 0.71584808826446533
0.75636798143386841 0.14239422976970673 0.73226392269134521
0.81549310684204102 0.15670113265514374 0.74124085903167725
0.020374028012156487 0.56772369146347046 0.73564475774765015
0.015543709509074688 0.58639520406723022 0.77807515859603882
0.52563059329986572 0.60163497924804688 0.84569168090820312
0.86828529834747314 0.61631089448928833 0.85526454448699951
0.92543309926986694 0.62445008754730225 0.86245119571685791
0.020861024037003517 0.72255820035934448 0.80784988403320312
0.020143052563071251 0.77537357807159424 0.85122978687286377
0.49556177854537964 0.88736569881439209 0.91356825828552246
0.93468189239501953 0.94052720069885254 0.92757207155227661
0.9926343560218811 0.94432121515274048 0.92925959825515747
0.023965694010257721 0.76736056804656982 0.84646672010421753
0.012909608893096447 0.82170629501342773 0.88452142477035522
0.51930141448974609 0.92480587959289551 0.94097131490707397
0.92218947410583496 0.97980731725692749 0.94976353645324707
0.99607843160629272 0.98977190256118774 0.95364272594451904
0.00066781137138605118 0.29107546806335449 0.57399666309356689
0.079898446798324585 0.068663202226161957 0.61946040391921997
0.4464661180973053 0.0096169114112854004 0.68217700719833374
0.70515650510787964 0.005709285382181406 0.71620124578475952
0.75165611505508423 0.0071336934342980385 0.71831363439559937
0.0034386878833174706 0.41123634576797485 0.67262786626815796
0.0039747501723468304 0.33403110504150391 0.71146130561828613
0.47958540916442871 0.24496783316135406 0.79483634233474731
0.77628517150878906 0.21631591022014618 0.82071661949157715
0.83503478765487671 0.24678419530391693 0.83157849311828613
0.0233791284263134 0.58325701951980591 0.76797688007354736
0.025813981890678406 0.59854638576507568 0.81104421615600586
0.50967508554458618 0.62427937984466553 0.90640968084335327
0.8651236891746521 0.63944697380065918 0.92529743909835815
0.92984271049499512 0.66547632217407227 0.93136841058731079
0.030849860981106758 0.72825628519058228 0.83396810293197632
0.014622094109654427 0.78419959545135498 0.88331717252731323
0.45433732867240906 0.89328473806381226 0.96259951591491699
0.9134141206741333 0.93671625852584839 0.98226332664489746
0.98471283912658691 0.94892686605453491 0.98842817544937134
0.027289342135190964 0.76759999990463257 0.85971355438232422
0.027018124237656593 0.82133889198303223 0.90037322044372559
0.50082921981811523 0.92955094575881958 0.97152048349380493
0.91162216663360596 0.98559504747390747 0.98942059278488159
0.99038350582122803 0.99087494611740112 0.99455899000167847
