luts/print/fuji_3510_constlmap.cube
# Created by: G'MIC (https://gmic.eu)
TITLE "fuji_3510_constlmap"
# LUT size
LUT_3D_SIZE 5
# Data domain
DOMAIN_MIN 0.0 0.0 0.0
DOMAIN_MAX 1.0 1.0 1.0
# LUT data points
0.016742631793022156 0.014189940877258778 0.012756288051605225
0.08077239990234375 0.037058454006910324 0.021857691928744316
0.31199747323989868 0.076159805059432983 0.0066744484938681126
0.4820801317691803 0.09253382682800293 0.012190605513751507
0.54998719692230225 0.10132171213626862 0.012171546928584576
0.014026791788637638 0.1121654286980629 0.058883156627416611
0.09277883917093277 0.12842631340026855 0.049153856933116913
0.39291790127754211 0.18063768744468689 0.01256923284381628
0.59743309020996094 0.20368140935897827 0.0062641068361699581
0.6587827205657959 0.22870296239852905 0.013777235522866249
0.014504062011837959 0.28030559420585632 0.13389526307582855
0.043109878897666931 0.32703012228012085 0.076512537896633148
0.48852211236953735 0.4312748908996582 0.0083255991339683533
0.73100179433822632 0.47086894512176514 0.02836984395980835
0.7956700325012207 0.49727120995521545 0.0088063562288880348
0.017876358702778816 0.43325319886207581 0.19373764097690582
0.042923346161842346 0.51108855009078979 0.11175822466611862
0.56359094381332397 0.66076481342315674 0.0095768347382545471
0.83619236946105957 0.72838020324707031 0.044832386076450348
0.91682189702987671 0.75014257431030273 0.060608807951211929
0.0087460540235042572 0.50603890419006348 0.24126775562763214
0.12812240421772003 0.62392807006835938 0.090938135981559753
0.63804435729980469 0.76042485237121582 0.019423989579081535
0.90121251344680786 0.8129766583442688 0.080071546137332916
0.96960407495498657 0.82625770568847656 0.10698563605546951
0.013711682520806789 0.032024398446083069 0.090056493878364563
0.089444480836391449 0.043215237557888031 0.099979519844055176
0.36459693312644958 0.047995667904615402 0.10560972988605499
0.55753421783447266 0.038868337869644165 0.10401768237352371
0.62452679872512817 0.039644502103328705 0.10136202722787857
0.0098117003217339516 0.13098570704460144 0.13787245750427246
0.1205185204744339 0.14778055250644684 0.14256115257740021
0.44886988401412964 0.19408144056797028 0.14491547644138336
0.6993107795715332 0.16716684401035309 0.10714522749185562
0.775401771068573 0.1618201732635498 0.090324968099594116
0.014018264599144459 0.31912714242935181 0.22225631773471832
0.15407361090183258 0.37334027886390686 0.23246961832046509
0.54020947217941284 0.4856620728969574 0.21541716158390045
0.83052986860275269 0.51301461458206177 0.1624482125043869
0.91124475002288818 0.5320199728012085 0.052502933889627457
0.011270066723227501 0.48529687523841858 0.32405731081962585
0.087491162121295929 0.56833767890930176 0.30221790075302124
0.60287332534790039 0.7436898946762085 0.20395141839981079
0.91639655828475952 0.79920536279678345 0.25068137049674988
0.99284517765045166 0.81840705871582031 0.16313160955905914
0.0070477803237736225 0.57419419288635254 0.42457637190818787
0.0096654854714870453 0.6874622106552124 0.4183708131313324
0.63074356317520142 0.82950156927108765 0.35227972269058228
0.96095103025436401 0.88504523038864136 0.32626762986183167
0.99951046705245972 0.888680100440979 0.42949268221855164
0.0056665758602321148 0.10220571607351303 0.25124707818031311
0.090191662311553955 0.048135541379451752 0.31785568594932556
0.39086523652076721 0.055312018841505051 0.34920364618301392
0.59349638223648071 0.049130160361528397 0.36406603455543518
0.65582644939422607 0.039127200841903687 0.37412622570991516
0.0080008860677480698 0.19930474460124969 0.31913197040557861
0.11795385181903839 0.20658029615879059 0.37394216656684875
0.46920013427734375 0.23488792777061462 0.44817927479743958
0.73763442039489746 0.18265137076377869 0.46474537253379822
0.80436688661575317 0.17271135747432709 0.48597231507301331
0.0086618764325976372 0.4043298065662384 0.44969648122787476
0.20284329354763031 0.46191012859344482 0.49401098489761353
0.56302511692047119 0.55664205551147461 0.5697905421257019
0.87285608053207397 0.57681107521057129 0.56112402677536011
0.93481993675231934 0.59976327419281006 0.571338951587677
0.0064576840959489346 0.57684552669525146 0.55407333374023438
0.12072942405939102 0.65312165021896362 0.60321784019470215
0.55642580986022949 0.83493119478225708 0.64391082525253296
0.94044953584671021 0.88936018943786621 0.66172164678573608
0.9967799186706543 0.89838063716888428 0.66948282718658447
0 0.65546298027038574 0.64883744716644287
0.0028412612155079842 0.75481390953063965 0.71219539642333984
0.5663144588470459 0.89334428310394287 0.75342988967895508
0.94145482778549194 0.94829064607620239 0.75303786993026733
0.99998706579208374 0.95392155647277832 0.78342682123184204
0.013000398874282837 0.17223414778709412 0.35163593292236328
0.079274721443653107 0.057072103023529053 0.48420488834381104
0.40519684553146362 0.06606418639421463 0.54673993587493896
0.61876386404037476 0.068158045411109924 0.56634521484375
0.68240976333618164 0.041014023125171661 0.58467072248458862
0.00074905692599713802 0.26265624165534973 0.46143248677253723
0.05870901420712471 0.24632884562015533 0.56133294105529785
0.49577051401138306 0.21896015107631683 0.70807838439941406
0.75253671407699585 0.20201872289180756 0.71933871507644653
0.81637609004974365 0.17817625403404236 0.73665535449981689
0.015304849483072758 0.47151225805282593 0.61011594533920288
0.14025977253913879 0.51466542482376099 0.66611307859420776
0.53157234191894531 0.59289860725402832 0.83052390813827515
0.86631906032562256 0.6151929497718811 0.85439813137054443
0.93187195062637329 0.6382330060005188 0.86494630575180054
0.0040240269154310226 0.63096892833709717 0.70507544279098511
0.14420101046562195 0.70955419540405273 0.77386605739593506
0.51495546102523804 0.87693065404891968 0.90373814105987549
0.92309343814849854 0.93292748928070068 0.9212992787361145
0.99521231651306152 0.9431149959564209 0.92764687538146973
0.020407119765877724 0.69402068853378296 0.76302105188369751
0.030041728168725967 0.7861749529838562 0.8434746265411377
0.50988280773162842 0.92229747772216797 0.93606150150299072
0.92137438058853149 0.98026978969573975 0.95410037040710449
0.99441957473754883 0.98689466714859009 0.95299160480499268
0 0.20726551115512848 0.41165673732757568
0.068871095776557922 0.086974978446960449 0.56783831119537354
0.44480583071708679 0.043799009174108505 0.66130274534225464
0.67502778768539429 0.078551784157752991 0.68148118257522583
0.73527902364730835 0.074021086096763611 0.69789564609527588
0 0.3063901960849762 0.51795929670333862
0.0051970537751913071 0.29342752695083618 0.62258756160736084
0.49301689863204956 0.25653418898582458 0.79566860198974609
0.77544653415679932 0.2268272340297699 0.81801325082778931
0.83869433403015137 0.25062760710716248 0.83108758926391602
0 0.48994606733322144 0.64660537242889404
0.011689414270222187 0.53516155481338501 0.72729003429412842
0.50472342967987061 0.61876457929611206 0.90585881471633911
0.86424201726913452 0.63513267040252686 0.92701160907745361
0.93475556373596191 0.65727400779724121 0.93512719869613647
0.0039215688593685627 0.64331448078155518 0.73715817928314209
0.051232550293207169 0.7222018837928772 0.81194674968719482
0.44089499115943909 0.88692903518676758 0.95997858047485352
0.91985797882080078 0.94196277856826782 0.98397350311279297
0.99064493179321289 0.94744473695755005 0.98452562093734741
0.018756866455078125 0.69484692811965942 0.77612632513046265
0.011138646863400936 0.79348504543304443 0.86604887247085571
0.47611898183822632 0.92567688226699829 0.96841144561767578
0.91732406616210938 0.98525607585906982 0.99026024341583252
0.99580734968185425 0.99586164951324463 0.99462747573852539
