luts/print/fuji_3513_cuspclip.cube
# Created by: G'MIC (https://gmic.eu)
TITLE "fuji_3513_cuspclip"
# LUT size
LUT_3D_SIZE 7
# Data domain
DOMAIN_MIN 0.0 0.0 0.0
DOMAIN_MAX 1.0 1.0 1.0
# LUT data points
0.0064695468172430992 0.017945427447557449 0.022443434223532677
0.042503237724304199 0.03114299476146698 0.027594277635216713
0.13650140166282654 0.042277585715055466 0.012829305604100227
0.31985563039779663 0.027625288814306259 0.0026078915689140558
0.48638570308685303 0.004476629663258791 0
0.57372736930847168 0.005971990991383791 0
0.59726488590240479 0.034095317125320435 0
0.0019340665312483907 0.076607108116149902 0.044537577778100967
0.035805288702249527 0.082085013389587402 0.042415991425514221
0.18218861520290375 0.098559148609638214 0.022066826000809669
0.39988109469413757 0.11900501698255539 0.0049924212507903576
0.56806355714797974 0.12964649498462677 0.00087506161071360111
0.64313405752182007 0.13108766078948975 0
0.66775041818618774 0.16683198511600494 0.00024907730403356254
0.00031893860432319343 0.16811062395572662 0.074294820427894592
0.011150569655001163 0.17263168096542358 0.043937653303146362
0.19851396977901459 0.19718778133392334 0.0083342306315898895
0.4430270791053772 0.24628213047981262 0.0034254635684192181
0.64303261041641235 0.27441027760505676 0.0044994726777076721
0.71593248844146729 0.28061258792877197 0.0050929351709783077
0.75016158819198608 0.30716976523399353 0.0060303779318928719
0.0082515189424157143 0.35063773393630981 0.1554785817861557
0.0018407783936709166 0.33665335178375244 0.089983813464641571
0.20605941116809845 0.37582099437713623 0.00096454995218664408
0.52853554487228394 0.46458244323730469 0.0023896908387541771
0.73041075468063354 0.49425747990608215 0.0089068096131086349
0.80808734893798828 0.50482696294784546 0.016559900715947151
0.83779036998748779 0.52285158634185791 0.0093234637752175331
0.010382184758782387 0.49608319997787476 0.21839113533496857
0.027385607361793518 0.5122341513633728 0.18440219759941101
0.1698564738035202 0.55407822132110596 0.0077049257233738899
0.59491610527038574 0.65319913625717163 0.003504195949062705
0.8071364164352417 0.68736499547958374 0.025883423164486885
0.88999348878860474 0.70799458026885986 0.033215779811143875
0.91117715835571289 0.71380829811096191 0.027161601930856705
0.019318390637636185 0.561695396900177 0.24957701563835144
0.020561458542943001 0.57751011848449707 0.19455833733081818
0.21587797999382019 0.63597297668457031 0.011709445156157017
0.61635416746139526 0.73601639270782471 0.0097160637378692627
0.84872746467590332 0.78554725646972656 0.051279660314321518
0.93648630380630493 0.79968482255935669 0.07287520170211792
0.95377069711685181 0.79988056421279907 0.079932242631912231
0.02114105224609375 0.60584139823913574 0.28313234448432922
0.017345577478408813 0.63039189577102661 0.13861271739006042
0.3075832724571228 0.69619911909103394 0.00639368686825037
0.66113179922103882 0.77960580587387085 0.0099827190861105919
0.88469576835632324 0.8248559832572937 0.037765905261039734
0.96559149026870728 0.83267921209335327 0.068231306970119476
0.98330634832382202 0.83517509698867798 0.10591229051351547
0.0077107148244976997 0.026726920157670975 0.057041257619857788
0.051801301538944244 0.034512359648942947 0.06813918799161911
0.1512993723154068 0.041737262159585953 0.056926172226667404
0.36556771397590637 0.014345849864184856 0.019279180094599724
0.51644164323806763 0.005884252954274416 0.013012515380978584
0.60856550931930542 0.0046878592111170292 0.02544059045612812
0.63570398092269897 0.0046175490133464336 0.014168010093271732
0.0036254434380680323 0.078042872250080109 0.074403755366802216
0.047276053577661514 0.084846004843711853 0.080315999686717987
0.20577415823936462 0.098847977817058563 0.064497314393520355
0.42436069250106812 0.091825641691684723 0.031815070658922195
0.60208922624588013 0.063371054828166962 0.013003824278712273
0.68581569194793701 0.047651972621679306 0.011396968737244606
0.71545451879501343 0.059870656579732895 0.013317586854100227
0.00046554266009479761 0.1903606504201889 0.12711301445960999
0.010146735236048698 0.18689906597137451 0.10924699157476425
0.21798431873321533 0.21444685757160187 0.073993995785713196
0.49110361933708191 0.25114920735359192 0.020927295088768005
0.68638461828231812 0.26357680559158325 0.012842006050050259
0.77173024415969849 0.25677317380905151 0.013481993228197098
0.80249840021133423 0.28634116053581238 0.014680690132081509
0.021484240889549255 0.3959692120552063 0.23034036159515381
0.012263099662959576 0.38604721426963806 0.18033964931964874
0.19357484579086304 0.40823951363563538 0.054145272821187973
0.56154006719589233 0.4757729172706604 0.026231488212943077
0.77812439203262329 0.50396811962127686 0.0067416024394333363
0.86564368009567261 0.51011866331100464 0.018837738782167435
0.89709794521331787 0.53225815296173096 0.015496541745960712
0.026883607730269432 0.54086089134216309 0.30316054821014404
0.015808988362550735 0.55885779857635498 0.26566100120544434
0.12188499420881271 0.58876919746398926 0.035895731300115585
0.61704427003860474 0.68250542879104614 0.0082354824990034103
0.8602592945098877 0.72994190454483032 0.024245603010058403
0.94244074821472168 0.73893624544143677 0.027575504034757614
0.96294450759887695 0.75026619434356689 0.053715933114290237
0.022422686219215393 0.60125946998596191 0.34886667132377625
0.017623856663703918 0.62873733043670654 0.31868970394134521
0.12265986949205399 0.66924101114273071 0.09965813159942627
0.62683373689651489 0.76872909069061279 0.026894662529230118
0.89232897758483887 0.81794291734695435 0.017406133934855461
0.97972065210342407 0.83164083957672119 0.039647478610277176
0.99245572090148926 0.83335220813751221 0.081436380743980408
0.017710696905851364 0.65732878446578979 0.44103333353996277
0.011864337138831615 0.68745380640029907 0.38918203115463257
0.17294202744960785 0.73148715496063232 0.26458004117012024
0.64880406856536865 0.81433314085006714 0.23034815490245819
0.90214735269546509 0.85798114538192749 0.13200141489505768
0.99807357788085938 0.8705633282661438 0.15628525614738464
0.99959707260131836 0.87026721239089966 0.2884710431098938
0.0049662720412015915 0.033066168427467346 0.150133416056633
0.038858048617839813 0.02473825216293335 0.15821613371372223
0.16408482193946838 0.023423453792929649 0.1670040488243103
0.3828277587890625 0.0065137078054249287 0.17174211144447327
0.54757750034332275 0.0028334823437035084 0.17787542939186096
0.63804799318313599 0.0016454808646813035 0.18297344446182251
0.66952109336853027 0 0.19061236083507538
0.00041056613554246724 0.11218126863241196 0.20090252161026001
0.011388472281396389 0.097164899110794067 0.19457113742828369
0.1931614875793457 0.10394687950611115 0.20448650419712067
0.44990924000740051 0.10144907981157303 0.21063369512557983
0.63210004568099976 0.037194076925516129 0.19648189842700958
0.71490257978439331 0.026803065091371536 0.19264237582683563
0.74550193548202515 0.021676709875464439 0.20073731243610382
0.0024486915208399296 0.25047290325164795 0.27973973751068115
0.010045040398836136 0.24117286503314972 0.27158969640731812
0.19843783974647522 0.24538750946521759 0.2518770694732666
0.5089486837387085 0.26623976230621338 0.24901540577411652
0.71719950437545776 0.25079238414764404 0.23438151180744171
0.80186295509338379 0.23960296809673309 0.21176700294017792
0.83355885744094849 0.2684447169303894 0.21581515669822693
0.0095942327752709389 0.46694967150688171 0.39521712064743042
0.021097101271152496 0.46955260634422302 0.37933200597763062
0.14232081174850464 0.46059510111808777 0.29282334446907043
0.55957859754562378 0.51345300674438477 0.26372691988945007
0.81686830520629883 0.52965426445007324 0.24360451102256775
0.90294897556304932 0.52474135160446167 0.23461849987506866
0.9377790093421936 0.5638347864151001 0.25779035687446594
0.030828872695565224 0.60423654317855835 0.45936411619186401
0.027926815673708916 0.62295103073120117 0.44694149494171143
0.071703247725963593 0.65743619203567505 0.35493451356887817
0.60256105661392212 0.72959363460540771 0.27111607789993286
0.88128578662872314 0.76980555057525635 0.24763780832290649
0.98166501522064209 0.78411865234375 0.23820874094963074
0.99581021070480347 0.7901846170425415 0.26607450842857361
0.031540904194116592 0.66106516122817993 0.51802831888198853
0.018821148201823235 0.68687647581100464 0.50891107320785522
0.051094308495521545 0.72737878561019897 0.41901996731758118
0.59231674671173096 0.8130839467048645 0.34915187954902649
0.89615356922149658 0.86295151710510254 0.32026880979537964
0.98953360319137573 0.87420743703842163 0.32779613137245178
1 0.87619686126708984 0.36483436822891235
0.0073507269844412804 0.71247184276580811 0.60854190587997437
0.020257867872714996 0.74153274297714233 0.5862850546836853
0.10945775359869003 0.77597934007644653 0.51892566680908203
0.60352206230163574 0.84975415468215942 0.49357077479362488
0.89187484979629517 0.89911675453186035 0.49419829249382019
0.99222517013549805 0.91247493028640747 0.49087309837341309
1 0.91119575500488281 0.50998467206954956
0.0039775772020220757 0.15086163580417633 0.34474319219589233
0.042727153748273849 0.026935383677482605 0.32620686292648315
0.18900954723358154 0.0067134634591639042 0.3493226170539856
0.40300992131233215 0.0016984827816486359 0.36663016676902771
0.56406188011169434 0.00038022806984372437 0.37528911232948303
0.66017681360244751 0 0.37717682123184204
0.69057750701904297 0 0.39508369565010071
0.0033058465924113989 0.23290777206420898 0.41444039344787598
0.0099410712718963623 0.1769789457321167 0.40790003538131714
0.17931549251079559 0.094666637480258942 0.40925136208534241
0.44946235418319702 0.082696713507175446 0.42978370189666748
0.64966648817062378 0.022335724905133247 0.43332886695861816
0.73005962371826172 0.020482111722230911 0.42087841033935547
0.76134032011032104 0.024599261581897736 0.45140832662582397
0.0095347389578819275 0.36210456490516663 0.50223582983016968
0.015119410119950771 0.32793238759040833 0.49625542759895325
0.15036706626415253 0.27529755234718323 0.48741263151168823
0.50833958387374878 0.29610466957092285 0.49099645018577576
0.72189199924468994 0.28524878621101379 0.50521993637084961
0.81452125310897827 0.27136087417602539 0.49712112545967102
0.84599000215530396 0.31030011177062988 0.51607787609100342
0.020100882276892662 0.53380942344665527 0.59232228994369507
0.019750138744711876 0.54316043853759766 0.59958159923553467
0.068210631608963013 0.51938295364379883 0.56879210472106934
0.55900919437408447 0.56854581832885742 0.56765139102935791
0.81133216619491577 0.58072054386138916 0.57184690237045288
0.9057496190071106 0.58064514398574829 0.56960546970367432
0.9391864538192749 0.61840295791625977 0.58542144298553467
0.010162323713302612 0.66662245988845825 0.65145719051361084
0.0053082485683262348 0.68568986654281616 0.66271650791168213
0.010746615938842297 0.71396869421005249 0.62867027521133423
0.5714644193649292 0.789947509765625 0.61094766855239868
0.87615370750427246 0.82939964532852173 0.62515926361083984
0.98032456636428833 0.83588147163391113 0.61792635917663574
0.99015349149703979 0.83285754919052124 0.63198494911193848
0.0048670000396668911 0.71758937835693359 0.70154452323913574
0.0045103933662176132 0.74748188257217407 0.71029496192932129
0.008399544283747673 0.78698211908340454 0.68861913681030273
0.54809749126434326 0.86648941040039062 0.68363684415817261
0.87870043516159058 0.91452401876449585 0.67411160469055176
0.98437321186065674 0.92120575904846191 0.66418725252151489
0.99811375141143799 0.92397713661193848 0.68607157468795776
0.0017474305350333452 0.75950509309768677 0.75946301221847534
0.0015725080156698823 0.78940057754516602 0.76946842670440674
0.017759988084435463 0.82406455278396606 0.75189435482025146
0.57449555397033691 0.89578741788864136 0.76034379005432129
0.86748623847961426 0.94075953960418701 0.76169812679290771
0.98317521810531616 0.95532917976379395 0.75811523199081421
0.99809902906417847 0.9561275839805603 0.76647078990936279
0.010084712877869606 0.2333490401506424 0.47457650303840637
0.018791751936078072 0.18018783628940582 0.4838787317276001
0.19165456295013428 0.0032392165157943964 0.49410483241081238
0.42078828811645508 0.0012311149621382356 0.54025489091873169
0.58697348833084106 0.0013166241114959121 0.53601056337356567
0.67732787132263184 0.00095816218527033925 0.54019451141357422
0.70661675930023193 0 0.54969561100006104
0.0039215688593685627 0.29896557331085205 0.54183733463287354
0.0025453753769397736 0.26131865382194519 0.55373793840408325
0.1948544830083847 0.092685431241989136 0.5801619291305542
0.4635673463344574 0.062373697757720947 0.6145017147064209
0.65473514795303345 0.026043610647320747 0.62330114841461182
0.74326366186141968 0.022361904382705688 0.61994773149490356
0.77328246831893921 0.024559454992413521 0.6357761025428772
0.0038406671956181526 0.39190620183944702 0.60754066705703735
0.0037599301431328058 0.38248980045318604 0.63243091106414795
0.11149067431688309 0.29563471674919128 0.66651219129562378
0.50440579652786255 0.3031478226184845 0.6930307149887085
0.72222840785980225 0.30331510305404663 0.71184462308883667
0.82335960865020752 0.29892057180404663 0.7152143120765686
0.85103082656860352 0.32639291882514954 0.72608268260955811
0.014674706384539604 0.55778664350509644 0.70374834537506104
0.030416674911975861 0.57619172334671021 0.72959107160568237
0.014075948856770992 0.56421083211898804 0.75523102283477783
0.53265565633773804 0.59771442413330078 0.78653919696807861
0.79946112632751465 0.60498851537704468 0.78076976537704468
0.90522599220275879 0.6198764443397522 0.78861993551254272
0.93035691976547241 0.63547390699386597 0.80404675006866455
0.025732466951012611 0.694663405418396 0.77355033159255981
0.033487178385257721 0.71546471118927002 0.78987389802932739
0.0087806256487965584 0.75602924823760986 0.81255877017974854
0.51416504383087158 0.81791543960571289 0.83479017019271851
0.85649502277374268 0.86079210042953491 0.8401762843132019
0.96520519256591797 0.86757016181945801 0.8416857123374939
0.98780691623687744 0.8800433874130249 0.85710525512695312
0.03085784986615181 0.73817425966262817 0.79526221752166748
0.009447658434510231 0.76608502864837646 0.81627404689788818
0.0098135555163025856 0.81964510679244995 0.84589844942092896
0.5132870078086853 0.89811837673187256 0.87134766578674316
0.85627317428588867 0.9447709321975708 0.88603419065475464
0.97757804393768311 0.95869529247283936 0.8881804347038269
0.99600821733474731 0.95433378219604492 0.88334786891937256
0.013695301488041878 0.76437467336654663 0.82049566507339478
0.0049714930355548859 0.80257308483123779 0.85153931379318237
0.0089169219136238098 0.84675538539886475 0.88005757331848145
0.52331924438476562 0.91863954067230225 0.90415400266647339
0.85360080003738403 0.96516865491867065 0.91357541084289551
0.97403115034103394 0.97871595621109009 0.90427529811859131
0.9970097541809082 0.98484557867050171 0.92060136795043945
0.0051309624686837196 0.26487797498703003 0.53637313842773438
0.015875902026891708 0.21116980910301208 0.54933381080627441
0.19522400200366974 0.0078867143020033836 0.58041858673095703
0.41959208250045776 0.0041191698983311653 0.62049263715744019
0.60381084680557251 0.0041313618421554565 0.64067810773849487
0.69949948787689209 0.0039661331102252007 0.64921551942825317
0.72702538967132568 0.0072222542949020863 0.65735965967178345
0.0039215688593685627 0.32985764741897583 0.60713732242584229
0.0063736112788319588 0.29942077398300171 0.62471354007720947
0.17900043725967407 0.092781275510787964 0.66902256011962891
0.46659836173057556 0.060236208140850067 0.70686346292495728
0.67706739902496338 0.023253601044416428 0.72683942317962646
0.75850820541381836 0.022022591903805733 0.7297859787940979
0.78716385364532471 0.025546474382281303 0.74419593811035156
0.0043739918619394302 0.42278984189033508 0.67266547679901123
0.0061119976453483105 0.41855528950691223 0.69797146320343018
0.099251046776771545 0.32278826832771301 0.7446894645690918
0.50570350885391235 0.32595613598823547 0.79458552598953247
0.73917227983474731 0.31822413206100464 0.81295949220657349
0.82871133089065552 0.30248203873634338 0.81298565864562988
0.85435241460800171 0.33106270432472229 0.81593412160873413
0.019995640963315964 0.56880283355712891 0.74823105335235596
0.023567663505673409 0.58896827697753906 0.77636885643005371
0.025250872597098351 0.5765802264213562 0.82581895589828491
0.51843076944351196 0.60446149110794067 0.87700307369232178
0.79717475175857544 0.61851447820663452 0.89206141233444214
0.90139168500900269 0.62606143951416016 0.89482015371322632
0.92639273405075073 0.63427388668060303 0.89666974544525146
0.021515356376767159 0.69330841302871704 0.80687230825424194
0.02231343649327755 0.72036528587341309 0.83147233724594116
0.033606138080358505 0.77015525102615356 0.87951427698135376
0.49106365442276001 0.83579742908477783 0.93079239130020142
0.84036922454833984 0.87711989879608154 0.94614511728286743
0.95436197519302368 0.88610118627548218 0.94977134466171265
0.98060101270675659 0.8923187255859375 0.95432299375534058
0.018897023051977158 0.74208188056945801 0.83258640766143799
0.03698006272315979 0.76923072338104248 0.85649615526199341
0.014147231355309486 0.83114290237426758 0.90104752779006958
0.47112923860549927 0.91260737180709839 0.94983172416687012
0.84425932168960571 0.95751875638961792 0.96073818206787109
0.96286648511886597 0.96969223022460938 0.96539878845214844
0.99351996183395386 0.97745835781097412 0.97194051742553711
0.014990503899753094 0.77184158563613892 0.8590390682220459
0.045439969748258591 0.79818904399871826 0.87895494699478149
0.02428404800593853 0.85315489768981934 0.91945475339889526
0.51354938745498657 0.9283982515335083 0.96041643619537354
0.83083456754684448 0.9696347713470459 0.96550834178924561
0.96378761529922485 0.98910647630691528 0.97370630502700806
0.99421358108520508 0.99153590202331543 0.97552287578582764
0.00066781137138605118 0.29107546806335449 0.57399666309356689
0.0091787753626704216 0.25078114867210388 0.60220378637313843
0.19677244126796722 0.011433425359427929 0.64514857530593872
0.4464661180973053 0.0096169114112854004 0.68217700719833374
0.64861762523651123 0.0052042342722415924 0.70776718854904175
0.72534584999084473 0.0035255881957709789 0.70542442798614502
0.75165611505508423 0.0071336934342980385 0.71831363439559937
0.0038912305608391762 0.36767441034317017 0.64068210124969482
0.0039579356089234352 0.33814892172813416 0.65905094146728516
0.1674918532371521 0.16589002311229706 0.72121530771255493
0.48239746689796448 0.14740550518035889 0.76469635963439941
0.69507157802581787 0.094166487455368042 0.78167039155960083
0.78439408540725708 0.07728307694196701 0.79091477394104004
0.8116534948348999 0.12535436451435089 0.80308288335800171
0.0022150524891912937 0.4592030942440033 0.70453387498855591
0.0043347529135644436 0.42790800333023071 0.71571117639541626
0.085017167031764984 0.35167044401168823 0.77914988994598389
0.49005773663520813 0.3593384325504303 0.83187568187713623
0.73691898584365845 0.35836941003799438 0.84951925277709961
0.83569419384002686 0.34455198049545288 0.85658472776412964
0.86078369617462158 0.36988076567649841 0.86064130067825317
0.0233791284263134 0.58325701951980591 0.76797688007354736
0.025635767728090286 0.59214061498641968 0.78901946544647217
0.017011664807796478 0.59386235475540161 0.84739094972610474
0.50967508554458618 0.62427937984466553 0.90640968084335327
0.79873800277709961 0.64380854368209839 0.92336821556091309
0.89714699983596802 0.63694632053375244 0.92480200529098511
0.92984271049499512 0.66547632217407227 0.93136841058731079
0.01897156611084938 0.69212734699249268 0.81550073623657227
0.0057836645282804966 0.719157874584198 0.84174948930740356
0.0064877676777541637 0.77186363935470581 0.89725995063781738
0.46707311272621155 0.8371882438659668 0.95259320735931396
0.83377331495285034 0.88120353221893311 0.9717898964881897
0.9454648494720459 0.8886115550994873 0.97620832920074463
0.97824692726135254 0.90074384212493896 0.98051911592483521
0.024131610989570618 0.74380648136138916 0.84271293878555298
0.044419456273317337 0.77299267053604126 0.8670659065246582
0.0072044371627271175 0.8308720588684082 0.91282123327255249
0.45201990008354187 0.91250580549240112 0.96581077575683594
0.82460391521453857 0.95488005876541138 0.98002737760543823
0.95313036441802979 0.96541875600814819 0.98714143037796021
0.9854697585105896 0.96558386087417603 0.99006760120391846
0.027289342135190964 0.76759999990463257 0.85971355438232422
0.02024109847843647 0.80041950941085815 0.88448572158813477
0.014864140190184116 0.85275053977966309 0.927715003490448
0.50082921981811523 0.92955094575881958 0.97152048349380493
0.83109146356582642 0.9744795560836792 0.9857177734375
0.9598773717880249 0.99063313007354736 0.99207127094268799
0.99038350582122803 0.99087494611740112 0.99455899000167847
