luts/print/fuji_3513_constlclip.cube
# Created by: G'MIC (https://gmic.eu)
TITLE "fuji_3513_constlclip"
# LUT size
LUT_3D_SIZE 5
# Data domain
DOMAIN_MIN 0.0 0.0 0.0
DOMAIN_MAX 1.0 1.0 1.0
# LUT data points
0.01051692571491003 0.019761238247156143 0.023645289242267609
0.090500339865684509 0.037592135369777679 0.022936683148145676
0.31283262372016907 0.063082784414291382 0.011409206315875053
0.47016698122024536 0.089306235313415527 0.011766561307013035
0.53634297847747803 0.10621412843465805 0.023403601720929146
0.0048724454827606678 0.10145570337772369 0.058785635977983475
0.092286787927150726 0.12422516942024231 0.034315954893827438
0.38629832863807678 0.17616665363311768 0.0046600792557001114
0.58886778354644775 0.20490662753582001 0.011261060833930969
0.64281892776489258 0.22125965356826782 0.030622668564319611
0.0064945444464683533 0.26163998246192932 0.12673607468605042
0.042508278042078018 0.32855594158172607 0.063878096640110016
0.49846163392066956 0.43966585397720337 0.0085388636216521263
0.74716264009475708 0.47825360298156738 0.012357554398477077
0.78977233171463013 0.49121668934822083 0.020241038873791695
0.017017064616084099 0.41164526343345642 0.18173888325691223
0.045510865747928619 0.50504130125045776 0.10334565490484238
0.58551853895187378 0.66266578435897827 0.015659481287002563
0.8453335165977478 0.72695815563201904 0.03481762483716011
0.91191554069519043 0.74084258079528809 0.053368497639894485
0.020766688510775566 0.49944040179252625 0.23469512164592743
0.089248448610305786 0.62685859203338623 0.054197542369365692
0.6425279974937439 0.75167644023895264 0.01380544900894165
0.91456788778305054 0.81138443946838379 0.057751763612031937
0.97621023654937744 0.8303791880607605 0.10672638565301895
0.0031155603937804699 0.036242436617612839 0.090050265192985535
0.093109622597694397 0.034037139266729355 0.10595116764307022
0.35306379199028015 0.015589216724038124 0.084199734032154083
0.55150818824768066 0.020465431734919548 0.097203634679317474
0.60791206359863281 0.033614035695791245 0.10824450105428696
0.0042232736013829708 0.12234985083341599 0.13091766834259033
0.081800587475299835 0.14267729222774506 0.14205533266067505
0.46374309062957764 0.16832944750785828 0.11791878193616867
0.71032810211181641 0.122201107442379 0.076446637511253357
0.76943677663803101 0.13910682499408722 0.09059460461139679
0.0078875673934817314 0.30047249794006348 0.21498064696788788
0.021876810118556023 0.38186788558959961 0.20250755548477173
0.56904345750808716 0.48121273517608643 0.092430546879768372
0.85930776596069336 0.5107346773147583 0.049453273415565491
0.92440366744995117 0.53974795341491699 0.052537508308887482
0.016815349459648132 0.46765172481536865 0.30886754393577576
0.026203693822026253 0.57098484039306641 0.29159918427467346
0.61920946836471558 0.75898772478103638 0.068581566214561462
0.96105146408081055 0.81467843055725098 0.056548427790403366
0.99684232473373413 0.82530230283737183 0.10261363536119461
0.013622508384287357 0.56674808263778687 0.42735883593559265
0.0063470578752458096 0.69148766994476318 0.41508054733276367
0.62869453430175781 0.83034348487854004 0.36109405755996704
0.97235560417175293 0.88917082548141479 0.31143283843994141
1 0.89238148927688599 0.43978202342987061
0.0037902831099927425 0.10601447522640228 0.23018261790275574
0.097188882529735565 0.0062238955870270729 0.31386977434158325
0.38345825672149658 0.014005878008902073 0.33686164021492004
0.58704572916030884 0.037482079118490219 0.35605809092521667
0.65115123987197876 0.034588385373353958 0.38422715663909912
0.0064964741468429565 0.20139791071414948 0.31645780801773071
0.04341023787856102 0.18717125058174133 0.40391197800636292
0.48860397934913635 0.18899457156658173 0.45923081040382385
0.74222302436828613 0.13736353814601898 0.45391014218330383
0.79850476980209351 0.14292757213115692 0.48370596766471863
0.0092041166499257088 0.39843720197677612 0.44688817858695984
0.018794041126966476 0.462166428565979 0.50819939374923706
0.5546843409538269 0.56538504362106323 0.57594424486160278
0.87151145935058594 0.57910060882568359 0.55984616279602051
0.93080145120620728 0.60531651973724365 0.57238799333572388
0.019975969567894936 0.55985838174819946 0.54237955808639526
0.0045210444368422031 0.66313654184341431 0.6021386981010437
0.56177979707717896 0.84158021211624146 0.65259855985641479
0.95482224225997925 0.89279848337173462 0.64570367336273193
0.9976046085357666 0.89329934120178223 0.67692816257476807
0.002519016619771719 0.646453857421875 0.64974278211593628
0.017318336293101311 0.76346021890640259 0.71144360303878784
0.57068371772766113 0.89595985412597656 0.75935441255569458
0.94601297378540039 0.95253121852874756 0.76352936029434204
0.99925273656845093 0.95442891120910645 0.78854906558990479
0.0051555857062339783 0.16758304834365845 0.33715370297431946
0.08339797705411911 0.025562571361660957 0.49047264456748962
0.40269020199775696 0.023706473410129547 0.54007387161254883
0.61182892322540283 0.045922763645648956 0.55861955881118774
0.67302203178405762 0.033908244222402573 0.57568275928497314
0 0.26400768756866455 0.45159834623336792
0.021037068217992783 0.24024459719657898 0.56717157363891602
0.48675411939620972 0.17950445413589478 0.71206343173980713
0.74866169691085815 0.13607786595821381 0.72932058572769165
0.81339758634567261 0.16604535281658173 0.7341645359992981
0.017294161021709442 0.4641667902469635 0.59897959232330322
0.033030416816473007 0.51859623193740845 0.68508815765380859
0.51971632242202759 0.60647213459014893 0.84499776363372803
0.867054283618927 0.62139171361923218 0.85580921173095703
0.93281811475753784 0.65360039472579956 0.86199676990509033
0.021846890449523926 0.61754155158996582 0.69238889217376709
0.0290488600730896 0.71055227518081665 0.78194725513458252
0.49083802103996277 0.88603252172470093 0.91154545545578003
0.92470848560333252 0.92924660444259644 0.92523384094238281
0.99367338418960571 0.94844406843185425 0.93211978673934937
0.025584038347005844 0.68196636438369751 0.75450104475021362
0.026712603867053986 0.78957313299179077 0.84435576200485229
0.52853822708129883 0.92546373605728149 0.94012165069580078
0.92027544975280762 0.98023110628128052 0.95564740896224976
0.99153798818588257 0.98534899950027466 0.95501607656478882
0 0.20689485967159271 0.40653896331787109
0.061900269240140915 0.071580447256565094 0.56652259826660156
0.43464183807373047 0.004794820211827755 0.65768855810165405
0.66815447807312012 0.033358346670866013 0.67391693592071533
0.72301429510116577 0.025155415758490562 0.6900513768196106
0.001272044493816793 0.29952812194824219 0.50831478834152222
0.0025661841500550508 0.28390663862228394 0.62599223852157593
0.49017900228500366 0.25215926766395569 0.79843169450759888
0.77309173345565796 0.21579568088054657 0.81912082433700562
0.83401274681091309 0.23948593437671661 0.83207321166992188
0.032746467739343643 0.48884084820747375 0.63666605949401855
0.021786827594041824 0.52881503105163574 0.73091906309127808
0.51613247394561768 0.61462962627410889 0.90615200996398926
0.8654402494430542 0.64006876945495605 0.92474925518035889
0.92812341451644897 0.65360552072525024 0.92840933799743652
0.029013525694608688 0.6324152946472168 0.72504466772079468
0.020169246941804886 0.72728830575942993 0.81870484352111816
0.45408469438552856 0.89442902803421021 0.9628329873085022
0.91886603832244873 0.9445117712020874 0.98560243844985962
0.98780399560928345 0.94943529367446899 0.98703122138977051
0.014978251419961452 0.69196194410324097 0.77720183134078979
0.025978760793805122 0.79190295934677124 0.86718368530273438
0.49667558073997498 0.92846816778182983 0.97156143188476562
0.92112177610397339 0.98322767019271851 0.98991870880126953
0.99004679918289185 0.99155813455581665 0.99408233165740967
