luts/print/fuji_3510_constlclip.cube
# Created by: G'MIC (https://gmic.eu)
TITLE "fuji_3510_constlclip"
# LUT size
LUT_3D_SIZE 5
# Data domain
DOMAIN_MIN 0.0 0.0 0.0
DOMAIN_MAX 1.0 1.0 1.0
# LUT data points
0.016399966552853584 0.021970262750983238 0.016736004501581192
0.081656590104103088 0.046017710119485855 0.024557240307331085
0.31751906871795654 0.069367595016956329 0.0039355708286166191
0.48496997356414795 0.090672165155410767 0.0087813884019851685
0.5477062463760376 0.10468593239784241 0.012842679396271706
0.01081378385424614 0.11060325801372528 0.061867374926805496
0.10144023597240448 0.13532315194606781 0.048973891884088516
0.4004364013671875 0.17149083316326141 0.0056386459618806839
0.60022085905075073 0.21222217381000519 0.0088572483509778976
0.65543580055236816 0.22783215343952179 0.019768942147493362
0.016473598778247833 0.2751099169254303 0.13465136289596558
0.032833337783813477 0.32502490282058716 0.074397996068000793
0.47714167833328247 0.43043708801269531 0.0049002105370163918
0.72040998935699463 0.46385157108306885 0.014749953523278236
0.78441137075424194 0.47756853699684143 0.028062125667929649
0.031864989548921585 0.42886579036712646 0.19086909294128418
0.045062974095344543 0.51008373498916626 0.11372161656618118
0.54707247018814087 0.65748047828674316 0.0059228935278952122
0.83876329660415649 0.72512274980545044 0.042210269719362259
0.90356993675231934 0.73993968963623047 0.050820741802453995
0.0084836920723319054 0.51287567615509033 0.24242411553859711
0.075199291110038757 0.62800616025924683 0.083105958998203278
0.62555265426635742 0.75443720817565918 0.015340378507971764
0.90801703929901123 0.81515777111053467 0.046445120126008987
0.97775155305862427 0.83220213651657104 0.064554221928119659
0.022071883082389832 0.032425735145807266 0.093503884971141815
0.092204660177230835 0.04824129119515419 0.10152138769626617
0.3693164587020874 0.01662077009677887 0.090818829834461212
0.56320881843566895 0.01618519239127636 0.087722688913345337
0.62816107273101807 0.0047075608745217323 0.10796360671520233
0.0064254612661898136 0.12965254485607147 0.13763183355331421
0.089079253375530243 0.15441340208053589 0.146102175116539
0.46516185998916626 0.1727338433265686 0.12554612755775452
0.71078211069107056 0.14240388572216034 0.080254741013050079
0.77643907070159912 0.14544858038425446 0.085864990949630737
0.011574390344321728 0.31766706705093384 0.22808368504047394
0.020012350752949715 0.37807074189186096 0.20089751482009888
0.56194001436233521 0.48302671313285828 0.11274261772632599
0.85812026262283325 0.50451570749282837 0.050072554498910904
0.92175394296646118 0.5285068154335022 0.053032293915748596
0.028733840212225914 0.4820200502872467 0.30967271327972412
0.029733456671237946 0.56848293542861938 0.29576212167739868
0.60219365358352661 0.75404614210128784 0.073892273008823395
0.94998836517333984 0.80996567010879517 0.054948665201663971
0.99617725610733032 0.82015657424926758 0.1018933430314064
0.0289942417293787 0.5760074257850647 0.43069589138031006
0.0067592398263514042 0.68982964754104614 0.41736781597137451
0.62183016538619995 0.82798880338668823 0.35777315497398376
0.96283608675003052 0.88566339015960693 0.30345368385314941
1 0.89038616418838501 0.41153186559677124
0.0059074400924146175 0.10582616180181503 0.25789177417755127
0.10472241789102554 0.0078157614916563034 0.33598959445953369
0.39637657999992371 0.0049095903523266315 0.35040742158889771
0.60221534967422485 0.018809463828802109 0.36449414491653442
0.67306423187255859 0.012129046954214573 0.39034727215766907
0.0039215688593685627 0.20556938648223877 0.3230135440826416
0.059498358517885208 0.19014409184455872 0.39822754263877869
0.49023416638374329 0.19589397311210632 0.46202224493026733
0.73973828554153442 0.13711191713809967 0.46240833401679993
0.80819350481033325 0.17487810552120209 0.46883741021156311
0.014299684204161167 0.40089866518974304 0.44179731607437134
0.0077031753025949001 0.45331865549087524 0.50086075067520142
0.5439687967300415 0.5566825270652771 0.56205803155899048
0.86521178483963013 0.57242554426193237 0.54847806692123413
0.93532812595367432 0.60092151165008545 0.57240396738052368
0.0039215688593685627 0.57466655969619751 0.55647069215774536
0.014560460112988949 0.67390275001525879 0.60388708114624023
0.55080533027648926 0.83250707387924194 0.63295221328735352
0.94428205490112305 0.88221234083175659 0.63482081890106201
0.99543571472167969 0.89354485273361206 0.64505976438522339
0.0027452805079519749 0.6468995213508606 0.64473748207092285
0.008107324130833149 0.75521981716156006 0.70187699794769287
0.55680936574935913 0.89132058620452881 0.75159049034118652
0.93865489959716797 0.94752639532089233 0.74504333734512329
0.99971050024032593 0.95258581638336182 0.77163326740264893
0.0096755232661962509 0.17099159955978394 0.35353723168373108
0.09253547340631485 0.021680794656276703 0.50166225433349609
0.40597712993621826 0.0089311189949512482 0.55604511499404907
0.63041073083877563 0.033507730811834335 0.57881015539169312
0.69087916612625122 0.029180040583014488 0.59174871444702148
0.003790687071159482 0.26134482026100159 0.46075361967086792
0.020291855558753014 0.24017895758152008 0.57458430528640747
0.48255369067192078 0.19097933173179626 0.7128368616104126
0.76083600521087646 0.15427727997303009 0.72636675834655762
0.8217284083366394 0.17919421195983887 0.74027466773986816
0.023770576342940331 0.46293336153030396 0.60149931907653809
0.022798590362071991 0.50791877508163452 0.68434596061706543
0.51111811399459839 0.59714943170547485 0.83638167381286621
0.86309719085693359 0.61477690935134888 0.84755623340606689
0.92544817924499512 0.61500257253646851 0.85148942470550537
0.021863002330064774 0.63138324022293091 0.70489931106567383
0.031939651817083359 0.7116999626159668 0.77883279323577881
0.47564688324928284 0.87690645456314087 0.90608793497085571
0.91916334629058838 0.92853516340255737 0.91609656810760498
0.99187445640563965 0.93907767534255981 0.92358303070068359
0.022447293624281883 0.68490999937057495 0.75527942180633545
0.027763351798057556 0.78370887041091919 0.84179747104644775
0.51228326559066772 0.92228519916534424 0.93592178821563721
0.92262119054794312 0.98019766807556152 0.95362716913223267
0.99308127164840698 0.98306584358215332 0.9496428370475769
0.0036070880014449358 0.21285529434680939 0.42138803005218506
0.075583048164844513 0.06191132590174675 0.58425933122634888
0.43833741545677185 0.012900887057185173 0.68030393123626709
0.67395985126495361 0.023652873933315277 0.6819082498550415
0.74053549766540527 0.02515614777803421 0.70441699028015137
0.00087259331485256553 0.30740690231323242 0.5214722752571106
0.0065022935159504414 0.28907984495162964 0.62582123279571533
0.4792608916759491 0.26037111878395081 0.79533272981643677
0.77846008539199829 0.22979250550270081 0.82005393505096436
0.84239745140075684 0.26208975911140442 0.8334047794342041
0.022130869328975677 0.48706096410751343 0.64520752429962158
0.022986752912402153 0.5234491229057312 0.73322457075119019
0.496908038854599 0.60901755094528198 0.90059787034988403
0.85487234592437744 0.63705611228942871 0.92122572660446167
0.93345391750335693 0.65996378660202026 0.93385899066925049
0.014717222191393375 0.63625526428222656 0.73026889562606812
0.015045540407299995 0.72178393602371216 0.81287038326263428
0.43928959965705872 0.8857426643371582 0.9600226879119873
0.91258072853088379 0.93552279472351074 0.98145383596420288
0.98858141899108887 0.94474691152572632 0.98535013198852539
0.031101062893867493 0.70131063461303711 0.78256207704544067
0.0086938599124550819 0.79634350538253784 0.87100934982299805
0.47910651564598083 0.92623406648635864 0.96984285116195679
0.91413122415542603 0.98583716154098511 0.99150115251541138
0.99136114120483398 0.99136340618133545 0.99417412281036377
