luts/print/fuji_3510_constlmap.cube
# Created by: G'MIC (https://gmic.eu)
TITLE "fuji_3510_constlmap"
# LUT size
LUT_3D_SIZE 7
# Data domain
DOMAIN_MIN 0.0 0.0 0.0
DOMAIN_MAX 1.0 1.0 1.0
# LUT data points
0.016742631793022156 0.014189940877258778 0.012756288051605225
0.042148694396018982 0.02731240913271904 0.018384732306003571
0.14004766941070557 0.048065394163131714 0.021408215165138245
0.31199747323989868 0.076159805059432983 0.0066744484938681126
0.43875029683113098 0.088763624429702759 0.0066817938350141048
0.51198446750640869 0.095012858510017395 0.01296672411262989
0.54998719692230225 0.10132171213626862 0.012171546928584576
0.021415740251541138 0.070810310542583466 0.039071548730134964
0.04916343092918396 0.07911643385887146 0.039417821913957596
0.17116115987300873 0.099794529378414154 0.034117531031370163
0.36061766743659973 0.1329161524772644 0.016684139147400856
0.50368988513946533 0.15014004707336426 0.0095576867461204529
0.5823744535446167 0.16109687089920044 0.014165466651320457
0.61613667011260986 0.17555594444274902 0.021608030423521996
0.008077673614025116 0.15707558393478394 0.081122681498527527
0.016991348937153816 0.16517934203147888 0.069081820547580719
0.19061371684074402 0.2048090398311615 0.027553349733352661
0.42154118418693542 0.2447449117898941 0.013630152679979801
0.58512920141220093 0.26697430014610291 0.016391364857554436
0.66902893781661987 0.28411239385604858 0.018659224733710289
0.70038467645645142 0.29738476872444153 0.007070878054946661
0.014504062011837959 0.28030559420585632 0.13389526307582855
0.0075442143715918064 0.3004126250743866 0.12048976868391037
0.19344110786914825 0.36808925867080688 0.015631642192602158
0.48852211236953735 0.4312748908996582 0.0083255991339683533
0.6723741888999939 0.46099072694778442 0.024303451180458069
0.75966578722000122 0.47360360622406006 0.030006049200892448
0.7956700325012207 0.49727120995521545 0.0088063562288880348
0.018127186223864555 0.40183860063552856 0.18244412541389465
0.0082923742011189461 0.42760223150253296 0.16046860814094543
0.19070951640605927 0.52043861150741577 0.023453611880540848
0.54765498638153076 0.61049175262451172 0.0076207327656447887
0.75479596853256226 0.65260815620422363 0.028446272015571594
0.84742653369903564 0.67265182733535767 0.024281281977891922
0.88284987211227417 0.69236850738525391 0.03057423047721386
0.023881649598479271 0.45104435086250305 0.19992350041866302
0.018519053235650063 0.50057673454284668 0.17428350448608398
0.2264111340045929 0.59877008199691772 0.020931258797645569
0.57909059524536133 0.69283920526504517 0.010096516460180283
0.79360687732696533 0.74978071451187134 0.039354525506496429
0.89888262748718262 0.7711290717124939 0.070552065968513489
0.9286799430847168 0.78013825416564941 0.074913859367370605
0.0087460540235042572 0.50603890419006348 0.24126775562763214
0.043358147144317627 0.57671952247619629 0.17902345955371857
0.31947943568229675 0.67161500453948975 0.032845724374055862
0.63804435729980469 0.76042485237121582 0.019423989579081535
0.85525578260421753 0.81643134355545044 0.063983500003814697
0.92634063959121704 0.80826437473297119 0.084805719554424286
0.96960407495498657 0.82625770568847656 0.10698563605546951
0.018517063930630684 0.028750160709023476 0.060158912092447281
0.047606538981199265 0.036616738885641098 0.055995117872953415
0.15574294328689575 0.049251705408096313 0.053847938776016235
0.34754428267478943 0.050366315990686417 0.043493457138538361
0.49363094568252563 0.066015638411045074 0.044069778174161911
0.57010108232498169 0.049119267612695694 0.033856052905321121
0.61332398653030396 0.048419471830129623 0.0301971435546875
0.017386926338076591 0.08242303878068924 0.08595498651266098
0.05725715309381485 0.085532933473587036 0.076592236757278442
0.19832484424114227 0.10924383252859116 0.070628881454467773
0.40336805582046509 0.1352037787437439 0.066635280847549438
0.55901175737380981 0.14362747967243195 0.059681147336959839
0.64936214685440063 0.11936528980731964 0.033544022589921951
0.68726170063018799 0.13233731687068939 0.027871016412973404
0.012617402710020542 0.1697833389043808 0.11887487024068832
0.049239333719015121 0.18085777759552002 0.11041789501905441
0.21766267716884613 0.22024039924144745 0.091489978134632111
0.45682069659233093 0.25772488117218018 0.08929799497127533
0.64533787965774536 0.27463623881340027 0.067421630024909973
0.73980975151062012 0.27527502179145813 0.044457364827394485
0.77663826942443848 0.29327672719955444 0.017569029703736305
0.016961505636572838 0.30145210027694702 0.17581503093242645
0.069839805364608765 0.32446682453155518 0.17499455809593201
0.21093730628490448 0.3984830379486084 0.12139932811260223
0.52101057767868042 0.46377953886985779 0.12695442140102386
0.73049414157867432 0.49326661229133606 0.10340616852045059
0.83301329612731934 0.50298535823822021 0.062305822968482971
0.86929124593734741 0.51857453584671021 0.013016600161790848
0.017611036077141762 0.429464191198349 0.24455547332763672
0.046288240700960159 0.45819973945617676 0.22581835091114044
0.22296248376369476 0.56455188989639282 0.13499300181865692
0.58516299724578857 0.65337634086608887 0.14217974245548248
0.80187028646469116 0.69893670082092285 0.16155356168746948
0.91078150272369385 0.72093731164932251 0.11312334984540939
0.94496595859527588 0.73360162973403931 0.05955016240477562
0.014066359959542751 0.48303899168968201 0.28109309077262878
0.018976323306560516 0.53095275163650513 0.2664274275302887
0.15180538594722748 0.64941805601119995 0.12998993694782257
0.60996371507644653 0.74877804517745972 0.05849100649356842
0.85905230045318604 0.8014214038848877 0.092915676534175873
0.9591260552406311 0.82052254676818848 0.1213584765791893
0.98631519079208374 0.82685750722885132 0.11602156609296799
0.0067048915661871433 0.56440532207489014 0.35928866267204285
0.013662180863320827 0.62339431047439575 0.34752863645553589
0.22494450211524963 0.72383564710617065 0.26753568649291992
0.64133149385452271 0.80658650398254395 0.20940947532653809
0.89008361101150513 0.8530200719833374 0.15197451412677765
0.98701936006546021 0.86622172594070435 0.22627653181552887
0.99652642011642456 0.86863917112350464 0.31247261166572571
0.0087470412254333496 0.038361553102731705 0.14550299942493439
0.046670068055391312 0.037159819155931473 0.15727071464061737
0.17117826640605927 0.050081290304660797 0.17212432622909546
0.37427160143852234 0.047207072377204895 0.18123598396778107
0.52451515197753906 0.040669742971658707 0.18262743949890137
0.60334986448287964 0.029409116134047508 0.18860380351543427
0.63554090261459351 0.037718888372182846 0.192692831158638
0.0039619593881070614 0.10197984427213669 0.16895101964473724
0.051409013569355011 0.10572271794080734 0.18778279423713684
0.20334672927856445 0.1243291050195694 0.20312221348285675
0.42983445525169373 0.1502164900302887 0.21686325967311859
0.60359472036361694 0.13732534646987915 0.2198919802904129
0.70188653469085693 0.082994557917118073 0.20344683527946472
0.74218213558197021 0.051861975342035294 0.21280092000961304
0.0024094823747873306 0.19953489303588867 0.21599817276000977
0.073881708085536957 0.21122187376022339 0.22534556686878204
0.23238883912563324 0.24753940105438232 0.25070267915725708
0.49802824854850769 0.28366106748580933 0.26122909784317017
0.71056276559829712 0.2757108211517334 0.24059823155403137
0.80404055118560791 0.26310741901397705 0.23072917759418488
0.83886080980300903 0.28936988115310669 0.24568021297454834
0.010425582528114319 0.34017521142959595 0.2834450900554657
0.086285308003425598 0.36990708112716675 0.30228912830352783
0.27690953016281128 0.43605694174766541 0.32523366808891296
0.55557733774185181 0.50772559642791748 0.32139977812767029
0.79391974210739136 0.53045916557312012 0.29371559619903564
0.90022653341293335 0.53172868490219116 0.22976981103420258
0.93086642026901245 0.55249148607254028 0.24717074632644653
0.010277601890265942 0.47494050860404968 0.35826462507247925
0.087490931153297424 0.50724697113037109 0.3694642186164856
0.22328495979309082 0.61868000030517578 0.34619602560997009
0.59578627347946167 0.72056347131729126 0.33631715178489685
0.84630900621414185 0.76010632514953613 0.36215999722480774
0.97111374139785767 0.77805769443511963 0.28727272152900696
0.9915958046913147 0.78922802209854126 0.29471275210380554
0.0058215274475514889 0.53527277708053589 0.41807377338409424
0.03119678795337677 0.58212137222290039 0.42857453227043152
0.074644215404987335 0.70116394758224487 0.41577482223510742
0.59511369466781616 0.81220787763595581 0.36156168580055237
0.88505381345748901 0.85848915576934814 0.34660524129867554
0.98191577196121216 0.87157374620437622 0.39461195468902588
0.99933725595474243 0.87615114450454712 0.41878816485404968
0.0043967301025986671 0.59430503845214844 0.49908921122550964
0.008856799453496933 0.663737952709198 0.52344655990600586
0.10575895011425018 0.76176708936691284 0.51936393976211548
0.61283951997756958 0.85301715135574341 0.50227600336074829
0.88380968570709229 0.89507633447647095 0.47717398405075073
0.99337613582611084 0.91134142875671387 0.5089949369430542
1 0.91075754165649414 0.55638611316680908
0.0056665758602321148 0.10220571607351303 0.25124707818031311
0.031536459922790527 0.053616002202033997 0.30181816220283508
0.17911063134670258 0.053010080009698868 0.33244118094444275
0.39086523652076721 0.055312018841505051 0.34920364618301392
0.5422050952911377 0.056772686541080475 0.35981598496437073
0.62340337038040161 0.050773188471794128 0.36817339062690735
0.65582644939422607 0.039127200841903687 0.37412622570991516
0.0098444167524576187 0.15946054458618164 0.28938448429107666
0.051429510116577148 0.15175536274909973 0.3196471631526947
0.19920071959495544 0.14616678655147552 0.39131435751914978
0.4434526264667511 0.17334817349910736 0.41350588202476501
0.62496292591094971 0.16124950349330902 0.42462429404258728
0.72049582004547119 0.097736924886703491 0.43218779563903809
0.76238161325454712 0.049259111285209656 0.44944167137145996
0.0047416538000106812 0.25798040628433228 0.35985806584358215
0.080207362771034241 0.27075695991516113 0.37536263465881348
0.22487960755825043 0.28818020224571228 0.45918279886245728
0.50656044483184814 0.31047499179840088 0.49215283989906311
0.73059898614883423 0.30499270558357239 0.50196307897567749
0.81392204761505127 0.28459164500236511 0.49952435493469238
0.84631919860839844 0.30733707547187805 0.51684528589248657
0.0086618764325976372 0.4043298065662384 0.44969648122787476
0.10316570848226547 0.43126675486564636 0.46878743171691895
0.31058290600776672 0.49232885241508484 0.51896423101425171
0.56302511692047119 0.55664205551147461 0.5697905421257019
0.80914628505706787 0.57811158895492554 0.56825172901153564
0.90360236167907715 0.57526159286499023 0.56101131439208984
0.93481993675231934 0.59976327419281006 0.571338951587677
0.0068829106166958809 0.53928416967391968 0.52568823099136353
0.11095890402793884 0.57218396663665771 0.55162966251373291
0.26942300796508789 0.67036211490631104 0.59954017400741577
0.56523817777633667 0.77727621793746948 0.62016087770462036
0.8587455153465271 0.82135975360870361 0.63209563493728638
0.96686655282974243 0.83275026082992554 0.62586575746536255
0.99408882856369019 0.84165555238723755 0.62989085912704468
0.0042564542964100838 0.60001438856124878 0.57966321706771851
0.013770652934908867 0.63983219861984253 0.60978120565414429
0.079945765435695648 0.74556422233581543 0.65431135892868042
0.54513168334960938 0.86397117376327515 0.67637008428573608
0.86873549222946167 0.91190463304519653 0.67681533098220825
0.98174434900283813 0.9263574481010437 0.69150304794311523
0.99858689308166504 0.92636942863464355 0.70404553413391113
0 0.65546298027038574 0.64883744716644287
0.00070787320146337152 0.71399420499801636 0.69332510232925415
0.019342295825481415 0.80824708938598633 0.73647421598434448
0.5663144588470459 0.89334428310394287 0.75342988967895508
0.86119693517684937 0.93646371364593506 0.74736130237579346
0.98277634382247925 0.95485669374465942 0.76143604516983032
0.99998706579208374 0.95392155647277832 0.78342682123184204
0.011859294958412647 0.15523646771907806 0.32361796498298645
0.017206378281116486 0.10607249289751053 0.3856775164604187
0.1831849217414856 0.046489402651786804 0.46772107481956482
0.39967873692512512 0.060940388590097427 0.49765104055404663
0.56008380651473999 0.074953816831111908 0.5088578462600708
0.6421932578086853 0.042501069605350494 0.51796424388885498
0.67221736907958984 0.034833811223506927 0.5297778844833374
0.0039192051626741886 0.20976279675960541 0.39075449109077454
0.033221930265426636 0.20133508741855621 0.42367973923683167
0.18726061284542084 0.14285971224308014 0.55700069665908813
0.45757219195365906 0.16791333258152008 0.58502060174942017
0.642128586769104 0.17507912218570709 0.5970999002456665
0.73441749811172485 0.1160452589392662 0.6106487512588501
0.77448046207427979 0.05719197541475296 0.6350942850112915
0.0025125988759100437 0.3005775511264801 0.46932217478752136
0.036114051938056946 0.3129328191280365 0.49950477480888367
0.174716517329216 0.29915282130241394 0.63886618614196777
0.51447862386703491 0.31652873754501343 0.69398951530456543
0.72882378101348877 0.31670725345611572 0.7040143609046936
0.82410365343093872 0.29867610335350037 0.70966964960098267
0.84974199533462524 0.31412851810455322 0.71255695819854736
0.022297129034996033 0.45734566450119019 0.57828438282012939
0.093298546969890594 0.47903841733932495 0.60012209415435791
0.26729080080986023 0.53401404619216919 0.67505210638046265
0.54159283638000488 0.58711916208267212 0.77299296855926514
0.8018304705619812 0.60412245988845825 0.78429704904556274
0.90463048219680786 0.60746937990188599 0.79234164953231812
0.93219631910324097 0.63032209873199463 0.7994685173034668
0.0053890752606093884 0.58830386400222778 0.65363103151321411
0.11686027050018311 0.62184184789657593 0.68038111925125122
0.29190152883529663 0.70828813314437866 0.7500041127204895
0.55139178037643433 0.81562978029251099 0.82739979028701782
0.8452446460723877 0.8537895679473877 0.84253561496734619
0.96020066738128662 0.8620983362197876 0.84520894289016724
0.98790991306304932 0.87439215183258057 0.84878045320510864
0.01166197843849659 0.63922667503356934 0.68889206647872925
0.03111032210290432 0.68017840385437012 0.72634530067443848
0.10043235868215561 0.77948969602584839 0.80299341678619385
0.50364583730697632 0.89710962772369385 0.8708692193031311
0.85159093141555786 0.94563430547714233 0.88001102209091187
0.97354543209075928 0.9593157172203064 0.88552826642990112
0.9985116720199585 0.9612424373626709 0.89273643493652344
0.0051370207220315933 0.67653393745422363 0.73267239332199097
0.0087559567764401436 0.74429726600646973 0.78932332992553711
0.013590510003268719 0.83071690797805786 0.85936427116394043
0.52543264627456665 0.91774368286132812 0.90149927139282227
0.84525775909423828 0.96180301904678345 0.90720951557159424
0.97181010246276855 0.9797903299331665 0.91357630491256714
0.99652117490768433 0.98174333572387695 0.92314153909683228
0.013094494119286537 0.18396724760532379 0.37452208995819092
0.017506154254078865 0.16502104699611664 0.41399970650672913
0.1837327778339386 0.039385132491588593 0.54702621698379517
0.41410547494888306 0.055016446858644485 0.586201012134552
0.5801587700843811 0.075620792806148529 0.59694862365722656
0.6630362868309021 0.068310126662254333 0.61127883195877075
0.69252461194992065 0.053260490298271179 0.62096631526947021
0.00026146383606828749 0.2386990487575531 0.44803988933563232
0.0070826211012899876 0.2374347597360611 0.48267155885696411
0.17687681317329407 0.12472550570964813 0.65655624866485596
0.4734935462474823 0.13083663582801819 0.70021575689315796
0.66455268859863281 0.13867016136646271 0.70909011363983154
0.75075966119766235 0.11500746756792068 0.71708720922470093
0.78581798076629639 0.079220518469810486 0.733753502368927
0.00010130638838745654 0.33435913920402527 0.53195500373840332
0.009340653195977211 0.33895894885063171 0.56249725818634033
0.12100761383771896 0.32250377535820007 0.71616148948669434
0.50471508502960205 0.3233187198638916 0.79097694158554077
0.73433488607406616 0.31856104731559753 0.80492734909057617
0.82747721672058105 0.31139963865280151 0.81106942892074585
0.8569495677947998 0.33335846662521362 0.82180565595626831
0.0030789095908403397 0.47870475053787231 0.62860298156738281
0.043655965477228165 0.49831706285476685 0.65775567293167114
0.11850964277982712 0.55154919624328613 0.77535712718963623
0.51389682292938232 0.60094434022903442 0.87458944320678711
0.79212957620620728 0.61654341220855713 0.88989341259002686
0.90409409999847412 0.61826157569885254 0.89359027147293091
0.9315071702003479 0.64198487997055054 0.90247750282287598
0.0021643245127052069 0.60749882459640503 0.70138418674468994
0.080274380743503571 0.63522624969482422 0.73333919048309326
0.19764921069145203 0.72825556993484497 0.82667374610900879
0.50552475452423096 0.82728070020675659 0.92123693227767944
0.82893830537796021 0.86575239896774292 0.94330310821533203
0.95286315679550171 0.87530797719955444 0.94653278589248657
0.98018485307693481 0.87582850456237793 0.94499439001083374
0.023268561810255051 0.65299177169799805 0.7310364842414856
0.042068466544151306 0.69785833358764648 0.77412980794906616
0.087188541889190674 0.79524314403533936 0.86069977283477783
0.47507587075233459 0.90685892105102539 0.94602340459823608
0.83305174112319946 0.95814341306686401 0.96295547485351562
0.96763044595718384 0.97413289546966553 0.9681057333946228
0.99529314041137695 0.97713840007781982 0.96865135431289673
0.0099899293854832649 0.69712346792221069 0.77439385652542114
0.018050609156489372 0.75203233957290649 0.82406115531921387
0.028578156605362892 0.8357926607131958 0.89774757623672485
0.50273609161376953 0.92468392848968506 0.9565703272819519
0.83604657649993896 0.9708561897277832 0.96882855892181396
0.96707308292388916 0.99004071950912476 0.97991198301315308
0.99306422472000122 0.98926037549972534 0.96881848573684692
0 0.20726551115512848 0.41165673732757568
0.0075401905924081802 0.19779931008815765 0.46084338426589966
0.19653423130512238 0.026232745498418808 0.63224333524703979
0.44480583071708679 0.043799009174108505 0.66130274534225464
0.62542068958282471 0.07095857709646225 0.6823011040687561
0.71289026737213135 0.083038061857223511 0.69871312379837036
0.73527902364730835 0.074021086096763611 0.69789564609527588
0 0.27087163925170898 0.48699334263801575
0.0041229547932744026 0.26617342233657837 0.51747030019760132
0.16046209633350372 0.16563023626804352 0.70869392156600952
0.48673161864280701 0.16865317523479462 0.7640642523765564
0.69351804256439209 0.14240851998329163 0.7799651026725769
0.78082418441772461 0.081615373492240906 0.78089767694473267
0.81121015548706055 0.15378357470035553 0.79656833410263062
0 0.35519939661026001 0.5570904016494751
0.00029401591746136546 0.36067160964012146 0.59384638071060181
0.090585403144359589 0.35723191499710083 0.75579488277435303
0.49994221329689026 0.35991132259368896 0.83178305625915527
0.74125474691390991 0.36144733428955078 0.85039710998535156
0.84077447652816772 0.35192561149597168 0.85799247026443481
0.8687206506729126 0.37729862332344055 0.86661612987518311
0 0.48994606733322144 0.64660537242889404
0.0065570306032896042 0.51294910907745361 0.68169045448303223
0.018590232357382774 0.56509923934936523 0.81371569633483887
0.50472342967987061 0.61876457929611206 0.90585881471633911
0.78380084037780762 0.63214349746704102 0.92184668779373169
0.90134930610656738 0.63812398910522461 0.92895603179931641
0.93475556373596191 0.65727400779724121 0.93512719869613647
0.0030054727103561163 0.61377620697021484 0.72088837623596191
0.015903053805232048 0.6487237811088562 0.75634187459945679
0.046852260828018188 0.73818022012710571 0.85223996639251709
0.45401042699813843 0.83448523283004761 0.9512515664100647
0.82336902618408203 0.87161105871200562 0.96984308958053589
0.95021265745162964 0.88243114948272705 0.97548913955688477
0.98106420040130615 0.89020061492919922 0.97738772630691528
0.0017712612170726061 0.65821725130081177 0.74356752634048462
0.02923208475112915 0.70833873748779297 0.79084926843643188
0.043198112398386002 0.79989278316497803 0.87677425146102905
0.44322118163108826 0.90983814001083374 0.96349930763244629
0.83322668075561523 0.96082115173339844 0.98486095666885376
0.96032637357711792 0.97567141056060791 0.98878377676010132
0.99318283796310425 0.97596216201782227 0.98737889528274536
0.018756866455078125 0.69484692811965942 0.77612632513046265
0.010363141074776649 0.75561881065368652 0.83102649450302124
0.02349771186709404 0.83978277444839478 0.91031938791275024
0.47611898183822632 0.92567688226699829 0.96841144561767578
0.82602512836456299 0.97244977951049805 0.98486518859863281
0.95573115348815918 0.99012875556945801 0.99221253395080566
0.99580734968185425 0.99586164951324463 0.99462747573852539
