luts/print/fuji_3510_constlclip.cube
# Created by: G'MIC (https://gmic.eu)
TITLE "fuji_3510_constlclip"
# LUT size
LUT_3D_SIZE 13
# Data domain
DOMAIN_MIN 0.0 0.0 0.0
DOMAIN_MAX 1.0 1.0 1.0
# LUT data points
0.016399966552853584 0.021970262750983238 0.016736004501581192
0.033816810697317123 0.032005071640014648 0.021421261131763458
0.056110605597496033 0.040657207369804382 0.024673087522387505
0.081656590104103088 0.046017710119485855 0.024557240307331085
0.13950689136981964 0.052461527287960052 0.018319059163331985
0.23502016067504883 0.060706224292516708 0.0088353920727968216
0.31751906871795654 0.069367595016956329 0.0039355708286166191
0.38231661915779114 0.077946379780769348 0.0038447510451078415
0.4420628547668457 0.085031144320964813 0.0036662232596427202
0.48496997356414795 0.090672165155410767 0.0087813884019851685
0.51496016979217529 0.095195233821868896 0.013618828728795052
0.53580057621002197 0.10053373128175735 0.013472000136971474
0.5477062463760376 0.10468593239784241 0.012842679396271706
0.016596775501966476 0.048484355211257935 0.028882643207907677
0.030298434197902679 0.058880690485239029 0.032560266554355621
0.051120039075613022 0.067923136055469513 0.035012144595384598
0.088865183293819427 0.074759386479854584 0.033565834164619446
0.1571434885263443 0.083302304148674011 0.023375881835818291
0.25271844863891602 0.09152144193649292 0.011200953274965286
0.34259983897209167 0.096808142960071564 0.0047644074074923992
0.41481950879096985 0.10413569957017899 0.0037317613605409861
0.47838115692138672 0.1128745898604393 0.0016265719896182418
0.52107656002044678 0.11832907050848007 0.0071908840909600258
0.55111664533615112 0.12370210886001587 0.014027569442987442
0.57161009311676025 0.12886719405651093 0.016505775973200798
0.58175712823867798 0.13530337810516357 0.018757794052362442
0.015260284766554832 0.077852316200733185 0.04557017982006073
0.02174835279583931 0.087955191731452942 0.045085083693265915
0.04470500722527504 0.097303546965122223 0.045172836631536484
0.099201187491416931 0.10416436195373535 0.041640307754278183
0.17206619679927826 0.1145312562584877 0.02802378311753273
0.27019581198692322 0.12583363056182861 0.011544186621904373
0.37111195921897888 0.13035434484481812 0.0056573455221951008
0.44693651795387268 0.1378580629825592 0.0038019665516912937
0.51301723718643188 0.14721296727657318 0.0011292999843135476
0.55855375528335571 0.15584027767181396 0.0060559739358723164
0.58975726366043091 0.16413943469524384 0.013350243680179119
0.60938906669616699 0.17086943984031677 0.017632083967328072
0.6188696026802063 0.17624200880527496 0.023070480674505234
0.01081378385424614 0.11060325801372528 0.061867374926805496
0.010819214396178722 0.11905255913734436 0.058356370776891708
0.031434647738933563 0.1271585077047348 0.054777707904577255
0.10144023597240448 0.13532315194606781 0.048973891884088516
0.18415290117263794 0.14945833384990692 0.025223661214113235
0.28600209951400757 0.16250510513782501 0.0067858076654374599
0.4004364013671875 0.17149083316326141 0.0056386459618806839
0.48242434859275818 0.18358431756496429 0.0049738115631043911
0.54862785339355469 0.20025722682476044 0.0066979201510548592
0.60022085905075073 0.21222217381000519 0.0088572483509778976
0.6305767297744751 0.22101101279258728 0.011014541611075401
0.64640700817108154 0.22609737515449524 0.01471710205078125
0.65543580055236816 0.22783215343952179 0.019768942147493362
0.009198162704706192 0.15402109920978546 0.083107605576515198
0.0089019779115915298 0.16559706628322601 0.077565133571624756
0.0139274001121521 0.17659345269203186 0.068278096616268158
0.080029129981994629 0.18987107276916504 0.053897257894277573
0.19214743375778198 0.20579458773136139 0.020101703703403473
0.30533924698829651 0.22333642840385437 0.0043130014091730118
0.42293635010719299 0.24324867129325867 0.0050867865793406963
0.51183384656906128 0.25062993168830872 0.009087955579161644
0.5809674859046936 0.26099482178688049 0.013205524533987045
0.63652217388153076 0.27273455262184143 0.010745523497462273
0.67309099435806274 0.28436386585235596 0.0072343116626143456
0.68766838312149048 0.2934124767780304 0.01093744020909071
0.69757914543151855 0.29337689280509949 0.013203190639615059
0.01345557440072298 0.21406301856040955 0.10980547964572906
0.014997564256191254 0.22739593684673309 0.10485965758562088
0.009996047243475914 0.23960579931735992 0.08965708315372467
0.044678930193185806 0.25485074520111084 0.061274256557226181
0.19748055934906006 0.28549700975418091 0.018555793911218643
0.33203339576721191 0.3121090829372406 0.0073984633199870586
0.44811791181564331 0.33577883243560791 0.0055124619975686073
0.53991138935089111 0.34203264117240906 0.0097074471414089203
0.61867976188659668 0.3475346565246582 0.013002851977944374
0.67411518096923828 0.35760048031806946 0.011232877150177956
0.71393024921417236 0.37170785665512085 0.0093000521883368492
0.73339468240737915 0.38176071643829346 0.01267535611987114
0.74556374549865723 0.37988221645355225 0.014009692706167698
0.016473598778247833 0.2751099169254303 0.13465136289596558
0.021927628666162491 0.28843286633491516 0.1339234858751297
0.018291773274540901 0.30218464136123657 0.12011255323886871
0.032833337783813477 0.32502490282058716 0.074397996068000793
0.17042329907417297 0.36745139956474304 0.014345131814479828
0.3447822630405426 0.40307226777076721 0.0065390793606638908
0.47714167833328247 0.43043708801269531 0.0049002105370163918
0.57888633012771606 0.44641315937042236 0.0081614777445793152
0.66370117664337158 0.4572475254535675 0.011198081076145172
0.72040998935699463 0.46385157108306885 0.014749953523278236
0.75742685794830322 0.47654545307159424 0.016021968796849251
0.77709126472473145 0.48101890087127686 0.021797016263008118
0.78441137075424194 0.47756853699684143 0.028062125667929649
0.019700413569808006 0.33461266756057739 0.15790054202079773
0.021356813609600067 0.3493768572807312 0.15662811696529388
0.020210595801472664 0.36798760294914246 0.1468459814786911
0.025245217606425285 0.39694935083389282 0.093002855777740479
0.15907721221446991 0.44686836004257202 0.01099745836108923
0.35103064775466919 0.48705181479454041 0.0041251089423894882
0.50418120622634888 0.52446705102920532 0.0041801603510975838
0.62100178003311157 0.55048865079879761 0.0047992928884923458
0.70730507373809814 0.56498128175735474 0.0067602270282804966
0.76447188854217529 0.56519943475723267 0.01636027917265892
0.79955101013183594 0.57618790864944458 0.023824071511626244
0.82035750150680542 0.58356451988220215 0.022954588755965233
0.83165633678436279 0.58857756853103638 0.019454462453722954
0.026902517303824425 0.38874247670173645 0.17838971316814423
0.017131505534052849 0.40713995695114136 0.17192275822162628
0.010279741138219833 0.43268391489982605 0.15965422987937927
0.023550430312752724 0.46658560633659363 0.10607613623142242
0.1657063364982605 0.5166965126991272 0.012829155661165714
0.36339274048805237 0.56264597177505493 0.0040797814726829529
0.5210227370262146 0.59911012649536133 0.0048427209258079529
0.65311408042907715 0.63190358877182007 0.0045476425439119339
0.74666064977645874 0.65206170082092285 0.0076667936518788338
0.80540597438812256 0.65579515695571899 0.023285211995244026
0.84082579612731934 0.66425812244415283 0.039205722510814667
0.86424738168716431 0.6754004955291748 0.033353064209222794
0.87536585330963135 0.68371033668518066 0.020761333405971527
0.031864989548921585 0.42886579036712646 0.19086909294128418
0.021313820034265518 0.44788315892219543 0.18354474008083344
0.015287855640053749 0.47415214776992798 0.16901223361492157
0.045062974095344543 0.51008373498916626 0.11372161656618118
0.1910904198884964 0.56615501642227173 0.016310958191752434
0.39024728536605835 0.61630076169967651 0.0043173548765480518
0.54707247018814087 0.65748047828674316 0.0059228935278952122
0.67686194181442261 0.69225186109542847 0.0086641646921634674
0.77469551563262939 0.7146003246307373 0.021650949493050575
0.83876329660415649 0.72512274980545044 0.042210269719362259
0.87499332427978516 0.73289519548416138 0.05401122197508812
0.89346271753311157 0.73605960607528687 0.056381374597549438
0.90356993675231934 0.73993968963623047 0.050820741802453995
0.015287646092474461 0.45192396640777588 0.19693818688392639
0.017851376906037331 0.47157841920852661 0.19312185049057007
0.014217287302017212 0.49683567881584167 0.17778714001178741
0.042240757495164871 0.53999537229537964 0.11554140597581863
0.21983039379119873 0.5991063117980957 0.023042641580104828
0.4245879054069519 0.65378701686859131 0.0098268100991845131
0.57307922840118408 0.69542670249938965 0.012630566954612732
0.69752222299575806 0.72773021459579468 0.022436449304223061
0.79626256227493286 0.75016570091247559 0.037641339004039764
0.85867273807525635 0.76483941078186035 0.054736658930778503
0.89483970403671265 0.77339190244674683 0.062661297619342804
0.91631495952606201 0.77866977453231812 0.066726356744766235
0.92852544784545898 0.78282898664474487 0.071843214333057404
0.017136877402663231 0.4766390323638916 0.21605020761489868
0.028544796630740166 0.4982297420501709 0.20598357915878296
0.029510242864489555 0.52795547246932983 0.18392904102802277
0.054316844791173935 0.5716586709022522 0.099665187299251556
0.24064797163009644 0.62746256589889526 0.018897905945777893
0.44753912091255188 0.68438982963562012 0.017541265115141869
0.59887576103210449 0.7299765944480896 0.016875233501195908
0.71921020746231079 0.7573387622833252 0.030615892261266708
0.81734174489974976 0.77847027778625488 0.039653763175010681
0.88224005699157715 0.79244744777679443 0.060634836554527283
0.92221987247467041 0.80135053396224976 0.072308078408241272
0.94573503732681274 0.80863505601882935 0.069372646510601044
0.95670455694198608 0.81239396333694458 0.072527356445789337
0.0084836920723319054 0.51287567615509033 0.24242411553859711
0.026474656537175179 0.54465043544769287 0.22428107261657715
0.029638806357979774 0.58842307329177856 0.17833086848258972
0.075199291110038757 0.62800616025924683 0.083105958998203278
0.28693395853042603 0.67138278484344482 0.021401813253760338
0.48102274537086487 0.7183690071105957 0.008157363161444664
0.62555265426635742 0.75443720817565918 0.015340378507971764
0.73816484212875366 0.77726346254348755 0.032952714711427689
0.84155154228210449 0.80135983228683472 0.02955208532512188
0.90801703929901123 0.81515777111053467 0.046445120126008987
0.94799178838729858 0.82435601949691772 0.062931790947914124
0.96773779392242432 0.82826119661331177 0.063899680972099304
0.97775155305862427 0.83220213651657104 0.064554221928119659
0.020294712856411934 0.02733287401497364 0.033169779926538467
0.029695818200707436 0.031668271869421005 0.032224468886852264
0.050424627959728241 0.039865501224994659 0.034174945205450058
0.081424921751022339 0.046581566333770752 0.035630661994218826
0.14635607600212097 0.051849201321601868 0.030469616875052452
0.2414175420999527 0.05582079291343689 0.012538774870336056
0.33265852928161621 0.053775038570165634 0.0038032981101423502
0.40484410524368286 0.064777806401252747 0.0079888142645359039
0.46648871898651123 0.076776154339313507 0.0066732666455209255
0.51635164022445679 0.073364138603210449 0.0063353143632411957
0.54841339588165283 0.081623628735542297 0.010900684632360935
0.56504708528518677 0.084000363945960999 0.0097266398370265961
0.57494097948074341 0.086735427379608154 0.0094026457518339157
0.018740920349955559 0.049588609486818314 0.038045786321163177
0.028373388573527336 0.058698121458292007 0.04189382866024971
0.047681413590908051 0.068760879337787628 0.04481486976146698
0.089622810482978821 0.076043024659156799 0.045179106295108795
0.16472642123699188 0.080420523881912231 0.036681905388832092
0.2638612687587738 0.083019837737083435 0.01785348542034626
0.36515927314758301 0.077405460178852081 0.0058926898054778576
0.44301274418830872 0.080106385052204132 0.0042375004850327969
0.50133794546127319 0.097329035401344299 0.0031268550083041191
0.54670906066894531 0.1055389866232872 0.0051855347119271755
0.58011877536773682 0.11293819546699524 0.0098532885313034058
0.60069477558135986 0.11093609035015106 0.010662737302482128
0.61197781562805176 0.11139578372240067 0.012799895368516445
0.014321301132440567 0.076663404703140259 0.047440413385629654
0.021029587835073471 0.088535338640213013 0.052942715585231781
0.041423242539167404 0.099230177700519562 0.055359125137329102
0.098902247846126556 0.10540714859962463 0.053097713738679886
0.18166688084602356 0.11003374308347702 0.0418521948158741
0.28395015001296997 0.11630513519048691 0.020500512793660164
0.39271461963653564 0.11660033464431763 0.0080649582669138908
0.47705185413360596 0.1227535754442215 0.0039740167558193207
0.54005950689315796 0.12867423892021179 0.0043387319892644882
0.58660364151000977 0.14172106981277466 0.0052714776247739792
0.62039357423782349 0.15195557475090027 0.0081901997327804565
0.6399770975112915 0.15681405365467072 0.010560009628534317
0.65165072679519653 0.16920627653598785 0.013497775420546532
0.010993673466145992 0.11453959345817566 0.069551639258861542
0.010172151960432529 0.12043150514364243 0.066805191338062286
0.029691269621253014 0.12850253283977509 0.065469466149806976
0.10187199711799622 0.13705116510391235 0.061546206474304199
0.19671964645385742 0.14852584898471832 0.044305555522441864
0.30348357558250427 0.16226373612880707 0.022613150998950005
0.42014878988265991 0.17167352139949799 0.017677994444966316
0.51458799839019775 0.17802050709724426 0.0054476121440529823
0.57902765274047852 0.19266805052757263 0.0083442535251379013
0.62704974412918091 0.20354709029197693 0.013033907860517502
0.65759772062301636 0.20759463310241699 0.0081774992868304253
0.67645406723022461 0.21467265486717224 0.0075789955444633961
0.68867522478103638 0.23019208014011383 0.010593369603157043
0.0084423888474702835 0.15925846993923187 0.0963096022605896
0.0082888882607221603 0.16820158064365387 0.08894868940114975
0.016335925087332726 0.17971479892730713 0.079817704856395721
0.081459775567054749 0.1948842853307724 0.067731969058513641
0.19632141292095184 0.21400858461856842 0.035064622759819031
0.32658019661903381 0.23164035379886627 0.017947401851415634
0.44284316897392273 0.24295569956302643 0.013599380850791931
0.54254066944122314 0.24835039675235748 0.0084054684266448021
0.61550283432006836 0.2632749080657959 0.016331182792782784
0.66558128595352173 0.27698048949241638 0.019751664251089096
0.69738876819610596 0.27555194497108459 0.0057979957200586796
0.71668541431427002 0.2863832414150238 0.0042596855200827122
0.72995650768280029 0.29388424754142761 0.0055127609521150589
0.012385993264615536 0.217739537358284 0.12301583588123322
0.012267827056348324 0.23220852017402649 0.11423685401678085
0.0096119754016399384 0.24801652133464813 0.099121198058128357
0.050526607781648636 0.26586967706680298 0.072597697377204895
0.20486249029636383 0.299202561378479 0.017896480858325958
0.3508879542350769 0.32425063848495483 0.0049967598170042038
0.46984708309173584 0.33632716536521912 0.0048354356549680233
0.5708240270614624 0.34287649393081665 0.0081856073811650276
0.65689194202423096 0.35366103053092957 0.009566228836774826
0.70787882804870605 0.36450335383415222 0.0073471968062222004
0.74274134635925293 0.37347331643104553 0.0038215785752981901
0.76288425922393799 0.38490498065948486 0.0074337976984679699
0.77421152591705322 0.38912761211395264 0.014445525594055653
0.015952436253428459 0.28152170777320862 0.15003068745136261
0.014950381591916084 0.29710906744003296 0.14289887249469757
0.009004959836602211 0.31565451622009277 0.1255357563495636
0.029935499653220177 0.33836144208908081 0.081706702709197998
0.18387483060359955 0.382942795753479 0.011284473352134228
0.36865255236625671 0.4172641932964325 0.0039059359114617109
0.50451153516769409 0.44215202331542969 0.0049042645841836929
0.61376166343688965 0.45536601543426514 0.006029719952493906
0.70166832208633423 0.46558773517608643 0.0057941810227930546
0.75486588478088379 0.47649124264717102 0.0093444371595978737
0.78950220346450806 0.48784366250038147 0.01233373861759901
0.80887460708618164 0.49573886394500732 0.021930394694209099
0.81717860698699951 0.49949580430984497 0.029984313994646072
0.022445902228355408 0.34789347648620605 0.17858622968196869
0.015164543874561787 0.36139765381813049 0.17236299812793732
0.009072696790099144 0.38492172956466675 0.15766939520835876
0.013939651660621166 0.41667073965072632 0.10727962106466293
0.14865505695343018 0.46446287631988525 0.017586173489689827
0.3679574728012085 0.50802236795425415 0.0076757990755140781
0.53212231397628784 0.54810035228729248 0.0078826453536748886
0.65393191576004028 0.56875830888748169 0.0037945318035781384
0.74378407001495361 0.58114278316497803 0.004636427853256464
0.80194300413131714 0.59076780080795288 0.013044858351349831
0.83708178997039795 0.60033559799194336 0.026483962312340736
0.85679882764816284 0.60884225368499756 0.018703356385231018
0.86663627624511719 0.6132006049156189 0.013498703017830849
0.032464239746332169 0.40749901533126831 0.20212237536907196
0.016710497438907623 0.41885370016098022 0.19569690525531769
0.0095520466566085815 0.44426620006561279 0.18099260330200195
0.010908733122050762 0.48399937152862549 0.12164993584156036
0.14016938209533691 0.53941619396209717 0.015145784243941307
0.38810303807258606 0.58963108062744141 0.0095403930172324181
0.54948562383651733 0.62599676847457886 0.0087294038385152817
0.68049794435501099 0.65445226430892944 0.0056025185622274876
0.78040921688079834 0.67485493421554565 0.01511306781321764
0.84135407209396362 0.68479138612747192 0.030614485964179039
0.87724637985229492 0.69507128000259399 0.045317750424146652
0.89881724119186401 0.70128965377807617 0.037910476326942444
0.90597516298294067 0.70204454660415649 0.022051403298974037
0.025921870023012161 0.44231143593788147 0.21387968957424164
0.019352152943611145 0.45759055018424988 0.20907782018184662
0.019008785486221313 0.48556786775588989 0.19513125717639923
0.021884169429540634 0.52805334329605103 0.13230009377002716
0.14929176867008209 0.58927589654922485 0.013085383921861649
0.40470400452613831 0.64175987243652344 0.0070301876403391361
0.57382845878601074 0.68184429407119751 0.0087804459035396576
0.70623928308486938 0.71481955051422119 0.0092543810606002808
0.80862522125244141 0.7374953031539917 0.030981594696640968
0.87545883655548096 0.75164937973022461 0.056133583188056946
0.90813851356506348 0.75856900215148926 0.063802070915699005
0.92595040798187256 0.76014512777328491 0.064070455729961395
0.93348342180252075 0.75939810276031494 0.057052027434110641
0.020709902048110962 0.46505454182624817 0.22901025414466858
0.01933053694665432 0.48535999655723572 0.22670315206050873
0.014730744995176792 0.51705455780029297 0.20785510540008545
0.012349236756563187 0.56110203266143799 0.14315056800842285
0.16133631765842438 0.62326645851135254 0.018711360171437263
0.41901692748069763 0.67593419551849365 0.007965087890625
0.59514594078063965 0.71590620279312134 0.0073151234537363052
0.72549831867218018 0.74787443876266479 0.016486134380102158
0.82522481679916382 0.77014613151550293 0.039544917643070221
0.89403653144836426 0.78735154867172241 0.061588555574417114
0.92609226703643799 0.79449135065078735 0.065793432295322418
0.94575518369674683 0.7986719012260437 0.068120740354061127
0.95757997035980225 0.8026997447013855 0.080771923065185547
0.026907334104180336 0.49279534816741943 0.25797078013420105
0.018653584644198418 0.51475167274475098 0.25505909323692322
0.014615930616855621 0.54659098386764526 0.22946248948574066
0.018004802986979485 0.59325474500656128 0.15467892587184906
0.18210865557193756 0.65904092788696289 0.027965037152171135
0.44363880157470703 0.70855575799942017 0.021943723782896996
0.61633503437042236 0.74801605939865112 0.015261526219546795
0.7441021203994751 0.77894622087478638 0.022933945059776306
0.84261155128479004 0.79883593320846558 0.037759490311145782
0.91335159540176392 0.81408196687698364 0.057448383420705795
0.94914877414703369 0.820637047290802 0.057721097022294998
0.96852999925613403 0.82681292295455933 0.072360001504421234
0.97731864452362061 0.83082658052444458 0.10284959524869919
0.016510413959622383 0.52865171432495117 0.29332455992698669
0.028263570740818977 0.55843532085418701 0.28767126798629761
0.012100039981305599 0.60326230525970459 0.26779353618621826
0.04285094141960144 0.64677900075912476 0.19433772563934326
0.22399462759494781 0.70142024755477905 0.10914856940507889
0.47229066491127014 0.74816566705703735 0.079955145716667175
0.63738834857940674 0.78260821104049683 0.070028446614742279
0.76383131742477417 0.8078073263168335 0.054678089916706085
0.87011027336120605 0.82652860879898071 0.021978579461574554
0.94368249177932739 0.84080827236175537 0.024913981556892395
0.97529149055480957 0.84675270318984985 0.046075634658336639
0.98782521486282349 0.84939444065093994 0.10003742575645447
0.99212765693664551 0.85103124380111694 0.1559116542339325
0.024295642971992493 0.031820200383663177 0.056562267243862152
0.027930794283747673 0.032001778483390808 0.05090625211596489
0.049618307501077652 0.039116967469453812 0.052866857498884201
0.088481783866882324 0.048519566655158997 0.059981882572174072
0.15521302819252014 0.052627801895141602 0.056879740208387375
0.25497016310691833 0.045395210385322571 0.042594071477651596
0.35784721374511719 0.024565588682889938 0.024839004501700401
0.43853068351745605 0.013993402011692524 0.013010496273636818
0.50227689743041992 0.01848938874900341 0.013159254565834999
0.54692667722702026 0.015369295142591 0.013521650806069374
0.57441812753677368 0.020930465310811996 0.017031261697411537
0.60086095333099365 0.024541068822145462 0.020654043182730675
0.61454051733016968 0.024768754839897156 0.021981243044137955
0.018672330304980278 0.05221722275018692 0.064564362168312073
0.02357800118625164 0.059567201882600784 0.065604463219642639
0.045348610728979111 0.070978619158267975 0.068397417664527893
0.091803394258022308 0.07837378978729248 0.071584410965442657
0.1741497814655304 0.07994474470615387 0.065290085971355438
0.28104725480079651 0.070280604064464569 0.048062283545732498
0.38715341687202454 0.053109023720026016 0.025986092165112495
0.48031005263328552 0.038146328181028366 0.014186020940542221
0.54589319229125977 0.029436597600579262 0.020256206393241882
0.58785200119018555 0.031222069635987282 0.015975981950759888
0.61609113216400146 0.034293185919523239 0.013121451251208782
0.64141422510147095 0.030104469507932663 0.015018179081380367
0.66143238544464111 0.02982858382165432 0.021987227723002434
0.011862242594361305 0.080225206911563873 0.076798968017101288
0.01777343824505806 0.090673618018627167 0.081175185739994049
0.037606079131364822 0.10403123497962952 0.083270207047462463
0.093903757631778717 0.11103406548500061 0.083496928215026855
0.19299405813217163 0.11404254287481308 0.077406957745552063
0.30807268619537354 0.11491560190916061 0.058131154626607895
0.4182249903678894 0.11078017204999924 0.033098407089710236
0.51532846689224243 0.10211319476366043 0.018638970330357552
0.58558374643325806 0.078490719199180603 0.022975383326411247
0.63197427988052368 0.087308190762996674 0.017662512138485909
0.66108328104019165 0.10257329046726227 0.010046626441180706
0.68122440576553345 0.10509226471185684 0.01104558352380991
0.69932621717453003 0.099891036748886108 0.021524421870708466
0.010065325535833836 0.12039034813642502 0.095374807715415955
0.014328107237815857 0.12779279053211212 0.095984004437923431
0.030149063095450401 0.1373688280582428 0.096232429146766663
0.095787987112998962 0.14906288683414459 0.095066919922828674
0.20792943239212036 0.1607920229434967 0.087189376354217529
0.33538860082626343 0.17443546652793884 0.070951350033283234
0.44846734404563904 0.17584936320781708 0.048913590610027313
0.54931652545928955 0.17064385116100311 0.022833716124296188
0.6236080527305603 0.16890321671962738 0.016532374545931816
0.67475146055221558 0.17446142435073853 0.012574288994073868
0.7039642333984375 0.18156479299068451 0.010321164503693581
