luts/print/fuji_3510_cuspclip.cube
# Created by: G'MIC (https://gmic.eu)
TITLE "fuji_3510_cuspclip"
# LUT size
LUT_3D_SIZE 7
# Data domain
DOMAIN_MIN 0.0 0.0 0.0
DOMAIN_MAX 1.0 1.0 1.0
# LUT data points
0.014779992401599884 0.016436513513326645 0.014895704574882984
0.046646296977996826 0.030078573152422905 0.020640639588236809
0.1400667130947113 0.048044063150882721 0.023674475029110909
0.32654699683189392 0.034316584467887878 0.009319978766143322
0.49116873741149902 0.014175340533256531 0
0.57300251722335815 0.017118776217103004 0
0.60949397087097168 0.019469168037176132 0
0.012298793531954288 0.071823388338088989 0.039851214736700058
0.057797808200120926 0.079547226428985596 0.044019423425197601
0.17988237738609314 0.10443808138370514 0.030004672706127167
0.38382256031036377 0.11146426945924759 0.001150288269855082
0.55814021825790405 0.12427998334169388 0
0.63653993606567383 0.13537564873695374 0
0.68327730894088745 0.15639549493789673 0.00087956449715420604
0.0028815176337957382 0.17896752059459686 0.081559784710407257
0.0097449356690049171 0.1735505610704422 0.062212925404310226
0.19516471028327942 0.21250608563423157 0.023684706538915634
0.43001636862754822 0.24773341417312622 0.0024306352715939283
0.62640583515167236 0.26905277371406555 0.00061193725559860468
0.71801877021789551 0.27582582831382751 0.0033952451776713133
0.75160515308380127 0.30021315813064575 0.0054335799068212509
0.0072313197888433933 0.34847137331962585 0.14925335347652435
0.0042327283881604671 0.34891721606254578 0.098839536309242249
0.16107842326164246 0.37460792064666748 0.0076368595473468304
0.4885522723197937 0.44272294640541077 0.0001534854673082009
0.71067625284194946 0.48865574598312378 0.010388782247900963
0.79654067754745483 0.48811522126197815 0.024932382628321648
0.83019602298736572 0.51194345951080322 0.025436505675315857
0.011323532089591026 0.50711935758590698 0.22337371110916138
0.0034084992948919535 0.51951879262924194 0.19711218774318695
0.12024633586406708 0.54533660411834717 0.0065295947715640068
0.53811764717102051 0.63572335243225098 0.00014588599151466042
0.7998809814453125 0.69609004259109497 0.027019649744033813
0.87154525518417358 0.67874825000762939 0.028406240046024323
0.90765821933746338 0.70860970020294189 0.034726444631814957
0.017761828377842903 0.57113999128341675 0.25491473078727722
0.014755128882825375 0.58779418468475342 0.21380381286144257
0.13855692744255066 0.62896627187728882 0.0067641763016581535
0.61161500215530396 0.7371068000793457 0.0048257266171276569
0.83473086357116699 0.78410458564758301 0.045505121350288391
0.91618704795837402 0.7897459864616394 0.073506735265254974
0.94865798950195312 0.79969477653503418 0.080435402691364288
0.022321334108710289 0.62116128206253052 0.29472672939300537
0.0089993793517351151 0.63407218456268311 0.15876653790473938
0.29229170083999634 0.69583982229232788 0.016163665801286697
0.65346032381057739 0.78035902976989746 0.0087980683892965317
0.86501634120941162 0.82170289754867554 0.039134770631790161
0.95679998397827148 0.83298450708389282 0.066077046096324921
0.98287421464920044 0.83732450008392334 0.072004549205303192
0.024975556880235672 0.02886199951171875 0.059242997318506241
0.053575672209262848 0.036486353725194931 0.055552508682012558
0.16470286250114441 0.053682439029216766 0.057807549834251404
0.36993902921676636 0.018164645880460739 0.023559778928756714
0.52527767419815063 0.0029083851259201765 0.013145536184310913
0.61496078968048096 0.0020446628332138062 0.016711186617612839
0.65582764148712158 0.0035096711944788694 0.015224980190396309
0.013969825580716133 0.091695047914981842 0.087545953691005707
0.059535756707191467 0.095459252595901489 0.081658080220222473
0.19829602539539337 0.11083292961120605 0.072015203535556793
0.4231414794921875 0.11097760498523712 0.031684428453445435
0.60672295093536377 0.081639640033245087 0.01119867991656065
0.68526101112365723 0.069361716508865356 0.013683573342859745
0.7310488224029541 0.08265955001115799 0.022028455510735512
0.0028846741188317537 0.19135144352912903 0.11899786442518234
0.0096124233677983284 0.19134929776191711 0.10755887627601624
0.21525256335735321 0.22547149658203125 0.082376442849636078
0.4842790961265564 0.24936501681804657 0.024877749383449554
0.68556123971939087 0.26340183615684509 0.016161780804395676
0.76835376024246216 0.26289659738540649 0.01268265675753355
0.80354875326156616 0.2852267324924469 0.024603031575679779
0.020012050867080688 0.38237264752388 0.21326769888401031
0.024565154686570168 0.39482393860816956 0.18457885086536407
0.1897723376750946 0.40408062934875488 0.057697221636772156
0.55271536111831665 0.46591982245445251 0.01678251288831234
0.77140647172927856 0.49632787704467773 0.0043043247424066067
0.8605353832244873 0.50530976057052612 0.017669886350631714
0.89123213291168213 0.52297168970108032 0.016106683760881424
0.032253850251436234 0.55027085542678833 0.29874536395072937
0.022138079628348351 0.56286758184432983 0.26721411943435669
0.12247507274150848 0.58821076154708862 0.049525391310453415
0.60319900512695312 0.6814083456993103 0.0034316866658627987
0.84759032726287842 0.72199434041976929 0.022717120125889778
0.93415194749832153 0.72708189487457275 0.031771879643201828
0.95845633745193481 0.74348366260528564 0.047301333397626877
0.024072535336017609 0.61117184162139893 0.35152125358581543
0.034739147871732712 0.6325104832649231 0.32062903046607971
0.11899252235889435 0.66932833194732666 0.10625503957271576
0.61640781164169312 0.76441925764083862 0.014986420050263405
0.87545204162597656 0.81647700071334839 0.017810866236686707
0.9730953574180603 0.8270077109336853 0.029258294031023979
0.99107509851455688 0.83178615570068359 0.069700054824352264
0.016360936686396599 0.66446053981781006 0.43733462691307068
0.010776624083518982 0.68884003162384033 0.38592630624771118
0.18099956214427948 0.73258215188980103 0.26750200986862183
0.63494575023651123 0.81025147438049316 0.21575130522251129
0.88096624612808228 0.85420209169387817 0.1371162086725235
0.99318212270736694 0.87119799852371216 0.14623945951461792
0.9997483491897583 0.87179231643676758 0.25365668535232544
0.019566884264349937 0.025062441825866699 0.15579444169998169
0.051036115735769272 0.033354051411151886 0.16246099770069122
0.17160257697105408 0.043979689478874207 0.16842088103294373
0.38747331500053406 0.0096647674217820168 0.17187762260437012
0.55540680885314941 0.0039052327629178762 0.18557526171207428
0.6384357213973999 0.0014323365176096559 0.18268196284770966
0.67677754163742065 0 0.18772666156291962
0.0088889030739665031 0.1232680082321167 0.20153075456619263
0.020549729466438293 0.10301064699888229 0.19286665320396423
0.19892585277557373 0.11661124229431152 0.21708831191062927
0.44276618957519531 0.093989476561546326 0.21515916287899017
0.63350701332092285 0.041954442858695984 0.19876737892627716
0.71803641319274902 0.020980775356292725 0.19374191761016846
0.7531355619430542 0.024381853640079498 0.21297420561313629
0.0039215688593685627 0.2753729522228241 0.2896171510219574
0.0080937100574374199 0.25017985701560974 0.27116575837135315
0.19707638025283813 0.2491813600063324 0.25392252206802368
0.49825632572174072 0.27416208386421204 0.26397529244422913
0.70818239450454712 0.26749041676521301 0.23946660757064819
0.80805361270904541 0.25647568702697754 0.20965102314949036
0.83923447132110596 0.28661248087882996 0.23890958726406097
0.0049492930993437767 0.47162219882011414 0.40007838606834412
0.013004662469029427 0.45786720514297485 0.36549949645996094
0.12378411740064621 0.44816902279853821 0.29167324304580688
0.5592801570892334 0.49859258532524109 0.27809864282608032
0.80260586738586426 0.53022974729537964 0.24387682974338531
0.90073829889297485 0.53346824645996094 0.23555132746696472
0.92651915550231934 0.54704034328460693 0.24040357768535614
0.022617533802986145 0.60526794195175171 0.455800861120224
0.032875031232833862 0.62213349342346191 0.4525282084941864
0.064307853579521179 0.64738994836807251 0.35105913877487183
0.57666975259780884 0.71313989162445068 0.27373692393302917
0.87014168500900269 0.76444172859191895 0.25784653425216675
0.9762643575668335 0.77639245986938477 0.22242701053619385
0.99161970615386963 0.78631919622421265 0.25391075015068054
0.028005039319396019 0.66582340002059937 0.51093810796737671
0.035184957087039948 0.68575990200042725 0.50344300270080566
0.033662818372249603 0.72579765319824219 0.41652736067771912
0.58621823787689209 0.80989789962768555 0.33820393681526184
0.88004940748214722 0.85852169990539551 0.31447136402130127
0.98707634210586548 0.87340599298477173 0.30869439244270325
0.9996979832649231 0.87174773216247559 0.3448738157749176
0.012351915240287781 0.71421259641647339 0.59586489200592041
0.020886275917291641 0.73580044507980347 0.57871913909912109
0.093538634479045868 0.77006947994232178 0.50766545534133911
0.60700058937072754 0.85148763656616211 0.49911496043205261
0.87940478324890137 0.89490765333175659 0.4702153205871582
0.98881024122238159 0.91143339872360229 0.47663035988807678
1 0.91145598888397217 0.5056273341178894
0.0036273282021284103 0.075589857995510101 0.32780477404594421
0.049681883305311203 0.015400771051645279 0.32533398270606995
0.18671509623527527 0.0088995685800909996 0.35028472542762756
0.40014800429344177 0.0019512550206854939 0.36918845772743225
0.57302862405776978 0.0030344345141202211 0.38341459631919861
0.66025280952453613 0 0.39565429091453552
0.69947642087936401 0 0.39945808053016663
0.003822386497631669 0.20670002698898315 0.40227881073951721
0.012223890982568264 0.14476847648620605 0.38699814677238464
0.20363865792751312 0.11717669665813446 0.40905925631523132
0.45937392115592957 0.10085362195968628 0.42887735366821289
0.65325456857681274 0.043382488191127777 0.43320378661155701
0.73958933353424072 0.019852044060826302 0.43843704462051392
0.76958298683166504 0.025024622678756714 0.44058498740196228
0.00083286059089004993 0.35150855779647827 0.48298224806785583
0.018009858205914497 0.32967975735664368 0.49062356352806091
0.16559590399265289 0.28137564659118652 0.48661887645721436
0.49667727947235107 0.29280725121498108 0.50182050466537476
0.72790181636810303 0.28900569677352905 0.5030626654624939
0.81595683097839355 0.27765718102455139 0.50008493661880493
0.84681159257888794 0.31408214569091797 0.49301692843437195
0.015670342370867729 0.53207576274871826 0.58123654127120972
0.018608437851071358 0.53796529769897461 0.58926188945770264
0.066892094910144806 0.51797908544540405 0.56491076946258545
0.54517644643783569 0.552268385887146 0.55094027519226074
0.80670076608657837 0.57647240161895752 0.56208294630050659
0.90665966272354126 0.58364379405975342 0.56203663349151611
0.9303818941116333 0.59811878204345703 0.56275081634521484
0.013778163120150566 0.6580803394317627 0.65156757831573486
0.0046137194149196148 0.68654716014862061 0.66150790452957153
0.0067480048164725304 0.71793609857559204 0.63371860980987549
0.55723929405212402 0.77929115295410156 0.61259937286376953
0.86020231246948242 0.82141387462615967 0.61617863178253174
0.97075504064559937 0.82755357027053833 0.61188632249832153
0.99351733922958374 0.83469671010971069 0.61547696590423584
0.0039628869853913784 0.72273474931716919 0.6993095874786377
0.0078077726066112518 0.7486034631729126 0.7102891206741333
0.0068277847021818161 0.78284311294555664 0.68583208322525024
0.5381959080696106 0.86074185371398926 0.66577136516571045
0.86833202838897705 0.91217172145843506 0.67185080051422119
0.98377972841262817 0.92611539363861084 0.66316342353820801
0.9975159764289856 0.9141700267791748 0.66161280870437622
0.0091683929786086082 0.75082671642303467 0.74260526895523071
0.0030762616079300642 0.78751999139785767 0.76284891366958618
0.0080779129639267921 0.82034969329833984 0.74744021892547607
0.56818073987960815 0.89134711027145386 0.74223393201828003
0.8605843186378479 0.93804621696472168 0.75563693046569824
0.97892087697982788 0.95450687408447266 0.75622665882110596
0.99905252456665039 0.95393747091293335 0.74590599536895752
0.0064598382450640202 0.21742363274097443 0.48270004987716675
0.038068942725658417 0.072795182466506958 0.4740842878818512
0.19947829842567444 0.0044163721613585949 0.50413995981216431
0.41239607334136963 0.00069225532934069633 0.5311882495880127
0.59170663356781006 0.00090550439199432731 0.54726147651672363
0.68436157703399658 0 0.5473824143409729
0.71802502870559692 0 0.55584985017776489
0.0047328872606158257 0.29405501484870911 0.55271220207214355
0.0045249788090586662 0.26294931769371033 0.5630839467048645
0.1899416595697403 0.1098424419760704 0.58109104633331299
0.47477084398269653 0.076435014605522156 0.60852444171905518
0.66648739576339722 0.023376330733299255 0.61814367771148682
0.75108945369720459 0.02051270380616188 0.62831574678421021
0.78309804201126099 0.025790883228182793 0.63947314023971558
0.00094924628501757979 0.40344414114952087 0.62632125616073608
0.0069187688641250134 0.38991636037826538 0.64058327674865723
0.11282366514205933 0.2960851788520813 0.65797799825668335
0.48923394083976746 0.30339840054512024 0.6927565336227417
0.72857654094696045 0.29885366559028625 0.69441848993301392
0.82497388124465942 0.29587110877037048 0.70885002613067627
0.85629653930664062 0.3341372013092041 0.71873736381530762
0.027878854423761368 0.56126755475997925 0.70448040962219238
0.031640458852052689 0.56862497329711914 0.7250516414642334
0.01909586600959301 0.55211180448532104 0.74755656719207764
0.52910900115966797 0.58211743831634521 0.76892411708831787
0.79676353931427002 0.60650116205215454 0.77921640872955322
0.89943701028823853 0.60997027158737183 0.78764539957046509
0.93130838871002197 0.63273638486862183 0.79407691955566406
0.022434728220105171 0.68691909313201904 0.76270437240600586
0.026354562491178513 0.7114141583442688 0.78508615493774414
0.016380893066525459 0.7550467848777771 0.80892068147659302
0.51181238889694214 0.81457644701004028 0.83327794075012207
0.83472418785095215 0.8480035662651062 0.83667540550231934
0.96296012401580811 0.86210519075393677 0.84472447633743286
0.98577249050140381 0.86597663164138794 0.84228527545928955
0.02435150183737278 0.73946297168731689 0.79045605659484863
0.015461955219507217 0.76915907859802246 0.81683409214019775
0.0083004375919699669 0.81716686487197876 0.84158504009246826
0.49419796466827393 0.89413809776306152 0.86444276571273804
0.83801472187042236 0.93773126602172852 0.87123316526412964
0.97387081384658813 0.95941323041915894 0.88045966625213623
0.9960629940032959 0.94782727956771851 0.86994612216949463
0.012140042148530483 0.76037204265594482 0.82013154029846191
0.0069673126563429832 0.80230861902236938 0.85297119617462158
0.0072227027267217636 0.84358727931976318 0.87230199575424194
0.53445237874984741 0.91858243942260742 0.89833319187164307
0.83878505229949951 0.9617573618888855 0.91017955541610718
0.96752828359603882 0.97831887006759644 0.90845185518264771
0.99607843160629272 0.97871631383895874 0.90703713893890381
0.0040470347739756107 0.25295236706733704 0.55416738986968994
0.021852470934391022 0.20017483830451965 0.55812221765518188
0.19973890483379364 0.006913802120834589 0.58497601747512817
0.43388402462005615 0.0073596280999481678 0.62249517440795898
0.61248481273651123 0.0034759819973260164 0.64182186126708984
0.70233631134033203 0.0050900178030133247 0.65053027868270874
0.74080556631088257 0.0078175710514187813 0.66034311056137085
0.0038885078392922878 0.32750844955444336 0.61915355920791626
0.0034482767805457115 0.29320439696311951 0.62706536054611206
0.17988051474094391 0.1008463129401207 0.67187845706939697
0.46987819671630859 0.076131679117679596 0.70412927865982056
0.678058922290802 0.027585497125983238 0.72456103563308716
0.76564580202102661 0.025396877899765968 0.73215043544769287
0.79675924777984619 0.023675477132201195 0.74755752086639404
0.0027267306577414274 0.41986218094825745 0.67249304056167603
0.0077492808923125267 0.4056190550327301 0.69227200746536255
0.095099493861198425 0.32785004377365112 0.74211567640304565
0.48993635177612305 0.31929734349250793 0.78570282459259033
0.73445993661880493 0.31434693932533264 0.80684095621109009
0.82893538475036621 0.30100154876708984 0.80851644277572632
0.86321777105331421 0.33345368504524231 0.82362174987792969
0.025744883343577385 0.57126647233963013 0.74843668937683105
0.014281553216278553 0.57603055238723755 0.76874881982803345
0.020324870944023132 0.56683772802352905 0.8233751654624939
0.5007631778717041 0.5960928201675415 0.87297528982162476
0.79092526435852051 0.61740225553512573 0.88597089052200317
0.89373964071273804 0.61206746101379395 0.88438230752944946
0.93069487810134888 0.64893442392349243 0.89602446556091309
0.023865180090069771 0.70268148183822632 0.81296759843826294
0.015667499974370003 0.71201783418655396 0.82732558250427246
0.033065270632505417 0.76460939645767212 0.87507933378219604
0.48366630077362061 0.82608622312545776 0.92446553707122803
0.83017808198928833 0.86756056547164917 0.9405401349067688
0.94760686159133911 0.87446260452270508 0.94680505990982056
0.98001575469970703 0.88840389251708984 0.94850343465805054
0.041870191693305969 0.74597048759460449 0.83538335561752319
0.041594114154577255 0.76965153217315674 0.85647809505462646
0.031362496316432953 0.8286774754524231 0.89840507507324219
0.44927793741226196 0.90716803073883057 0.94349128007888794
0.83362388610839844 0.95634490251541138 0.95960879325866699
0.95636779069900513 0.96846115589141846 0.96324437856674194
0.99306923151016235 0.97373855113983154 0.96094673871994019
0.014684011228382587 0.76869493722915649 0.85319972038269043
0.039050441235303879 0.8043481707572937 0.88064932823181152
0.01181818637996912 0.84975898265838623 0.91531765460968018
0.50180333852767944 0.92511862516403198 0.95505332946777344
0.82817739248275757 0.96948474645614624 0.96776652336120605
0.94546246528625488 0.98483133316040039 0.96907961368560791
0.9920160174369812 0.99165380001068115 0.97108322381973267
0.00051437079673632979 0.30133572220802307 0.59818124771118164
0.020358337089419365 0.25516685843467712 0.60686439275741577
0.19931337237358093 0.0079558277502655983 0.65005588531494141
0.45659640431404114 0.0052682464011013508 0.69768911600112915
0.64174824953079224 0.0034459282178431749 0.70391267538070679
0.72651737928390503 0.002201334573328495 0.70596981048583984
0.76110011339187622 0.0070689334534108639 0.72160613536834717
0 0.36551886796951294 0.65587568283081055
0.0035992641933262348 0.33620041608810425 0.66243386268615723
0.16419112682342529 0.18041607737541199 0.72075086832046509
0.48132207989692688 0.16103735566139221 0.76366311311721802
0.69318431615829468 0.12354520708322525 0.78448259830474854
0.78672772645950317 0.073705710470676422 0.79071873426437378
0.81835967302322388 0.14306654036045074 0.80432933568954468
0.0011230169329792261 0.43784832954406738 0.7011563777923584
0.00077197502832859755 0.42802709341049194 0.71598750352859497
0.080860406160354614 0.36370551586151123 0.7765619158744812
0.47817108035087585 0.34858191013336182 0.82577502727508545
0.73222148418426514 0.34396892786026001 0.84614044427871704
0.83401888608932495 0.34420734643936157 0.85055989027023315
0.86644220352172852 0.36936131119728088 0.8597525954246521
0.0060100182890892029 0.57158553600311279 0.76316267251968384
0.0085109490901231766 0.58912438154220581 0.78876382112503052
0.0096606835722923279 0.58090585470199585 0.8469768762588501
0.49069896340370178 0.60601174831390381 0.8996964693069458
0.7868194580078125 0.6228795051574707 0.91507411003112793
0.89302557706832886 0.62071460485458374 0.92059683799743652
0.93113833665847778 0.65388935804367065 0.92954307794570923
0.02318279817700386 0.69820767641067505 0.82283765077590942
0.030255455523729324 0.72283494472503662 0.84440761804580688
0.026902981102466583 0.76249831914901733 0.89000803232192993
0.45725691318511963 0.82535445690155029 0.94859302043914795
0.81923848390579224 0.8679053783416748 0.96650797128677368
0.9430084228515625 0.87344306707382202 0.97321200370788574
0.97879236936569214 0.8894074559211731 0.97702538967132568
0.0062434328719973564 0.75027835369110107 0.84753632545471191
0.022242212668061256 0.77219825983047485 0.86646515130996704
0.041667114943265915 0.82928436994552612 0.91101372241973877
0.43729612231254578 0.9093819260597229 0.96417027711868286
0.82004475593566895 0.95522916316986084 0.98305600881576538
0.94943505525588989 0.96880155801773071 0.98906564712524414
0.98732870817184448 0.9757269024848938 0.9880678653717041
0.022216511890292168 0.76947945356369019 0.85864752531051636
0.019806850701570511 0.8059849739074707 0.88908737897872925
0.01687348261475563 0.85305106639862061 0.92748647928237915
0.46953153610229492 0.92625331878662109 0.9695974588394165
0.81114482879638672 0.97108370065689087 0.98468327522277832
0.94531166553497314 0.98963087797164917 0.98906081914901733
0.98769265413284302 0.99513816833496094 0.99380892515182495
