luts/print/fuji_3513_constlmap.cube
# Created by: G'MIC (https://gmic.eu)
TITLE "fuji_3513_constlmap"
# LUT size
LUT_3D_SIZE 5
# Data domain
DOMAIN_MIN 0.0 0.0 0.0
DOMAIN_MAX 1.0 1.0 1.0
# LUT data points
0.011328094638884068 0.017837120220065117 0.021432764828205109
0.079775355756282806 0.035965308547019958 0.020012963563203812
0.30017203092575073 0.069549813866615295 0.006910241674631834
0.46917751431465149 0.090667113661766052 0.012383390218019485
0.53155869245529175 0.10247982293367386 0.018766365945339203
0.016046620905399323 0.095230728387832642 0.05527183786034584
0.096407078206539154 0.12472044676542282 0.038481663912534714
0.39659580588340759 0.1759607344865799 0.0094749452546238899
0.58974957466125488 0.19974835216999054 0.003761231666430831
0.65379387140274048 0.2235390841960907 0.0055114445276558399
0.0045994031243026257 0.26327580213546753 0.12574425339698792
0.046723101288080215 0.32117071747779846 0.073313392698764801
0.50060373544692993 0.43007650971412659 0.0075017591007053852
0.73453152179718018 0.46846204996109009 0.0074191521853208542
0.7923012375831604 0.49494385719299316 0.016578240320086479
0.010132958181202412 0.4135458767414093 0.18307827413082123
0.060448814183473587 0.50696134567260742 0.10585958510637283
0.58562290668487549 0.66648054122924805 0.0047329920344054699
0.84997719526290894 0.72997742891311646 0.05667528510093689
0.92311406135559082 0.75331920385360718 0.064697101712226868
0.01549892034381628 0.49932485818862915 0.23579853773117065
0.13355077803134918 0.62523096799850464 0.074474900960922241
0.64802855253219604 0.7517620325088501 0.011914526112377644
0.91804808378219604 0.81551253795623779 0.082421533763408661
0.97351092100143433 0.82735782861709595 0.122813880443573
0.0099525749683380127 0.040812399238348007 0.077294036746025085
0.091464564204216003 0.039515282958745956 0.094861604273319244
0.34971904754638672 0.04813028872013092 0.10236919671297073
0.54696118831634521 0.036626629531383514 0.1090376153588295
0.60357654094696045 0.029735743999481201 0.11127443611621857
0.013344798237085342 0.11872805655002594 0.12503834068775177
0.12239006161689758 0.14159137010574341 0.13612550497055054
0.44143831729888916 0.19303207099437714 0.14834010601043701
0.69439858198165894 0.16002115607261658 0.10757049918174744
0.76990789175033569 0.13925239443778992 0.084930628538131714
0.016472041606903076 0.31320482492446899 0.2217002660036087
0.16634352505207062 0.37234798073768616 0.22975936532020569
0.54724264144897461 0.48570185899734497 0.22364348173141479
0.83720499277114868 0.5124850869178772 0.14986345171928406
0.91433548927307129 0.53968006372451782 0.074577957391738892
0.026374772191047668 0.46880918741226196 0.30849489569664001
0.084895938634872437 0.56788969039916992 0.29936710000038147
0.61509966850280762 0.75016480684280396 0.20041003823280334
0.93090027570724487 0.80691927671432495 0.24160066246986389
0.99495583772659302 0.82264131307601929 0.18356272578239441
0.010026490315794945 0.56332755088806152 0.42655125260353088
0.016908861696720123 0.68966734409332275 0.42361071705818176
0.64328563213348389 0.83210331201553345 0.36310917139053345
0.97027647495269775 0.88806360960006714 0.33472731709480286
0.99905133247375488 0.88885432481765747 0.44216254353523254
0.0066696763969957829 0.1087932214140892 0.22234785556793213
0.080102197825908661 0.05238482728600502 0.30678093433380127
0.38121157884597778 0.059659592807292938 0.34225285053253174
0.58908176422119141 0.036757882684469223 0.36182424426078796
0.64322519302368164 0.041801318526268005 0.37086033821105957
0.01255187951028347 0.20316566526889801 0.31544393301010132
0.11339215934276581 0.20487269759178162 0.37056243419647217
0.47375130653381348 0.22986291348934174 0.45324864983558655
0.74187695980072021 0.15896177291870117 0.46989387273788452
0.79497545957565308 0.16786760091781616 0.48375964164733887
0.019861243665218353 0.40082955360412598 0.44889664649963379
0.20775854587554932 0.46402454376220703 0.49939689040184021
0.57349961996078491 0.56591176986694336 0.5817563533782959
0.87809503078460693 0.5850638747215271 0.57571578025817871
0.93905973434448242 0.61160933971405029 0.5866159200668335
0.0036827984731644392 0.56531453132629395 0.55467706918716431
0.12119285762310028 0.65510940551757812 0.60903400182723999
0.56952035427093506 0.84334814548492432 0.65142494440078735
0.94211387634277344 0.89185309410095215 0.67482155561447144
0.99995529651641846 0.9043152928352356 0.68153876066207886
0.0017324709333479404 0.64624482393264771 0.64580422639846802
0.0018432168290019035 0.75480109453201294 0.72061514854431152
0.57746666669845581 0.89729523658752441 0.76455944776535034
0.94976317882537842 0.95211750268936157 0.75571155548095703
0.99990308284759521 0.95769202709197998 0.79692333936691284
0.0053453035652637482 0.16853110492229462 0.33335632085800171
0.073605693876743317 0.071466438472270966 0.46684947609901428
0.3992842435836792 0.064969979226589203 0.5337408185005188
0.60990148782730103 0.075338579714298248 0.55416035652160645
0.66835564374923706 0.045008476823568344 0.57608270645141602
0.0027636659797281027 0.26798808574676514 0.45593440532684326
0.050410028547048569 0.24576026201248169 0.55415290594100952
0.48974287509918213 0.20245414972305298 0.7079160213470459
0.74557638168334961 0.19807446002960205 0.71670889854431152
0.81131190061569214 0.17863687872886658 0.74170148372650146
0.0040120440535247326 0.47301140427589417 0.6074942946434021
0.1546444296836853 0.51861858367919922 0.67640680074691772
0.53049242496490479 0.60714244842529297 0.84489649534225464
0.87401306629180908 0.61858659982681274 0.85614663362503052
0.93510055541992188 0.64511168003082275 0.8712000846862793
0.010663365013897419 0.62179607152938843 0.69576466083526611
0.13802331686019897 0.71212571859359741 0.77806580066680908
0.52402102947235107 0.88115644454956055 0.9087517261505127
0.9351155161857605 0.93894213438034058 0.93154406547546387
0.99510765075683594 0.94738250970840454 0.93585807085037231
0.00090647680917754769 0.68162292242050171 0.75301188230514526
0.016165580600500107 0.78496289253234863 0.84465634822845459
0.52948570251464844 0.92692726850509644 0.94118750095367432
0.93265402317047119 0.98293662071228027 0.9567025899887085
0.99660038948059082 0.99062305688858032 0.96065819263458252
0 0.20987069606781006 0.40405845642089844
0.051174942404031754 0.1120540127158165 0.5558437705039978
0.44780239462852478 0.043283723294734955 0.66293430328369141
0.66582894325256348 0.078806392848491669 0.66790080070495605
0.72883498668670654 0.079393230378627777 0.69943183660507202
0 0.29389911890029907 0.49706348776817322
0.0049398983828723431 0.28924369812011719 0.61966323852539062
0.50023955106735229 0.24924926459789276 0.7944791316986084
0.77758276462554932 0.22032828629016876 0.81772136688232422
0.83311694860458374 0.23917658627033234 0.82942694425582886
8.4013096056878567e-05 0.4876716136932373 0.63370096683502197
0.018309919163584709 0.54177635908126831 0.73152637481689453
0.5097612738609314 0.62364250421524048 0.90680974721908569
0.86941254138946533 0.64235061407089233 0.93048000335693359
0.93309468030929565 0.66614484786987305 0.93633139133453369
0.0083372080698609352 0.63710659742355347 0.72984695434570312
0.070833705365657806 0.72478681802749634 0.81291794776916504
0.45976689457893372 0.89024209976196289 0.96151620149612427
0.92658311128616333 0.94630855321884155 0.98634278774261475
0.9900825023651123 0.94734019041061401 0.98450040817260742
0.0096430014818906784 0.68927735090255737 0.77254825830459595
0.019654233008623123 0.7964017391204834 0.87128126621246338
0.50203752517700195 0.93001359701156616 0.97184771299362183
0.91661345958709717 0.98885619640350342 0.99370712041854858
0.99384790658950806 0.99470335245132446 0.99761557579040527
