luts/print/fuji_3510_constlclip.cube
# Created by: G'MIC (https://gmic.eu)
TITLE "fuji_3510_constlclip"
# LUT size
LUT_3D_SIZE 7
# Data domain
DOMAIN_MIN 0.0 0.0 0.0
DOMAIN_MAX 1.0 1.0 1.0
# LUT data points
0.016399966552853584 0.021970262750983238 0.016736004501581192
0.056110605597496033 0.040657207369804382 0.024673087522387505
0.13950689136981964 0.052461527287960052 0.018319059163331985
0.31751906871795654 0.069367595016956329 0.0039355708286166191
0.4420628547668457 0.085031144320964813 0.0036662232596427202
0.51496016979217529 0.095195233821868896 0.013618828728795052
0.5477062463760376 0.10468593239784241 0.012842679396271706
0.015260284766554832 0.077852316200733185 0.04557017982006073
0.04470500722527504 0.097303546965122223 0.045172836631536484
0.17206619679927826 0.1145312562584877 0.02802378311753273
0.37111195921897888 0.13035434484481812 0.0056573455221951008
0.51301723718643188 0.14721296727657318 0.0011292999843135476
0.58975726366043091 0.16413943469524384 0.013350243680179119
0.6188696026802063 0.17624200880527496 0.023070480674505234
0.009198162704706192 0.15402109920978546 0.083107605576515198
0.0139274001121521 0.17659345269203186 0.068278096616268158
0.19214743375778198 0.20579458773136139 0.020101703703403473
0.42293635010719299 0.24324867129325867 0.0050867865793406963
0.5809674859046936 0.26099482178688049 0.013205524533987045
0.67309099435806274 0.28436386585235596 0.0072343116626143456
0.69757914543151855 0.29337689280509949 0.013203190639615059
0.016473598778247833 0.2751099169254303 0.13465136289596558
0.018291773274540901 0.30218464136123657 0.12011255323886871
0.17042329907417297 0.36745139956474304 0.014345131814479828
0.47714167833328247 0.43043708801269531 0.0049002105370163918
0.66370117664337158 0.4572475254535675 0.011198081076145172
0.75742685794830322 0.47654545307159424 0.016021968796849251
0.78441137075424194 0.47756853699684143 0.028062125667929649
0.026902517303824425 0.38874247670173645 0.17838971316814423
0.010279741138219833 0.43268391489982605 0.15965422987937927
0.1657063364982605 0.5166965126991272 0.012829155661165714
0.5210227370262146 0.59911012649536133 0.0048427209258079529
0.74666064977645874 0.65206170082092285 0.0076667936518788338
0.84082579612731934 0.66425812244415283 0.039205722510814667
0.87536585330963135 0.68371033668518066 0.020761333405971527
0.015287646092474461 0.45192396640777588 0.19693818688392639
0.014217287302017212 0.49683567881584167 0.17778714001178741
0.21983039379119873 0.5991063117980957 0.023042641580104828
0.57307922840118408 0.69542670249938965 0.012630566954612732
0.79626256227493286 0.75016570091247559 0.037641339004039764
0.89483970403671265 0.77339190244674683 0.062661297619342804
0.92852544784545898 0.78282898664474487 0.071843214333057404
0.0084836920723319054 0.51287567615509033 0.24242411553859711
0.029638806357979774 0.58842307329177856 0.17833086848258972
0.28693395853042603 0.67138278484344482 0.021401813253760338
0.62555265426635742 0.75443720817565918 0.015340378507971764
0.84155154228210449 0.80135983228683472 0.02955208532512188
0.94799178838729858 0.82435601949691772 0.062931790947914124
0.97775155305862427 0.83220213651657104 0.064554221928119659
0.024295642971992493 0.031820200383663177 0.056562267243862152
0.049618307501077652 0.039116967469453812 0.052866857498884201
0.15521302819252014 0.052627801895141602 0.056879740208387375
0.35784721374511719 0.024565588682889938 0.024839004501700401
0.50227689743041992 0.01848938874900341 0.013159254565834999
0.57441812753677368 0.020930465310811996 0.017031261697411537
0.61454051733016968 0.024768754839897156 0.021981243044137955
0.011862242594361305 0.080225206911563873 0.076798968017101288
0.037606079131364822 0.10403123497962952 0.083270207047462463
0.19299405813217163 0.11404254287481308 0.077406957745552063
0.4182249903678894 0.11078017204999924 0.033098407089710236
0.58558374643325806 0.078490719199180603 0.022975383326411247
0.66108328104019165 0.10257329046726227 0.010046626441180706
0.69932621717453003 0.099891036748886108 0.021524421870708466
0.008656580001115799 0.16516225039958954 0.11696853488683701
0.020006321370601654 0.18677955865859985 0.11185307055711746
0.21509741246700287 0.22607031464576721 0.084658965468406677
0.47550308704376221 0.25008663535118103 0.045787151902914047
0.66329336166381836 0.26132139563560486 0.016797278076410294
0.75034850835800171 0.26693814992904663 0.011425511911511421
0.77854138612747192 0.284780353307724 0.011847566813230515
0.016317913308739662 0.2940002977848053 0.17554794251918793
0.008611626923084259 0.33385476469993591 0.15760369598865509
0.18151475489139557 0.40307062864303589 0.060508400201797485
0.53554558753967285 0.46494710445404053 0.021300999447703362
0.75056010484695435 0.48352262377738953 0.0053559397347271442
0.84117996692657471 0.50087606906890869 0.017570465803146362
0.87196004390716553 0.51787513494491577 0.018569556996226311
0.037171680480241776 0.42508569359779358 0.23207393288612366
0.013604332692921162 0.46069759130477905 0.22415809333324432
0.1208408996462822 0.57109904289245605 0.073891296982765198
0.58067464828491211 0.66273564100265503 0.0089584803208708763
0.82255899906158447 0.70382165908813477 0.025016380473971367
0.92030137777328491 0.72096759080886841 0.037827659398317337
0.9471169114112854 0.73071205615997314 0.028401244431734085
0.0205116868019104 0.48518827557563782 0.2792106568813324
0.026709103956818581 0.53424131870269775 0.26947447657585144
0.11193311959505081 0.64962458610534668 0.11286552250385284
0.60807973146438599 0.7503628134727478 0.018452469259500504
0.86228930950164795 0.80100822448730469 0.01997668668627739
0.96251273155212402 0.82141584157943726 0.048521678894758224
0.98784881830215454 0.82931292057037354 0.069168880581855774
0.02443726547062397 0.55113005638122559 0.36213394999504089
0.0076913423836231232 0.62470149993896484 0.35841786861419678
0.16849897801876068 0.72422736883163452 0.26394045352935791
0.63237458467483521 0.80766850709915161 0.22090610861778259
0.88149392604827881 0.85198664665222168 0.1360718160867691
0.99290889501571655 0.8714287281036377 0.14327643811702728
0.99970066547393799 0.87285852432250977 0.29553347826004028
0.017468111589550972 0.044073697179555893 0.14379233121871948
0.056384336203336716 0.03476860374212265 0.1637762188911438
0.17396314442157745 0.044168151915073395 0.16849745810031891
0.37909641861915588 0.011997881345450878 0.17930546402931213
0.52953273057937622 0.018809719011187553 0.17932340502738953
0.60746997594833374 0.026809005066752434 0.1808149516582489
0.64352709054946899 0.011424419470131397 0.20475918054580688
0.0045466404408216476 0.10491903126239777 0.17317591607570648
0.019946303218603134 0.10062182694673538 0.18708296120166779
0.19860747456550598 0.12436328828334808 0.2163444459438324
0.44630530476570129 0.099389724433422089 0.21634487807750702
0.62955939769744873 0.060282733291387558 0.2067159116268158
0.71494424343109131 0.020361268892884254 0.19028523564338684
0.74810135364532471 0.027265734970569611 0.20997154712677002
0.004081337247043848 0.20286726951599121 0.2240978479385376
0.006563523318618536 0.20932944118976593 0.22996442019939423
0.20237924158573151 0.24841859936714172 0.2475338876247406
0.50924867391586304 0.27738818526268005 0.24297793209552765
0.71689873933792114 0.27718812227249146 0.22003193199634552
0.80276858806610107 0.24702489376068115 0.21025970578193665
0.84035462141036987 0.288278728723526 0.24234525859355927
0.0062991720624268055 0.34052985906600952 0.29120594263076782
0.01550731249153614 0.36695820093154907 0.29054433107376099
0.12378783524036407 0.44202145934104919 0.28921028971672058
0.55515509843826294 0.50758653879165649 0.27137452363967896
0.79505777359008789 0.51850569248199463 0.24506178498268127
0.89845830202102661 0.52805018424987793 0.22533734142780304
0.93084961175918579 0.54375571012496948 0.24993215501308441
0.0084424186497926712 0.47594842314720154 0.36311179399490356
0.021406061947345734 0.51060837507247925 0.36539101600646973
0.065426468849182129 0.62170648574829102 0.33730486035346985
0.58128887414932251 0.72338712215423584 0.27436360716819763
0.86589854955673218 0.74968856573104858 0.24479852616786957
0.97812622785568237 0.77455884218215942 0.23893816769123077
0.99611395597457886 0.78341138362884521 0.26368457078933716
0.0071495804004371166 0.53387010097503662 0.40985509753227234
0.024465404450893402 0.58153867721557617 0.42572009563446045
0.034017957746982574 0.70112127065658569 0.40306317806243896
0.58071553707122803 0.80921429395675659 0.34339800477027893
0.89204245805740356 0.86106598377227783 0.31175380945205688
0.98896902799606323 0.87562930583953857 0.32132333517074585
0.99977678060531616 0.87749373912811279 0.38341590762138367
0.021408140659332275 0.5980757474899292 0.49796456098556519
0.016236219555139542 0.6687462329864502 0.52589130401611328
0.089175716042518616 0.76011037826538086 0.5095822811126709
0.60931491851806641 0.85026812553405762 0.49767413735389709
0.88092517852783203 0.89625298976898193 0.48559513688087463
0.98722630739212036 0.91038089990615845 0.4516502320766449
1 0.91196334362030029 0.53889274597167969
0.0059074400924146175 0.10582616180181503 0.25789177417755127
0.046486005187034607 0.021873833611607552 0.31330296397209167
0.17832927405834198 0.0077172373421490192 0.34597665071487427
0.39637657999992371 0.0049095903523266315 0.35040742158889771
0.55451267957687378 0.022756075486540794 0.36374300718307495
0.63026076555252075 0.027054011821746826 0.37297612428665161
0.67306423187255859 0.012129046954214573 0.39034727215766907
0.0039215688593685627 0.16024570167064667 0.29847392439842224
0.017420675605535507 0.13097208738327026 0.34138381481170654
0.20126567780971527 0.11188068985939026 0.39593949913978577
0.46597248315811157 0.10023505985736847 0.42756468057632446
0.65006989240646362 0.038836594671010971 0.43185830116271973
0.72988212108612061 0.022099947556853294 0.43162676692008972
0.76626729965209961 0.026827793568372726 0.4393106997013092
0.0056838239543139935 0.25944876670837402 0.35381942987442017
0.0055914637632668018 0.25426599383354187 0.38193607330322266
0.16433930397033691 0.27757522463798523 0.47830310463905334
0.50939261913299561 0.29281586408615112 0.49933865666389465
0.72385686635971069 0.29187914729118347 0.49878367781639099
0.81242483854293823 0.278694748878479 0.48512843251228333
0.85011428594589233 0.31886133551597595 0.50132012367248535
0.014299684204161167 0.40089866518974304 0.44179731607437134
0.0067431130446493626 0.42175498604774475 0.4671349823474884
0.06893564760684967 0.48990559577941895 0.53565448522567749
0.5439687967300415 0.5566825270652771 0.56205803155899048
0.80352294445037842 0.57102328538894653 0.55751848220825195
0.90071052312850952 0.57934343814849854 0.54179131984710693
0.93532812595367432 0.60092151165008545 0.57240396738052368
0.0053854999132454395 0.5399896502494812 0.52981287240982056
0.014901628717780113 0.58076459169387817 0.54851555824279785
0.010430818423628807 0.68405747413635254 0.59362936019897461
0.54413509368896484 0.77516722679138184 0.60249119997024536
0.86558407545089722 0.81554573774337769 0.59570485353469849
0.96636074781417847 0.82284176349639893 0.60681396722793579
0.98851454257965088 0.83393174409866333 0.60747259855270386
0.0039215688593685627 0.59174817800521851 0.57301706075668335
0.0084895268082618713 0.64190542697906494 0.60931432247161865
0.0099808638915419579 0.75104725360870361 0.65354686975479126
0.54433256387710571 0.86133211851119995 0.66913342475891113
0.86542201042175293 0.90523326396942139 0.65319406986236572
0.98276126384735107 0.91890257596969604 0.66507601737976074
0.9971083402633667 0.92489427328109741 0.69642704725265503
0.0027452805079519749 0.6468995213508606 0.64473748207092285
0.0040105185471475124 0.71333104372024536 0.68570172786712646
0.012873989529907703 0.80313962697982788 0.7247079610824585
0.55680936574935913 0.89132058620452881 0.75159049034118652
0.86030936241149902 0.93638116121292114 0.74691253900527954
0.98315846920013428 0.95203596353530884 0.73876756429672241
0.99971050024032593 0.95258581638336182 0.77163326740264893
0.007107708603143692 0.15152767300605774 0.32760003209114075
0.021961301565170288 0.07158990204334259 0.40376019477844238
0.18931464850902557 0.0042922971770167351 0.48243558406829834
0.40419289469718933 0.014412285760045052 0.50446563959121704
0.57653433084487915 0.012099397368729115 0.5143246054649353
0.64647465944290161 0.025960031896829605 0.52288520336151123
0.67681092023849487 0.026239657774567604 0.53042775392532349
0.0029543708078563213 0.20466995239257812 0.38994157314300537
0.0092009296640753746 0.19509208202362061 0.43859264254570007
0.1870771050453186 0.088840395212173462 0.5719141960144043
0.47092950344085693 0.084935776889324188 0.6120484471321106
0.66607969999313354 0.025058252736926079 0.61361360549926758
0.74777793884277344 0.022043235599994659 0.62376523017883301
0.77762866020202637 0.026364538818597794 0.63087004423141479
0.0099102547392249107 0.31535232067108154 0.47506707906723022
0.0028585097752511501 0.31062257289886475 0.5145193338394165
0.11589577049016953 0.28922533988952637 0.64786666631698608
0.49416434764862061 0.31118348240852356 0.69445741176605225
0.73819798231124878 0.3093116283416748 0.70512354373931885
0.82426685094833374 0.30668771266937256 0.70144522190093994
0.85458993911743164 0.33050253987312317 0.71324223279953003
0.018975485116243362 0.44974884390830994 0.56842643022537231
0.016595369204878807 0.47369807958602905 0.60071796178817749
0.020672427490353584 0.52623468637466431 0.71348899602890015
0.51956993341445923 0.58547711372375488 0.77742111682891846
0.80509984493255615 0.60903346538543701 0.78154623508453369
0.90023481845855713 0.602669358253479 0.78032982349395752
0.92721372842788696 0.61342072486877441 0.78982961177825928
0.018220281228423119 0.58042669296264648 0.64519673585891724
0.027602043002843857 0.6233556866645813 0.68293452262878418
0.011105481535196304 0.71457517147064209 0.76673799753189087
0.50761806964874268 0.80834800004959106 0.82756602764129639
0.84729588031768799 0.85304313898086548 0.83719933032989502
0.95812869071960449 0.85755395889282227 0.83118951320648193
0.98502999544143677 0.8716089129447937 0.84830087423324585
0.011844620108604431 0.63620895147323608 0.68749529123306274
0.02414437010884285 0.68305087089538574 0.72354018688201904
0.0079358415678143501 0.77938318252563477 0.80125516653060913
0.49341389536857605 0.89339554309844971 0.86403709650039673
0.84662109613418579 0.9383232593536377 0.87919193506240845
0.97232532501220703 0.95759910345077515 0.87501001358032227
0.99429905414581299 0.95867305994033813 0.88134622573852539
0.014914658851921558 0.68130737543106079 0.73617768287658691
0.0073061324656009674 0.74072319269180298 0.78062248229980469
0.0099595915526151657 0.82339978218078613 0.84844428300857544
0.520882248878479 0.91692090034484863 0.9009360671043396
0.8457486629486084 0.96308439970016479 0.91027146577835083
0.96692454814910889 0.97659099102020264 0.90238654613494873
0.99433088302612305 0.98096871376037598 0.92362189292907715
0.01437689084559679 0.18393795192241669 0.37423080205917358
0.015779502689838409 0.15652546286582947 0.41707140207290649
0.1904015839099884 0.0062567619606852531 0.56242126226425171
0.41366288065910339 0.0029688219074159861 0.59289956092834473
0.588020920753479 0.02376188337802887 0.6111869215965271
0.66409611701965332 0.043227776885032654 0.61483281850814819
0.7085193395614624 0.021645115688443184 0.63960641622543335
0.0045025995932519436 0.23995998501777649 0.45105698704719543
0.0046590319834649563 0.2264866828918457 0.49911388754844666
0.17349269986152649 0.10551491379737854 0.6694636344909668
0.47695371508598328 0.094266720116138458 0.70849645137786865
0.67739832401275635 0.029483316466212273 0.72097122669219971
0.75791722536087036 0.027864912524819374 0.72460365295410156
0.7938351035118103 0.025426916778087616 0.74539148807525635
0.0046000313013792038 0.32778081297874451 0.52925992012023926
0.0046794964000582695 0.33242157101631165 0.57598698139190674
0.10335388034582138 0.31629335880279541 0.7224729061126709
0.49306789040565491 0.32428228855133057 0.79130053520202637
0.73586928844451904 0.322593092918396 0.80995583534240723
0.8305668830871582 0.31702923774719238 0.8174511194229126
0.85898077487945557 0.33556017279624939 0.81607359647750854
0.030429376289248466 0.46984362602233887 0.62194466590881348
0.020783817395567894 0.49640041589736938 0.66410535573959351
0.017288761213421822 0.53905898332595825 0.78895241022109985
0.51156222820281982 0.60110974311828613 0.8734135627746582
0.78275114297866821 0.62223953008651733 0.88806140422821045
0.8946831226348877 0.60466992855072021 0.89004266262054443
0.92576116323471069 0.6283029317855835 0.89058279991149902
0.011522330343723297 0.60106855630874634 0.69809162616729736
0.021145181730389595 0.63562214374542236 0.73714727163314819
0.027510100975632668 0.7279890775680542 0.83189624547958374
0.48275533318519592 0.82416009902954102 0.9238884449005127
0.83008080720901489 0.86810022592544556 0.93706583976745605
0.95215344429016113 0.87284189462661743 0.94370752573013306
0.98054325580596924 0.88412642478942871 0.94907295703887939
0.017060553655028343 0.65533721446990967 0.73376977443695068
0.034747283905744553 0.70017945766448975 0.77777302265167236
0.021299399435520172 0.79235023260116577 0.85965919494628906
0.45288568735122681 0.90767621994018555 0.94343781471252441
0.83233952522277832 0.95212835073471069 0.96002489328384399
0.96715015172958374 0.96770668029785156 0.96395081281661987
0.99446219205856323 0.97109889984130859 0.96648764610290527
0.012788884341716766 0.68967282772064209 0.7684093713760376
0.033261917531490326 0.75084811449050903 0.82397818565368652
0.023404454812407494 0.8332100510597229 0.89789438247680664
0.50158792734146118 0.9251093864440918 0.95525479316711426
0.82365179061889648 0.96932065486907959 0.96639001369476318
0.96439367532730103 0.98729562759399414 0.97245979309082031
0.99283516407012939 0.98394322395324707 0.96675223112106323
0.0036070880014449358 0.21285529434680939 0.42138803005218506
0.014146303758025169 0.18223126232624054 0.46894526481628418
0.19617611169815063 0.0098468409851193428 0.63759028911590576
0.43833741545677185 0.012900887057185173 0.68030393123626709
0.61843031644821167 0.0219307541847229 0.67817330360412598
0.70807796716690063 0.024539094418287277 0.6901434063911438
0.74053549766540527 0.02515614777803421 0.70441699028015137
0.0029186622705310583 0.27206012606620789 0.4881228506565094
0.0045421374961733818 0.26233839988708496 0.53125482797622681
0.16141273081302643 0.1787603497505188 0.71954584121704102
0.47864201664924622 0.16459041833877563 0.76621943712234497
0.69209784269332886 0.11528296023607254 0.78280693292617798
0.78599447011947632 0.091324776411056519 0.78969711065292358
0.81833267211914062 0.14414964616298676 0.80444812774658203
0.004285475704818964 0.3550618588924408 0.55910778045654297
0.014187606982886791 0.36193057894706726 0.60763674974441528
0.088565453886985779 0.34578186273574829 0.74707329273223877
0.49507409334182739 0.35108685493469238 0.82682949304580688
0.74267172813415527 0.36559197306632996 0.85199248790740967
0.8352280855178833 0.35008317232131958 0.85124462842941284
0.86819696426391602 0.3782849907875061 0.86215746402740479
0.022130869328975677 0.48706096410751343 0.64520752429962158
0.018239129334688187 0.50249773263931274 0.6822088360786438
0.016663465648889542 0.55316102504730225 0.81092631816864014
0.496908038854599 0.60901755094528198 0.90059787034988403
0.77887928485870361 0.62660092115402222 0.91382980346679688
0.90402930974960327 0.63977771997451782 0.92561072111129761
0.93345391750335693 0.65996378660202026 0.93385899066925049
0.010846366174519062 0.61114901304244995 0.71532118320465088
0.022491080686450005 0.650016188621521 0.75674700736999512
0.013034282252192497 0.73479443788528442 0.85181045532226562
0.45981475710868835 0.82817816734313965 0.94946670532226562
0.82407563924789429 0.86787593364715576 0.96656268835067749
0.94477361440658569 0.87808120250701904 0.97298693656921387
0.9792475700378418 0.88934600353240967 0.97600084543228149
0.0091028846800327301 0.65361881256103516 0.7397199273109436
0.023111695423722267 0.70473498106002808 0.78989642858505249
0.022795179858803749 0.802376389503479 0.88072937726974487
0.435678631067276 0.90793949365615845 0.96433639526367188
0.82498025894165039 0.95583850145339966 0.98044496774673462
0.96028012037277222 0.96777677536010742 0.98612159490585327
0.99064445495605469 0.96572935581207275 0.98696368932723999
0.031101062893867493 0.70131063461303711 0.78256207704544067
0.01605733297765255 0.7575448751449585 0.83534020185470581
0.0069444994442164898 0.83746230602264404 0.90918773412704468
0.47910651564598083 0.92623406648635864 0.96984285116195679
0.8172493577003479 0.97219812870025635 0.98605811595916748
0.95152992010116577 0.98946636915206909 0.99280911684036255
0.99136114120483398 0.99136340618133545 0.99417412281036377
