luts/print/fuji_3510_constlmap.cube
# Created by: G'MIC (https://gmic.eu)
TITLE "fuji_3510_constlmap"
# LUT size
LUT_3D_SIZE 13
# Data domain
DOMAIN_MIN 0.0 0.0 0.0
DOMAIN_MAX 1.0 1.0 1.0
# LUT data points
0.016742631793022156 0.014189940877258778 0.012756288051605225
0.027255652472376823 0.021174861118197441 0.016399577260017395
0.042148694396018982 0.02731240913271904 0.018384732306003571
0.08077239990234375 0.037058454006910324 0.021857691928744316
0.14004766941070557 0.048065394163131714 0.021408215165138245
0.22450841963291168 0.06149933859705925 0.014403189532458782
0.31199747323989868 0.076159805059432983 0.0066744484938681126
0.38286155462265015 0.084070675075054169 0.0032921286765486002
0.43875029683113098 0.088763624429702759 0.0066817938350141048
0.4820801317691803 0.09253382682800293 0.012190605513751507
0.51198446750640869 0.095012858510017395 0.01296672411262989
0.53572285175323486 0.099275477230548859 0.011400484479963779
0.54998719692230225 0.10132171213626862 0.012171546928584576
0.024357650429010391 0.036260537803173065 0.022705003619194031
0.030924448743462563 0.042025785893201828 0.025110730901360512
0.0480307936668396 0.052160240709781647 0.029245369136333466
0.090068891644477844 0.059231478720903397 0.031470518559217453
0.15317650139331818 0.069153442978858948 0.028615346178412437
0.24517334997653961 0.082087963819503784 0.017853725701570511
0.33126479387283325 0.094625167548656464 0.013276193290948868
0.40591904520988464 0.10657909512519836 0.0088576823472976685
0.46669873595237732 0.11507948487997055 0.0099989501759409904
0.51424109935760498 0.11905088275671005 0.013943017460405827
0.54553383588790894 0.12181337922811508 0.014589481987059116
0.5667683482170105 0.12853768467903137 0.01465790718793869
0.5819362998008728 0.13472267985343933 0.016500720754265785
0.021415740251541138 0.070810310542583466 0.039071548730134964
0.023079697042703629 0.070891678333282471 0.037218805402517319
0.04916343092918396 0.07911643385887146 0.039417821913957596
0.098307788372039795 0.08823501318693161 0.04143199697136879
0.17116115987300873 0.099794529378414154 0.034117531031370163
0.26819548010826111 0.11629143357276917 0.019781762734055519
0.36061766743659973 0.1329161524772644 0.016684139147400856
0.44111788272857666 0.14401832222938538 0.014520563185214996
0.50368988513946533 0.15014004707336426 0.0095576867461204529
0.55166983604431152 0.15523543953895569 0.010465898551046848
0.5823744535446167 0.16109687089920044 0.014165466651320457
0.60201776027679443 0.1689576655626297 0.017774095758795738
0.61613667011260986 0.17555594444274902 0.021608030423521996
0.014026791788637638 0.1121654286980629 0.058883156627416611
0.01122182235121727 0.1099129319190979 0.053107917308807373
0.033171169459819794 0.11603918671607971 0.049930647015571594
0.09277883917093277 0.12842631340026855 0.049153856933116913
0.18691827356815338 0.14526398479938507 0.032119348645210266
0.30024516582489014 0.16429968178272247 0.011774414218962193
0.39291790127754211 0.18063768744468689 0.01256923284381628
0.47629553079605103 0.19453810155391693 0.015723973512649536
0.54626923799514771 0.20042265951633453 0.0099273230880498886
0.59743309020996094 0.20368140935897827 0.0062641068361699581
0.62519431114196777 0.21389392018318176 0.010855012573301792
0.64391583204269409 0.22204549610614777 0.012405484914779663
0.6587827205657959 0.22870296239852905 0.013777235522866249
0.008077673614025116 0.15707558393478394 0.081122681498527527
0.0054061291739344597 0.15759332478046417 0.074518494307994843
0.016991348937153816 0.16517934203147888 0.069081820547580719
0.080022953450679779 0.18341195583343506 0.049714509397745132
0.19061371684074402 0.2048090398311615 0.027553349733352661
0.32106062769889832 0.23142132163047791 0.011080797761678696
0.42154118418693542 0.2447449117898941 0.013630152679979801
0.51164013147354126 0.25763943791389465 0.020562713965773582
0.58512920141220093 0.26697430014610291 0.016391364857554436
0.6350443959236145 0.27490293979644775 0.020436724647879601
0.66902893781661987 0.28411239385604858 0.018659224733710289
0.68898218870162964 0.29039222002029419 0.0068277996033430099
0.70038467645645142 0.29738476872444153 0.007070878054946661
0.0082030203193426132 0.21250112354755402 0.10619915276765823
0.0082187727093696594 0.21669942140579224 0.10156971216201782
0.011347707360982895 0.22779068350791931 0.091580331325531006
0.064354628324508667 0.24922062456607819 0.058735251426696777
0.19812379777431488 0.28115618228912354 0.02651602029800415
0.34077578783035278 0.31465595960617065 0.011803346686065197
0.45093923807144165 0.33261957764625549 0.013523700647056103
0.55103498697280884 0.3461700975894928 0.021747259423136711
0.63013714551925659 0.35713112354278564 0.022063251584768295
0.67980223894119263 0.36490604281425476 0.025187967345118523
0.71235853433609009 0.37226581573486328 0.027722062543034554
0.73509436845779419 0.38359248638153076 0.013839841820299625
0.74875783920288086 0.39247047901153564 0.0075503629632294178
0.014504062011837959 0.28030559420585632 0.13389526307582855
0.010687525384128094 0.2862183153629303 0.13036128878593445
0.0075442143715918064 0.3004126250743866 0.12048976868391037
0.043109878897666931 0.32703012228012085 0.076512537896633148
0.19344110786914825 0.36808925867080688 0.015631642192602158
0.36042636632919312 0.40464082360267639 0.0060229729861021042
0.48852211236953735 0.4312748908996582 0.0083255991339683533
0.5915495753288269 0.44620147347450256 0.022600779309868813
0.6723741888999939 0.46099072694778442 0.024303451180458069
0.73100179433822632 0.47086894512176514 0.02836984395980835
0.75966578722000122 0.47360360622406006 0.030006049200892448
0.78146743774414062 0.4876866340637207 0.019079037010669708
0.7956700325012207 0.49727120995521545 0.0088063562288880348
0.021417625248432159 0.35192343592643738 0.16352367401123047
0.013267442584037781 0.35393092036247253 0.15774162113666534
0.0071471869014203548 0.36962705850601196 0.14448530972003937
0.045514754951000214 0.40444725751876831 0.091375105082988739
0.18663887679576874 0.45222869515419006 0.018218096345663071
0.36714041233062744 0.49626052379608154 0.010290034115314484
0.52227973937988281 0.5308603048324585 0.0078966030851006508
0.63447707891464233 0.54918068647384644 0.02312888391315937
0.71752792596817017 0.56265097856521606 0.024916285648941994
0.7754065990447998 0.57346749305725098 0.021987451240420341
0.80969047546386719 0.58348435163497925 0.010083217173814774
0.82710599899291992 0.59311717748641968 0.008374861441552639
0.83923435211181641 0.60115581750869751 0.011189015582203865
0.018127186223864555 0.40183860063552856 0.18244412541389465
0.011908961459994316 0.40727910399436951 0.17774508893489838
0.0082923742011189461 0.42760223150253296 0.16046860814094543
0.035234533250331879 0.46689704060554504 0.10931593924760818
0.19070951640605927 0.52043861150741577 0.023453611880540848
0.39127066731452942 0.57163625955581665 0.012611867859959602
0.54765498638153076 0.61049175262451172 0.0076207327656447887
0.67289507389068604 0.6417575478553772 0.020946068689227104
0.75479596853256226 0.65260815620422363 0.028446272015571594
0.80885100364685059 0.66131609678268433 0.029136372730135918
0.84742653369903564 0.67265182733535767 0.024281281977891922
0.8695303201675415 0.68143773078918457 0.025202387943863869
0.88284987211227417 0.69236850738525391 0.03057423047721386
0.017876358702778816 0.43325319886207581 0.19373764097690582
0.017958907410502434 0.44634145498275757 0.18921791017055511
0.016671439632773399 0.47016632556915283 0.16999427974224091
0.042923346161842346 0.51108855009078979 0.11175822466611862
0.20503711700439453 0.56593883037567139 0.026627618819475174
0.41090536117553711 0.61972016096115112 0.0089224725961685181
0.56359094381332397 0.66076481342315674 0.0095768347382545471
0.68989443778991699 0.69713854789733887 0.013971620239317417
0.77883261442184448 0.71682947874069214 0.029074424877762794
0.83619236946105957 0.72838020324707031 0.044832386076450348
0.88363426923751831 0.74065089225769043 0.052446596324443817
0.906227707862854 0.74512296915054321 0.056423589587211609
0.91682189702987671 0.75014257431030273 0.060608807951211929
0.023881649598479271 0.45104435086250305 0.19992350041866302
0.026401115581393242 0.46717983484268188 0.19511827826499939
0.018519053235650063 0.50057673454284668 0.17428350448608398
0.053676020354032516 0.54427057504653931 0.10919327288866043
0.2264111340045929 0.59877008199691772 0.020931258797645569
0.42491358518600464 0.65094518661499023 0.0074359970167279243
0.57909059524536133 0.69283920526504517 0.010096516460180283
0.7004852294921875 0.72688013315200806 0.018420126289129257
0.79360687732696533 0.74978071451187134 0.039354525506496429
0.85685253143310547 0.76317328214645386 0.061049412935972214
0.89888262748718262 0.7711290717124939 0.070552065968513489
0.91802465915679932 0.7767634391784668 0.074186168611049652
0.9286799430847168 0.78013825416564941 0.074913859367370605
0.020218644291162491 0.47488841414451599 0.21710917353630066
0.02948506735265255 0.49476665258407593 0.20681248605251312
0.032423160970211029 0.53039062023162842 0.17716784775257111
0.078374616801738739 0.57724583148956299 0.10001064836978912
0.25675588846206665 0.6302294135093689 0.02653973177075386
0.44379445910453796 0.67818170785903931 0.011814775876700878
0.60156494379043579 0.72149980068206787 0.016631526872515678
0.72483301162719727 0.75819718837738037 0.025814386084675789
0.81664007902145386 0.77982187271118164 0.047022800892591476
0.87666648626327515 0.78957462310791016 0.069877684116363525
0.91507351398468018 0.79567855596542358 0.08041941374540329
0.93260186910629272 0.80144160985946655 0.085317544639110565
0.94528734683990479 0.80634558200836182 0.089784823358058929
0.0087460540235042572 0.50603890419006348 0.24126775562763214
0.022001422941684723 0.5413321852684021 0.22146998345851898
0.043358147144317627 0.57671952247619629 0.17902345955371857
0.12812240421772003 0.62392807006835938 0.090938135981559753
0.31947943568229675 0.67161500453948975 0.032845724374055862
0.49172064661979675 0.71652209758758545 0.020145311951637268
0.63804435729980469 0.76042485237121582 0.019423989579081535
0.76043504476547241 0.79451042413711548 0.037310998886823654
0.85525578260421753 0.81643134355545044 0.063983500003814697
0.90121251344680786 0.8129766583442688 0.080071546137332916
0.92634063959121704 0.80826437473297119 0.084805719554424286
0.94865500926971436 0.81641459465026855 0.093903772532939911
0.96960407495498657 0.82625770568847656 0.10698563605546951
0.018718300387263298 0.022076250985264778 0.0334511399269104
0.029398959130048752 0.028312442824244499 0.031397216022014618
0.044973067939281464 0.032266236841678619 0.029936891049146652
0.07877890020608902 0.037699606269598007 0.02911955863237381
0.14817506074905396 0.046620957553386688 0.024803729727864265
0.23933973908424377 0.055896669626235962 0.01421800535172224
0.32635959982872009 0.066094070672988892 0.014273026026785374
0.40770310163497925 0.079624056816101074 0.015741296112537384
0.46437099575996399 0.084377259016036987 0.01491865236312151
0.50683122873306274 0.080372586846351624 0.012557923793792725
0.53820878267288208 0.080415599048137665 0.0087065603584051132
0.56017708778381348 0.084801062941551208 0.0067162010818719864
0.58071011304855347 0.081738762557506561 0.01312580518424511
0.023776814341545105 0.041427969932556152 0.041111741214990616
0.03174254298210144 0.043892566114664078 0.036995846778154373
0.051673110574483871 0.050883736461400986 0.037912584841251373
0.093299105763435364 0.058713771402835846 0.040256425738334656
0.1648748368024826 0.067985936999320984 0.031443919986486435
0.26441860198974609 0.07852250337600708 0.011812022887170315
0.35180935263633728 0.092261657118797302 0.01701081171631813
0.43029767274856567 0.10545232146978378 0.021553009748458862
0.49439823627471924 0.11368957161903381 0.015447414480149746
0.54039555788040161 0.11114402860403061 0.011516899801790714
0.57436448335647583 0.10704546421766281 0.0091417348012328148
0.59270560741424561 0.11562477797269821 0.008486608974635601
0.60657620429992676 0.12224611639976501 0.0092341257259249687
0.021716337651014328 0.075517468154430389 0.055617492645978928
0.027052726596593857 0.075537033379077911 0.05260799452662468
0.052664931863546371 0.080767691135406494 0.050062648952007294
0.1051967516541481 0.090820267796516418 0.049466479569673538
0.1910826712846756 0.10491916537284851 0.035289105027914047
0.29045218229293823 0.11814896762371063 0.016718845814466476
0.38181284070014954 0.13281665742397308 0.027751235291361809
0.46367457509040833 0.14507955312728882 0.032938849180936813
0.53197789192199707 0.15250934660434723 0.014861925505101681
0.57819414138793945 0.15270453691482544 0.0090547297149896622
0.61069166660308838 0.1533205509185791 0.006679146084934473
0.6298292875289917 0.1609407514333725 0.009938887320458889
0.64361798763275146 0.16872426867485046 0.01130969449877739
0.015568467788398266 0.11677192151546478 0.075318850576877594
0.014535761438310146 0.11498128622770309 0.068872042000293732
0.038417141884565353 0.11972734332084656 0.061545923352241516
0.10497257113456726 0.1339646577835083 0.055488452315330505
0.20734186470508575 0.15024183690547943 0.037148464471101761
0.31332069635391235 0.16559778153896332 0.018051536753773689
0.40943101048469543 0.18218095600605011 0.030482154339551926
0.49578225612640381 0.19546408951282501 0.035198945552110672
0.57041341066360474 0.20157516002655029 0.01392523106187582
0.61952537298202515 0.20251011848449707 0.011687633581459522
0.64965766668319702 0.20867462456226349 0.014639969915151596
0.66962724924087524 0.21672198176383972 0.014070548117160797
0.68453919887542725 0.22519993782043457 0.012482572346925735
0.010742337442934513 0.16250553727149963 0.097351059317588806
0.010666850954294205 0.16437351703643799 0.090597264468669891
0.024774394929409027 0.17248490452766418 0.08001360297203064
0.08131612092256546 0.19076345860958099 0.060537002980709076
0.20824092626571655 0.21271130442619324 0.041526466608047485
0.33198249340057373 0.23188875615596771 0.025492604821920395
0.43920665979385376 0.24955131113529205 0.034988135099411011
0.5355522632598877 0.26530539989471436 0.042069856077432632
0.61352771520614624 0.27728036046028137 0.020644752308726311
0.66377490758895874 0.28089144825935364 0.021384580060839653
0.695456862449646 0.28948560357093811 0.026021756231784821
0.71581524610519409 0.29480248689651489 0.014997714199125767
0.73116052150726318 0.30417928099632263 0.010460902005434036
0.011176703497767448 0.22105640172958374 0.12197168171405792
0.014871185645461082 0.22647622227668762 0.11755552142858505
0.021124806255102158 0.23654794692993164 0.10608499497175217
0.062443483620882034 0.25749066472053528 0.078046031296253204
0.20835335552692413 0.29074853658676147 0.048734195530414581
0.34825232625007629 0.31794261932373047 0.038128603249788284
0.46616122126579285 0.33954790234565735 0.038003105670213699
0.57472741603851318 0.35548868775367737 0.038714166730642319
0.65821373462677002 0.36573097109794617 0.02503458596765995
0.71108889579772949 0.37305325269699097 0.017296420410275459
0.74457055330276489 0.38494616746902466 0.032120078802108765
0.76563340425491333 0.39152136445045471 0.021799948066473007
0.78013151884078979 0.39916577935218811 0.010498136281967163
0.016612527891993523 0.28938496112823486 0.14851979911327362
0.021658236160874367 0.29734766483306885 0.14581017196178436
0.02621065080165863 0.30968981981277466 0.13657338917255402
0.065966449677944183 0.34030145406723022 0.099404476583003998
0.20795612037181854 0.38063204288482666 0.052859798073768616
0.37028077244758606 0.4156917929649353 0.048449110239744186
0.50169050693511963 0.4427848756313324 0.045682556927204132
0.61631423234939575 0.46311548352241516 0.04783998429775238
0.70319122076034546 0.47571694850921631 0.027084873989224434
0.75953114032745361 0.48362922668457031 0.023678887635469437
0.79383182525634766 0.49000281095504761 0.034395284950733185
0.81379169225692749 0.5000537633895874 0.023264328017830849
0.8260083794593811 0.50602191686630249 0.013787811622023582
0.02206738106906414 0.35896798968315125 0.17695850133895874
0.025741636753082275 0.36355948448181152 0.17233015596866608
0.032213397324085236 0.38251176476478577 0.15912991762161255
0.073740266263484955 0.41960424184799194 0.11116835474967957
0.19919991493225098 0.46563035249710083 0.056153465062379837
0.38410729169845581 0.51047319173812866 0.056126344949007034
0.53763705492019653 0.54531306028366089 0.05642332136631012
0.65539628267288208 0.56715035438537598 0.056536130607128143
0.7444731593132019 0.5810389518737793 0.033100113272666931
0.80263549089431763 0.59162026643753052 0.025875061750411987
0.83897548913955688 0.60231554508209229 0.027123440057039261
0.85992574691772461 0.61200839281082153 0.01276683434844017
0.87175965309143066 0.61949074268341064 0.022396162152290344
0.017025681212544441 0.41073957085609436 0.19964802265167236
0.016169380396604538 0.41667300462722778 0.19441287219524384
0.020792374387383461 0.44077172875404358 0.17826458811759949
0.062400773167610168 0.48310762643814087 0.13122893869876862
0.20668229460716248 0.53910475969314575 0.061848059296607971
0.40305659174919128 0.58680766820907593 0.052534591406583786
0.56436365842819214 0.62544673681259155 0.052722886204719543
0.68680793046951294 0.65580004453659058 0.056466959416866302
0.77495968341827393 0.67307502031326294 0.058289963752031326
0.83458244800567627 0.68435066938400269 0.069755151867866516
0.87629354000091553 0.6939389705657959 0.057113002985715866
0.89836335182189941 0.70321506261825562 0.034291479736566544
0.91060775518417358 0.71267992258071899 0.045013338327407837
0.013240485452115536 0.44525954127311707 0.21537189185619354
0.010282628238201141 0.45574435591697693 0.21123339235782623
0.017783265560865402 0.48331961035728455 0.19195927679538727
0.04529406875371933 0.52832436561584473 0.13865606486797333
0.20099763572216034 0.58659547567367554 0.065641887485980988
0.42273736000061035 0.64136630296707153 0.022370027378201485
0.58436578512191772 0.67972689867019653 0.029688052833080292
0.70989108085632324 0.71338069438934326 0.048498969525098801
0.80180960893630981 0.73469030857086182 0.074146196246147156
0.86180001497268677 0.74736613035202026 0.097636505961418152
0.90391659736633301 0.75619387626647949 0.084537342190742493
0.92625588178634644 0.76231169700622559 0.066390931606292725
0.93766182661056519 0.76672863960266113 0.068603649735450745
0.014676576480269432 0.46260035037994385 0.22673767805099487
0.015681114047765732 0.48221787810325623 0.22427347302436829
0.015934079885482788 0.50978720188140869 0.20756691694259644
0.034445475786924362 0.55880463123321533 0.15298263728618622
0.21591156721115112 0.62214511632919312 0.046869166195392609
0.43186205625534058 0.67640036344528198 0.017558393999934196
0.59988141059875488 0.71760654449462891 0.017338022589683533
0.72836601734161377 0.74961215257644653 0.033239897340536118
0.8249320387840271 0.77209043502807617 0.070247039198875427
0.88606804609298706 0.78503239154815674 0.092467561364173889
0.92584025859832764 0.79152268171310425 0.094770155847072601
0.94671297073364258 0.79709005355834961 0.085320644080638885
0.95808786153793335 0.80014950037002563 0.083038389682769775
0.011942366138100624 0.49067950248718262 0.24954836070537567
0.016797339543700218 0.51340550184249878 0.24760700762271881
0.014728366397321224 0.54454857110977173 0.22928155958652496
0.042906608432531357 0.59453165531158447 0.16939723491668701
0.22276748716831207 0.65521359443664551 0.062069568783044815
0.44807294011116028 0.70575875043869019 0.039300296455621719
0.6166037917137146 0.74690431356430054 0.019066799432039261
0.74759143590927124 0.77936184406280518 0.025770584121346474
0.84601032733917236 0.80019593238830566 0.05771598219871521
0.90875148773193359 0.81190246343612671 0.08324103057384491
0.94975841045379639 0.81878435611724854 0.092481188476085663
0.96695435047149658 0.82302141189575195 0.099027059972286224
0.97654026746749878 0.82658660411834717 0.10791649669408798
0.011118451133370399 0.53540027141571045 0.29439648985862732
0.029686616733670235 0.56571310758590698 0.29011869430541992
0.017238423228263855 0.602955162525177 0.26615583896636963
0.079408906400203705 0.64791595935821533 0.21410448849201202
0.28185102343559265 0.70141333341598511 0.13032892346382141
0.48084902763366699 0.7407718300819397 0.088728748261928558
0.63941627740859985 0.77644413709640503 0.072972796857357025
0.77030891180038452 0.80639266967773438 0.04895763099193573
0.87169140577316284 0.82921093702316284 0.066785670816898346
0.93385440111160278 0.83645975589752197 0.094429373741149902
0.9638558030128479 0.83572125434875488 0.11236675828695297
0.97629326581954956 0.83866018056869507 0.14361825585365295
0.98588502407073975 0.84468728303909302 0.18561816215515137
0.018517063930630684 0.028750160709023476 0.060158912092447281
0.029540881514549255 0.033745307475328445 0.056068882346153259
0.047606538981199265 0.036616738885641098 0.055995117872953415
0.084380164742469788 0.041410408914089203 0.057291023433208466
0.15574294328689575 0.049251705408096313 0.053847938776016235
0.25522348284721375 0.050397656857967377 0.046416893601417542
0.34754428267478943 0.050366315990686417 0.043493457138538361
0.43190580606460571 0.064637355506420135 0.045352082699537277
0.49363094568252563 0.066015638411045074 0.044069778174161911
0.53580451011657715 0.053677577525377274 0.037135928869247437
0.57010108232498169 0.049119267612695694 0.033856052905321121
0.59366661310195923 0.046019610017538071 0.03522060438990593
0.61332398653030396 0.048419471830129623 0.0301971435546875
0.018958611413836479 0.049117967486381531 0.07209053635597229
0.028844766318798065 0.049696095287799835 0.064424000680446625
0.054961603134870529 0.053504463285207748 0.063227452337741852
0.098843984305858612 0.063253782689571381 0.071181289851665497
0.17648042738437653 0.072795003652572632 0.064770989120006561
0.28075957298278809 0.080011941492557526 0.051085155457258224
0.373157799243927 0.089034095406532288 0.054121892899274826
0.45529270172119141 0.098276726901531219 0.056495606899261475
0.5211179256439209 0.097611881792545319 0.050466351211071014
0.56862038373947144 0.084053799510002136 0.037516020238399506
0.6085209846496582 0.070820704102516174 0.025416025891900063
0.62865638732910156 0.07483634352684021 0.028052475303411484
0.6431654691696167 0.074570029973983765 0.031327985227108002
0.017386926338076591 0.08242303878068924 0.08595498651266098
0.026816602796316147 0.082663200795650482 0.079195119440555573
0.05725715309381485 0.085532933473587036 0.076592236757278442
0.11123202741146088 0.094613336026668549 0.078332208096981049
0.19832484424114227 0.10924383252859116 0.070628881454467773
0.30416548252105713 0.12265922874212265 0.06007823720574379
0.40336805582046509 0.1352037787437439 0.066635280847549438
0.48879846930503845 0.14408677816390991 0.073018059134483337
0.55901175737380981 0.14362747967243195 0.059681147336959839
0.60971212387084961 0.12903034687042236 0.042639609426259995
0.64936214685440063 0.11936528980731964 0.033544022589921951
0.67104083299636841 0.12722598016262054 0.027069900184869766
0.68726170063018799 0.13233731687068939 0.027871016412973404
0.015331926755607128 0.12255961447954178 0.099597945809364319
0.020450832322239876 0.11966057866811752 0.093490839004516602
0.052799269556999207 0.12596230208873749 0.090468928217887878
0.11594076454639435 0.13956697285175323 0.088241308927536011
0.21622025966644287 0.15713115036487579 0.07806522399187088
0.32808423042297363 0.17311638593673706 0.066752217710018158
0.43258538842201233 0.18870154023170471 0.077147074043750763
0.52387541532516479 0.19856692850589752 0.080598644912242889
0.60341209173202515 0.19717037677764893 0.059934847056865692
0.65958118438720703 0.18530191481113434 0.042329318821430206
0.69360363483428955 0.18214701116085052 0.036884084343910217
0.71680301427841187 0.18556597828865051 0.028066821396350861
0.73067003488540649 0.20583595335483551 0.021255927160382271
