luts/print/kodak_2383_cuspclip.cube
# Created by: G'MIC (https://gmic.eu)
TITLE "kodak_2383_cuspclip"
# LUT size
LUT_3D_SIZE 13
# Data domain
DOMAIN_MIN 0.0 0.0 0.0
DOMAIN_MAX 1.0 1.0 1.0
# LUT data points
0.01493733748793602 0.024668211117386818 0.029621468856930733
0.035769101232290268 0.032535240054130554 0.030044481158256531
0.059156216681003571 0.038994316011667252 0.028218736872076988
0.093518294394016266 0.043980810791254044 0.024555863812565804
0.16436298191547394 0.051887586712837219 0.019679199904203415
0.26283109188079834 0.061305325478315353 0.0091037526726722717
0.36860710382461548 0.071530930697917938 0.0036223616916686296
0.46384736895561218 0.08326682448387146 0.0023975896183401346
0.54777032136917114 0.1049041748046875 9.645948011893779e-05
0.60647624731063843 0.1228429451584816 0.00068381812889128923
0.63223385810852051 0.12772689759731293 0.0034834169782698154
0.65149128437042236 0.13528729975223541 0.0049824286252260208
0.66199851036071777 0.14292034506797791 0.0031156651675701141
0.01120173092931509 0.04573395848274231 0.037375729531049728
0.030299557372927666 0.051246672868728638 0.036684148013591766
0.058978062123060226 0.056169487535953522 0.034781035035848618
0.097761772572994232 0.059193942695856094 0.031132552772760391
0.16513934731483459 0.065489932894706726 0.02381712943315506
0.2778872549533844 0.079721800982952118 0.013299320824444294
0.39837685227394104 0.096439242362976074 0.0056291320361196995
0.49980098009109497 0.10441634058952332 0.0035933700855821371
0.57765525579452515 0.12315646559000015 0.0017070695757865906
0.62842261791229248 0.14164876937866211 0.0061143012717366219
0.65615290403366089 0.14977291226387024 0.0092752939090132713
0.67669892311096191 0.15871562063694 0.012380382977426052
0.68585139513015747 0.16449947655200958 0.011795014142990112
0.0080506717786192894 0.068978555500507355 0.044941503554582596
0.021257752552628517 0.072087258100509644 0.043885894119739532
0.055307935923337936 0.076098799705505371 0.041171938180923462
0.098656401038169861 0.081832766532897949 0.036500219255685806
0.17519474029541016 0.091985173523426056 0.024394121021032333
0.29411059617996216 0.10760492086410522 0.013582730665802956
0.4206492006778717 0.1262296736240387 0.0070787766017019749
0.53201377391815186 0.13878257572650909 0.0026047800201922655
0.60558086633682251 0.15355707705020905 0.0042578005231916904
0.65484338998794556 0.16932226717472076 0.011276155710220337
0.68882548809051514 0.18039578199386597 0.015811396762728691
0.70668351650238037 0.19186317920684814 0.017803879454731941
0.71516799926757812 0.19703936576843262 0.015378196723759174
0.0040312972851097584 0.095752701163291931 0.053247921168804169
0.0097517874091863632 0.095073491334915161 0.050454728305339813
0.044025138020515442 0.104220911860466 0.046935811638832092
0.10068210959434509 0.12194708734750748 0.03862965852022171
0.18675997853279114 0.13058984279632568 0.018320314586162567
0.30524322390556335 0.14711230993270874 0.0060121272690594196
0.44278344511985779 0.17313447594642639 0.0031750996131449938
0.56625807285308838 0.1923506110906601 0.0011796689359471202
0.64095151424407959 0.20455479621887207 0.003941225353628397
0.68778866529464722 0.21402288973331451 0.0073017044924199581
0.72232860326766968 0.22310298681259155 0.015261032618582249
0.73798078298568726 0.23597182333469391 0.023642176762223244
0.74912363290786743 0.23919728398323059 0.016287336125969887
0.0059864269569516182 0.15398147702217102 0.079593822360038757
0.0055914935655891895 0.15001508593559265 0.071480453014373779
0.025881180539727211 0.15960103273391724 0.053038038313388824
0.091416284441947937 0.17469525337219238 0.042472269386053085
0.19761922955513 0.19050860404968262 0.019455285742878914
0.34826052188873291 0.22566531598567963 0.0022613673936575651
0.50215202569961548 0.26376917958259583 0.00077251362381502986
0.62124782800674438 0.27849072217941284 0.00030770394369028509
0.69673359394073486 0.28963908553123474 0.0050324383191764355
0.73636984825134277 0.29494062066078186 0.011054798029363155
0.762245774269104 0.29913374781608582 0.011800414882600307
0.77809113264083862 0.31324043869972229 0.024186735972762108
0.79109793901443481 0.32324519753456116 0.018698016181588173
0.01661212369799614 0.2573091983795166 0.13231974840164185
0.014252531342208385 0.25340422987937927 0.11599136143922806
0.0074625350534915924 0.24823577702045441 0.071355514228343964
0.05295257642865181 0.25869080424308777 0.037141583859920502
0.20433612167835236 0.2942085862159729 0.019712276756763458
0.39555427432060242 0.33484593033790588 0.004630653653293848
0.55739223957061768 0.36733207106590271 0.0029732948169112206
0.67389136552810669 0.38720390200614929 0.0077153672464191914
0.75339949131011963 0.40444079041481018 0.017515234649181366
0.79328113794326782 0.41173729300498962 0.030022880062460899
0.81519496440887451 0.4224402904510498 0.021484779193997383
0.82855391502380371 0.43081516027450562 0.010688931681215763
0.83634775876998901 0.43787944316864014 0.014742637984454632
0.028577407822012901 0.36523300409317017 0.18804559111595154
0.019788390025496483 0.36356925964355469 0.16772183775901794
0.0058822333812713623 0.36269435286521912 0.1166093572974205
0.02422008104622364 0.3632848858833313 0.036718301475048065
0.18400499224662781 0.40027555823326111 0.0072507523000240326
0.41525483131408691 0.44545060396194458 0.0032252890523523092
0.58859032392501831 0.49131020903587341 0.0074688629247248173
0.72140699625015259 0.52451276779174805 0.017905320972204208
0.80455875396728516 0.53765022754669189 0.022342756390571594
0.84107875823974609 0.53676414489746094 0.019598433747887611
0.8624495267868042 0.54927408695220947 0.016030076891183853
0.87563490867614746 0.55819731950759888 0.010980299673974514
0.88024890422821045 0.55553358793258667 0.0095575070008635521
0.028910588473081589 0.45580589771270752 0.22730356454849243
0.017053820192813873 0.45993557572364807 0.21202664077281952
0.010320266708731651 0.46714702248573303 0.1740371435880661
0.0066318884491920471 0.46208357810974121 0.072741597890853882
0.14667521417140961 0.49865514039993286 0.0043983310461044312
0.43285861611366272 0.55899631977081299 0.0011130986968055367
0.63198286294937134 0.61830145120620728 0.0062454822473227978
0.77149307727813721 0.65082299709320068 0.016017913818359375
0.84797126054763794 0.65912222862243652 0.022368606179952621
0.88410645723342896 0.65812218189239502 0.024946145713329315
0.90556329488754272 0.66881728172302246 0.031132223084568977
0.9165269136428833 0.67317026853561401 0.031259380280971527
0.92462986707687378 0.67838788032531738 0.033685166388750076
0.029703686013817787 0.51232451200485229 0.2493637353181839
0.032236553728580475 0.52321434020996094 0.24084863066673279
0.021626895293593407 0.53581458330154419 0.21160644292831421
0.0049032624810934067 0.54455685615539551 0.11266859620809555
0.13583588600158691 0.58072394132614136 0.0075363307259976864
0.44585838913917542 0.64839130640029907 0.0013952067820355296
0.67039781808853149 0.71374887228012085 0.010029601864516735
0.8059958815574646 0.74180811643600464 0.033379185944795609
0.87771815061569214 0.74954533576965332 0.055464845150709152
0.91593271493911743 0.7498939037322998 0.061220984905958176
0.93289148807525635 0.74582511186599731 0.061038687825202942
0.94318097829818726 0.748981773853302 0.06417972594499588
0.95303487777709961 0.7583203911781311 0.069894380867481232
0.020497864112257957 0.54432553052902222 0.26364913582801819
0.036607928574085236 0.55931693315505981 0.2559967041015625
0.021273190155625343 0.57147997617721558 0.22354140877723694
0.017965100705623627 0.59235197305679321 0.12337600439786911
0.14343106746673584 0.63490617275238037 0.0095762070268392563
0.47674494981765747 0.70812559127807617 0.0018823063001036644
0.69321370124816895 0.76582115888595581 0.016125772148370743
0.820606529712677 0.79092633724212646 0.04868723452091217
0.89160656929016113 0.79650545120239258 0.068010218441486359
0.93199193477630615 0.79552900791168213 0.078551754355430603
0.94764351844787598 0.78540456295013428 0.077108301222324371
0.95854133367538452 0.78743648529052734 0.081116802990436554
0.96662044525146484 0.7931981086730957 0.0886869877576828
0.040531862527132034 0.56644541025161743 0.27415722608566284
0.037411976605653763 0.58138382434844971 0.2618563175201416
0.021877812221646309 0.59301704168319702 0.22076711058616638
0.036732826381921768 0.61515802145004272 0.11977633088827133
0.17128588259220123 0.6588941216468811 0.0087913963943719864
0.48774081468582153 0.73006093502044678 0.0045602088794112206
0.69022965431213379 0.78490692377090454 0.023479461669921875
0.82839947938919067 0.81711786985397339 0.05255373939871788
0.89618653059005737 0.81963467597961426 0.069984883069992065
0.94166719913482666 0.82092934846878052 0.083425797522068024
0.96001851558685303 0.81971782445907593 0.087607413530349731
0.97120487689971924 0.8189358115196228 0.092023245990276337
0.97850567102432251 0.82237023115158081 0.10663646459579468
0.031595580279827118 0.58123743534088135 0.2766910195350647
0.023503247648477554 0.59791666269302368 0.25568023324012756
0.0081809544935822487 0.60885894298553467 0.19601397216320038
0.043735340237617493 0.63041085004806519 0.079229570925235748
0.2276700884103775 0.68053632974624634 0.0091666728258132935
0.50867795944213867 0.74337446689605713 0.0065302532166242599
0.69347172975540161 0.79370021820068359 0.02522786520421505
0.83310985565185547 0.8285333514213562 0.051811635494232178
0.90381771326065063 0.83669102191925049 0.073656640946865082
0.9500235915184021 0.83968842029571533 0.085718028247356415
0.96999275684356689 0.84274077415466309 0.093064583837985992
0.9819074273109436 0.84581083059310913 0.10016857832670212
0.98871409893035889 0.84453541040420532 0.11113456636667252
0.01756795309484005 0.60537815093994141 0.26983672380447388
0.012421910651028156 0.61862528324127197 0.22969160974025726
0.016302624717354774 0.63281911611557007 0.13024385273456573
0.081956766545772552 0.65606647729873657 0.024318799376487732
0.32156795263290405 0.70899122953414917 0.003600012045353651
0.54452729225158691 0.76019072532653809 0.0048507838509976864
0.71329218149185181 0.80442965030670166 0.021085746586322784
0.83447080850601196 0.83544272184371948 0.048192687332630157
0.90574216842651367 0.84672033786773682 0.072490140795707703
0.94940429925918579 0.85147380828857422 0.085829265415668488
0.97536575794219971 0.85553348064422607 0.098691575229167938
0.98857641220092773 0.8576088547706604 0.1050347238779068
0.99487793445587158 0.85570615530014038 0.10779342800378799
0.014190553687512875 0.025560656562447548 0.044372063130140305
0.034630253911018372 0.032699570059776306 0.044649355113506317
0.059827152639627457 0.040057610720396042 0.04410717636346817
0.090501792728900909 0.046363949775695801 0.04000517725944519
0.15401244163513184 0.052941881120204926 0.031398247927427292
0.25772979855537415 0.060418490320444107 0.014073794707655907
0.36872375011444092 0.060669273138046265 0.002767031779512763
0.4727441668510437 0.059263087809085846 0.0011824663961306214
0.55885577201843262 0.073720984160900116 0.00045044842408969998
0.60836273431777954 0.075785450637340546 7.5306612416170537e-05
0.63738387823104858 0.079274721443653107 0.0018074334366247058
0.65843307971954346 0.08643835037946701 0.0023264565970748663
0.67182618379592896 0.093117028474807739 0.0010369543451815844
0.0097140595316886902 0.045106191188097 0.050470180809497833
0.026047620922327042 0.049590449780225754 0.050307240337133408
0.055049553513526917 0.056484926491975784 0.049519229680299759
0.096630319952964783 0.063182070851325989 0.047991223633289337
0.16499476134777069 0.07031954824924469 0.040188495069742203
0.27642661333084106 0.079385541379451752 0.021312803030014038
0.39636433124542236 0.08151717483997345 0.0078871184960007668
0.50356054306030273 0.07850087434053421 0.0038419836200773716
0.58405321836471558 0.093492202460765839 0.0019526463001966476
0.63258236646652222 0.090948350727558136 0.0041133654303848743
0.66308557987213135 0.10018505156040192 0.0048521002754569054
0.68496024608612061 0.11362826824188232 0.0052308626472949982
0.69465363025665283 0.12117066979408264 0.0049204207025468349
0.0064313104376196861 0.067375302314758301 0.057388544082641602
0.01666329987347126 0.06922873854637146 0.056272827088832855
0.050794444978237152 0.075205095112323761 0.055044598877429962
0.10114128142595291 0.084673218429088593 0.055217128247022629
0.17635929584503174 0.094380803406238556 0.045023705810308456
0.29230740666389465 0.10485947877168655 0.024227472022175789
0.41928422451019287 0.11396565288305283 0.0093941483646631241
0.53835833072662354 0.12246837466955185 0.0045825582928955555
0.61767107248306274 0.13002802431583405 0.004594466183334589
0.66353434324264526 0.12483137845993042 0.0076688430272042751
0.69595664739608765 0.13645477592945099 0.0089336466044187546
0.71475338935852051 0.15402409434318542 0.0082192514091730118
0.72277003526687622 0.15423896908760071 0.0079765468835830688
0.0039296918548643589 0.097794719040393829 0.068063743412494659
0.0076506519690155983 0.095950663089752197 0.064871735870838165
0.041658934205770493 0.10719161480665207 0.061729505658149719
0.10395916551351547 0.12391619384288788 0.05747445672750473
0.18857309222221375 0.13251484930515289 0.038763981312513351
0.30824604630470276 0.14480628073215485 0.018052179366350174
0.44710275530815125 0.16188323497772217 0.0058839535340666771
0.5735548734664917 0.179798424243927 0.0039155399426817894
0.65656709671020508 0.19601485133171082 0.005035789217799902
0.70279836654663086 0.19763794541358948 0.0076094535179436207
0.73223197460174561 0.1940392404794693 0.0084501681849360466
0.74765312671661377 0.20909349620342255 0.011115699075162411
0.75631147623062134 0.21068432927131653 0.0099560003727674484
0.0050663668662309647 0.16388629376888275 0.099836163222789764
0.004496854729950428 0.15658529102802277 0.088563703000545502
0.02231273241341114 0.15835575759410858 0.074379190802574158
0.096853025257587433 0.17410172522068024 0.062600076198577881
0.20443889498710632 0.19225092232227325 0.036551471799612045
0.34795412421226501 0.2205640971660614 0.011070580221712589
0.50485646724700928 0.25009211897850037 0.003967673983424902
0.61984992027282715 0.25784289836883545 0.0020919202361255884
0.70341390371322632 0.28049889206886292 0.0062675774097442627
0.7509722113609314 0.29192599654197693 0.0093000074848532677
0.77241122722625732 0.2827087938785553 0.0058018853887915611
0.78963601589202881 0.29220172762870789 0.010086148977279663
0.79863548278808594 0.30550342798233032 0.017232783138751984
0.012777844443917274 0.2601829469203949 0.14797112345695496
0.011497572064399719 0.25411215424537659 0.13222061097621918
0.0086581064388155937 0.25090458989143372 0.10094365477561951
0.052238091826438904 0.26001203060150146 0.060507621616125107
0.20980516076087952 0.29341074824333191 0.025778362527489662
0.39428901672363281 0.33315831422805786 0.0057097040116786957
0.56046444177627563 0.36381503939628601 0.0083125997334718704
0.67543298006057739 0.37650051712989807 0.010201278142631054
0.75589054822921753 0.39820924401283264 0.013891167938709259
0.80455559492111206 0.41261729598045349 0.01616351492702961
0.82514965534210205 0.4094606339931488 0.011451841332018375
0.83802783489227295 0.41520410776138306 0.0093312282115221024
0.84731400012969971 0.43493017554283142 0.026163257658481598
0.025713931769132614 0.37086725234985352 0.20280762016773224
0.020512046292424202 0.37277856469154358 0.18732650578022003
0.011777720414102077 0.37280184030532837 0.14676995575428009
0.024231391027569771 0.37029305100440979 0.068513430655002594
0.17579542100429535 0.39870083332061768 0.011556513607501984
0.40521624684333801 0.45274868607521057 0.0047450046986341476
0.60237818956375122 0.50156313180923462 0.01029631681740284
0.73196101188659668 0.5291740894317627 0.022313915193080902
0.81406170129776001 0.54218512773513794 0.023769587278366089
0.85673874616622925 0.54790306091308594 0.010870061814785004
0.87531864643096924 0.55353307723999023 0.0077658859081566334
0.88528215885162354 0.55867737531661987 0.0081368237733840942
0.89189088344573975 0.56135207414627075 0.021241730079054832
0.026029175147414207 0.46181318163871765 0.24188584089279175
0.022501777857542038 0.46913561224937439 0.2314155250787735
0.019865177571773529 0.47916549444198608 0.1987709105014801
0.0082702487707138062 0.47212144732475281 0.093389563262462616
0.13697591423988342 0.50277227163314819 0.0065883859060704708
0.42536711692810059 0.57062435150146484 0.0033848930615931749
0.6454123854637146 0.6304745078086853 0.0061217215843498707
0.77598804235458374 0.65528041124343872 0.020806943997740746
0.85445922613143921 0.66652041673660278 0.035255942493677139
0.89669913053512573 0.6715693473815918 0.02642822265625
0.9153289794921875 0.67486667633056641 0.023851253092288971
0.92578697204589844 0.67861819267272949 0.024387972429394722
0.93351644277572632 0.68353497982025146 0.040673006325960159
0.03018563985824585 0.51917183399200439 0.26493838429450989
0.035068407654762268 0.53042113780975342 0.25683754682540894
0.025403819978237152 0.54446059465408325 0.22491057217121124
0.0057034362107515335 0.55003362894058228 0.12713703513145447
0.1290031373500824 0.58847260475158691 0.0094920285046100616
0.45573419332504272 0.65849202871322632 0.0021704430691897869
0.6770927906036377 0.71885323524475098 0.011616740375757217
0.80864179134368896 0.74420183897018433 0.035379014909267426
0.88332712650299072 0.75468736886978149 0.057737745344638824
0.92334246635437012 0.75501298904418945 0.063205108046531677
0.94160014390945435 0.75118082761764526 0.063747555017471313
0.95106273889541626 0.75218874216079712 0.065108880400657654
0.96018195152282715 0.76348000764846802 0.073697619140148163
0.019852897152304649 0.5517151951789856 0.2801034152507782
0.025003755465149879 0.56465053558349609 0.27246400713920593
0.018098074942827225 0.58043700456619263 0.23933213949203491
0.014122428372502327 0.59913069009780884 0.15314154326915741
0.13443498313426971 0.6365630030632019 0.013010121881961823
0.46856909990310669 0.70540928840637207 0.0033527896739542484
0.68923401832580566 0.7633824348449707 0.015888916328549385
0.82465171813964844 0.7957690954208374 0.044472713023424149
0.8951224684715271 0.80223077535629272 0.068074196577072144
0.9395979642868042 0.80415832996368408 0.081125684082508087
0.95702093839645386 0.79629600048065186 0.082084149122238159
0.96705955266952515 0.7976830005645752 0.087425455451011658
0.97378820180892944 0.8030511736869812 0.09517255425453186
0.024226948618888855 0.57131928205490112 0.29269742965698242
0.017453078180551529 0.58691823482513428 0.28314858675003052
0.017860861495137215 0.60196232795715332 0.24704889953136444
0.021048286929726601 0.62280207872390747 0.14563678205013275
0.14423821866512299 0.66202127933502197 0.013790220022201538
0.47972902655601501 0.73259717226028442 0.0029193803202360868
0.6939128041267395 0.78897696733474731 0.011601017788052559
0.82514697313308716 0.81746900081634521 0.042984981089830399
0.90347278118133545 0.8263167142868042 0.070084609091281891
0.94906240701675415 0.82944178581237793 0.085186854004859924
0.96792727708816528 0.82871943712234497 0.091318599879741669
0.97738742828369141 0.8279649019241333 0.09853845089673996
0.98357951641082764 0.82976865768432617 0.11186683177947998
0.032623648643493652 0.59149801731109619 0.30500724911689758
0.020346712321043015 0.60589563846588135 0.28721845149993896
0.028051936998963356 0.62121522426605225 0.23677879571914673
0.024740301072597504 0.63985860347747803 0.11720465868711472
0.15824426710605621 0.67852115631103516 0.019305853173136711
0.48215356469154358 0.74554729461669922 0.0058092903345823288
0.69508415460586548 0.79901629686355591 0.016626559197902679
0.83389365673065186 0.83112221956253052 0.039955109357833862
0.91184818744659424 0.84245163202285767 0.071692720055580139
0.95628911256790161 0.84524238109588623 0.088047727942466736
0.97500908374786377 0.84829974174499512 0.09273364394903183
0.98470509052276611 0.84899270534515381 0.10399500280618668
0.99195736646652222 0.84959107637405396 0.12123085558414459
0.036458693444728851 0.61603021621704102 0.32370272278785706
0.023463888093829155 0.62677544355392456 0.29654252529144287
0.020707404240965843 0.64506298303604126 0.24029405415058136
0.050935138016939163 0.66500818729400635 0.11747680604457855
0.26397597789764404 0.70929855108261108 0.026883488520979881
0.51713079214096069 0.76332771778106689 0.01777464896440506
0.70142102241516113 0.8077017068862915 0.021710623055696487
0.84000009298324585 0.83943355083465576 0.027007997035980225
0.9196515679359436 0.85272896289825439 0.050591651350259781
0.96548330783843994 0.85869604349136353 0.061090610921382904
0.98389047384262085 0.86218208074569702 0.08914986252784729
0.99117237329483032 0.86215674877166748 0.12900049984455109
0.99702805280685425 0.86141473054885864 0.14319328963756561
0.011512487195432186 0.024558916687965393 0.06305713951587677
0.033049415796995163 0.031866919249296188 0.066421940922737122
0.05886097252368927 0.038989841938018799 0.069155342876911163
0.094027981162071228 0.04791482537984848 0.06611526757478714
0.15540991723537445 0.05514710396528244 0.058571204543113708
0.25843235850334167 0.053927045315504074 0.045689929276704788
0.37186780571937561 0.034114014357328415 0.026472128927707672
0.4790613055229187 0.014813441783189774 0.013426238670945168
0.55823266506195068 0.014962364919483662 0.01143309660255909
0.6122431755065918 0.018496539443731308 0.010724954307079315
0.64438438415527344 0.020834425464272499 0.0083855120465159416
0.66951102018356323 0.027984919026494026 0.011858472600579262
0.68749535083770752 0.02204824797809124 0.010851422324776649
0.0073007470928132534 0.045035403221845627 0.070368684828281403
0.023637210950255394 0.049061134457588196 0.072244785726070404
0.055679559707641602 0.057032715529203415 0.074169620871543884
0.099693939089775085 0.066532984375953674 0.073165431618690491
0.1655142605304718 0.073692813515663147 0.066618643701076508
0.27601146697998047 0.073755241930484772 0.053191151469945908
0.39591079950332642 0.058822572231292725 0.034377109259366989
0.510245680809021 0.027886394411325455 0.01762969046831131
0.59309613704681396 0.022160070016980171 0.011436627246439457
0.64382731914520264 0.020900934934616089 0.0081595629453659058
0.67786544561386108 0.027377812191843987 0.0069445292465388775
0.69451963901519775 0.032829418778419495 0.0076644448563456535
0.70592588186264038 0.028354285284876823 0.0077162347733974457
0.004166831262409687 0.067510135471820831 0.077683046460151672
0.011994021944701672 0.067694239318370819 0.076490424573421478
0.048421762883663177 0.076164081692695618 0.077887363731861115
0.10225418955087662 0.087972037494182587 0.080177441239356995
0.17711716890335083 0.096992924809455872 0.07464376837015152
0.2942957878112793 0.10085223615169525 0.054825577884912491
0.41935917735099792 0.098507747054100037 0.030863802880048752
0.53994971513748169 0.078494459390640259 0.018372779712080956
0.62846428155899048 0.069003820419311523 0.011085525155067444
0.67575734853744507 0.063810534775257111 0.0054873744957149029
0.70926153659820557 0.070361509919166565 0.0039770686998963356
0.72524642944335938 0.078445181250572205 0.0040140189230442047
0.73639380931854248 0.073196932673454285 0.010118776001036167
0.0039215688593685627 0.10351592302322388 0.091855756938457489
0.0036402235273271799 0.099046714603900909 0.08618183434009552
0.039464764297008514 0.1066897064447403 0.083439894020557404
0.10202419757843018 0.12460371851921082 0.08539707213640213
0.1885630339384079 0.13804337382316589 0.078144222497940063
0.3150932788848877 0.14940209686756134 0.05568632110953331
0.45292317867279053 0.1533873975276947 0.02348002977669239
0.57133108377456665 0.15145328640937805 0.0094835618510842323
0.66511934995651245 0.15231038630008698 0.0071234609931707382
0.71457099914550781 0.14294110238552094 0.0043540056794881821
0.74531048536300659 0.15109658241271973 0.004145513754338026
