luts/print/kodak_2393_constlclip.cube
# Created by: G'MIC (https://gmic.eu)
TITLE "kodak_2393_constlclip"
# LUT size
LUT_3D_SIZE 5
# Data domain
DOMAIN_MIN 0.0 0.0 0.0
DOMAIN_MAX 1.0 1.0 1.0
# LUT data points
0.013077006675302982 0.024415992200374603 0.026505235582590103
0.07321147620677948 0.037806596606969833 0.013316689059138298
0.29826810956001282 0.084336571395397186 0.01015816442668438
0.47657272219657898 0.11123787611722946 0.015599404461681843
0.53660821914672852 0.11933119595050812 0.017130235210061073
0.0084670567885041237 0.072654351592063904 0.044949207454919815
0.083315826952457428 0.10498395562171936 0.018600208684802055
0.38024336099624634 0.16923286020755768 0.0028408723883330822
0.59576737880706787 0.20835772156715393 0.014890872873365879
0.64417672157287598 0.22641390562057495 0.014606984332203865
0.009319978766143322 0.21193143725395203 0.10959562659263611
0.046748097985982895 0.31181877851486206 0.049114525318145752
0.53968149423599243 0.45217776298522949 0.0089446874335408211
0.76331043243408203 0.4977935254573822 0.0084219835698604584
0.82596021890640259 0.53552001714706421 0.0074791703373193741
0.0045400434173643589 0.34045451879501343 0.16233901679515839
0.060865812003612518 0.48977959156036377 0.086601927876472473
0.64200341701507568 0.68270140886306763 0.0056924857199192047
0.89442086219787598 0.75772392749786377 0.061255615204572678
0.93743175268173218 0.76580142974853516 0.073852777481079102
0.0088024511933326721 0.4513055682182312 0.20155112445354462
0.17333820462226868 0.60143035650253296 0.024863747879862785
0.6813386082649231 0.74443155527114868 0.0095485616475343704
0.92697006464004517 0.81486111879348755 0.080852165818214417
0.97723370790481567 0.83143848180770874 0.099088467657566071
0.0025699690449982882 0.03885943815112114 0.066468410193920135
0.082923740148544312 0.027711141854524612 0.091391623020172119
0.32711461186408997 0.0046779406256973743 0.079550817608833313
0.52342027425765991 0.03860536590218544 0.092021241784095764
0.58292132616043091 0.02652658149600029 0.096625953912734985
0.020729320123791695 0.089731208980083466 0.097145408391952515
0.06111430749297142 0.11681648343801498 0.11903789639472961
0.44384095072746277 0.13938570022583008 0.08864961564540863
0.68591606616973877 0.061417538672685623 0.046070486307144165
0.74742180109024048 0.10474155098199844 0.049241233617067337
0.014221909455955029 0.24962697923183441 0.18857035040855408
0.0092445220798254013 0.34908100962638855 0.1626645028591156
0.58380168676376343 0.48625621199607849 0.056305591017007828
0.84815168380737305 0.52034395933151245 0.041214797645807266
0.91099905967712402 0.56160897016525269 0.053622584789991379
0.022334543988108635 0.3829801082611084 0.25463128089904785
0.01968790777027607 0.53085988759994507 0.24488042294979095
0.64655923843383789 0.7438509464263916 0.055862322449684143
0.95503479242324829 0.80540615320205688 0.02677021361887455
0.99210554361343384 0.81852149963378906 0.06504504382610321
0.0082421991974115372 0.51394408941268921 0.38127025961875916
0.010732523165643215 0.65319466590881348 0.3682512640953064
0.66287469863891602 0.81636160612106323 0.30548891425132751
0.9753577709197998 0.87521827220916748 0.2616347074508667
0.99982142448425293 0.8840448260307312 0.36279585957527161
0.0058938269503414631 0.097499251365661621 0.18266816437244415
0.055172700434923172 0.014077130705118179 0.27796828746795654
0.35775530338287354 0.0071129295974969864 0.34096801280975342
0.55283272266387939 0.031285364180803299 0.35723051428794861
0.62086313962936401 0.017439166083931923 0.38051632046699524
0.001759263570420444 0.16397632658481598 0.25728711485862732
0.0261562280356884 0.14733284711837769 0.36306974291801453
0.4592626690864563 0.13729700446128845 0.45016905665397644
0.70968782901763916 0.060782939195632935 0.46259546279907227
0.76505154371261597 0.12414926290512085 0.46565112471580505
0.016451293602585793 0.33492809534072876 0.37866774201393127
0.0060942256823182106 0.42947149276733398 0.47331100702285767
0.54492771625518799 0.55420303344726562 0.55414754152297974
0.8687700629234314 0.58800721168518066 0.56238102912902832
0.9305921196937561 0.61848199367523193 0.5779646635055542
0.011445961892604828 0.48330694437026978 0.47735065221786499
0.0068061980418860912 0.62351930141448975 0.5732305645942688
0.58199477195739746 0.82614195346832275 0.62298834323883057
0.938099205493927 0.87792706489562988 0.61322563886642456
0.99817216396331787 0.89430361986160278 0.63964855670928955
0.00042257871245965362 0.59661078453063965 0.59551018476486206
0.0068932329304516315 0.72286570072174072 0.67585986852645874
0.60179042816162109 0.88289952278137207 0.72050231695175171
0.94415819644927979 0.93862175941467285 0.71839797496795654
0.99951684474945068 0.94909751415252686 0.74491983652114868
0.0015462539158761501 0.14610598981380463 0.28208091855049133
0.026798367500305176 0.076633885502815247 0.39519491791725159
0.35518744587898254 0.020895235240459442 0.49575212597846985
0.57272541522979736 0.041126206517219543 0.521156907081604
0.64745301008224487 0.030018676072359085 0.55557197332382202
0.00011551800707820803 0.22375328838825226 0.37556952238082886
0.013949270360171795 0.20199719071388245 0.4986673891544342
0.45024588704109192 0.1201850026845932 0.66502392292022705
0.7242010235786438 0.051692362874746323 0.69393390417098999
0.78512334823608398 0.091591991484165192 0.71653527021408081
0.01223226822912693 0.40337437391281128 0.52612608671188354
0.013079474680125713 0.4813481867313385 0.64896202087402344
0.51319646835327148 0.59684741497039795 0.82390046119689941
0.86532223224639893 0.62246102094650269 0.840079665184021
0.92707020044326782 0.66048312187194824 0.84538990259170532
0.028961749747395515 0.55195838212966919 0.6345636248588562
0.035987764596939087 0.67447084188461304 0.74525076150894165
0.51407468318939209 0.87336879968643188 0.89562535285949707
0.92686575651168823 0.9304814338684082 0.9111868143081665
0.99004125595092773 0.93165671825408936 0.90606659650802612
0.023274725303053856 0.63645309209823608 0.71106278896331787
0.010598141700029373 0.75954902172088623 0.81990200281143188
0.55117857456207275 0.91847431659698486 0.92359781265258789
0.92571759223937988 0.97508758306503296 0.9357331395149231
0.99221771955490112 0.98387247323989868 0.93427807092666626
0 0.17763839662075043 0.33869999647140503
0.028841355815529823 0.13388107717037201 0.43551722168922424
0.38911610841751099 0.017314238473773003 0.58670699596405029
0.62443381547927856 0.033313393592834473 0.62348490953445435
0.68232905864715576 0.047946572303771973 0.64237785339355469
2.1003274014219642e-05 0.25886803865432739 0.42639479041099548
0.0047648563049733639 0.2658669650554657 0.53853136301040649
0.47224035859107971 0.17451584339141846 0.75371694564819336
0.74342572689056396 0.14046281576156616 0.77992701530456543
0.80062919855117798 0.17736873030662537 0.79466134309768677
0.0093720974400639534 0.42641171813011169 0.57066076993942261
0.026462718844413757 0.50352853536605835 0.68627256155014038
0.50249838829040527 0.60945761203765869 0.89353018999099731
0.85571974515914917 0.64513742923736572 0.91591846942901611
0.92768174409866333 0.67502647638320923 0.92712926864624023
0.024651426821947098 0.56516677141189575 0.66883939504623413
0.018897276371717453 0.687766432762146 0.78892689943313599
0.47077944874763489 0.88233286142349243 0.95884078741073608
0.91694790124893188 0.93603706359863281 0.98005139827728271
0.98762702941894531 0.951740562915802 0.98312747478485107
0.022553073242306709 0.65022176504135132 0.74026340246200562
0.032166082412004471 0.76381474733352661 0.84591418504714966
0.524056077003479 0.92462801933288574 0.97015398740768433
0.9124138355255127 0.9787788987159729 0.98439502716064453
0.98866564035415649 0.99296665191650391 0.99101763963699341
