luts/print/kodak_2393_constlclip.cube
# Created by: G'MIC (https://gmic.eu)
TITLE "kodak_2393_constlclip"
# LUT size
LUT_3D_SIZE 13
# Data domain
DOMAIN_MIN 0.0 0.0 0.0
DOMAIN_MAX 1.0 1.0 1.0
# LUT data points
0.013077006675302982 0.024415992200374603 0.026505235582590103
0.028973029926419258 0.030015250667929649 0.024385100230574608
0.046275448054075241 0.034216906875371933 0.019982222467660904
0.07321147620677948 0.037806596606969833 0.013316689059138298
0.13481295108795166 0.047874808311462402 0.0077534094452857971
0.21238371729850769 0.065970808267593384 0.0087770046666264534
0.29826810956001282 0.084336571395397186 0.01015816442668438
0.37901240587234497 0.099910616874694824 0.010921747423708439
0.43611767888069153 0.10632666945457458 0.013042405247688293
0.47657272219657898 0.11123787611722946 0.015599404461681843
0.50568163394927979 0.11560821533203125 0.017681002616882324
0.52477085590362549 0.11743564903736115 0.016798879951238632
0.53660821914672852 0.11933119595050812 0.017130235210061073
0.015115880407392979 0.033873599022626877 0.030240286141633987
0.028006415814161301 0.04098917543888092 0.028275089338421822
0.044610626995563507 0.047881796956062317 0.025284800678491592
0.082114167511463165 0.055444918572902679 0.018101710826158524
0.14302533864974976 0.064941138029098511 0.0092085897922515869
0.22302357852458954 0.081095002591609955 0.0062052556313574314
0.31734079122543335 0.097785711288452148 0.0054204007610678673
0.40132251381874084 0.11321044713258743 0.0071044322103261948
0.46997645497322083 0.12165244668722153 0.0088065052404999733
0.51223719120025635 0.12873150408267975 0.011163839139044285
0.54278445243835449 0.1356358528137207 0.013703140430152416
0.56155383586883545 0.13824883103370667 0.014577813446521759
0.56884235143661499 0.1430547684431076 0.019269876182079315
0.013414464890956879 0.046205110847949982 0.03418109193444252
0.02026570588350296 0.056525345891714096 0.032955214381217957
0.037003669887781143 0.066991247236728668 0.029174281284213066
0.087929040193557739 0.076975040137767792 0.020234335213899612
0.15176296234130859 0.086815118789672852 0.0094755729660391808
0.23994645476341248 0.10221794247627258 0.0030215843580663204
0.3389732837677002 0.12470897287130356 0.0039215688593685627
0.42907166481018066 0.1400035172700882 0.0048504550941288471
0.5036962628364563 0.14796482026576996 0.0074641508981585503
0.5490715503692627 0.15649810433387756 0.0099001266062259674
0.57855731248855591 0.16525471210479736 0.012221885845065117
0.59630507230758667 0.17101095616817474 0.014748981222510338
0.60200834274291992 0.17353177070617676 0.018253879621624947
0.0084670567885041237 0.072654351592063904 0.044949207454919815
0.0087643042206764221 0.078530631959438324 0.035610020160675049
0.022655921056866646 0.08886178582906723 0.027579708024859428
0.083315826952457428 0.10498395562171936 0.018600208684802055
0.16347123682498932 0.12413781881332397 0.0096292980015277863
0.27097222208976746 0.1460748165845871 0.002990528242662549
0.38024336099624634 0.16923286020755768 0.0028408723883330822
0.47435882687568665 0.18673811852931976 0.005548140499740839
0.55139440298080444 0.20016781985759735 0.011850304901599884
0.59576737880706787 0.20835772156715393 0.014890872873365879
0.61951678991317749 0.21290087699890137 0.016332259401679039
0.63621848821640015 0.21960756182670593 0.016504444181919098
0.64417672157287598 0.22641390562057495 0.014606984332203865
0.0048922519199550152 0.10684958100318909 0.064023368060588837
0.0046019461005926132 0.11387661099433899 0.053103160113096237
0.013081240467727184 0.12984545528888702 0.038391426205635071
0.073922112584114075 0.15534551441669464 0.017904393374919891
0.18231990933418274 0.18184870481491089 0.010737325996160507
0.30416709184646606 0.2091892808675766 0.0048959618434309959
0.42615696787834167 0.23497405648231506 0.0022945927921682596
0.52430838346481323 0.25361111760139465 0.0037836709525436163
0.60131144523620605 0.27016356587409973 0.0096694501116871834
0.64522773027420044 0.28009039163589478 0.016070213168859482
0.66798847913742065 0.28222477436065674 0.023905152454972267
0.68523257970809937 0.28916379809379578 0.023577656596899033
0.69961798191070557 0.3014642596244812 0.011912297457456589
0.0068296543322503567 0.15380293130874634 0.084773257374763489
0.0082413023337721825 0.17011475563049316 0.081306830048561096
0.011472275480628014 0.1932637095451355 0.067868068814277649
0.047291595488786697 0.23006349802017212 0.016353771090507507
0.18835224211215973 0.26539278030395508 0.0099793830886483192
0.34325650334358215 0.30070394277572632 0.0066430335864424706
0.48669037222862244 0.33680221438407898 0.0043810228817164898
0.5824006199836731 0.35739901661872864 0.0049094106070697308
0.65519291162490845 0.36657676100730896 0.0044435388408601284
0.69833362102508545 0.37532490491867065 0.010057022795081139
0.72434425354003906 0.38161325454711914 0.022880898788571358
0.74429190158843994 0.39237335324287415 0.023121614009141922
0.76130861043930054 0.40563353896141052 0.010261101648211479
0.009319978766143322 0.21193143725395203 0.10959562659263611
0.006918035913258791 0.23382462561130524 0.10728782415390015
0.0072148493491113186 0.26628825068473816 0.092448458075523376
0.046748097985982895 0.31181877851486206 0.049114525318145752
0.20934043824672699 0.35838848352432251 0.022962562739849091
0.38645875453948975 0.4061073362827301 0.011999466456472874
0.53968149423599243 0.45217776298522949 0.0089446874335408211
0.65132033824920654 0.48043930530548096 0.013378636911511421
0.72355574369430542 0.49255269765853882 0.011827550828456879
0.76331043243408203 0.4977935254573822 0.0084219835698604584
0.78883957862854004 0.50486451387405396 0.017388677224516869
0.80821400880813599 0.51891195774078369 0.016800884157419205
0.82596021890640259 0.53552001714706421 0.0074791703373193741
0.0068555194884538651 0.26729640364646912 0.13313348591327667
0.0034539017360657454 0.29192149639129639 0.13290561735630035
0.0066565866582095623 0.3344179093837738 0.11393485218286514
0.054576799273490906 0.38975757360458374 0.072547748684883118
0.23173131048679352 0.44663041830062866 0.024702932685613632
0.42522025108337402 0.50694811344146729 0.013142125681042671
0.5816199779510498 0.55664741992950439 0.010173289105296135
0.70257186889648438 0.58942759037017822 0.015452979132533073
0.78283911943435669 0.60980844497680664 0.015112768858671188
0.82806313037872314 0.61866402626037598 0.0064011369831860065
0.85071957111358643 0.62398165464401245 0.015593360178172588
0.86620211601257324 0.63328731060028076 0.022823574021458626
0.88161575794219971 0.64837509393692017 0.01701723039150238
0.0039589079096913338 0.31458836793899536 0.15086902678012848
0.0081732356920838356 0.33990594744682312 0.14811766147613525
0.026236845180392265 0.39360132813453674 0.13429909944534302
0.066056735813617706 0.45059823989868164 0.083556048572063446
0.25508338212966919 0.51783311367034912 0.01780191995203495
0.45843398571014404 0.5866428017616272 0.01008142251521349
0.62067466974258423 0.63822406530380249 0.0054409848526120186
0.74348825216293335 0.67371493577957153 0.0099198734387755394
0.81953269243240356 0.69128912687301636 0.022526221349835396
0.87133485078811646 0.70520442724227905 0.023735001683235168
0.89536517858505249 0.7127525806427002 0.038629360496997833
0.90947586297988892 0.7182735800743103 0.052551627159118652
0.91404950618743896 0.71868479251861572 0.052383933216333389
0.0045400434173643589 0.34045451879501343 0.16233901679515839
0.014784449711441994 0.37932682037353516 0.15781860053539276
0.025957085192203522 0.43135824799537659 0.14431986212730408
0.060865812003612518 0.48977959156036377 0.086601927876472473
0.26807293295860291 0.55893254280090332 0.014883347786962986
0.47492370009422302 0.62948369979858398 0.0080546056851744652
0.64200341701507568 0.68270140886306763 0.0056924857199192047
0.76169663667678833 0.72050148248672485 0.021694498136639595
0.8455270528793335 0.74582356214523315 0.050022095441818237
0.89442086219787598 0.75772392749786377 0.061255615204572678
0.91885793209075928 0.76269227266311646 0.067284271121025085
0.93428361415863037 0.76563799381256104 0.071956023573875427
0.93743175268173218 0.76580142974853516 0.073852777481079102
0.0050327824428677559 0.36278393864631653 0.17082814872264862
0.014017561450600624 0.40964320302009583 0.16560062766075134
0.023010179400444031 0.45907646417617798 0.1478244960308075
0.066152386367321014 0.51783841848373413 0.074042364954948425
0.28000101447105408 0.58368194103240967 0.015690328553318977
0.48029497265815735 0.64987874031066895 0.0076662846840918064
0.65327119827270508 0.70555734634399414 0.0073067760095000267
0.76540344953536987 0.74271523952484131 0.031254950910806656
0.85743772983551025 0.77193266153335571 0.058733053505420685
0.91004246473312378 0.78595888614654541 0.071532577276229858
0.93712073564529419 0.79137468338012695 0.074419833719730377
0.95039176940917969 0.79264116287231445 0.079254999756813049
0.95491951704025269 0.7936597466468811 0.083227179944515228
0.0039283903315663338 0.39713284373283386 0.18034014105796814
0.0069365706294775009 0.4493308961391449 0.16874741017818451
0.032789252698421478 0.49928051233291626 0.12230993807315826
0.10544963181018829 0.55381566286087036 0.047384254634380341
0.31413388252258301 0.61379885673522949 0.010870480909943581
0.49809592962265015 0.67352664470672607 0.0072503034025430679
0.66280472278594971 0.72490239143371582 0.008764827623963356
0.77515655755996704 0.76041340827941895 0.034991737455129623
0.86727225780487061 0.7876783013343811 0.062305763363838196
0.92062699794769287 0.8026585578918457 0.07597428560256958
0.95189303159713745 0.81189101934432983 0.079446278512477875
0.96343588829040527 0.81407338380813599 0.082250900566577911
0.96791434288024902 0.81579375267028809 0.088509395718574524
0.0088024511933326721 0.4513055682182312 0.20155112445354462
0.020117606967687607 0.50166803598403931 0.17266795039176941
0.050943396985530853 0.55182796716690063 0.089191839098930359
0.17333820462226868 0.60143035650253296 0.024863747879862785
0.36954152584075928 0.64999377727508545 0.0084469066932797432
0.52794736623764038 0.69956201314926147 0.007687542587518692
0.6813386082649231 0.74443155527114868 0.0095485616475343704
0.7910616397857666 0.77591651678085327 0.034445788711309433
0.87368208169937134 0.79975593090057373 0.066534005105495453
0.92697006464004517 0.81486111879348755 0.080852165818214417
0.95901775360107422 0.82330697774887085 0.088172569870948792
0.97296595573425293 0.82752317190170288 0.089069932699203491
0.97723370790481567 0.83143848180770874 0.099088467657566071
0.0088170971721410751 0.028413226827979088 0.040474984794855118
0.021416772156953812 0.031706012785434723 0.039718896150588989
0.044737722724676132 0.035988960415124893 0.035219844430685043
0.083798140287399292 0.040201477706432343 0.028156355023384094
0.14440171420574188 0.038736678659915924 0.013397201895713806
0.21924881637096405 0.048566408455371857 0.0063323974609375
0.30313935875892639 0.064841479063034058 0.0068750567734241486
0.3879837691783905 0.073695026338100433 0.0097230048850178719
0.45775187015533447 0.088294833898544312 0.013447421602904797
0.49462312459945679 0.094167046248912811 0.016306005418300629
0.51679176092147827 0.09566892683506012 0.015741834416985512
0.53632539510726929 0.097908481955528259 0.019079575315117836
0.54973775148391724 0.10547388345003128 0.02474466897547245
0.010289405472576618 0.038325261324644089 0.043613448739051819
0.019955474883317947 0.043434560298919678 0.041808228939771652
0.045669704675674438 0.047683417797088623 0.03728962317109108
0.085307054221630096 0.050846744328737259 0.030701804906129837
0.14952044188976288 0.056692473590373993 0.018385015428066254
0.23878850042819977 0.069032542407512665 0.0063312454149127007
0.33161205053329468 0.090765826404094696 0.0056389155797660351
0.41607511043548584 0.094981126487255096 0.010734183713793755
0.48782595992088318 0.10277263820171356 0.014547594822943211
0.52939635515213013 0.11407246440649033 0.017251826822757721
0.55446726083755493 0.11832498013973236 0.010313954204320908
0.57194697856903076 0.12158869951963425 0.011602752842009068
0.57989263534545898 0.12635312974452972 0.020068090409040451
0.012328173965215683 0.053291648626327515 0.047766786068677902
0.014827893115580082 0.05846945196390152 0.044832132756710052
0.039781771600246429 0.066521510481834412 0.040244366973638535
0.090706735849380493 0.076113715767860413 0.03225645050406456
0.1647704541683197 0.084253303706645966 0.018879281356930733
0.26544338464736938 0.094340048730373383 0.0048138787969946861
0.36776909232139587 0.11883901059627533 0.0052492627874016762
0.45419159531593323 0.12299273908138275 0.011222898960113525
0.52506399154663086 0.12878483533859253 0.016027936711907387
0.56734538078308105 0.14373484253883362 0.017638502642512321
0.59358984231948853 0.14956860244274139 0.010483790189027786
0.61176377534866333 0.15556439757347107 0.012467402964830399
0.62098860740661621 0.15747939050197601 0.01819324865937233
0.011075127869844437 0.075991399586200714 0.056317303329706192
0.0099187064915895462 0.082090862095355988 0.051494315266609192
0.031869612634181976 0.096209943294525146 0.043375950306653976
0.097497083246707916 0.11330679804086685 0.031234771013259888
0.18058291077613831 0.12587668001651764 0.01713765412569046
0.29624411463737488 0.13953879475593567 0.0058941412717103958
0.40685409307479858 0.15938751399517059 0.0040114610455930233
0.49666130542755127 0.16867431998252869 0.0087181087583303452
0.56896573305130005 0.18200460076332092 0.016307545825839043
0.61213690042495728 0.19593812525272369 0.019722448661923409
0.63921427726745605 0.19989688694477081 0.017336931079626083
0.65471696853637695 0.20826403796672821 0.019314305856823921
0.66550272703170776 0.21890754997730255 0.016891764476895332
0.0049888310022652149 0.10475287586450577 0.068415559828281403
0.0061845066957175732 0.11490665376186371 0.063568398356437683
0.019205519929528236 0.13780850172042847 0.057301346212625504
0.083892121911048889 0.16111883521080017 0.035782504826784134
0.19737167656421661 0.1863824874162674 0.015053169801831245
0.33393386006355286 0.21501538157463074 0.0064814849756658077
0.45373815298080444 0.23566372692584991 0.0039190403185784817
0.54803097248077393 0.24516931176185608 0.0047704358585178852
0.62235081195831299 0.25970572233200073 0.0095301158726215363
0.66589421033859253 0.27803578972816467 0.012730407528579235
0.68979120254516602 0.28241553902626038 0.017858212813735008
0.70468872785568237 0.28658819198608398 0.02012958936393261
0.71539866924285889 0.29886248707771301 0.010833890177309513
0.004176420159637928 0.15288153290748596 0.092118360102176666
0.0047127366997301579 0.17293055355548859 0.088139116764068604
0.011494161561131477 0.20377187430858612 0.0786423459649086
0.051393397152423859 0.24004563689231873 0.038895521312952042
0.20634396374225616 0.27806958556175232 0.010798988863825798
0.36980494856834412 0.31295713782310486 0.0054517411626875401
0.5095788836479187 0.34382885694503784 0.0051401476375758648
0.60636228322982788 0.3603251576423645 0.0054457718506455421
0.67902833223342896 0.37067130208015442 0.0066433176398277283
0.72106993198394775 0.38274314999580383 0.0096930712461471558
0.74781447649002075 0.39022430777549744 0.014962663874030113
0.76668345928192139 0.39881694316864014 0.016689106822013855
0.77606028318405151 0.41305097937583923 0.012563174590468407
0.0090082501992583275 0.21992270648479462 0.12763649225234985
0.0061309812590479851 0.24364481866359711 0.11948273330926895
0.0080722430720925331 0.27708601951599121 0.10451942682266235
0.039673555642366409 0.3199465274810791 0.063207842409610748
0.22149741649627686 0.37570479512214661 0.014015871100127697
0.40670442581176758 0.42453685402870178 0.0077407686039805412
0.55592960119247437 0.46052125096321106 0.008153189904987812
0.67027229070663452 0.48824352025985718 0.011480503715574741
0.7400088906288147 0.49634078145027161 0.014490299858152866
0.77914142608642578 0.50196856260299683 0.013636241666972637
0.80699849128723145 0.51334261894226074 0.01208152063190937
0.82919192314147949 0.52825117111206055 0.012830427847802639
0.84508180618286133 0.5459754467010498 0.01355393324047327
0.010629990138113499 0.27712371945381165 0.15616165101528168
0.0079346299171447754 0.30796387791633606 0.15111395716667175
0.011131959967315197 0.34490573406219482 0.13178427517414093
0.04338320717215538 0.39550423622131348 0.085953764617443085
0.22978362441062927 0.4654880166053772 0.014215805567800999
0.43489199876785278 0.52858692407608032 0.006567053496837616
0.59659689664840698 0.5716513991355896 0.0056698517873883247
0.71322298049926758 0.60085415840148926 0.0099839456379413605
0.79528170824050903 0.61775189638137817 0.0094472551718354225
0.83881890773773193 0.62472391128540039 0.008691481314599514
0.865459144115448 0.63464069366455078 0.0077870986424386501
0.88384997844696045 0.64672666788101196 0.014346987009048462
0.89663958549499512 0.65690857172012329 0.022939344868063927
0.0072858771309256554 0.32108399271965027 0.17148123681545258
0.0098623540252447128 0.35224398970603943 0.16729897260665894
0.021760469302535057 0.40105634927749634 0.15159127116203308
0.071151778101921082 0.45596408843994141 0.10051540285348892
0.24736493825912476 0.53485232591629028 0.020834933966398239
0.45654642581939697 0.60133236646652222 0.0066060833632946014
0.62738096714019775 0.65095895528793335 0.0061486787162721157
0.74976116418838501 0.68532657623291016 0.015323279425501823
0.83385646343231201 0.70469182729721069 0.020652979612350464
0.88260436058044434 0.71596765518188477 0.025752302259206772
0.90729832649230957 0.72220307588577271 0.029921617358922958
0.92085027694702148 0.72631955146789551 0.047650564461946487
0.92771756649017334 0.72993916273117065 0.058363568037748337
0.0040802150033414364 0.35194858908653259 0.18252396583557129
0.014045401476323605 0.38610702753067017 0.17943432927131653
0.018893372267484665 0.43958660960197449 0.16143204271793365
0.054869513958692551 0.4987129271030426 0.10729067772626877
0.25424438714981079 0.57480925321578979 0.025952702388167381
0.46878167986869812 0.64092844724655151 0.011592191644012928
0.64341229200363159 0.69340384006500244 0.012853345833718777
0.76878148317337036 0.73100787401199341 0.027497056871652603
0.85556590557098389 0.75423163175582886 0.051321081817150116
0.90621179342269897 0.76722478866577148 0.063373774290084839
0.93215620517730713 0.77265512943267822 0.068102367222309113
0.94542497396469116 0.77489852905273438 0.069316282868385315
0.94942194223403931 0.7750469446182251 0.073401540517807007
0.0041356254369020462 0.37309122085571289 0.19161619246006012
0.020026411861181259 0.41532808542251587 0.19116130471229553
0.022270157933235168 0.46621483564376831 0.1722935289144516
0.042064487934112549 0.52817577123641968 0.10192778706550598
0.26659086346626282 0.60021722316741943 0.025798333808779716
0.48148733377456665 0.66298651695251465 0.018661513924598694
0.65573322772979736 0.71855670213699341 0.014290948398411274
0.77600014209747314 0.75610756874084473 0.03123188391327858
0.86856502294540405 0.78270310163497925 0.058923982083797455
0.91976159811019897 0.79504305124282837 0.071632742881774902
0.94741237163543701 0.80022561550140381 0.075067438185214996
0.96189773082733154 0.80552047491073608 0.076654307544231415
0.96566498279571533 0.80514591932296753 0.08333093672990799
0.0075885397382080555 0.40719842910766602 0.21143992245197296
0.019047636538743973 0.45636758208274841 0.203687384724617
0.021414050832390785 0.50474029779434204 0.17139641940593719
0.043804887682199478 0.56717211008071899 0.095296941697597504
0.28681731224060059 0.63403570652008057 0.028549792245030403
0.49829748272895813 0.69174879789352417 0.02317911759018898
0.66818928718566895 0.74345576763153076 0.010790522210299969
0.78777658939361572 0.77862781286239624 0.026858670637011528
0.88283443450927734 0.80371224880218506 0.054321229457855225
0.93429124355316162 0.81472766399383545 0.063442975282669067
0.9601820707321167 0.8197600245475769 0.077776588499546051
0.97382080554962158 0.82492095232009888 0.088257960975170135
0.97740632295608521 0.82446229457855225 0.094210833311080933
0.014496671967208385 0.46950706839561462 0.24784393608570099
0.025174353271722794 0.51179796457290649 0.23314854502677917
0.012853061780333519 0.56820929050445557 0.18616122007369995
0.059167511761188507 0.62197500467300415 0.11072733253240585
0.31622377038002014 0.67618429660797119 0.035619847476482391
0.52585941553115845 0.73027825355529785 0.023593738675117493
0.68444699048995972 0.76922422647476196 0.016360742971301079
0.80379581451416016 0.79803562164306641 0.022938327863812447
0.89200812578201294 0.81775671243667603 0.053824301809072495
0.94833463430404663 0.83029675483703613 0.050354856997728348
0.97287571430206299 0.83587300777435303 0.071531020104885101
0.98540288209915161 0.83958238363265991 0.078437298536300659
0.98829513788223267 0.84219884872436523 0.11714842915534973
0.0044970493763685226 0.032676458358764648 0.052795290946960449
0.010926220566034317 0.032401591539382935 0.057470507919788361
0.041559390723705292 0.036807805299758911 0.054599177092313766
0.088901489973068237 0.040269456803798676 0.050651416182518005
0.14783410727977753 0.031872335821390152 0.038190804421901703
0.23092363774776459 0.017948629334568977 0.018833130598068237
0.31754094362258911 0.015482599847018719 0.012783439829945564
0.39863690733909607 0.028496088460087776 0.017637260258197784
0.47830885648727417 0.056396633386611938 0.024682587012648582
0.51502662897109985 0.063807561993598938 0.026671599596738815
0.53505676984786987 0.060596391558647156 0.024116935208439827
0.55559200048446655 0.057845622301101685 0.02877502515912056
0.56806772947311401 0.052735242992639542 0.029992511495947838
0.0071438211016356945 0.044011402875185013 0.060025487095117569
0.010931246913969517 0.043458316475152969 0.059707954525947571
0.040319837629795074 0.046544168144464493 0.057735398411750793
0.083703406155109406 0.048359934240579605 0.052556641399860382
0.15650738775730133 0.048007439821958542 0.038153227418661118
0.25774240493774414 0.043270289897918701 0.016344960778951645
0.35804429650306702 0.03927338495850563 0.020286455750465393
0.44384744763374329 0.04777609184384346 0.027871210128068924
0.51212614774703979 0.065091587603092194 0.030483784154057503
0.55127358436584473 0.084661565721035004 0.032381393015384674
0.57590532302856445 0.078946687281131744 0.026368474587798119
0.59468716382980347 0.074542492628097534 0.025391044095158577
0.60702621936798096 0.075979821383953094 0.020024018362164497
0.013054522685706615 0.062861531972885132 0.065773487091064453
0.012632542289793491 0.063517071306705475 0.064905010163784027
0.034498549997806549 0.067098937928676605 0.066856712102890015
0.085817180573940277 0.077046848833560944 0.060142338275909424
0.17395633459091187 0.084474138915538788 0.041178863495588303
0.28689175844192505 0.08589482307434082 0.018156373873353004
0.39655250310897827 0.077867470681667328 0.020449679344892502
0.4858536422252655 0.079204723238945007 0.025558097288012505
0.55292457342147827 0.09417559951543808 0.025253504514694214
0.59331625699996948 0.11073336005210876 0.0264243483543396
0.62130796909332275 0.10209654271602631 0.019638584926724434
0.63920754194259644 0.11138703674077988 0.020867830142378807
0.65194976329803467 0.11861530691385269 0.021615391597151756
0.017746644094586372 0.081243254244327545 0.073169469833374023
0.015100082382559776 0.086296305060386658 0.071215622127056122
0.024534203112125397 0.10072100907564163 0.07234809547662735
0.083869218826293945 0.11710067093372345 0.065872550010681152
0.18664243817329407 0.13169743120670319 0.048020455986261368
0.31428274512290955 0.13989970088005066 0.024732882156968117
0.43441152572631836 0.14093956351280212 0.012980322353541851
0.52881711721420288 0.1384400874376297 0.010816162452101707
0.60212653875350952 0.14983741939067841 0.016998067498207092
0.64110755920410156 0.16067902743816376 0.021031713113188744
