luts/print/kodak_2393_cuspclip.cube
# Created by: G'MIC (https://gmic.eu)
TITLE "kodak_2393_cuspclip"
# LUT size
LUT_3D_SIZE 5
# Data domain
DOMAIN_MIN 0.0 0.0 0.0
DOMAIN_MAX 1.0 1.0 1.0
# LUT data points
0.014899414964020252 0.019475765526294708 0.016974834725260735
0.10408522933721542 0.038596659898757935 0.013799435459077358
0.33231997489929199 0.056282628327608109 0
0.56070703268051147 0.10195158421993256 0.00299223349429667
0.62101095914840698 0.12965545058250427 0.021409472450613976
0.0030871222261339426 0.091774195432662964 0.042987510561943054
0.085742101073265076 0.10157370567321777 0.0095261819660663605
0.4422534704208374 0.17299595475196838 5.0623275456018746e-05
0.67338013648986816 0.23188941180706024 0.017343334853649139
0.71739155054092407 0.2501007616519928 0.025133619084954262
0.010698071680963039 0.30686244368553162 0.14488251507282257
0.047211576253175735 0.35015588998794556 0.015209856443107128
0.61072325706481934 0.50583529472351074 0.0042597600258886814
0.82177096605300903 0.53991472721099854 0.013181289657950401
0.86992800235748291 0.56940269470214844 0.024117982015013695
0.013061328791081905 0.4873659610748291 0.23525673151016235
0.049965038895606995 0.55395078659057617 0.049811627715826035
0.69727057218551636 0.73906409740447998 0.026285238564014435
0.92401641607284546 0.78012460470199585 0.075098417699337006
0.9589572548866272 0.77857089042663574 0.081696756184101105
0.022378105670213699 0.56615453958511353 0.24886682629585266
0.14713090658187866 0.63286441564559937 0.0080130035057663918
0.71018868684768677 0.78081846237182617 0.017209790647029877
0.94666516780853271 0.83078646659851074 0.089764900505542755
0.98884165287017822 0.8381190299987793 0.10660241544246674
0.00076582666952162981 0.037513148039579391 0.092985175549983978
0.080599628388881683 0.028965730220079422 0.096958041191101074
0.3459990918636322 0.0045016268268227577 0.073918439447879791
0.57347363233566284 0.00086349784396588802 0.080754421651363373
0.64183062314987183 0.0044524697586894035 0.088528640568256378
0.00099340698216110468 0.11280959099531174 0.13431110978126526
0.061176568269729614 0.11217822134494781 0.11897093802690506
0.45623144507408142 0.12986263632774353 0.085240907967090607
0.69691771268844604 0.061977297067642212 0.038743142038583755
0.755443274974823 0.10817697644233704 0.04691912978887558
0.0083559667691588402 0.37224766612052917 0.27008137106895447
0.01292628888040781 0.39328378438949585 0.18647690117359161
0.59463554620742798 0.4966951310634613 0.052006501704454422
0.86807155609130859 0.53676915168762207 0.041066307574510574
0.91637521982192993 0.55234885215759277 0.045880634337663651
0.013636481016874313 0.54052358865737915 0.36304250359535217
0.017155501991510391 0.6070752739906311 0.2841067910194397
0.66091740131378174 0.75389319658279419 0.053051382303237915
0.9609265923500061 0.80958157777786255 0.025081634521484375
0.99294388294219971 0.81982016563415527 0.066041357815265656
0.010023005306720734 0.64569556713104248 0.4783473014831543
0.017194021493196487 0.6904531717300415 0.38422331213951111
0.66797703504562378 0.81675678491592407 0.30348074436187744
0.97721636295318604 0.87525546550750732 0.25714758038520813
0.99998652935028076 0.88137954473495483 0.33041656017303467
0.0020211611408740282 0.14897504448890686 0.31295084953308105
0.070899531245231628 0.020416827872395515 0.30258983373641968
0.37504124641418457 0.0036351073067635298 0.35688963532447815
0.60165655612945557 0.0029127532616257668 0.37330079078674316
0.66816568374633789 0.0020415810868144035 0.39161437749862671
0.0050125722773373127 0.26914095878601074 0.42247679829597473
0.024055436253547668 0.1843675822019577 0.40687030553817749
0.44371491670608521 0.13682413101196289 0.44301480054855347
0.71122878789901733 0.056902792304754257 0.45064985752105713
0.76831901073455811 0.1134582981467247 0.47785523533821106
0.028372162953019142 0.49516907334327698 0.56544399261474609
0.016749199479818344 0.51830422878265381 0.58001196384429932
0.552013099193573 0.55028146505355835 0.55443066358566284
0.86859250068664551 0.5858573317527771 0.56666207313537598
0.93011182546615601 0.61967265605926514 0.57622635364532471
0.0077161900699138641 0.63906776905059814 0.64360517263412476
0.0029574823565781116 0.71115869283676147 0.66308319568634033
0.57374471426010132 0.82709628343582153 0.61868500709533691
0.94702094793319702 0.88155984878540039 0.61306428909301758
0.99776899814605713 0.89398998022079468 0.62252676486968994
0 0.71379262208938599 0.71612107753753662
0.0058875586837530136 0.7761223316192627 0.72265064716339111
0.58305716514587402 0.87794727087020874 0.71113556623458862
0.94843608140945435 0.94179528951644897 0.72439020872116089
0.99837303161621094 0.94735479354858398 0.72617155313491821
0.0040188510902225971 0.23569962382316589 0.4605620801448822
0.055163919925689697 0.076995298266410828 0.48141041398048401
0.38118046522140503 0.0059528276324272156 0.53700160980224609
0.63507759571075439 0.0030623790808022022 0.5831596851348877
0.69773179292678833 0.00044202618300914764 0.58255624771118164
0 0.34321960806846619 0.56947809457778931
0.01087767630815506 0.27666440606117249 0.60143750905990601
0.44454655051231384 0.11486946791410446 0.66719728708267212
0.72586435079574585 0.049110457301139832 0.696430504322052
0.78789663314819336 0.091207779943943024 0.71721583604812622
0.019678287208080292 0.52867752313613892 0.69423192739486694
0.021693434566259384 0.56114208698272705 0.74775129556655884
0.51254391670227051 0.59280043840408325 0.82549870014190674
0.85882401466369629 0.61416304111480713 0.84382444620132446
0.92260932922363281 0.64871752262115479 0.84812432527542114
0.03564414381980896 0.67705714702606201 0.77981215715408325
0.031656600534915924 0.7467339038848877 0.82889783382415771
0.5082429051399231 0.87267827987670898 0.89610296487808228
0.92271882295608521 0.92485499382019043 0.90139120817184448
0.98919087648391724 0.93621659278869629 0.90886831283569336
0.025032641366124153 0.7341805100440979 0.82342410087585449
0.010313550010323524 0.80653935670852661 0.87038981914520264
0.55271214246749878 0.91957777738571167 0.92639786005020142
0.91944259405136108 0.97497498989105225 0.93560808897018433
0.98823529481887817 0.98350435495376587 0.93081754446029663
0.00047860239283181727 0.27534681558609009 0.52879530191421509
0.037278328090906143 0.18937230110168457 0.55877006053924561
0.40388399362564087 0.00057932536583393812 0.62721502780914307
0.65737378597259521 0.0022368337959051132 0.65582793951034546
0.71965485811233521 0.0018222135258838534 0.67847943305969238
0 0.37359625101089478 0.63230985403060913
0.0058813504874706268 0.32177111506462097 0.6593024730682373
0.46484583616256714 0.17063377797603607 0.75166308879852295
0.73340249061584473 0.12761394679546356 0.77579444646835327
0.80721879005432129 0.18794438242912292 0.79981333017349243
0.0037483812775462866 0.54280996322631836 0.72963821887969971
0.011333196423947811 0.57576996088027954 0.78837770223617554
0.50550210475921631 0.61108314990997314 0.89263051748275757
0.8542015552520752 0.63144856691360474 0.91347485780715942
0.92680561542510986 0.67300271987915039 0.92576438188552856
0.01770363561809063 0.68247908353805542 0.8067086935043335
0.0079211369156837463 0.75464349985122681 0.8632209300994873
0.46670448780059814 0.88242059946060181 0.95979964733123779
0.904449462890625 0.93277615308761597 0.97913402318954468
0.98633122444152832 0.94973492622375488 0.98240441083908081
0.0092271994799375534 0.73725181818008423 0.84126311540603638
0.026777215301990509 0.80901294946670532 0.89588725566864014
0.50411289930343628 0.92273616790771484 0.9687315821647644
0.91983318328857422 0.98563134670257568 0.99134105443954468
0.99340659379959106 0.99377620220184326 0.99256902933120728
