luts/print/kodak_2393_constlmap.cube
# Created by: G'MIC (https://gmic.eu)
TITLE "kodak_2393_constlmap"
# LUT size
LUT_3D_SIZE 5
# Data domain
DOMAIN_MIN 0.0 0.0 0.0
DOMAIN_MAX 1.0 1.0 1.0
# LUT data points
0.010431760922074318 0.021062290295958519 0.020356735214591026
0.064893938601016998 0.039730880409479141 0.026844847947359085
0.29212537407875061 0.083237789571285248 0.0090834973379969597
0.47573864459991455 0.10857351124286652 0.012342924252152443
0.53844505548477173 0.11655623465776443 0.0095329433679580688
0.028859740123152733 0.065217263996601105 0.046122651547193527
0.089717164635658264 0.098694592714309692 0.028333567082881927
0.393807053565979 0.17141318321228027 0.0072639617137610912
0.59302401542663574 0.20290836691856384 0.0044734878465533257
0.6543806791305542 0.23523414134979248 0.017394136637449265
0.010779870674014091 0.21429333090782166 0.11042049527168274
0.058131888508796692 0.31227076053619385 0.053586818277835846
0.54036796092987061 0.45482119917869568 0.022466860711574554
0.77280896902084351 0.50797188282012939 0.018257753923535347
0.82945764064788818 0.54543614387512207 0.0068274852819740772
0.0097638294100761414 0.33918735384941101 0.16336914896965027
0.076001815497875214 0.48516163229942322 0.091081343591213226
0.64368492364883423 0.68799549341201782 0.01689097099006176
0.89068120718002319 0.75546431541442871 0.077107556164264679
0.93717527389526367 0.76969027519226074 0.072171248495578766
0.01277459878474474 0.4520229697227478 0.19828861951828003
0.19341942667961121 0.59877318143844604 0.02025572769343853
0.66508245468139648 0.7377936840057373 0.025440918281674385
0.92816013097763062 0.81558841466903687 0.086026117205619812
0.97233414649963379 0.8268895149230957 0.10083245486021042
0.024276956915855408 0.042855489999055862 0.06384219229221344
0.077520735561847687 0.036399602890014648 0.086198247969150543
0.32397943735122681 0.037381548434495926 0.088070422410964966
0.51735514402389526 0.05028185248374939 0.092162124812602997
0.58233869075775146 0.035928346216678619 0.10196178406476974
0.037453893572092056 0.083632633090019226 0.091638334095478058
0.096573740243911743 0.11050015687942505 0.11238445341587067
0.41050592064857483 0.17315267026424408 0.137297123670578
0.66587871313095093 0.14118784666061401 0.097173787653446198
0.73832243680953979 0.12667796015739441 0.055165652185678482
0.038554966449737549 0.24677269160747528 0.1798626035451889
0.1518813818693161 0.34015509486198425 0.20018042623996735
0.55826878547668457 0.48737934231758118 0.20791509747505188
0.83484655618667603 0.53171229362487793 0.15873166918754578
0.90369021892547607 0.56787902116775513 0.047732513397932053
0.041319902986288071 0.38043344020843506 0.26025977730751038
0.092982284724712372 0.52719676494598389 0.24696512520313263
0.64619117975234985 0.73663341999053955 0.19462999701499939
0.92139959335327148 0.79825139045715332 0.25187209248542786
0.98901820182800293 0.81753009557723999 0.15568278729915619
0.027927892282605171 0.51515549421310425 0.38116815686225891
0.029886163771152496 0.65406280755996704 0.38005784153938293
0.67162132263183594 0.8173031210899353 0.30245661735534668
0.9772336483001709 0.87590873241424561 0.27955514192581177
0.9991646409034729 0.88079088926315308 0.38390204310417175
0.017100090160965919 0.096820041537284851 0.17389115691184998
0.052423499524593353 0.037749540060758591 0.26803547143936157
0.33979305624961853 0.053666073828935623 0.32642823457717896
0.54579430818557739 0.025259189307689667 0.35221141576766968
0.60722863674163818 0.032102115452289581 0.36468949913978577
0.0045494530349969864 0.15977831184864044 0.25420758128166199
0.096938714385032654 0.17662613093852997 0.3167327344417572
0.43980151414871216 0.19703009724617004 0.43062794208526611
0.69358301162719727 0.14752046763896942 0.45782023668289185
0.76581090688705444 0.12983681261539459 0.48411858081817627
0.054020196199417114 0.34436413645744324 0.39015099406242371
0.20523682236671448 0.42520749568939209 0.46253830194473267
0.57503986358642578 0.5594906210899353 0.56919115781784058
0.87313145399093628 0.59203481674194336 0.56940078735351562
0.93238598108291626 0.62474942207336426 0.58370709419250488
0.020748483017086983 0.48153939843177795 0.48915019631385803
0.12108992040157318 0.61537331342697144 0.57201552391052246
0.59042131900787354 0.82659494876861572 0.63042575120925903
0.94378161430358887 0.88375186920166016 0.64450323581695557
0.99656635522842407 0.89606624841690063 0.64900320768356323
0.02038554847240448 0.58762574195861816 0.5945436954498291
0.012980218045413494 0.71989059448242188 0.68050670623779297
0.6069449782371521 0.88432592153549194 0.72620600461959839
0.9464910626411438 0.94013011455535889 0.72443467378616333
0.99994504451751709 0.94985061883926392 0.75618886947631836
2.2753547455067746e-05 0.1477794349193573 0.28363227844238281
0.032341856509447098 0.090701080858707428 0.3920799195766449
0.36608323454856873 0.047925416380167007 0.48855158686637878
0.57251226902008057 0.058203425258398056 0.51960611343383789
0.64232271909713745 0.034041132777929306 0.5501595139503479
1.4540728443535045e-05 0.22242602705955505 0.37346041202545166
0.040019076317548752 0.21858212351799011 0.4796890914440155
0.46389076113700867 0.16355739533901215 0.66224008798599243
0.71149110794067383 0.17235888540744781 0.6804196834564209
0.78322213888168335 0.10868388414382935 0.71660178899765015
0.013073760084807873 0.40880221128463745 0.53198611736297607
0.14986857771873474 0.48821532726287842 0.6306648850440979
0.5351288914680481 0.5966525673866272 0.82495224475860596
0.86111611127853394 0.62553310394287109 0.84368181228637695
0.92758870124816895 0.66239029169082642 0.85893946886062622
0.013739881105720997 0.5523800253868103 0.63518619537353516
0.15215784311294556 0.67227476835250854 0.7403867244720459
0.5423426628112793 0.87153220176696777 0.8929290771484375
0.92812186479568481 0.92943817377090454 0.90894907712936401
0.9931599497795105 0.94187623262405396 0.91406840085983276
0.028525512665510178 0.64204829931259155 0.71528452634811401
0.045014955103397369 0.7637183666229248 0.82063746452331543
0.54746496677398682 0.91839677095413208 0.92583638429641724
0.92779141664505005 0.97777938842773438 0.93943071365356445
0.9964180588722229 0.98902004957199097 0.9487680196762085
0 0.17737136781215668 0.33196398615837097
0.029275961220264435 0.14092366397380829 0.43522948026657104
0.39739003777503967 0.024604557082056999 0.59567874670028687
0.61233747005462646 0.065668858587741852 0.60422432422637939
0.69009631872177124 0.068764448165893555 0.65102297067642212
0 0.25385540723800659 0.42123407125473022
0.0057019549421966076 0.24928022921085358 0.53741443157196045
0.47194847464561462 0.17386114597320557 0.75212138891220093
0.73783689737319946 0.15796633064746857 0.77401471138000488
0.80335414409637451 0.18746110796928406 0.79738080501556396
0.0036859549582004547 0.41899514198303223 0.56288105249404907
0.0067931381054222584 0.50160324573516846 0.6853296160697937
0.50952047109603882 0.61069434881210327 0.89404994249343872
0.85778349637985229 0.63292312622070312 0.91698187589645386
0.92974573373794556 0.67662912607192993 0.93264001607894897
0.0080821765586733818 0.5731816291809082 0.67452257871627808
0.035679012537002563 0.68615609407424927 0.78180938959121704
0.48301500082015991 0.88120144605636597 0.95700269937515259
0.92178970575332642 0.93728780746459961 0.97971254587173462
0.98702597618103027 0.94625753164291382 0.98364001512527466
0.0017263374757021666 0.65003758668899536 0.73952502012252808
0.0045417039655148983 0.76717418432235718 0.84910356998443604
0.52175766229629517 0.92289090156555176 0.96724164485931396
0.91173934936523438 0.98401707410812378 0.98976284265518188
0.99700963497161865 0.99559074640274048 0.99339622259140015
