luts/print/kodak_2393_constlmap.cube
# Created by: G'MIC (https://gmic.eu)
TITLE "kodak_2393_constlmap"
# LUT size
LUT_3D_SIZE 13
# Data domain
DOMAIN_MIN 0.0 0.0 0.0
DOMAIN_MAX 1.0 1.0 1.0
# LUT data points
0.010431760922074318 0.021062290295958519 0.020356735214591026
0.016397573053836823 0.022473787888884544 0.022558968514204025
0.035894028842449188 0.029043249785900116 0.02512093260884285
0.064893938601016998 0.039730880409479141 0.026844847947359085
0.11613935232162476 0.052090946584939957 0.022269545122981071
0.20171491801738739 0.068159691989421844 0.013846124522387981
0.29212537407875061 0.083237789571285248 0.0090834973379969597
0.37582021951675415 0.093755371868610382 0.0048919976688921452
0.44112405180931091 0.10234653204679489 0.0065019796602427959
0.47573864459991455 0.10857351124286652 0.012342924252152443
0.50258231163024902 0.11242074519395828 0.016026934608817101
0.52402913570404053 0.11537599563598633 0.012181853875517845
0.53844505548477173 0.11655623465776443 0.0095329433679580688
0.018810031935572624 0.029717300087213516 0.027241276577115059
0.025930501520633698 0.033459965139627457 0.028710922226309776
0.042738508433103561 0.038651768118143082 0.030885284766554832
0.078494817018508911 0.049782875925302505 0.028517525643110275
0.13217605650424957 0.062651537358760834 0.019656971096992493
0.2207682877779007 0.079667486250400543 0.012305091135203838
0.32062271237373352 0.098659083247184753 0.0070950076915323734
0.40849855542182922 0.1133127436041832 0.0055661071091890335
0.47216850519180298 0.12527045607566833 0.015845309942960739
0.50834184885025024 0.13133077323436737 0.016799269244074821
0.53868335485458374 0.13618174195289612 0.011704598553478718
0.55874282121658325 0.1385003924369812 0.0087279826402664185
0.57156193256378174 0.14013044536113739 0.0049872305244207382
0.025890469551086426 0.04333331435918808 0.034870460629463196
0.033460535109043121 0.04856770858168602 0.033822916448116302
0.047429416328668594 0.055596429854631424 0.03270702064037323
0.085789665579795837 0.066732920706272125 0.029206892475485802
0.14765369892120361 0.081694178283214569 0.020468274131417274
0.2479691356420517 0.10373982787132263 0.010557601228356361
0.35633367300033569 0.12587319314479828 0.0041726804338395596
0.44437047839164734 0.14475668966770172 0.010508578270673752
0.50929814577102661 0.15582829713821411 0.01699148491024971
0.54725354909896851 0.15980999171733856 0.011950639076530933
0.57670629024505615 0.16235502064228058 0.0074242535047233105
0.59689223766326904 0.1684182733297348 0.012608038261532784
0.61245119571685791 0.17951644957065582 0.014317486435174942
0.028859740123152733 0.065217263996601105 0.046122651547193527
0.034662224352359772 0.070166371762752533 0.042194798588752747
0.046991851180791855 0.082956232130527496 0.035452898591756821
0.089717164635658264 0.098694592714309692 0.028333567082881927
0.16505536437034607 0.12041115760803223 0.021857287734746933
0.27913585305213928 0.14877636730670929 0.014765092171728611
0.393807053565979 0.17141318321228027 0.0072639617137610912
0.48663163185119629 0.18693225085735321 0.0076816934160888195
0.55070513486862183 0.19747897982597351 0.0074781379662454128
0.59302401542663574 0.20290836691856384 0.0044734878465533257
0.61763697862625122 0.20659011602401733 0.0070338980294764042
0.63718760013580322 0.2188897579908371 0.01377995777875185
0.6543806791305542 0.23523414134979248 0.017394136637449265
0.02460765466094017 0.10101131349802017 0.061879806220531464
0.026001395657658577 0.11080346256494522 0.058068983256816864
0.038585260510444641 0.13413152098655701 0.05050080269575119
0.090500548481941223 0.15424729883670807 0.030987624078989029
0.18673105537891388 0.18024542927742004 0.018825950101017952
0.31677526235580444 0.21297425031661987 0.018986809998750687
0.43980485200881958 0.2391393631696701 0.014739960432052612
0.53762507438659668 0.25496864318847656 0.0067148995585739613
0.60752946138381958 0.268370121717453 0.0036951550282537937
0.65046912431716919 0.28358981013298035 0.008816692978143692
0.67429047822952271 0.29110699892044067 0.016290387138724327
0.68903613090515137 0.29700487852096558 0.017273757606744766
0.70451843738555908 0.31357699632644653 0.01570344902575016
0.015484021045267582 0.1558072566986084 0.084454633295536041
0.01314360648393631 0.16664350032806396 0.081349484622478485
0.020232541486620903 0.19636309146881104 0.07281966507434845
0.079571127891540527 0.22921150922775269 0.036190871149301529
0.20604580640792847 0.26824250817298889 0.021715784445405006
0.35686284303665161 0.3078673779964447 0.024098459631204605
0.49167194962501526 0.3389856219291687 0.02142995223402977
0.59771877527236938 0.36087486147880554 0.0091886483132839203
0.66697430610656738 0.37507474422454834 0.0088984323665499687
0.71180123090744019 0.38823473453521729 0.018605804070830345
0.73759639263153076 0.40011659264564514 0.021860593929886818
0.75438576936721802 0.41293987631797791 0.016157951205968857
0.7663569450378418 0.42409390211105347 0.012502812780439854
0.010779870674014091 0.21429333090782166 0.11042049527168274
0.012862515635788441 0.23151737451553345 0.10806425660848618
0.008688279427587986 0.26664021611213684 0.09767577052116394
0.058131888508796692 0.31227076053619385 0.053586818277835846
0.22214692831039429 0.36461001634597778 0.027047669515013695
0.39459562301635742 0.41517758369445801 0.022260000929236412
0.54036796092987061 0.45482119917869568 0.022466860711574554
0.65479743480682373 0.48014011979103088 0.017370650544762611
0.72547465562820435 0.49814298748970032 0.0167363490909338
0.77280896902084351 0.50797188282012939 0.018257753923535347
0.80104291439056396 0.51907151937484741 0.017636198550462723
0.81818956136703491 0.53569400310516357 0.012300140224397182
0.82945764064788818 0.54543614387512207 0.0068274852819740772
0.0079649230465292931 0.27207767963409424 0.13471058011054993
0.015642592683434486 0.2958005964756012 0.13495565950870514
0.011596754193305969 0.33582273125648499 0.12176932394504547
0.070881590247154236 0.38928607106208801 0.068223290145397186
0.23970560729503632 0.45243501663208008 0.022728638723492622
0.42767477035522461 0.51465469598770142 0.017095288261771202
0.58633267879486084 0.56176835298538208 0.015476271510124207
0.70387023687362671 0.58973830938339233 0.026797350496053696
0.78039431571960449 0.60830622911453247 0.025264650583267212
0.83097380399703979 0.62393927574157715 0.01584910973906517
0.85739338397979736 0.63524913787841797 0.016589205712080002
0.87215977907180786 0.64563322067260742 0.019061414524912834
0.88223052024841309 0.65139484405517578 0.015722686424851418
0.011582842096686363 0.31323805451393127 0.15261580049991608
0.016639186069369316 0.34374931454658508 0.15324456989765167
0.011609949171543121 0.38906985521316528 0.13957889378070831
0.06540970504283905 0.44825530052185059 0.088937081396579742
0.26132446527481079 0.51851791143417358 0.025085838511586189
0.4547172486782074 0.58528715372085571 0.0072008022107183933
0.62385427951812744 0.64392191171646118 0.010676020756363869
0.74429166316986084 0.67615693807601929 0.030924927443265915
0.82171845436096191 0.69473206996917725 0.042222760617733002
0.86697244644165039 0.70718061923980713 0.045764308422803879
0.89710837602615356 0.71745157241821289 0.053318861871957779
0.90886574983596802 0.72171986103057861 0.053907535970211029
0.91640055179595947 0.72311246395111084 0.049922779202461243
0.0097638294100761414 0.33918735384941101 0.16336914896965027
0.014172662049531937 0.37818193435668945 0.1639636904001236
0.017790088430047035 0.42674177885055542 0.15110960602760315
0.076001815497875214 0.48516163229942322 0.091081343591213226
0.27019390463829041 0.55726045370101929 0.032873459160327911
0.47540763020515442 0.62883371114730835 0.0088231554254889488
0.64368492364883423 0.68799549341201782 0.01689097099006176
0.76548415422439575 0.72367417812347412 0.04175172746181488
0.84326666593551636 0.7436528205871582 0.0666922926902771
0.89068120718002319 0.75546431541442871 0.077107556164264679
0.91891205310821533 0.76406437158584595 0.084744460880756378
0.92996668815612793 0.76782554388046265 0.079319991171360016
0.93717527389526367 0.76969027519226074 0.072171248495578766
0.0041924123652279377 0.36486712098121643 0.17333443462848663
0.0065478007309138775 0.40783131122589111 0.17112451791763306
0.019095806404948235 0.45896145701408386 0.14899466931819916
0.092300698161125183 0.5183708667755127 0.074252843856811523
0.28013718128204346 0.58412563800811768 0.019564161077141762
0.48044359683990479 0.65064847469329834 0.010514442808926105
0.65691667795181274 0.71053850650787354 0.015579119324684143
0.77981209754943848 0.74835300445556641 0.042999297380447388
0.85969167947769165 0.77175992727279663 0.067720480263233185
0.90955471992492676 0.78674650192260742 0.083863034844398499
0.93321263790130615 0.79199701547622681 0.094351522624492645
0.94418030977249146 0.79495149850845337 0.093070834875106812
0.95128893852233887 0.79956960678100586 0.084537908434867859
0.0085098268464207649 0.40852013230323792 0.18793351948261261
0.0071093840524554253 0.44956395030021667 0.17498946189880371
0.026781568303704262 0.49801769852638245 0.13232655823230743
0.11671990901231766 0.55561572313308716 0.050406213849782944
0.32185566425323486 0.6175270676612854 0.013633069582283497
0.50369477272033691 0.67519974708557129 0.0057134740054607391
0.66506433486938477 0.72662729024887085 0.012747566215693951
0.78876715898513794 0.7638506293296814 0.043150495737791061
0.87036120891571045 0.78753876686096191 0.067891307175159454
0.9205402135848999 0.80344992876052856 0.083671346306800842
0.94675558805465698 0.81075143814086914 0.09237932413816452
0.95767956972122192 0.81265377998352051 0.093537032604217529
0.9626128077507019 0.8153616189956665 0.091425545513629913
0.01277459878474474 0.4520229697227478 0.19828861951828003
0.016220526769757271 0.50527715682983398 0.16937468945980072
0.057715248316526413 0.55202710628509521 0.097151540219783783
0.19341942667961121 0.59877318143844604 0.02025572769343853
0.3763943612575531 0.64946585893630981 0.0031732148490846157
0.52715384960174561 0.69563055038452148 0.009265645407140255
0.66508245468139648 0.7377936840057373 0.025440918281674385
0.79507595300674438 0.77562797069549561 0.049622733145952225
0.87859851121902466 0.79852789640426636 0.071931920945644379
0.92816013097763062 0.81558841466903687 0.086026117205619812
0.96227669715881348 0.82739615440368652 0.095345005393028259
0.96917819976806641 0.8253321647644043 0.096359536051750183
0.97233414649963379 0.8268895149230957 0.10083245486021042
0.013250837102532387 0.023393817245960236 0.026134490966796875
0.024190535768866539 0.025729071348905563 0.030126279219985008
0.040654543787240982 0.028926625847816467 0.031039189547300339
0.070004045963287354 0.038675464689731598 0.033296562731266022
0.1225820928812027 0.049171745777130127 0.029434831812977791
0.20723125338554382 0.059740748256444931 0.01663755439221859
0.29897198081016541 0.070159152150154114 0.011265220120549202
0.38277649879455566 0.080148480832576752 0.010760453529655933
0.44610121846199036 0.092374987900257111 0.012095896527171135
0.48734351992607117 0.091864012181758881 0.009171564131975174
0.5169677734375 0.094677776098251343 0.0083129880949854851
0.53865081071853638 0.10020838677883148 0.0045516369864344597
0.55489903688430786 0.093065284192562103 0.0072616725228726864
0.022399678826332092 0.035282552242279053 0.035882540047168732
0.030770111829042435 0.036628320813179016 0.037230711430311203
0.044579554349184036 0.039454635232686996 0.038069810718297958
0.076294869184494019 0.049658786505460739 0.037895757704973221
0.13487240672111511 0.060648690909147263 0.031989723443984985
0.23358811438083649 0.071192599833011627 0.02005087211728096
0.33241403102874756 0.088847018778324127 0.016016207635402679
0.41611361503601074 0.10413022339344025 0.020904960110783577
0.47996628284454346 0.11615530401468277 0.026920244097709656
0.52146106958389282 0.11714880168437958 0.019436601549386978
0.55135428905487061 0.11964014172554016 0.011831395328044891
0.56992387771606445 0.12465253472328186 0.0092199882492423058
0.58216530084609985 0.12086473405361176 0.0069533106870949268
0.030373413115739822 0.04862397164106369 0.043931368738412857
0.036739993840456009 0.05107484757900238 0.043908450752496719
0.05060984194278717 0.057950127869844437 0.043708067387342453
0.085735276341438293 0.068789616227149963 0.042049616575241089
0.1484416127204895 0.082437135279178619 0.037508975714445114
0.2527574896812439 0.10036428272724152 0.028154650703072548
0.35931810736656189 0.12160518765449524 0.02548706904053688
0.45032167434692383 0.14119777083396912 0.031572513282299042
0.51698607206344604 0.14891020953655243 0.032816898077726364
0.561359703540802 0.1476014256477356 0.019004058092832565
0.59139811992645264 0.14620965719223022 0.011047782376408577
0.6069907546043396 0.15765126049518585 0.018197931349277496
0.61781448125839233 0.16536715626716614 0.02203051932156086
0.034630749374628067 0.07003561407327652 0.053994812071323395
0.039150431752204895 0.073339514434337616 0.051633395254611969
0.051083449274301529 0.08903898298740387 0.048014309257268906
0.088333815336227417 0.10319831967353821 0.046086017042398453
0.16860434412956238 0.12127851694822311 0.042733538895845413
0.27810406684875488 0.14506027102470398 0.038816072046756744
0.39107748866081238 0.17103232443332672 0.035627700388431549
0.49077141284942627 0.18665267527103424 0.032920341938734055
0.55973184108734131 0.1952040046453476 0.029484976083040237
0.60650187730789185 0.19661669433116913 0.01998545415699482
0.63350528478622437 0.20019914209842682 0.016216084361076355
0.65099722146987915 0.21138839423656464 0.019020799547433853
0.66754728555679321 0.22562375664710999 0.019462974742054939
0.028211377561092377 0.1102522611618042 0.071728937327861786
0.032811272889375687 0.11418280750513077 0.068242542445659637
0.045772626996040344 0.13372266292572021 0.059275757521390915
0.090615138411521912 0.15786296129226685 0.050073198974132538
0.19013629853725433 0.18387347459793091 0.04687793180346489
0.31568098068237305 0.21441525220870972 0.046968437731266022
0.44228318333625793 0.2431778609752655 0.045801274478435516
0.54506003856658936 0.26052868366241455 0.041466314345598221
0.6167755126953125 0.27176105976104736 0.03508758544921875
0.65986555814743042 0.28024893999099731 0.034463711082935333
0.68658405542373657 0.28714793920516968 0.028030065819621086
0.70479846000671387 0.29654574394226074 0.017724504694342613
0.72272306680679321 0.31525060534477234 0.015544637106359005
0.020117860287427902 0.15864035487174988 0.09325021505355835
0.028074616566300392 0.16945292055606842 0.09251982718706131
0.036410745233297348 0.19460618495941162 0.087177753448486328
0.080946095287799835 0.23042654991149902 0.065542750060558319
0.20581397414207458 0.27188378572463989 0.054557245224714279
0.35562673211097717 0.31187748908996582 0.056036092340946198
0.49605852365493774 0.34518030285835266 0.055998902767896652
0.60590136051177979 0.36729899048805237 0.052592378109693527
0.67707258462905884 0.38170954585075378 0.050095353275537491
0.72213071584701538 0.39086851477622986 0.054082263261079788
0.75133705139160156 0.40300226211547852 0.036689549684524536
0.76957494020462036 0.41560223698616028 0.019426561892032623
0.78077238798141479 0.42577049136161804 0.012468390166759491
0.019989222288131714 0.21967633068561554 0.12039963901042938
0.035525813698768616 0.23850151896476746 0.12190447002649307
0.037314306944608688 0.27140381932258606 0.11461877077817917
0.070975571870803833 0.31863301992416382 0.085520908236503601
0.21531827747821808 0.37102192640304565 0.065203003585338593
0.38794267177581787 0.4198269248008728 0.061460383236408234
0.54406696557998657 0.46089360117912292 0.063272885978221893
0.66529887914657593 0.48983070254325867 0.064646638929843903
0.73845195770263672 0.50672996044158936 0.062798537313938141
0.78487128019332886 0.51838910579681396 0.057533353567123413
0.81426560878753662 0.52940458059310913 0.032379493117332458
0.83232951164245605 0.54120498895645142 0.012806417420506477
0.84199750423431396 0.54962468147277832 0.0090200090780854225
0.021729696542024612 0.27972161769866943 0.14734141528606415
0.036408845335245132 0.30503740906715393 0.14896911382675171
0.04313080757856369 0.34456488490104675 0.13883250951766968
0.091989047825336456 0.3966270387172699 0.1000983864068985
0.24362999200820923 0.46176758408546448 0.062973156571388245
0.42619478702545166 0.52106660604476929 0.059757847338914871
0.58944785594940186 0.56949645280838013 0.06390814483165741
0.71454924345016479 0.5997653603553772 0.077517382800579071
0.79009467363357544 0.61624866724014282 0.07762610912322998
0.83853572607040405 0.63174033164978027 0.065583892166614532
0.86705714464187622 0.64262551069259644 0.042042706161737442
0.88423949480056763 0.65052282810211182 0.021982857957482338
0.8933749794960022 0.65719419717788696 0.020936105400323868
0.027800764888525009 0.32285001873970032 0.16804330050945282
0.032890260219573975 0.35262411832809448 0.16684466600418091
0.038937751203775406 0.39835068583488464 0.15401792526245117
0.089974269270896912 0.4572024941444397 0.11632147431373596
0.25948497653007507 0.5277748703956604 0.061743117868900299
0.45506981015205383 0.59354233741760254 0.047950893640518188
0.62490546703338623 0.64962142705917358 0.064283065497875214
0.74994039535522461 0.68326729536056519 0.086497046053409576
0.82957559823989868 0.70364224910736084 0.096949756145477295
0.87609630823135376 0.71490651369094849 0.092018306255340576
0.90296250581741333 0.72129446268081665 0.076943464577198029
0.91857504844665527 0.72843366861343384 0.059533137828111649
0.92787569761276245 0.73612856864929199 0.058723315596580505
0.023893438279628754 0.3498615026473999 0.1820656806230545
0.027512913569808006 0.38730242848396301 0.17894536256790161
0.025330996140837669 0.43412184715270996 0.16566519439220428
0.062281455844640732 0.49576678872108459 0.10805141925811768
0.26475006341934204 0.57023441791534424 0.047148145735263824
0.47722065448760986 0.63941848278045654 0.036314677447080612
0.64557677507400513 0.69452047348022461 0.066450394690036774
0.7697829008102417 0.73119688034057617 0.086230441927909851
0.85345858335494995 0.75495046377182007 0.10595324635505676
0.89815360307693481 0.76505786180496216 0.11416026204824448
0.9242972731590271 0.77022165060043335 0.11138781160116196
0.94030368328094482 0.77733933925628662 0.090276904404163361
0.94945496320724487 0.78169500827789307 0.080744050443172455
0.0130564970895648 0.37313106656074524 0.1951805055141449
0.017513051629066467 0.41471421718597412 0.19157101213932037
0.023034607991576195 0.46358776092529297 0.17627227306365967
0.063130892813205719 0.52704662084579468 0.1133548840880394
0.27513578534126282 0.59865134954452515 0.041653472930192947
0.48251405358314514 0.66438484191894531 0.028254160657525063
0.65821665525436401 0.72074085474014282 0.032360885292291641
0.78592860698699951 0.75830930471420288 0.052381210029125214
0.86904191970825195 0.78214067220687866 0.091400176286697388
0.91632992029190063 0.79506593942642212 0.10886979848146439
0.94248849153518677 0.80068254470825195 0.11389875411987305
0.95526528358459473 0.80424833297729492 0.10279886424541473
0.96401959657669067 0.80721908807754517 0.091295294463634491
0.021606115624308586 0.40927970409393311 0.21635714173316956
0.016084738075733185 0.45644813776016235 0.21249014139175415
0.023823965340852737 0.50416964292526245 0.18121396005153656
0.065301097929477692 0.56833964586257935 0.10686267167329788
0.29075711965560913 0.63267332315444946 0.025843346491456032
0.49734735488891602 0.69354051351547241 0.019566480070352554
0.67232805490493774 0.74445265531539917 0.030040770769119263
0.79993164539337158 0.78021097183227539 0.058754265308380127
0.88411581516265869 0.80155205726623535 0.077630229294300079
0.93231219053268433 0.81482666730880737 0.093904681503772736
0.95993602275848389 0.820914626121521 0.10384714603424072
0.97038823366165161 0.82420176267623901 0.10253490507602692
0.97531247138977051 0.82587659358978271 0.10154397785663605
0.035846546292304993 0.45534056425094604 0.24276085197925568
0.026925180107355118 0.5130801796913147 0.2362477034330368
0.022316846996545792 0.55862933397293091 0.19020764529705048
0.11022668331861496 0.6101001501083374 0.10194383561611176
0.34347948431968689 0.67673212289810181 0.030454074963927269
0.53128981590270996 0.72487634420394897 0.014549329876899719
0.68580597639083862 0.76560479402542114 0.034728389233350754
0.81153696775436401 0.79917186498641968 0.061770912259817123
0.89395463466644287 0.81626057624816895 0.080958150327205658
0.94408154487609863 0.82859838008880615 0.089117042720317841
0.97477602958679199 0.83627575635910034 0.10190612077713013
0.98630708456039429 0.84028333425521851 0.1128113865852356
0.98565846681594849 0.8410181999206543 0.14299675822257996
0.01902841217815876 0.032017339020967484 0.043877650052309036
0.026481164619326591 0.030367398634552956 0.047421280294656754
0.043371431529521942 0.031047012656927109 0.050219159573316574
0.075949862599372864 0.037047248333692551 0.054611176252365112
0.13432678580284119 0.038405697792768478 0.049840711057186127
0.22117182612419128 0.03552539274096489 0.035464029759168625
0.31372359395027161 0.041688837110996246 0.033614754676818848
0.39869067072868347 0.048731140792369843 0.034464053809642792
0.46085548400878906 0.064914360642433167 0.03944937139749527
0.50478625297546387 0.063924886286258698 0.029401114210486412
0.53696411848068237 0.056231554597616196 0.017478657886385918
0.55589479207992554 0.057112883776426315 0.02349306084215641
0.56818872690200806 0.053527142852544785 0.027250567451119423
0.026156526058912277 0.040711525827646255 0.047874078154563904
0.032330814749002457 0.040430929511785507 0.05241355299949646
0.045871704816818237 0.042997471988201141 0.05717175081372261
0.077557601034641266 0.05147329717874527 0.061190765351057053
0.14485973119735718 0.055573318153619766 0.053163222968578339
0.2441803514957428 0.057029381394386292 0.039938595145940781
0.34258311986923218 0.074366174638271332 0.048571180552244186
0.42776796221733093 0.089680507779121399 0.056690126657485962
0.49357274174690247 0.10098232328891754 0.057442907243967056
0.54008430242538452 0.09509073942899704 0.040820103138685226
0.57102781534194946 0.08650430291891098 0.025880565866827965
0.59052205085754395 0.082149580121040344 0.021626146510243416
0.60387009382247925 0.077012680470943451 0.019001485779881477
0.033499009907245636 0.054248016327619553 0.054910488426685333
0.039981454610824585 0.056465703994035721 0.05827954038977623
0.053037066012620926 0.060414005070924759 0.062269143760204315
0.08608640730381012 0.071202762424945831 0.066184088587760925
0.15139815211296082 0.082642078399658203 0.063743472099304199
0.25957590341567993 0.097537338733673096 0.061883591115474701
0.36408936977386475 0.11663635820150375 0.066997066140174866
0.45969459414482117 0.13399198651313782 0.069962218403816223
0.53184515237808228 0.13660226762294769 0.063997350633144379
0.58151602745056152 0.12439455837011337 0.042881552129983902
0.61324632167816162 0.11458086222410202 0.022246476262807846
0.63250494003295898 0.11784224957227707 0.017904303967952728
0.64575093984603882 0.12283457070589066 0.021863959729671478
0.03736114501953125 0.075687021017074585 0.068893834948539734
0.04365164041519165 0.077619530260562897 0.06880246102809906
0.059458892792463303 0.090788193047046661 0.071244277060031891
0.094704389572143555 0.10681921243667603 0.073754541575908661
0.17087368667125702 0.12614740431308746 0.075663231313228607
0.28174933791160583 0.14777794480323792 0.082158185541629791
0.39209181070327759 0.17106388509273529 0.083100952208042145
0.49863049387931824 0.1900055855512619 0.080732770264148712
0.58065718412399292 0.18501877784729004 0.067820318043231964
0.6325681209564209 0.17450748383998871 0.049233455210924149
0.66299211978912354 0.17435429990291595 0.026422956958413124
0.68533003330230713 0.17423850297927856 0.014068080112338066
