luts/print/kodak_2393_cuspclip.cube
# Created by: G'MIC (https://gmic.eu)
TITLE "kodak_2393_cuspclip"
# LUT size
LUT_3D_SIZE 7
# Data domain
DOMAIN_MIN 0.0 0.0 0.0
DOMAIN_MAX 1.0 1.0 1.0
# LUT data points
0.014899414964020252 0.019475765526294708 0.016974834725260735
0.070594340562820435 0.034977812319993973 0.017565842717885971
0.14358386397361755 0.040135655552148819 0.0061042783781886101
0.33231997489929199 0.056282628327608109 0
0.50833213329315186 0.084788769483566284 0.00014857872156426311
0.59151780605316162 0.11202750355005264 0.0071504930965602398
0.62101095914840698 0.12965545058250427 0.021409472450613976
0.0088323252275586128 0.053539831191301346 0.032429877668619156
0.053462129086256027 0.06394512951374054 0.015270397998392582
0.16601671278476715 0.082045897841453552 0.0056775561533868313
0.40913140773773193 0.11906639486551285 0.00017412971646990627
0.59372842311859131 0.16456536948680878 0.0058596744202077389
0.65493762493133545 0.18103654682636261 0.018727993592619896
0.67741650342941284 0.18896448612213135 0.027815978974103928
0.00069530709879472852 0.13946019113063812 0.058150555938482285
0.010609062388539314 0.14440074563026428 0.018906731158494949
0.19184654951095581 0.18771956861019135 0.0033426322042942047
0.49037152528762817 0.2594510018825531 0.00032339658355340362
0.67148464918136597 0.30285400152206421 0.013207962736487389
0.73547595739364624 0.30679374933242798 0.032306209206581116
0.76138389110565186 0.32840928435325623 0.02014242485165596
0.010698071680963039 0.30686244368553162 0.14488251507282257
0.0025354870595037937 0.33259779214859009 0.082499228417873383
0.22511182725429535 0.40695628523826599 0.0047675934620201588
0.61072325706481934 0.50583529472351074 0.0042597600258886814
0.78209453821182251 0.53846514225006104 0.01043491717427969
0.84580314159393311 0.54332643747329712 0.013487288728356361
0.86992800235748291 0.56940269470214844 0.024117982015013695
0.02348257414996624 0.45708221197128296 0.22302800416946411
0.014360749162733555 0.48962670564651489 0.15892498195171356
0.25199320912361145 0.57548606395721436 0.012096449732780457
0.68368655443191528 0.7008776068687439 0.015207836404442787
0.86809992790222168 0.73227983713150024 0.050306417047977448
0.91981601715087891 0.72376793622970581 0.048152294009923935
0.94204425811767578 0.74392604827880859 0.066829279065132141
0.0095301913097500801 0.50801414251327515 0.24379755556583405
0.02384847030043602 0.55265295505523682 0.16365955770015717
0.2908814549446106 0.64350306987762451 0.013113567605614662
0.70542037487030029 0.76344597339630127 0.030849771574139595
0.88646411895751953 0.80032169818878174 0.069783665239810944
0.95667082071304321 0.80763977766036987 0.083367049694061279
0.97271811962127686 0.80561602115631104 0.093868166208267212
0.022378105670213699 0.56615453958511353 0.24886682629585266
0.02335815504193306 0.60130339860916138 0.06359042227268219
0.35969418287277222 0.68620812892913818 0.0012101416941732168
0.71018868684768677 0.78081846237182617 0.017209790647029877
0.90437811613082886 0.82564175128936768 0.075822614133358002
0.97007876634597778 0.83278918266296387 0.092903450131416321
0.98884165287017822 0.8381190299987793 0.10660241544246674
0.0031911812257021666 0.026523664593696594 0.053173784166574478
0.050117596983909607 0.034318286925554276 0.055212326347827911
0.15235599875450134 0.02809823676943779 0.039509791880846024
0.34512299299240112 0.0062968237325549126 0.019355025142431259
0.52194225788116455 0.011245847679674625 0.013777908869087696
0.60626423358917236 0.017916331067681313 0.014975783415138721
0.63172072172164917 0.024901026859879494 0.014534460380673409
0.0024226319510489702 0.060064069926738739 0.069533132016658783
0.035600699484348297 0.06854826956987381 0.064159199595451355
0.17000311613082886 0.079104192554950714 0.049978189170360565
0.41418498754501343 0.062329057604074478 0.023344719782471657
0.60125583410263062 0.063591942191123962 0.004817962646484375
0.6687086820602417 0.059271927922964096 0.0040822648443281651
0.69763904809951782 0.09881485253572464 0.011687933467328548
0.00019531250291038305 0.15360994637012482 0.10783837735652924
0.0053704953752458096 0.15319988131523132 0.084731005132198334
0.18998703360557556 0.19626021385192871 0.049351140856742859
0.49627488851547241 0.23639973998069763 0.014834489673376083
0.68574517965316772 0.26684704422950745 0.0083322860300540924
0.75959783792495728 0.25638383626937866 0.010837061330676079
0.79119133949279785 0.29079195857048035 0.011026419699192047
0.013317258097231388 0.34698501229286194 0.21149507164955139
0.003825946943834424 0.36624342203140259 0.17029063403606415
0.17641566693782806 0.40025892853736877 0.019089732319116592
0.60432618856430054 0.5023685097694397 0.0063557494431734085
0.80664002895355225 0.539531409740448 0.026873718947172165
0.87323957681655884 0.54369258880615234 0.0113411545753479
0.89546746015548706 0.56247663497924805 0.005922235082834959
0.027958514168858528 0.48232206702232361 0.28269076347351074
0.010508249513804913 0.52110934257507324 0.23749525845050812
0.14892014861106873 0.57445013523101807 0.016991259530186653
0.65778040885925293 0.69791704416275024 0.0080947726964950562
0.88119244575500488 0.73993164300918579 0.036402922123670578
0.9404674768447876 0.74353837966918945 0.053465809673070908
0.96042120456695557 0.75809746980667114 0.05359853059053421
0.025579938665032387 0.53617280721664429 0.31502595543861389
0.040259942412376404 0.58584725856781006 0.27794614434242249
0.15492634475231171 0.64219182729721069 0.035974062979221344
0.68375569581985474 0.7692103385925293 0.0086347544565796852
0.90663701295852661 0.81637883186340332 0.056625142693519592
0.97311586141586304 0.82483726739883423 0.079341664910316467
0.98739534616470337 0.82768481969833374 0.095993533730506897
0.012231819331645966 0.61683481931686401 0.39760527014732361
0.011914077214896679 0.65028834342956543 0.33064398169517517
0.22144310176372528 0.70313185453414917 0.19688403606414795
0.68449252843856812 0.79952621459960938 0.127348393201828
0.91400694847106934 0.84605967998504639 0.097877621650695801
0.99418681859970093 0.85973238945007324 0.11155208200216293
0.9982306957244873 0.86220294237136841 0.21949540078639984
0.0029991748742759228 0.060321029275655746 0.15318071842193604
0.027891406789422035 0.019333768635988235 0.14933992922306061
0.13922172784805298 0.014608674682676792 0.14842928946018219
0.34500646591186523 0.0045718173496425152 0.15636731684207916
0.52031087875366211 5.7444854064669926e-06 0.16923479735851288
0.60883539915084839 0.0025903889909386635 0.17794482409954071
0.65257519483566284 0.003939520101994276 0.18672788143157959
0.00067850749474018812 0.10520228743553162 0.18372821807861328
0.013077589683234692 0.07974928617477417 0.18369843065738678
0.17332832515239716 0.080847702920436859 0.18690536916255951
0.41841888427734375 0.054004773497581482 0.19132187962532043
0.59986799955368042 0.01173635758459568 0.18642048537731171
0.6831824779510498 0.004152215551584959 0.1776045560836792
0.71356618404388428 0.01244430523365736 0.19818054139614105
0.0022577920462936163 0.20818690955638885 0.24485082924365997
0.003785361535847187 0.21048323810100555 0.24755650758743286
0.16315741837024689 0.21658718585968018 0.23066705465316772
0.48905071616172791 0.24259823560714722 0.21364270150661469
0.70069205760955811 0.22976551949977875 0.20153471827507019
0.7810789942741394 0.2223014235496521 0.20255516469478607
0.81304299831390381 0.25406727194786072 0.21501858532428741
0.0090857557952404022 0.4199274480342865 0.36589956283569336
0.0039477776736021042 0.44107306003570557 0.3633427619934082
0.10897156596183777 0.43920502066612244 0.275074303150177
0.57856988906860352 0.51627695560455322 0.24105313420295715
0.81947499513626099 0.54420703649520874 0.2114548534154892
0.90118628740310669 0.54208678007125854 0.21016426384449005
0.92575329542160034 0.55715334415435791 0.22823284566402435
0.024295149371027946 0.54470723867416382 0.43050944805145264
0.0080424435436725616 0.5847247838973999 0.42603257298469543
0.066148616373538971 0.62318462133407593 0.31640505790710449
0.61900091171264648 0.72117185592651367 0.24465632438659668
0.89663869142532349 0.76575005054473877 0.14129257202148438
0.98422485589981079 0.77972567081451416 0.12857511639595032
0.99671739339828491 0.79232412576675415 0.18234086036682129
0.011237484402954578 0.60885906219482422 0.48765558004379272
0.023077182471752167 0.64614212512969971 0.47919753193855286
0.04730549082159996 0.69488817453384399 0.37903809547424316
0.63402074575424194 0.80113095045089722 0.31505033373832703
0.91235125064849854 0.85573011636734009 0.28281888365745544
0.99376267194747925 0.86420983076095581 0.24854472279548645
0.99999284744262695 0.86755925416946411 0.31394994258880615
0.0079133277758955956 0.66951853036880493 0.56361359357833862
0.007597949355840683 0.70881754159927368 0.54678589105606079
0.10547371953725815 0.74573928117752075 0.47676301002502441
0.63958001136779785 0.83706521987915039 0.46035298705101013
0.90093666315078735 0.8858720064163208 0.4284338653087616
0.98794269561767578 0.90272796154022217 0.43852564692497253
1 0.90380674600601196 0.46022343635559082
0.0020211611408740282 0.14897504448890686 0.31295084953308105
0.01749490387737751 0.096036531031131744 0.31248459219932556
0.15234503149986267 0.0072885998524725437 0.32010915875434875
0.37504124641418457 0.0036351073067635298 0.35688963532447815
0.55563879013061523 0.00073212268762290478 0.3730887770652771
0.6258963942527771 0.0042892158962786198 0.37830772995948792
0.66816568374633789 0.0020415810868144035 0.39161437749862671
0.0039215688593685627 0.2222430557012558 0.38175603747367859
0.0015628590481355786 0.18163779377937317 0.38640815019607544
0.14413124322891235 0.064201906323432922 0.38325324654579163
0.41604006290435791 0.029721353203058243 0.40816736221313477
0.61102104187011719 0.0081147439777851105 0.42554572224617004
0.69630950689315796 0.0073589850217103958 0.42910853028297424
0.72758859395980835 0.012935503385961056 0.45196002721786499
0.0099041061475872993 0.33111166954040527 0.46727156639099121
0.0083531700074672699 0.31128430366516113 0.46843931078910828
0.11871201545000076 0.24157039821147919 0.4592326283454895
0.47617191076278687 0.25422635674476624 0.47689288854598999
0.70212960243225098 0.24495740234851837 0.48757922649383545
0.78437614440917969 0.22611643373966217 0.49628707766532898
0.8198859691619873 0.27925872802734375 0.51293480396270752
0.028372162953019142 0.49516907334327698 0.56544399261474609
0.024787005037069321 0.51250725984573364 0.57859331369400024
0.054557338356971741 0.51047742366790771 0.55995374917984009
0.552013099193573 0.55028146505355835 0.55443066358566284
0.81197738647460938 0.58654296398162842 0.56293356418609619
0.89659035205841064 0.58686631917953491 0.56205224990844727
0.93011182546615601 0.61967265605926514 0.57622635364532471
0.0093071730807423592 0.60880404710769653 0.62454140186309814
0.0067691127769649029 0.65834242105484009 0.65121555328369141
0.0094687668606638908 0.69083285331726074 0.61326098442077637
0.568115234375 0.77680122852325439 0.60573816299438477
0.87021613121032715 0.82007288932800293 0.60429656505584717
0.96986472606658936 0.83072191476821899 0.59565883874893188
0.99058437347412109 0.84615045785903931 0.6137726902961731
0.0052022598683834076 0.66666978597640991 0.66418170928955078
0.0032197542022913694 0.71564024686813354 0.6909019947052002
0.0066528022289276123 0.75813955068588257 0.6621285080909729
0.58003538846969604 0.85159701108932495 0.64211755990982056
0.88410812616348267 0.89996308088302612 0.64351773262023926
0.97833865880966187 0.91414123773574829 0.62885826826095581
0.99792814254760742 0.9156874418258667 0.64033114910125732
0 0.71379262208938599 0.71612107753753662
0.0019707623869180679 0.76087802648544312 0.73530310392379761
0.031644318252801895 0.79780590534210205 0.71228253841400146
0.58305716514587402 0.87794727087020874 0.71113556623458862
0.88170945644378662 0.93074750900268555 0.7247081995010376
0.97649526596069336 0.94505578279495239 0.72347432374954224
0.99837303161621094 0.94735479354858398 0.72617155313491821
0.0020913665648549795 0.220455601811409 0.43184685707092285
0.011821477673947811 0.18404443562030792 0.44333520531654358
0.1640610545873642 0.011126828379929066 0.45388084650039673
0.39011070132255554 0.0054169748909771442 0.49287772178649902
0.57767075300216675 0.00081540277460590005 0.5257994532585144
0.6499132513999939 0.0039215688593685627 0.53509646654129028
0.68813389539718628 0.00027788948500528932 0.53585278987884521
0.00018334481865167618 0.29041683673858643 0.50226682424545288
0.0027852377388626337 0.26323240995407104 0.51624661684036255
0.14812874794006348 0.032234564423561096 0.53106087446212769
0.4254012405872345 0.015962040051817894 0.57094913721084595
0.63053476810455322 0.0067995856516063213 0.59881699085235596
0.71055775880813599 0.0073983138427138329 0.59906965494155884
0.74155330657958984 0.012091497890651226 0.61658608913421631
0.0010591543978080153 0.38035175204277039 0.58137220144271851
0.0015827851602807641 0.3602367639541626 0.5929492712020874
0.076127998530864716 0.27230361104011536 0.62166452407836914
0.47088083624839783 0.26640024781227112 0.66595166921615601
0.71161925792694092 0.26026773452758789 0.68778049945831299
0.79319936037063599 0.25062718987464905 0.69059503078460693
0.8336978554725647 0.28829184174537659 0.70642828941345215
0.010790626518428326 0.52439230680465698 0.66945016384124756
0.04120037704706192 0.55144739151000977 0.70045346021652222
0.016822591423988342 0.54832357168197632 0.72587966918945312
0.52510768175125122 0.58583927154541016 0.7653353214263916
0.79806172847747803 0.61106473207473755 0.77915221452713013
0.89198613166809082 0.62387007474899292 0.78249508142471313
0.92747896909713745 0.65038031339645386 0.78247910737991333
0.021484479308128357 0.63973456621170044 0.73724174499511719
0.035934180021286011 0.68395507335662842 0.76819288730621338
0.021700361743569374 0.73655045032501221 0.79312026500701904
0.52762055397033691 0.81168556213378906 0.81460732221603394
0.8468969464302063 0.85437130928039551 0.82682889699935913
0.95537132024765015 0.86498904228210449 0.82606208324432373
0.97993266582489014 0.8695330023765564 0.8242802619934082
0.037083301693201065 0.68738865852355957 0.7666705846786499
0.033691823482513428 0.73613709211349487 0.79762071371078491
0.017098130658268929 0.79836851358413696 0.8252677321434021
0.53712505102157593 0.8875158429145813 0.84545254707336426
0.85485494136810303 0.93117344379425049 0.85297739505767822
0.96834379434585571 0.95404702425003052 0.86040180921554565
0.99537193775177002 0.95580428838729858 0.85136282444000244
0.011049367487430573 0.72249311208724976 0.79286271333694458
0.0088948868215084076 0.7768293023109436 0.82748496532440186
0.012143677100539207 0.82982951402664185 0.85559916496276855
0.57166099548339844 0.91126334667205811 0.87795853614807129
0.86114633083343506 0.9571305513381958 0.88878524303436279
0.96375679969787598 0.97199380397796631 0.88256126642227173
0.99114596843719482 0.97570747137069702 0.8841966986656189
0.0034481722395867109 0.24713663756847382 0.48308837413787842
0.0091675706207752228 0.22815975546836853 0.50425142049789429
0.15208224952220917 0.013774393126368523 0.52441287040710449
0.37930744886398315 0.0040872609242796898 0.56965869665145874
0.58780157566070557 0.0015462539158761501 0.61059880256652832
0.66814208030700684 0.0039207907393574715 0.61741840839385986
0.70171719789505005 0.00062094297027215362 0.61642670631408691
0 0.31213182210922241 0.55840682983398438
0.0035172556526958942 0.2961849570274353 0.57639694213867188
0.14361584186553955 0.040867332369089127 0.61728781461715698
0.43749901652336121 0.020673714578151703 0.66046392917633057
0.64530640840530396 0.0054194880649447441 0.68889230489730835
0.72490686178207397 0.0057983100414276123 0.69331735372543335
0.75548297166824341 0.0094519518315792084 0.70642459392547607
0 0.39638373255729675 0.62753415107727051
0.00017547607421875 0.39809122681617737 0.65666621923446655
0.074650228023529053 0.31164294481277466 0.69911247491836548
0.46580967307090759 0.26445144414901733 0.75562900304794312
0.71437782049179077 0.2578771710395813 0.78019183874130249
0.80283892154693604 0.24628737568855286 0.78848743438720703
0.83579307794570923 0.2952885627746582 0.80044460296630859
0.020396467298269272 0.53329801559448242 0.71060013771057129
0.012892928905785084 0.56087875366210938 0.74819827079772949
0.015420487150549889 0.55944305658340454 0.80157184600830078
0.50224900245666504 0.59586542844772339 0.859657883644104
0.79967397451400757 0.62185215950012207 0.87827068567276001
0.88624840974807739 0.62946313619613647 0.87973505258560181
0.9232824444770813 0.65770655870437622 0.88822615146636963
0.027229981496930122 0.64848631620407104 0.77551943063735962
0.011925955303013325 0.68722271919250488 0.80717164278030396
0.053009301424026489 0.74395167827606201 0.85912114381790161
0.50702571868896484 0.82223522663116455 0.91699540615081787
0.84546762704849243 0.86892712116241455 0.93554544448852539
0.9526371955871582 0.88159859180450439 0.93572181463241577
0.97833371162414551 0.89314323663711548 0.93530511856079102
0.03293856605887413 0.69863635301589966 0.80593252182006836
0.021915405988693237 0.74467438459396362 0.83992993831634521
0.025964071974158287 0.80892515182495117 0.88500618934631348
0.48204481601715088 0.90150052309036255 0.93834084272384644
0.84932035207748413 0.94885015487670898 0.95160508155822754
0.95790040493011475 0.9564436674118042 0.94816529750823975
0.99051403999328613 0.96636158227920532 0.94489854574203491
0.024733629077672958 0.73993182182312012 0.83622103929519653
0.039066731929779053 0.7792510986328125 0.86366325616836548
0.0068975710310041904 0.83870691061019897 0.90841281414031982
0.54296010732650757 0.92294037342071533 0.95047855377197266
0.84982693195343018 0.96997106075286865 0.96007943153381348
0.95830726623535156 0.98687648773193359 0.96847331523895264
0.98831462860107422 0.98969137668609619 0.96515345573425293
0.00047860239283181727 0.27534681558609009 0.52879530191421509
0.006601416040211916 0.26235812902450562 0.54968518018722534
0.15893486142158508 0.013154871761798859 0.58034390211105347
0.40388399362564087 0.00057932536583393812 0.62721502780914307
0.61325252056121826 0.0014694363344460726 0.66263246536254883
0.6944395899772644 0.0024587295483797789 0.67266243696212769
0.71965485811233521 0.0018222135258838534 0.67847943305969238
0 0.33642381429672241 0.59673815965652466
3.6651013942901045e-05 0.32269927859306335 0.60922533273696899
0.12673766911029816 0.087113969027996063 0.65991711616516113
0.45187720656394958 0.05676516517996788 0.7119985818862915
0.65903770923614502 0.023504160344600677 0.7331535816192627
0.74071019887924194 0.020137637853622437 0.74321669340133667
0.77331304550170898 0.043716713786125183 0.75926727056503296
0 0.42423054575920105 0.66244798898696899
1.5557981896563433e-05 0.42358624935150146 0.68756222724914551
0.062129601836204529 0.3419959545135498 0.73754048347473145
0.47965633869171143 0.29939180612564087 0.79697525501251221
0.71981549263000488 0.30860662460327148 0.81884247064590454
0.80857759714126587 0.29275256395339966 0.82456648349761963
0.84622770547866821 0.34963327646255493 0.84108656644821167
0.0037483812775462866 0.54280996322631836 0.72963821887969971
0.010612038895487785 0.5658385157585144 0.76422786712646484
0.0090201878920197487 0.57208770513534546 0.82407993078231812
0.50550210475921631 0.61108314990997314 0.89263051748275757
0.78682643175125122 0.63374680280685425 0.91166681051254272
0.88997024297714233 0.62712568044662476 0.91214728355407715
0.92680561542510986 0.67300271987915039 0.92576438188552856
0.023304285481572151 0.65863817930221558 0.79606133699417114
0.011571173556149006 0.69913047552108765 0.82705229520797729
0.02197030745446682 0.74758529663085938 0.87754350900650024
0.46915790438652039 0.82708644866943359 0.9467778205871582
0.8241342306137085 0.86876845359802246 0.96547991037368774
0.9465644359588623 0.8834998607635498 0.97129327058792114
0.97606247663497925 0.89282846450805664 0.97360134124755859
0.0094411065801978111 0.70111632347106934 0.81739348173141479
0.027138983830809593 0.74730396270751953 0.85114425420761108
0.026238923892378807 0.81190341711044312 0.90201681852340698
0.47228974103927612 0.90513747930526733 0.96477663516998291
0.83853638172149658 0.95278745889663696 0.98263770341873169
0.96189969778060913 0.97219288349151611 0.98754698038101196
0.98899590969085693 0.96884727478027344 0.98492622375488281
0.0092271994799375534 0.73725181818008423 0.84126311540603638
0.040858175605535507 0.78606653213500977 0.87725484371185303
0.020921235904097557 0.83860975503921509 0.92110180854797363
0.50411289930343628 0.92273616790771484 0.9687315821647644
0.83745837211608887 0.97214013338088989 0.9861028790473938
0.95749717950820923 0.990398108959198 0.99251371622085571
0.99340659379959106 0.99377620220184326 0.99256902933120728
