luts/print/kodak_2383_constlclip.cube
# Created by: G'MIC (https://gmic.eu)
TITLE "kodak_2383_constlclip"
# LUT size
LUT_3D_SIZE 5
# Data domain
DOMAIN_MIN 0.0 0.0 0.0
DOMAIN_MAX 1.0 1.0 1.0
# LUT data points
0.0093038072809576988 0.016469558700919151 0.015844337642192841
0.086464494466781616 0.044296383857727051 0.016307830810546875
0.33664789795875549 0.092573903501033783 0.012513418681919575
0.5343744158744812 0.12713088095188141 0.018164854496717453
0.59955888986587524 0.14445005357265472 0.020749395713210106
0.013633668422698975 0.085014969110488892 0.055444184690713882
0.10749565809965134 0.11292353272438049 0.043171361088752747
0.42576035857200623 0.17846368253231049 0.012405545450747013
0.63650912046432495 0.20977061986923218 0.010521369054913521
0.69564366340637207 0.23807168006896973 0.016820002347230911
0.0078431377187371254 0.25835713744163513 0.13483710587024689
0.034757591784000397 0.33565571904182434 0.077744349837303162
0.56209266185760498 0.46902969479560852 0.0034328983165323734
0.79683774709701538 0.50966435670852661 0.01289837434887886
0.85878068208694458 0.55742466449737549 0.010232409462332726
0.010661316104233265 0.40596970915794373 0.19473028182983398
0.042383335530757904 0.52686071395874023 0.11732801795005798
0.65024322271347046 0.71684086322784424 0.017110668122768402
0.90621709823608398 0.78091692924499512 0.070283316075801849
0.95684725046157837 0.79831922054290771 0.084835797548294067
0.013774721883237362 0.48258432745933533 0.21985712647438049
0.10343425720930099 0.62731951475143433 0.05301951989531517
0.69362044334411621 0.77446448802947998 0.018061768263578415
0.94541019201278687 0.84226769208908081 0.079556196928024292
0.98816394805908203 0.85162472724914551 0.10504008084535599
0.020152043551206589 0.032961662858724594 0.088995300233364105
0.093414053320884705 0.046748321503400803 0.10092535614967346
0.36655431985855103 0.025613507255911827 0.090615212917327881
0.59902584552764893 0.0061697266064584255 0.084097139537334442
0.65319257974624634 0.015281497500836849 0.080907396972179413
0.0037498024757951498 0.10247228294610977 0.11769991368055344
0.098898313939571381 0.13332396745681763 0.13400372862815857
0.46202674508094788 0.14955839514732361 0.1082489937543869
0.71986860036849976 0.098766803741455078 0.039040703326463699
0.78248798847198486 0.12761625647544861 0.040126245468854904
0.0091212848201394081 0.27309307456016541 0.20053260028362274
0.020286111161112785 0.36956626176834106 0.17807464301586151
0.59961187839508057 0.49470442533493042 0.05500590056180954
0.87602204084396362 0.53389281034469604 0.041459746658802032
0.9335436224937439 0.56986761093139648 0.040732875466346741
0.01048990897834301 0.43652695417404175 0.27855756878852844
0.021333761513233185 0.55713266134262085 0.25887104868888855
0.6577155590057373 0.76455748081207275 0.046047002077102661
0.96264797449111938 0.82383197546005249 0.031388718634843826
0.99716556072235107 0.83561170101165771 0.087122835218906403
0.01501623447984457 0.53114902973175049 0.37135151028633118
0.023639574646949768 0.65841078758239746 0.36069485545158386
0.67122447490692139 0.82889997959136963 0.2532314658164978
0.9836883544921875 0.88989073038101196 0.20139765739440918
1 0.89265882968902588 0.39306449890136719
0.0039215688593685627 0.10468281805515289 0.24449397623538971
0.087071917951107025 0.012446325272321701 0.32879924774169922
0.38735872507095337 0.0037108478136360645 0.36845928430557251
0.61913043260574341 0.010887355543673038 0.3754304051399231
0.67669272422790527 0.013224223628640175 0.38992223143577576
0.0010507621336728334 0.16942185163497925 0.28888025879859924
0.028571978211402893 0.14125519990921021 0.39106813073158264
0.46958616375923157 0.15785187482833862 0.44684287905693054
0.73827064037322998 0.088244326412677765 0.46003717184066772
0.80103135108947754 0.12782219052314758 0.47097575664520264
0.0039495727978646755 0.362007737159729 0.41049909591674805
0.012523501180112362 0.42824941873550415 0.48285776376724243
0.56561672687530518 0.56265032291412354 0.56282460689544678
0.87853777408599854 0.5841788649559021 0.56307828426361084
0.9437372088432312 0.62342625856399536 0.58053004741668701
0.011065943166613579 0.51804018020629883 0.50633925199508667
0.0076497397385537624 0.63454747200012207 0.5749809741973877
0.56599712371826172 0.83424538373947144 0.62208789587020874
0.95451062917709351 0.89461249113082886 0.60523015260696411
0.99965894222259521 0.90756100416183472 0.64736258983612061
0.0053386911749839783 0.61271631717681885 0.60759997367858887
0.0089973900467157364 0.73062229156494141 0.66644501686096191
0.60790437459945679 0.89627349376678467 0.71297734975814819
0.95354986190795898 0.95196843147277832 0.70904409885406494
0.99963581562042236 0.95556330680847168 0.75388288497924805
0.0049901925958693027 0.16908515989780426 0.35060995817184448
0.055759832262992859 0.053803402930498123 0.47408023476600647
0.38128656148910522 0.0092952502891421318 0.54524296522140503
0.62395173311233521 0.038699205964803696 0.57030844688415527
0.6895642876625061 0.023367907851934433 0.59102326631546021
0.0032294928096234798 0.24208055436611176 0.42592915892601013
0.023151980713009834 0.20401668548583984 0.52677112817764282
0.47538110613822937 0.1315511167049408 0.68809515237808228
0.74712175130844116 0.049801710993051529 0.7035709023475647
0.81188952922821045 0.091751113533973694 0.72891700267791748
0.01207439973950386 0.42661508917808533 0.56557929515838623
0.01658986322581768 0.4830591082572937 0.6572800874710083
0.52495235204696655 0.584930419921875 0.83375704288482666
0.87381470203399658 0.6149979829788208 0.84586262702941895
0.93596190214157104 0.65314233303070068 0.86444151401519775
0.010326415300369263 0.58664190769195557 0.67082005739212036
0.01012134924530983 0.68116521835327148 0.75693655014038086
0.50692343711853027 0.88015079498291016 0.9027901291847229
0.92916029691696167 0.92730236053466797 0.91345745325088501
0.992179274559021 0.9417690634727478 0.9195064902305603
0.018869871273636818 0.64744836091995239 0.72434896230697632
0.023475587368011475 0.76296013593673706 0.82579934597015381
0.55654633045196533 0.92432045936584473 0.93235146999359131
0.93090677261352539 0.98057472705841064 0.94515609741210938
0.9931713342666626 0.98483067750930786 0.94260126352310181
0.00040857651038095355 0.19650647044181824 0.39158564805984497
0.032125718891620636 0.11535044759511948 0.51371127367019653
0.42684927582740784 0.004416491836309433 0.65019398927688599
0.66571301221847534 0.033833552151918411 0.66177999973297119
0.72492623329162598 0.032985314726829529 0.67660599946975708
0 0.27646759152412415 0.47559994459152222
0.01192785520106554 0.25617054104804993 0.57403272390365601
0.48337021470069885 0.18707467615604401 0.76938545703887939
0.76764720678329468 0.14876173436641693 0.79275673627853394
0.83274656534194946 0.19114209711551666 0.81201088428497314
0.0018979540327563882 0.44903466105461121 0.61201578378677368
0.01650104857981205 0.49953073263168335 0.69748038053512573
0.5178641676902771 0.60258406400680542 0.90023303031921387
0.86527180671691895 0.60417497158050537 0.91673117876052856
0.93278944492340088 0.66096037626266479 0.93134450912475586
0.021103175356984138 0.59521639347076416 0.70261520147323608
0.024725176393985748 0.68871593475341797 0.79152703285217285
0.47007307410240173 0.88039493560791016 0.96237051486968994
0.9242585301399231 0.93702036142349243 0.98483121395111084
0.98827499151229858 0.9506605863571167 0.98852306604385376
0.0080626839771866798 0.67249816656112671 0.76623892784118652
0.020711891353130341 0.76705664396286011 0.85201168060302734
0.52642190456390381 0.92643290758132935 0.97353529930114746
0.91081911325454712 0.97953194379806519 0.9881635308265686
0.99193435907363892 0.99276638031005859 0.99311816692352295
