luts/print/kodak_2383_cuspclip.cube
# Created by: G'MIC (https://gmic.eu)
TITLE "kodak_2383_cuspclip"
# LUT size
LUT_3D_SIZE 7
# Data domain
DOMAIN_MIN 0.0 0.0 0.0
DOMAIN_MAX 1.0 1.0 1.0
# LUT data points
0.01493733748793602 0.024668211117386818 0.029621468856930733
0.059156216681003571 0.038994316011667252 0.028218736872076988
0.16436298191547394 0.051887586712837219 0.019679199904203415
0.36860710382461548 0.071530930697917938 0.0036223616916686296
0.54777032136917114 0.1049041748046875 9.645948011893779e-05
0.63223385810852051 0.12772689759731293 0.0034834169782698154
0.66199851036071777 0.14292034506797791 0.0031156651675701141
0.0080506717786192894 0.068978555500507355 0.044941503554582596
0.055307935923337936 0.076098799705505371 0.041171938180923462
0.17519474029541016 0.091985173523426056 0.024394121021032333
0.4206492006778717 0.1262296736240387 0.0070787766017019749
0.60558086633682251 0.15355707705020905 0.0042578005231916904
0.68882548809051514 0.18039578199386597 0.015811396762728691
0.71516799926757812 0.19703936576843262 0.015378196723759174
0.0059864269569516182 0.15398147702217102 0.079593822360038757
0.025881180539727211 0.15960103273391724 0.053038038313388824
0.19761922955513 0.19050860404968262 0.019455285742878914
0.50215202569961548 0.26376917958259583 0.00077251362381502986
0.69673359394073486 0.28963908553123474 0.0050324383191764355
0.762245774269104 0.29913374781608582 0.011800414882600307
0.79109793901443481 0.32324519753456116 0.018698016181588173
0.028577407822012901 0.36523300409317017 0.18804559111595154
0.0058822333812713623 0.36269435286521912 0.1166093572974205
0.18400499224662781 0.40027555823326111 0.0072507523000240326
0.58859032392501831 0.49131020903587341 0.0074688629247248173
0.80455875396728516 0.53765022754669189 0.022342756390571594
0.8624495267868042 0.54927408695220947 0.016030076891183853
0.88024890422821045 0.55553358793258667 0.0095575070008635521
0.029703686013817787 0.51232451200485229 0.2493637353181839
0.021626895293593407 0.53581458330154419 0.21160644292831421
0.13583588600158691 0.58072394132614136 0.0075363307259976864
0.67039781808853149 0.71374887228012085 0.010029601864516735
0.87771815061569214 0.74954533576965332 0.055464845150709152
0.93289148807525635 0.74582511186599731 0.061038687825202942
0.95303487777709961 0.7583203911781311 0.069894380867481232
0.040531862527132034 0.56644541025161743 0.27415722608566284
0.021877812221646309 0.59301704168319702 0.22076711058616638
0.17128588259220123 0.6588941216468811 0.0087913963943719864
0.69022965431213379 0.78490692377090454 0.023479461669921875
0.89618653059005737 0.81963467597961426 0.069984883069992065
0.96001851558685303 0.81971782445907593 0.087607413530349731
0.97850567102432251 0.82237023115158081 0.10663646459579468
0.01756795309484005 0.60537815093994141 0.26983672380447388
0.016302624717354774 0.63281911611557007 0.13024385273456573
0.32156795263290405 0.70899122953414917 0.003600012045353651
0.71329218149185181 0.80442965030670166 0.021085746586322784
0.90574216842651367 0.84672033786773682 0.072490140795707703
0.97536575794219971 0.85553348064422607 0.098691575229167938
0.99487793445587158 0.85570615530014038 0.10779342800378799
0.011512487195432186 0.024558916687965393 0.06305713951587677
0.05886097252368927 0.038989841938018799 0.069155342876911163
0.15540991723537445 0.05514710396528244 0.058571204543113708
0.37186780571937561 0.034114014357328415 0.026472128927707672
0.55823266506195068 0.014962364919483662 0.01143309660255909
0.64438438415527344 0.020834425464272499 0.0083855120465159416
0.68749535083770752 0.02204824797809124 0.010851422324776649
0.004166831262409687 0.067510135471820831 0.077683046460151672
0.048421762883663177 0.076164081692695618 0.077887363731861115
0.17711716890335083 0.096992924809455872 0.07464376837015152
0.41935917735099792 0.098507747054100037 0.030863802880048752
0.62846428155899048 0.069003820419311523 0.011085525155067444
0.70926153659820557 0.070361509919166565 0.0039770686998963356
0.73639380931854248 0.073196932673454285 0.010118776001036167
0.0042725508101284504 0.17650319635868073 0.12773187458515167
0.02048003301024437 0.16136793792247772 0.10216143727302551
0.2059418112039566 0.20342716574668884 0.076944254338741302
0.51223224401473999 0.24264355003833771 0.01694304496049881
0.71194899082183838 0.24939747154712677 0.0048322491347789764
0.78748297691345215 0.25426378846168518 0.0037155898753553629
0.81494855880737305 0.27324247360229492 0.0082973558455705643
0.027406729757785797 0.38056817650794983 0.22910936176776886
0.021549135446548462 0.38664308190345764 0.19041858613491058
0.17103399336338043 0.40862452983856201 0.047295678406953812
0.60485845804214478 0.50227028131484985 0.012056956999003887
0.8236396312713623 0.53035354614257812 0.013226752169430256
0.89251846075057983 0.54783743619918823 0.0077792895026504993
0.91435766220092773 0.56665927171707153 0.01266823522746563
0.017147364094853401 0.53043240308761597 0.29437583684921265
0.018717387691140175 0.55509799718856812 0.25513771176338196
0.12892483174800873 0.59846407175064087 0.024061344563961029
0.67015558481216431 0.71785694360733032 0.0051577398553490639
0.89222604036331177 0.76227366924285889 0.05636889860033989
0.95375663042068481 0.75886118412017822 0.06140199676156044
0.97175973653793335 0.77134877443313599 0.056492000818252563
0.016419548541307449 0.58009082078933716 0.32864883542060852
0.020060041919350624 0.61521965265274048 0.29588031768798828
0.13175942003726959 0.6677253246307373 0.038194138556718826
0.6833345890045166 0.79063016176223755 0.0040739621035754681
0.91214269399642944 0.83536416292190552 0.054912105202674866
0.98006635904312134 0.84184211492538452 0.085815101861953735
0.99305695295333862 0.84462696313858032 0.12281455099582672
0.026141760870814323 0.62743723392486572 0.38434213399887085
0.041224326938390732 0.66598165035247803 0.33833733201026917
0.18832783401012421 0.71792268753051758 0.17750801146030426
0.69397717714309692 0.81829392910003662 0.099095061421394348
0.92754518985748291 0.86371231079101562 0.044960711151361465
0.99440145492553711 0.87420463562011719 0.10191936045885086
0.99945348501205444 0.87330317497253418 0.24633696675300598
0.0072951670736074448 0.026913870126008987 0.15126965939998627
0.046330127865076065 0.028845034539699554 0.15912367403507233
0.15086239576339722 0.043163809925317764 0.17189617455005646
0.37477871775627136 0.018686840310692787 0.17813721299171448
0.56706476211547852 0.0030487659387290478 0.17334279417991638
0.66044151782989502 0.001336894347332418 0.17148186266422272
0.6911318302154541 0 0.17157934606075287
0.00094345689285546541 0.085808761417865753 0.18288639187812805
0.025467576459050179 0.084872499108314514 0.19106218218803406
0.17355437576770782 0.098792523145675659 0.19781589508056641
0.43185639381408691 0.084385067224502563 0.19751249253749847
0.64386910200119019 0.017804224044084549 0.19039890170097351
0.72169202566146851 0.018762566149234772 0.17443154752254486
0.75344228744506836 0.020485343411564827 0.19276082515716553
3.8894952012924477e-05 0.20811712741851807 0.24272686243057251
0.007158331573009491 0.19507187604904175 0.2371099591255188
0.18030580878257751 0.21922679245471954 0.23511955142021179
0.51596981287002563 0.25235080718994141 0.22974435985088348
0.72399789094924927 0.23788675665855408 0.20546773076057434
0.80750316381454468 0.22532971203327179 0.2016557902097702
0.84068018198013306 0.26781150698661804 0.22447262704372406
0.0090615814551711082 0.43341842293739319 0.36652833223342896
0.012259299866855145 0.44555231928825378 0.35524216294288635
0.10866672545671463 0.44232127070426941 0.27905884385108948
0.59091168642044067 0.50684773921966553 0.24731886386871338
0.83434253931045532 0.53214842081069946 0.21935786306858063
0.91602432727813721 0.53974062204360962 0.19708363711833954
0.94641292095184326 0.56931549310684204 0.22072450816631317
0.0092096813023090363 0.57499825954437256 0.43311890959739685
0.031046759337186813 0.60189932584762573 0.41997024416923523
0.055793236941099167 0.63253170251846313 0.30978497862815857
0.62516134977340698 0.73469275236129761 0.22680401802062988
0.91025823354721069 0.77975195646286011 0.13035835325717926
0.99360394477844238 0.79418069124221802 0.12757803499698639
0.99708372354507446 0.79992085695266724 0.19357194006443024
0.030743587762117386 0.62711572647094727 0.4746650755405426
0.025407813489437103 0.66386920213699341 0.46227866411209106
0.035542849451303482 0.7095763087272644 0.37678954005241394
0.64267939329147339 0.81581860780715942 0.28360152244567871
0.92179381847381592 0.8704681396484375 0.22334390878677368
0.99736851453781128 0.87842285633087158 0.24274928867816925
1 0.8812408447265625 0.34228312969207764
0.0098221572116017342 0.68438643217086792 0.55814766883850098
0.021724103018641472 0.71825665235519409 0.53848248720169067
0.10781718045473099 0.75901949405670166 0.46325001120567322
0.64677602052688599 0.84949678182601929 0.42406272888183594
0.91474765539169312 0.90143793821334839 0.40069615840911865
0.99851185083389282 0.91365176439285278 0.40449404716491699
1 0.9111599326133728 0.46282100677490234
0.0046512377448379993 0.14204685389995575 0.34917634725570679
0.041945230215787888 0.020920593291521072 0.33210217952728271
0.16321337223052979 0.00505854282528162 0.35549768805503845
0.38073012232780457 0.0037881589960306883 0.36560177803039551
0.58452975749969482 0.0044969446025788784 0.38937586545944214
0.68043333292007446 0.0023539823014289141 0.40017047524452209
0.70149904489517212 1.2925092050863896e-05 0.39466455578804016
0 0.20946618914604187 0.39759001135826111
0.0091928672045469284 0.13391765952110291 0.3822995126247406
0.15616890788078308 0.072028093039989471 0.39498096704483032
0.43588823080062866 0.064982473850250244 0.41299325227737427
0.63955557346343994 0.020896118134260178 0.43570289015769958
0.73563170433044434 0.013568384572863579 0.44180917739868164
0.76439195871353149 0.014912698417901993 0.45245462656021118
0.0036032733041793108 0.32202216982841492 0.47036358714103699
0.0053204554133117199 0.30700859427452087 0.47858652472496033
0.12448369711637497 0.24445053935050964 0.4647718071937561
0.50928968191146851 0.26368868350982666 0.48987340927124023
0.73344880342483521 0.24484114348888397 0.49863007664680481
0.81503057479858398 0.23970694839954376 0.49790716171264648
0.84597742557525635 0.28768154978752136 0.51389920711517334
0.0078270258381962776 0.49012649059295654 0.55064016580581665
0.018253790214657784 0.50907015800476074 0.5699877142906189
0.035007014870643616 0.49825009703636169 0.54785811901092529
0.56725668907165527 0.55700504779815674 0.56141716241836548
0.82335853576660156 0.58532500267028809 0.56009018421173096
0.91188162565231323 0.58536893129348755 0.56384575366973877
0.94095265865325928 0.60800802707672119 0.56680536270141602
0.0045864628627896309 0.63373225927352905 0.63027042150497437
0.013659159652888775 0.66504549980163574 0.64528614282608032
0.013138565234839916 0.69984835386276245 0.61235630512237549
0.58754116296768188 0.78129023313522339 0.5907321572303772
0.88364851474761963 0.82912129163742065 0.59481179714202881
0.9757155179977417 0.83509176969528198 0.59166282415390015
0.99685120582580566 0.84347188472747803 0.60644274950027466
0.006723456084728241 0.68563783168792725 0.67978894710540771
0.0091462079435586929 0.72296512126922607 0.68561738729476929
0.0071439556777477264 0.7707943320274353 0.66782695055007935
0.56881868839263916 0.86461526155471802 0.64734673500061035
0.89390724897384644 0.91872835159301758 0.64533787965774536
0.98942774534225464 0.92755317687988281 0.64382326602935791
0.99877184629440308 0.9250493049621582 0.65486955642700195
0.0057146111503243446 0.73296916484832764 0.72922229766845703
0.0023054834455251694 0.77047479152679443 0.73964881896972656
0.012878687120974064 0.80919265747070312 0.71298271417617798
0.61122781038284302 0.89606702327728271 0.70936489105224609
0.88928836584091187 0.94343072175979614 0.72328418493270874
0.986805260181427 0.95823448896408081 0.71871119737625122
0.99973487854003906 0.96043092012405396 0.72662830352783203
0.011179606430232525 0.23762530088424683 0.48395830392837524
0.015174237079918385 0.17950426042079926 0.48656368255615234
0.18605448305606842 0.0067440406419336796 0.49917170405387878
0.40456089377403259 0.0027191310655325651 0.52275300025939941
0.61289966106414795 0.0022292493376880884 0.56192898750305176
0.69030284881591797 0.0027339111547917128 0.57294565439224243
0.71584635972976685 9.4245464424602687e-05 0.56418019533157349
8.5838168160989881e-05 0.28727418184280396 0.53252613544464111
0.0054799998179078102 0.24181009829044342 0.53756403923034668
0.16671812534332275 0.03184528648853302 0.55456066131591797
0.45644715428352356 0.018998449668288231 0.59648007154464722
0.66206198930740356 0.010545184835791588 0.61538654565811157
0.74528276920318604 0.0044151307083666325 0.62695735692977905
0.77556830644607544 0.0092646284028887749 0.62854719161987305
0.0035387973766773939 0.37673422694206238 0.59619176387786865
0.0047909305430948734 0.36182162165641785 0.61276274919509888
0.083781175315380096 0.26429203152656555 0.6402595043182373
0.49179849028587341 0.26989847421646118 0.67759013175964355
0.73225945234298706 0.24740785360336304 0.69636338949203491
0.8212050199508667 0.23597756028175354 0.70452475547790527
0.85472255945205688 0.29389947652816772 0.71813946962356567
0.012785174883902073 0.53517460823059082 0.69142371416091919
0.02590453252196312 0.54889035224914551 0.70989799499511719
0.02553851529955864 0.5423283576965332 0.73687905073165894
0.54020774364471436 0.58498954772949219 0.7709166407585144
0.82373744249343872 0.60748875141143799 0.78499478101730347
0.91061210632324219 0.62253379821777344 0.78729087114334106
0.93939179182052612 0.64766675233840942 0.79322147369384766
0.025273894891142845 0.66410291194915771 0.75416254997253418
0.021719016134738922 0.69132739305496216 0.77484703063964844
0.007385927252471447 0.73922717571258545 0.79890209436416626
0.53638970851898193 0.81244778633117676 0.81973481178283691
0.86309731006622314 0.85848504304885864 0.84018093347549438
0.96341878175735474 0.87086790800094604 0.83606290817260742
0.98969358205795288 0.88147419691085815 0.84184575080871582
0.034058127552270889 0.71212303638458252 0.78610241413116455
0.026067053899168968 0.74779099225997925 0.80536895990371704
0.021186558529734612 0.8062472939491272 0.83208930492401123
0.53529828786849976 0.89706587791442871 0.85430902242660522
0.87175250053405762 0.94778537750244141 0.8698890209197998
0.97547239065170288 0.95713233947753906 0.86820250749588013
0.99488550424575806 0.95218169689178467 0.86833441257476807
0.028836777433753014 0.74434006214141846 0.81619679927825928
0.0061686648987233639 0.784950852394104 0.83770143985748291
0.012752488255500793 0.83314204216003418 0.86147737503051758
0.56893271207809448 0.91855913400650024 0.88161188364028931
0.86501801013946533 0.96593010425567627 0.89150375127792358
0.97032392024993896 0.98003476858139038 0.88693612813949585
0.99764722585678101 0.98555368185043335 0.89774471521377563
0.0020795036107301712 0.26127845048904419 0.53899431228637695
0.020642448216676712 0.21324686706066132 0.55100792646408081
0.18398118019104004 0.011119169183075428 0.57481366395950317
0.41982463002204895 0.0050032669678330421 0.6119505763053894
0.61784833669662476 0.0027994492556899786 0.63728302717208862
0.69927388429641724 0.0039316215552389622 0.65566611289978027
0.72806781530380249 0.0035005905665457249 0.65557742118835449
0.00014618517889175564 0.31290420889854431 0.58610236644744873
0.0041051530279219151 0.28107866644859314 0.60086095333099365
0.15709027647972107 0.031731370836496353 0.63651430606842041
0.45302626490592957 0.02169647254049778 0.68428134918212891
0.67247819900512695 0.0097739575430750847 0.70296633243560791
0.75486111640930176 0.0072006373666226864 0.71408557891845703
0.78542226552963257 0.01418959628790617 0.7241550087928772
1.5557981896563433e-05 0.39734160900115967 0.6531679630279541
0.0039846831932663918 0.3735441267490387 0.66750586032867432
0.0727882981300354 0.30321228504180908 0.71363288164138794
0.49881458282470703 0.27122488617897034 0.77187615633010864
0.72725456953048706 0.24245737493038177 0.78702574968338013
0.82435572147369385 0.2436811625957489 0.79542136192321777
0.85484009981155396 0.30135312676429749 0.81092262268066406
0.0057334601879119873 0.54335004091262817 0.73302167654037476
0.026486938819289207 0.5530279278755188 0.75261181592941284
0.013012874871492386 0.55001449584960938 0.80800712108612061
0.52974450588226318 0.58651471138000488 0.87135279178619385
0.80388396978378296 0.61497658491134644 0.88320589065551758
0.90448415279388428 0.63063418865203857 0.88394439220428467
0.93451935052871704 0.65637362003326416 0.90068954229354858
0.024859903380274773 0.66660517454147339 0.79820054769515991
0.011243169195950031 0.69554442167282104 0.82319360971450806
0.032105851918458939 0.7471315860748291 0.86625915765762329
0.5152706503868103 0.8226434588432312 0.92576867341995239
0.85301655530929565 0.86562716960906982 0.94299519062042236
0.95259469747543335 0.87653732299804688 0.93912065029144287
0.97872483730316162 0.87756627798080444 0.94361609220504761
0.015754146501421928 0.71425879001617432 0.82345247268676758
0.013369227759540081 0.74731701612472534 0.84554922580718994
0.020130710676312447 0.80973243713378906 0.88921964168548584
0.48281097412109375 0.90449923276901245 0.94544893503189087
0.85237067937850952 0.95048147439956665 0.95365256071090698
0.960532546043396 0.96357244253158569 0.9510345458984375
0.99323219060897827 0.96968930959701538 0.96031421422958374
0.010987196117639542 0.74448215961456299 0.84279423952102661
0.019482975825667381 0.78548365831375122 0.86940014362335205
0.012672184966504574 0.8349682092666626 0.90818303823471069
0.53545665740966797 0.92577886581420898 0.95407402515411377
0.8510441780090332 0.97195124626159668 0.96488535404205322
0.95734524726867676 0.9860689640045166 0.96357816457748413
0.9932706356048584 0.99040132761001587 0.96072685718536377
0.0023463231045752764 0.29804682731628418 0.5867379903793335
0.014128591865301132 0.24485953152179718 0.58460557460784912
0.17649665474891663 0.0098178042098879814 0.61860835552215576
0.43103998899459839 0.0032131867483258247 0.65964138507843018
0.637531578540802 0.0011325462255626917 0.69241070747375488
0.71482676267623901 0.0042495126836001873 0.70877176523208618
0.7630731463432312 0.010423189029097557 0.72261899709701538
0.0008941799751482904 0.33738157153129578 0.62290316820144653
0.0050356248393654823 0.31199479103088379 0.63395386934280396
0.13307233154773712 0.095729395747184753 0.68009352684020996
0.47360453009605408 0.078214354813098907 0.73527514934539795
0.68781644105911255 0.039177451282739639 0.75500386953353882
0.77150952816009521 0.029746275395154953 0.76313954591751099
0.8048291802406311 0.049963094294071198 0.77494299411773682
0 0.41859883069992065 0.67683243751525879
0.0069744931533932686 0.3923613429069519 0.69379997253417969
0.070799991488456726 0.33488386869430542 0.74789625406265259
0.50483125448226929 0.3096669614315033 0.81228578090667725
0.7429015040397644 0.31897851824760437 0.83281922340393066
0.8262028694152832 0.30152550339698792 0.83539754152297974
0.8664623498916626 0.35600098967552185 0.85187232494354248
0.013461737893521786 0.55613785982131958 0.75527167320251465
0.023985814303159714 0.55711627006530762 0.77199441194534302
0.013319696299731731 0.55983608961105347 0.82822716236114502
0.50042152404785156 0.60046285390853882 0.89732646942138672
0.80559200048446655 0.63456636667251587 0.92162394523620605
0.89938223361968994 0.62988108396530151 0.91845721006393433
0.93466240167617798 0.66681587696075439 0.92974853515625
0.011991014704108238 0.66140061616897583 0.80420619249343872
0.0066989078186452389 0.69142681360244751 0.83255493640899658
0.019708042964339256 0.74341410398483276 0.88252192735671997
0.49260255694389343 0.81840896606445312 0.95144784450531006
0.84695291519165039 0.87210732698440552 0.97258901596069336
0.95054477453231812 0.86989700794219971 0.97435551881790161
0.97560083866119385 0.88028049468994141 0.97417134046554565
0.028478225693106651 0.71666139364242554 0.83245521783828735
0.027536114677786827 0.75338101387023926 0.86084902286529541
0.034942746162414551 0.80763369798660278 0.90273016691207886
0.47303047776222229 0.90522223711013794 0.96880650520324707
0.83253532648086548 0.95340359210968018 0.98349922895431519
0.9626273512840271 0.97120320796966553 0.98810988664627075
0.98956918716430664 0.97042202949523926 0.98833972215652466
0.015814986079931259 0.75342851877212524 0.85830605030059814
0.013033085502684116 0.78746956586837769 0.88021194934844971
0.028396068140864372 0.83756625652313232 0.92164689302444458
0.52305513620376587 0.92573851346969604 0.97390258312225342
0.84000241756439209 0.97217744588851929 0.98841172456741333
0.96329319477081299 0.99024873971939087 0.98963171243667603
0.99350512027740479 0.99344688653945923 0.99160671234130859
