luts/print/kodak_2383_constlclip.cube
# Created by: G'MIC (https://gmic.eu)
TITLE "kodak_2383_constlclip"
# LUT size
LUT_3D_SIZE 13
# Data domain
DOMAIN_MIN 0.0 0.0 0.0
DOMAIN_MAX 1.0 1.0 1.0
# LUT data points
0.0093038072809576988 0.016469558700919151 0.015844337642192841
0.032367527484893799 0.026726681739091873 0.018762595951557159
0.057191632688045502 0.036367513239383698 0.019097346812486649
0.086464494466781616 0.044296383857727051 0.016307830810546875
0.1449684351682663 0.05468132346868515 0.012633963488042355
0.23996856808662415 0.076513431966304779 0.015607182867825031
0.33664789795875549 0.092573903501033783 0.012513418681919575
0.41858783364295959 0.10656236857175827 0.013364140875637531
0.484150230884552 0.12062602490186691 0.016524655744433403
0.5343744158744812 0.12713088095188141 0.018164854496717453
0.57257115840911865 0.13145476579666138 0.021818317472934723
0.59053128957748413 0.13803747296333313 0.022542646154761314
0.59955888986587524 0.14445005357265472 0.020749395713210106
0.01033941563218832 0.039475161582231522 0.029175881296396255
0.031085385009646416 0.047394111752510071 0.029507236555218697
0.058625448495149612 0.056222040206193924 0.029928917065262794
0.098636716604232788 0.064370281994342804 0.0245029516518116
0.16100217401981354 0.072705946862697601 0.015394457615911961
0.25419610738754272 0.090186052024364471 0.013710441067814827
0.35914552211761475 0.10880520194768906 0.010912531986832619
0.44969433546066284 0.12403341382741928 0.011785245500504971
0.5199928879737854 0.13791802525520325 0.013206361792981625
0.56503593921661377 0.14392895996570587 0.014769446104764938
0.59695291519165039 0.15109239518642426 0.017106134444475174
0.61831063032150269 0.15862324833869934 0.018684267997741699
0.63153356313705444 0.16359749436378479 0.017307445406913757
0.01294555701315403 0.062548093497753143 0.043213371187448502
0.026560315862298012 0.070849776268005371 0.04114927351474762
0.058779608458280563 0.077409796416759491 0.041148766875267029
0.10879227519035339 0.085801802575588226 0.0334598608314991
0.17622168362140656 0.09402427077293396 0.018842002376914024
0.27279403805732727 0.10957839339971542 0.0095045501366257668
0.38553687930107117 0.1307855099439621 0.0082530006766319275
0.48079583048820496 0.15129460394382477 0.011202194727957249
0.55478471517562866 0.16302795708179474 0.01152508333325386
0.59533768892288208 0.17049510776996613 0.014615691266953945
0.62569546699523926 0.1782514750957489 0.017334733158349991
0.64910775423049927 0.1882442831993103 0.016087250784039497
0.66226887702941895 0.19392098486423492 0.015686275437474251
0.013633668422698975 0.085014969110488892 0.055444184690713882
0.016632677987217903 0.096784673631191254 0.053015194833278656
0.049058172851800919 0.1021716520190239 0.051107969135046005
0.10749565809965134 0.11292353272438049 0.043171361088752747
0.19265653192996979 0.13024798035621643 0.02475401945412159
0.3056444525718689 0.15446147322654724 0.012996434234082699
0.42576035857200623 0.17846368253231049 0.012405545450747013
0.52671390771865845 0.20063459873199463 0.015600182116031647
0.59843116998672485 0.20627456903457642 0.0098347980529069901
0.63650912046432495 0.20977061986923218 0.010521369054913521
0.66386407613754272 0.21896049380302429 0.0174242053180933
0.68352466821670532 0.23005439341068268 0.017644934356212616
0.69564366340637207 0.23807168006896973 0.016820002347230911
0.010911171324551105 0.12346450239419937 0.073117077350616455
0.005285599734634161 0.13594581186771393 0.069417305290699005
0.022536931559443474 0.15398868918418884 0.057078342884778976
0.092236131429672241 0.1726982593536377 0.039828058332204819
0.21169279515743256 0.19237878918647766 0.023230444639921188
0.34574896097183228 0.22490467131137848 0.011132169514894485
0.4691498875617981 0.25188741087913513 0.010950350202620029
0.57693541049957275 0.27132570743560791 0.016486387699842453
0.6463463306427002 0.27590399980545044 0.011233101598918438
0.68159329891204834 0.27527305483818054 0.013114330358803272
0.70786499977111816 0.28548398613929749 0.021297439932823181
0.72837752103805542 0.30236020684242249 0.023359576240181923
0.74284809827804565 0.31627106666564941 0.024012740701436996
0.0090101798996329308 0.18843604624271393 0.10308845341205597
0.004104195162653923 0.2033410519361496 0.097906358540058136
0.0044003208167850971 0.22579188644886017 0.075613193213939667
0.051763869822025299 0.25021561980247498 0.04261162132024765
0.20943588018417358 0.28337311744689941 0.02170969732105732
0.37837734818458557 0.32140916585922241 0.0074777640402317047
0.52040845155715942 0.35464328527450562 0.0042230794206261635
0.63237971067428589 0.37386935949325562 0.0042412551119923592
0.70368123054504395 0.38124999403953552 0.0070841172710061073
0.73607522249221802 0.38260796666145325 0.015400860458612442
0.7640690803527832 0.39299890398979187 0.017342211678624153
0.78691858053207397 0.41393071413040161 0.020943630486726761
0.80282062292098999 0.43145424127578735 0.01586436852812767
0.0078431377187371254 0.25835713744163513 0.13483710587024689
0.0063698114827275276 0.28082329034805298 0.12809799611568451
0.0061436821706593037 0.30613613128662109 0.11414740979671478
0.034757591784000397 0.33565571904182434 0.077744349837303162
0.18106144666671753 0.38312473893165588 0.020919499918818474
0.38529267907142639 0.42635977268218994 0.009611944667994976
0.56209266185760498 0.46902969479560852 0.0034328983165323734
0.68314510583877563 0.49657312035560608 0.0054837246425449848
0.75875329971313477 0.50473368167877197 0.0095052830874919891
0.79683774709701538 0.50966435670852661 0.01289837434887886
0.82389062643051147 0.5236276388168335 0.01108652725815773
0.84595102071762085 0.53976982831954956 0.0097371423617005348
0.85878068208694458 0.55742466449737549 0.010232409462332726
0.0078431377187371254 0.32160124182701111 0.16093066334724426
0.0078431377187371254 0.35074222087860107 0.15227952599525452
0.0082923891022801399 0.37898421287536621 0.14016221463680267
0.029975591227412224 0.41548499464988708 0.096717700362205505
0.1772352010011673 0.47732606530189514 0.017193738371133804
0.40283328294754028 0.5279814600944519 0.010443518869578838
0.58984839916229248 0.57427519559860229 0.0085662389174103737
0.72251558303833008 0.60935008525848389 0.012022190727293491
0.80564588308334351 0.62378090620040894 0.019812265411019325
0.84648209810256958 0.62749975919723511 0.026381503790616989
0.87175881862640381 0.63775110244750977 0.030864192172884941
0.89031654596328735 0.65192776918411255 0.029200758785009384
0.90441018342971802 0.66912162303924561 0.021521519869565964
0.0078551946207880974 0.36730149388313293 0.17954671382904053
0.0072441548109054565 0.40227648615837097 0.17654486000537872
0.0080248061567544937 0.43631991744041443 0.15998359024524689
0.040437288582324982 0.48233458399772644 0.10339066386222839
0.20031598210334778 0.54930150508880615 0.021751748397946358
0.43571263551712036 0.60598361492156982 0.014851768501102924
0.63009774684906006 0.66569322347640991 0.008200417272746563
0.76100307703018188 0.70098203420639038 0.016770515590906143
0.83932989835739136 0.71590769290924072 0.037394057959318161
0.88722693920135498 0.72723186016082764 0.053828265517950058
0.91070318222045898 0.73595583438873291 0.059417814016342163
0.9252052903175354 0.74325275421142578 0.061069998890161514
0.93751877546310425 0.75179964303970337 0.062059797346591949
0.010661316104233265 0.40596970915794373 0.19473028182983398
0.016919873654842377 0.44017794728279114 0.18860332667827606
0.021189521998167038 0.47721850872039795 0.17330203950405121
0.042383335530757904 0.52686071395874023 0.11732801795005798
0.21957722306251526 0.59381139278411865 0.023876847699284554
0.4654487669467926 0.66203892230987549 0.022985974326729774
0.65024322271347046 0.71684086322784424 0.017110668122768402
0.78143185377120972 0.75259429216384888 0.031783383339643478
0.85926210880279541 0.76959550380706787 0.056565586477518082
0.90621709823608398 0.78091692924499512 0.070283316075801849
0.93175774812698364 0.78697651624679565 0.0776253342628479
0.94558310508728027 0.79289031028747559 0.081241458654403687
0.95684725046157837 0.79831922054290771 0.084835797548294067
0.013425804674625397 0.43285265564918518 0.2042761892080307
0.02209688164293766 0.46915695071220398 0.19262523949146271
0.035965412855148315 0.50606560707092285 0.17949788272380829
0.054339732974767685 0.5527641773223877 0.11923465877771378
0.22935105860233307 0.61970424652099609 0.02356172539293766
0.47475031018257141 0.68684631586074829 0.015335396863520145
0.65714800357818604 0.7391013503074646 0.016802394762635231
0.78844362497329712 0.77741563320159912 0.041143812239170074
0.87182086706161499 0.79921877384185791 0.064438775181770325
0.91159456968307495 0.80572909116744995 0.07447940856218338
0.94164067506790161 0.81175452470779419 0.083620570600032806
0.95818144083023071 0.81747591495513916 0.090170346200466156
0.96682876348495483 0.82048100233078003 0.093486800789833069
0.011298534460365772 0.45778378844261169 0.21310135722160339
0.014235836453735828 0.49678212404251099 0.19686353206634521
0.018920149654150009 0.53601664304733276 0.17080917954444885
0.058476869016885757 0.58030498027801514 0.11244949698448181
0.27859011292457581 0.64712238311767578 0.026204891502857208
0.48920074105262756 0.70436525344848633 0.01904989592730999
0.66962629556655884 0.7559317946434021 0.018521148711442947
0.79724013805389404 0.79306483268737793 0.043892160058021545
0.88605177402496338 0.81691151857376099 0.063788019120693207
0.92630839347839355 0.82585376501083374 0.07292485237121582
0.9510037899017334 0.83194661140441895 0.0881829634308815
0.96802717447280884 0.8369869589805603 0.097245298326015472
0.97593271732330322 0.83889466524124146 0.10009367763996124
0.013774721883237362 0.48258432745933533 0.21985712647438049
0.016360502690076828 0.53128921985626221 0.19604429602622986
0.030821153894066811 0.58245313167572021 0.13964438438415527
0.10343425720930099 0.62731951475143433 0.05301951989531517
0.33840259909629822 0.68229871988296509 0.014777478761970997
0.52965801954269409 0.72908425331115723 0.014178452081978321
0.69362044334411621 0.77446448802947998 0.018061768263578415
0.8093988299369812 0.80676060914993286 0.049966506659984589
0.89704442024230957 0.8301466703414917 0.065280929207801819
0.94541019201278687 0.84226769208908081 0.079556196928024292
0.96415138244628906 0.84548598527908325 0.093914583325386047
0.97483456134796143 0.846832275390625 0.10690156370401382
0.98816394805908203 0.85162472724914551 0.10504008084535599
0.011932133696973324 0.021411746740341187 0.037283055484294891
0.030048474669456482 0.028320012614130974 0.038411624729633331
0.057089876383543015 0.037826567888259888 0.038988180458545685
0.093820907175540924 0.046649109572172165 0.038429617881774902
0.15083512663841248 0.0562298484146595 0.036788836121559143
0.24436740577220917 0.065201506018638611 0.030013440176844597
0.34512731432914734 0.063868142664432526 0.013158072717487812
0.43396645784378052 0.070998460054397583 0.0078714853152632713
0.50449484586715698 0.088973477482795715 0.010903541930019855
0.55222082138061523 0.11283551156520844 0.015122521668672562
0.5793381929397583 0.11642806231975555 0.020844493061304092
0.60071659088134766 0.11876341700553894 0.022184932604432106
0.61421531438827515 0.12377054244279861 0.023162107914686203
0.0092711653560400009 0.042979400604963303 0.047914318740367889
0.026680201292037964 0.049491327255964279 0.047917071729898453
0.060504809021949768 0.058214735239744186 0.048132278025150299
0.10819385200738907 0.066997990012168884 0.043538440018892288
0.16711121797561646 0.075892426073551178 0.03890717402100563
0.26429641246795654 0.086017802357673645 0.030616311356425285
0.37981036305427551 0.090025223791599274 0.014401350170373917
0.46567395329475403 0.10145635902881622 0.012066755443811417
0.53304177522659302 0.11808269470930099 0.011399317532777786
0.5786820650100708 0.12758894264698029 0.013044619001448154
0.61090612411499023 0.12312494963407516 0.014828566461801529
0.6333928108215332 0.12688612937927246 0.013228980824351311
0.64925920963287354 0.13697369396686554 0.014813950285315514
0.0078407740220427513 0.06646997481584549 0.059036914259195328
0.019202811643481255 0.072246208786964417 0.057077519595623016
0.057733573019504547 0.081139132380485535 0.057029500603675842
0.11637118458747864 0.090347453951835632 0.051471229642629623
0.18121741712093353 0.0989699587225914 0.042543195188045502
0.28494825959205627 0.11032953858375549 0.027003075927495956
0.41341426968574524 0.12296507507562637 0.0081705879420042038
0.50447016954421997 0.13653600215911865 0.01109809149056673
0.57470864057540894 0.14484184980392456 0.0098509397357702255
0.6132625937461853 0.15184098482131958 0.013580396771430969
0.63966250419616699 0.1609157919883728 0.01869221031665802
0.66359609365463257 0.16630628705024719 0.014335392974317074
0.67958980798721313 0.16832061111927032 0.010162473656237125
0.0062556248158216476 0.091003671288490295 0.069014802575111389
0.010742172598838806 0.094620540738105774 0.065025582909584045
0.049650602042675018 0.10602913796901703 0.064014524221420288
0.10973048210144043 0.12307760119438171 0.059477321803569794
0.19117815792560577 0.13925983011722565 0.044823456555604935
0.31709721684455872 0.15126323699951172 0.021595658734440804
0.44819581508636475 0.16817508637905121 0.0085254739969968796
0.5504726767539978 0.18646502494812012 0.013737981207668781
0.61992728710174561 0.19213442504405975 0.012572763487696648
0.65690857172012329 0.19290162622928619 0.01051667146384716
0.67749029397964478 0.20648185908794403 0.020935507491230965
0.6980404257774353 0.21763981878757477 0.020862773060798645
0.71870046854019165 0.22101198136806488 0.011290052905678749
0.0058890846557915211 0.13144724071025848 0.085864588618278503
0.0041235233657062054 0.13508917391300201 0.080659039318561554
0.028337216004729271 0.1546952873468399 0.071220144629478455
0.093360364437103271 0.18139518797397614 0.05964699387550354
0.20389525592327118 0.20281021296977997 0.041099399328231812
0.35270977020263672 0.22080689668655396 0.013823011890053749
0.4832611083984375 0.24100060760974884 0.0086951758712530136
0.59183180332183838 0.26303753256797791 0.018477614969015121
0.66354036331176758 0.2677585780620575 0.017432089895009995
0.70080184936523438 0.26622447371482849 0.014443595893681049
0.7284553050994873 0.28061127662658691 0.019736854359507561
0.74889707565307617 0.30580613017082214 0.022567015141248703
0.76563131809234619 0.31203368306159973 0.021701976656913757
0.0065306718461215496 0.1946311742067337 0.11557440459728241
0.0041066934354603291 0.20762544870376587 0.11212576925754547
0.006923929788172245 0.22868292033672333 0.098143450915813446
0.051122255623340607 0.25669991970062256 0.06383698433637619
0.19686609506607056 0.28677272796630859 0.035015016794204712
0.38179531693458557 0.32455414533615112 0.0093902284279465675
0.52973926067352295 0.3574778139591217 0.0057331756688654423
0.64411425590515137 0.37723818421363831 0.0086554130539298058
0.71690434217453003 0.37691149115562439 0.0085676899179816246
0.75305402278900146 0.38280072808265686 0.017733480781316757
0.78327047824859619 0.3948063850402832 0.019821824505925179
0.80605494976043701 0.41440472006797791 0.023731695488095284
0.81835520267486572 0.4278353750705719 0.024895463138818741
0.0076797786168754101 0.26188722252845764 0.14734886586666107
0.0045114406384527683 0.28232774138450623 0.14386431872844696
0.0056051965802907944 0.30608728528022766 0.13353012502193451
0.035930093377828598 0.34387710690498352 0.080526895821094513
0.17225873470306396 0.3901267945766449 0.022208703681826591
0.38754382729530334 0.43259993195533752 0.008503214456140995
0.57147109508514404 0.47945258021354675 0.0041449754498898983
0.69594299793243408 0.50273376703262329 0.0039220172911882401
0.7681700587272644 0.50505030155181885 0.0045968149788677692
0.81014347076416016 0.5114251971244812 0.011239833198487759
0.83836758136749268 0.52966600656509399 0.012590296566486359
0.86029356718063354 0.54558628797531128 0.012510666623711586
0.86925369501113892 0.55676072835922241 0.015684943646192551
0.0078431377187371254 0.3239230215549469 0.17333723604679108
0.0060856388881802559 0.34648618102073669 0.16770237684249878
0.0087749259546399117 0.37615430355072021 0.15562620759010315
0.013503744266927242 0.42559903860092163 0.094396032392978668
0.14288137853145599 0.48721083998680115 0.013558750972151756
0.39751914143562317 0.53585255146026611 0.0056079342029988766
0.59266340732574463 0.58367037773132324 0.0047328872606158257
0.73447072505950928 0.62053096294403076 0.0040795421227812767
0.81635874509811401 0.62906026840209961 0.0090342052280902863
0.85849255323410034 0.62877243757247925 0.021745031699538231
0.88398939371109009 0.64665371179580688 0.027247829362750053
0.90514260530471802 0.66371428966522217 0.023118112236261368
0.91658484935760498 0.67579317092895508 0.025230377912521362
0.0064877229742705822 0.37798252701759338 0.19279943406581879
0.0041073518805205822 0.40386942028999329 0.18764922022819519
0.0045491685159504414 0.44263365864753723 0.17432825267314911
0.0091351531445980072 0.49395740032196045 0.11266044527292252
0.14585502445697784 0.56278073787689209 0.013750742189586163
0.43637531995773315 0.62326931953430176 0.0047121685929596424
0.63428258895874023 0.67611652612686157 0.005532238632440567
0.76909899711608887 0.71144789457321167 0.015572506934404373
0.8510739803314209 0.7267463207244873 0.034999668598175049
0.89672708511352539 0.73315393924713135 0.054772529751062393
0.92233550548553467 0.74348741769790649 0.060571108013391495
0.9372982382774353 0.75076848268508911 0.063797958195209503
0.94822865724563599 0.75839942693710327 0.068480364978313446
0.0095589281991124153 0.41799581050872803 0.21072480082511902
0.0098989447578787804 0.44721534848213196 0.20364724099636078
0.0092144384980201721 0.48504471778869629 0.19050370156764984
0.014140320010483265 0.53630423545837402 0.12980306148529053
0.15070547163486481 0.60739719867706299 0.014280042611062527
0.45108669996261597 0.6715400218963623 0.011713827960193157
0.65703338384628296 0.72628915309906006 0.01149170845746994
0.78998655080795288 0.76119691133499146 0.033889859914779663
0.87100756168365479 0.78006595373153687 0.061417762190103531
0.91779941320419312 0.78975749015808105 0.07497715950012207
0.94258338212966919 0.79505091905593872 0.080914169549942017
0.95681655406951904 0.80031293630599976 0.08865579217672348
0.96681821346282959 0.80527317523956299 0.094824925065040588
0.016621952876448631 0.43740555644035339 0.22354987263679504
0.024780796840786934 0.47117745876312256 0.21674373745918274
0.030602188780903816 0.50944989919662476 0.20403864979743958
0.030397092923521996 0.56133174896240234 0.14189901947975159
0.16519375145435333 0.6304510235786438 0.019770154729485512
0.46085464954376221 0.69437730312347412 0.01331010740250349
0.66254937648773193 0.74940198659896851 0.013287204317748547
0.79678034782409668 0.7868117094039917 0.038821067661046982
0.88180083036422729 0.80756950378417969 0.066959723830223083
0.92595946788787842 0.8160213828086853 0.079707875847816467
0.95446771383285522 0.82270669937133789 0.088546082377433777
0.97003167867660522 0.82802766561508179 0.099136531352996826
0.97838902473449707 0.83041059970855713 0.10379832983016968
0.02007000520825386 0.45775112509727478 0.23852631449699402
0.02856789343059063 0.49849006533622742 0.23059897124767303
0.031912516802549362 0.53596347570419312 0.21226575970649719
0.02647755853831768 0.58814734220504761 0.14120502769947052
0.1951725035905838 0.65931880474090576 0.022371629253029823
0.48410201072692871 0.71858376264572144 0.016722166910767555
0.671916663646698 0.76938271522521973 0.012326917611062527
0.80003786087036133 0.80233436822891235 0.030448943376541138
0.89084309339523315 0.82369863986968994 0.063973464071750641
0.93900084495544434 0.83444845676422119 0.074755847454071045
0.9650191068649292 0.8415226936340332 0.090204410254955292
0.9797133207321167 0.84614157676696777 0.11135017871856689
0.98727023601531982 0.84759789705276489 0.1050930842757225
0.032803300768136978 0.4930872917175293 0.26157885789871216
0.018959375098347664 0.54376626014709473 0.25322085618972778
0.021440602838993073 0.58922141790390015 0.21830731630325317
0.046762831509113312 0.63515245914459229 0.1373872309923172
0.25870451331138611 0.69638139009475708 0.030803008005023003
0.5137208104133606 0.74752700328826904 0.01727110892534256
0.69267624616622925 0.79024875164031982 0.024706402793526649
0.81406897306442261 0.81907564401626587 0.044498458504676819
0.90454769134521484 0.83759653568267822 0.057462297379970551
0.95805138349533081 0.85167962312698364 0.053131505846977234
0.9788583517074585 0.8570895791053772 0.08640676736831665
0.98610949516296387 0.85845810174942017 0.14935606718063354
0.99482214450836182 0.86148440837860107 0.15342219173908234
0.017383994534611702 0.025791855528950691 0.060240231454372406
0.027411695569753647 0.02817828580737114 0.060312382876873016
0.058874405920505524 0.036748446524143219 0.061360858380794525
0.099977307021617889 0.047849230468273163 0.065381728112697601
0.15403231978416443 0.05807088315486908 0.063860587775707245
0.24507229030132294 0.056596912443637848 0.052478309720754623
0.361346036195755 0.034154690802097321 0.030126698315143585
0.46640044450759888 0.017420226708054543 0.014925354160368443
0.52833956480026245 0.021958235651254654 0.012783723883330822
0.5809941291809082 0.029578862711787224 0.015289681032299995
0.60647380352020264 0.045744068920612335 0.021384624764323235
0.62629657983779907 0.051775988191366196 0.016175916418433189
0.63970059156417847 0.049517210572957993 0.018396100029349327
0.011556289158761501 0.046168547123670578 0.070108570158481598
0.022721473127603531 0.050553787499666214 0.071580566465854645
0.060143087059259415 0.05897952988743782 0.071852095425128937
0.11298859864473343 0.067717455327510834 0.070577643811702728
0.16966834664344788 0.076116643846035004 0.067698746919631958
0.26744037866592407 0.075075156986713409 0.055437482893466949
0.39475861191749573 0.053721573203802109 0.036856334656476974
0.4976884126663208 0.039870452135801315 0.024431610479950905
0.56535017490386963 0.048242576420307159 0.013509892858564854
0.60699677467346191 0.058201927691698074 0.014881373383104801
0.63479888439178467 0.069451488554477692 0.016173088923096657
0.65508651733398438 0.07358965277671814 0.0096923978999257088
0.67237311601638794 0.078181862831115723 0.011156911961734295
0.005975671112537384 0.069346845149993896 0.080677509307861328
0.014946297742426395 0.073784783482551575 0.083520837128162384
0.052651543170213699 0.08281070739030838 0.083932302892208099
0.11527874320745468 0.092824257910251617 0.079788163304328918
0.18289494514465332 0.099696576595306396 0.073263175785541534
0.29185083508491516 0.10514203459024429 0.05501638725399971
0.42634263634681702 0.10142853856086731 0.034638617187738419
0.52689266204833984 0.081736788153648376 0.024191329255700111
0.60293084383010864 0.095054939389228821 0.011300599202513695
0.64413148164749146 0.10294977575540543 0.011714681051671505
0.67078298330307007 0.10852500796318054 0.012147851288318634
0.68975389003753662 0.12005144357681274 0.0050584981217980385
0.70826762914657593 0.12259997427463531 0.0043344534933567047
0.0039215688593685627 0.096367329359054565 0.089703910052776337
0.0071419063024222851 0.098146982491016388 0.091179445385932922
0.041489738970994949 0.11205170303583145 0.092584379017353058
0.10868000984191895 0.13013894855976105 0.08930804580450058
0.1957327276468277 0.14402395486831665 0.077796339988708496
0.32732897996902466 0.15085980296134949 0.051238745450973511
0.46552494168281555 0.15408784151077271 0.029031356796622276
0.57567310333251953 0.15108212828636169 0.013152671977877617
0.64685910940170288 0.15653805434703827 0.0058660618960857391
0.68858927488327026 0.1572844535112381 0.0060056201182305813
0.7151065468788147 0.16153542697429657 0.0088287200778722763
0.73190069198608398 0.17029593884944916 0.010545723140239716
