luts/print/kodak_2383_constlmap.cube
# Created by: G'MIC (https://gmic.eu)
TITLE "kodak_2383_constlmap"
# LUT size
LUT_3D_SIZE 5
# Data domain
DOMAIN_MIN 0.0 0.0 0.0
DOMAIN_MAX 1.0 1.0 1.0
# LUT data points
0.0118852648884058 0.011832547374069691 0.016272975131869316
0.08847007155418396 0.040479786694049835 0.02300688810646534
0.33371457457542419 0.092841401696205139 0.0081629287451505661
0.53692001104354858 0.13130317628383636 0.0058323577977716923
0.60228675603866577 0.14616745710372925 0.018662905320525169
0.016565360128879547 0.079725317656993866 0.053812243044376373
0.10227716714143753 0.11041752249002457 0.044805429875850677
0.42425304651260376 0.18596057593822479 0.033423077315092087
0.6383177638053894 0.21458914875984192 0.018806338310241699
0.69050145149230957 0.23647744953632355 0.02242208831012249
0.023976195603609085 0.26120105385780334 0.13815365731716156
0.054089907556772232 0.33662718534469604 0.096991501748561859
0.56140601634979248 0.4712899923324585 0.024883029982447624
0.80768662691116333 0.52364480495452881 0.015641605481505394
0.85401415824890137 0.55058807134628296 0.014714079909026623
0.02759818360209465 0.41073176264762878 0.19962786138057709
0.054674439132213593 0.52660059928894043 0.11073834449052811
0.64806282520294189 0.71483981609344482 0.012984286993741989
0.90896821022033691 0.77975708246231079 0.087352961301803589
0.95893275737762451 0.80097252130508423 0.095386281609535217
0.0040802601724863052 0.48415294289588928 0.22177310287952423
0.13899073004722595 0.62550634145736694 0.07383447140455246
0.68223559856414795 0.77179884910583496 0.029728848487138748
0.94251090288162231 0.84549248218536377 0.091204777359962463
0.99073582887649536 0.85606127977371216 0.10753615200519562
0.0092871570959687233 0.030151486396789551 0.084311418235301971
0.098298154771327972 0.047206070274114609 0.10395896434783936
0.37787941098213196 0.04550546407699585 0.09579131007194519
0.58455067873001099 0.042143203318119049 0.088387250900268555
0.64671814441680908 0.048853389918804169 0.10009921342134476
0.03064148873090744 0.096027150750160217 0.11121910065412521
0.11378734558820724 0.12302546948194504 0.12379778921604156
0.45850616693496704 0.17873869836330414 0.13628026843070984
0.70492696762084961 0.15308885276317596 0.09748367965221405
0.77726632356643677 0.12280982732772827 0.054176762700080872
0.049310091882944107 0.28356066346168518 0.20504823327064514
0.15900158882141113 0.35007420182228088 0.2111152708530426
0.57302612066268921 0.49849209189414978 0.21071888506412506
0.85520666837692261 0.5416715145111084 0.14298655092716217
0.92151319980621338 0.56420004367828369 0.035789236426353455
0.035518120974302292 0.43697246909141541 0.27932289242744446
0.09547918289899826 0.55329233407974243 0.26338872313499451
0.64568662643432617 0.7523343563079834 0.19388081133365631
0.92854130268096924 0.81596791744232178 0.25625967979431152
0.9958425760269165 0.83392775058746338 0.15363211929798126
0.021614283323287964 0.53249138593673706 0.3793969452381134
0.029997298493981361 0.66245478391647339 0.35890647768974304
0.67980962991714478 0.83080911636352539 0.27626135945320129
0.97317111492156982 0.8865160346031189 0.2648160457611084
1 0.89071470499038696 0.38890901207923889
0.013725490309298038 0.10981500893831253 0.23367637395858765
0.083807758986949921 0.02865295484662056 0.32311335206031799
0.37827906012535095 0.039985314011573792 0.36630237102508545
0.60592663288116455 0.032968975603580475 0.381114661693573
0.66685813665390015 0.046686988323926926 0.39763972163200378
0.036675188690423965 0.1730550080537796 0.28267055749893188
0.07323186844587326 0.16409824788570404 0.36257147789001465
0.46932902932167053 0.18997064232826233 0.43605732917785645
0.73405623435974121 0.14787903428077698 0.46026414632797241
0.79697734117507935 0.14396192133426666 0.48484554886817932
0.056304559111595154 0.36483165621757507 0.41470003128051758
0.20560577511787415 0.43182849884033203 0.46802785992622375
0.58228498697280884 0.56098824739456177 0.56887024641036987
0.88708329200744629 0.58746057748794556 0.56459301710128784
0.94745922088623047 0.62885397672653198 0.58350425958633423
0.017677037045359612 0.52205044031143188 0.51480591297149658
0.13174237310886383 0.62588775157928467 0.57822424173355103
0.59427088499069214 0.83908677101135254 0.6253429651260376
0.95000648498535156 0.89261925220489502 0.64107102155685425
0.99909001588821411 0.90757542848587036 0.66253793239593506
0.0080309845507144928 0.60705471038818359 0.60427463054656982
0.034188259392976761 0.72493457794189453 0.6759648323059082
0.61177057027816772 0.89675837755203247 0.71515238285064697
0.95545625686645508 0.95413321256637573 0.72373825311660767
0.9998481273651123 0.95889878273010254 0.76295238733291626
0.00077894621063023806 0.17048053443431854 0.3401767909526825
0.039792198687791824 0.081896960735321045 0.47081279754638672
0.38502493500709534 0.040188778191804886 0.54919064044952393
0.63122999668121338 0.064434528350830078 0.58032751083374023
0.68380755186080933 0.043225321918725967 0.58712470531463623
0.0039676590822637081 0.24308474361896515 0.42025583982467651
0.051204022020101547 0.22374223172664642 0.51273888349533081
0.47642633318901062 0.16836138069629669 0.67986059188842773
0.73675680160522461 0.17235450446605682 0.69425469636917114
0.8098565936088562 0.1196332573890686 0.72704410552978516
0.016206240281462669 0.428792804479599 0.56961983442306519
0.13628382980823517 0.48780360817909241 0.65027058124542236
0.54624313116073608 0.58953660726547241 0.8382294774055481
0.87670624256134033 0.61441308259963989 0.85258597135543823
0.93965286016464233 0.65415722131729126 0.86988210678100586
0.008449135348200798 0.58670473098754883 0.67212611436843872
0.16472026705741882 0.68378478288650513 0.75472700595855713
0.54552674293518066 0.87429016828536987 0.90035092830657959
0.93265438079833984 0.93551105260848999 0.92319416999816895
0.99428719282150269 0.94668596982955933 0.92385441064834595
0.019047651439905167 0.65586620569229126 0.73361438512802124
0.069217413663864136 0.7605818510055542 0.82507824897766113
0.5454832911491394 0.92169344425201416 0.93039792776107788
0.92663145065307617 0.98029667139053345 0.94463956356048584
0.99486339092254639 0.98964005708694458 0.95313858985900879
0.00068939808988943696 0.186263307929039 0.38299101591110229
0.038156099617481232 0.12766087055206299 0.50667470693588257
0.41726088523864746 0.03783600777387619 0.63770824670791626
0.66359543800354004 0.070511870086193085 0.66111969947814941
0.73505485057830811 0.072915144264698029 0.68976885080337524
0 0.26800984144210815 0.46912088990211487
0.012187045067548752 0.26370629668235779 0.56014561653137207
0.4933154284954071 0.19167919456958771 0.7688712477684021
0.77097839117050171 0.16622959077358246 0.79455244541168213
0.83347690105438232 0.19677354395389557 0.81195342540740967
0.00033497530966997147 0.45362591743469238 0.61179399490356445
0.0021464030724018812 0.5088425874710083 0.7036401629447937
0.52014750242233276 0.60445821285247803 0.90054160356521606
0.8701627254486084 0.63257843255996704 0.92499715089797974
0.93677598237991333 0.66753524541854858 0.93519693613052368
0.019607843831181526 0.59889364242553711 0.70431220531463623
0.009518851526081562 0.69349533319473267 0.79474860429763794
0.4793533980846405 0.88110381364822388 0.9634709358215332
0.92295229434967041 0.93552267551422119 0.98538267612457275
0.99045431613922119 0.94760513305664062 0.98903179168701172
0.00695826206356287 0.66866862773895264 0.76230067014694214
0.012770604342222214 0.77079391479492188 0.85579657554626465
0.52020019292831421 0.92526066303253174 0.9730495810508728
0.91992098093032837 0.9862053394317627 0.99484854936599731
0.99592387676239014 0.99574500322341919 0.99496877193450928
