luts/print/kodak_2393_constlclip.cube
# Created by: G'MIC (https://gmic.eu)
TITLE "kodak_2393_constlclip"
# LUT size
LUT_3D_SIZE 7
# Data domain
DOMAIN_MIN 0.0 0.0 0.0
DOMAIN_MAX 1.0 1.0 1.0
# LUT data points
0.013077006675302982 0.024415992200374603 0.026505235582590103
0.046275448054075241 0.034216906875371933 0.019982222467660904
0.13481295108795166 0.047874808311462402 0.0077534094452857971
0.29826810956001282 0.084336571395397186 0.01015816442668438
0.43611767888069153 0.10632666945457458 0.013042405247688293
0.50568163394927979 0.11560821533203125 0.017681002616882324
0.53660821914672852 0.11933119595050812 0.017130235210061073
0.013414464890956879 0.046205110847949982 0.03418109193444252
0.037003669887781143 0.066991247236728668 0.029174281284213066
0.15176296234130859 0.086815118789672852 0.0094755729660391808
0.3389732837677002 0.12470897287130356 0.0039215688593685627
0.5036962628364563 0.14796482026576996 0.0074641508981585503
0.57855731248855591 0.16525471210479736 0.012221885845065117
0.60200834274291992 0.17353177070617676 0.018253879621624947
0.0048922519199550152 0.10684958100318909 0.064023368060588837
0.013081240467727184 0.12984545528888702 0.038391426205635071
0.18231990933418274 0.18184870481491089 0.010737325996160507
0.42615696787834167 0.23497405648231506 0.0022945927921682596
0.60131144523620605 0.27016356587409973 0.0096694501116871834
0.66798847913742065 0.28222477436065674 0.023905152454972267
0.69961798191070557 0.3014642596244812 0.011912297457456589
0.009319978766143322 0.21193143725395203 0.10959562659263611
0.0072148493491113186 0.26628825068473816 0.092448458075523376
0.20934043824672699 0.35838848352432251 0.022962562739849091
0.53968149423599243 0.45217776298522949 0.0089446874335408211
0.72355574369430542 0.49255269765853882 0.011827550828456879
0.78883957862854004 0.50486451387405396 0.017388677224516869
0.82596021890640259 0.53552001714706421 0.0074791703373193741
0.0039589079096913338 0.31458836793899536 0.15086902678012848
0.026236845180392265 0.39360132813453674 0.13429909944534302
0.25508338212966919 0.51783311367034912 0.01780191995203495
0.62067466974258423 0.63822406530380249 0.0054409848526120186
0.81953269243240356 0.69128912687301636 0.022526221349835396
0.89536517858505249 0.7127525806427002 0.038629360496997833
0.91404950618743896 0.71868479251861572 0.052383933216333389
0.0050327824428677559 0.36278393864631653 0.17082814872264862
0.023010179400444031 0.45907646417617798 0.1478244960308075
0.28000101447105408 0.58368194103240967 0.015690328553318977
0.65327119827270508 0.70555734634399414 0.0073067760095000267
0.85743772983551025 0.77193266153335571 0.058733053505420685
0.93712073564529419 0.79137468338012695 0.074419833719730377
0.95491951704025269 0.7936597466468811 0.083227179944515228
0.0088024511933326721 0.4513055682182312 0.20155112445354462
0.050943396985530853 0.55182796716690063 0.089191839098930359
0.36954152584075928 0.64999377727508545 0.0084469066932797432
0.6813386082649231 0.74443155527114868 0.0095485616475343704
0.87368208169937134 0.79975593090057373 0.066534005105495453
0.95901775360107422 0.82330697774887085 0.088172569870948792
0.97723370790481567 0.83143848180770874 0.099088467657566071
0.0044970493763685226 0.032676458358764648 0.052795290946960449
0.041559390723705292 0.036807805299758911 0.054599177092313766
0.14783410727977753 0.031872335821390152 0.038190804421901703
0.31754094362258911 0.015482599847018719 0.012783439829945564
0.47830885648727417 0.056396633386611938 0.024682587012648582
0.53505676984786987 0.060596391558647156 0.024116935208439827
0.56806772947311401 0.052735242992639542 0.029992511495947838
0.013054522685706615 0.062861531972885132 0.065773487091064453
0.034498549997806549 0.067098937928676605 0.066856712102890015
0.17395633459091187 0.084474138915538788 0.041178863495588303
0.39655250310897827 0.077867470681667328 0.020449679344892502
0.55292457342147827 0.09417559951543808 0.025253504514694214
0.62130796909332275 0.10209654271602631 0.019638584926724434
0.65194976329803467 0.11861530691385269 0.021615391597151756
0.013799316249787807 0.11110030859708786 0.086492381989955902
0.011914481408894062 0.14226768910884857 0.080559343099594116
0.19078665971755981 0.19549886882305145 0.042316436767578125
0.48224204778671265 0.23267476260662079 0.0081562716513872147
0.65706419944763184 0.24239645898342133 0.0082021821290254593
0.72389334440231323 0.25853398442268372 0.012175615876913071
0.75521409511566162 0.27608427405357361 0.011147352866828442
0.0097471047192811966 0.23243711888790131 0.1543973982334137
0.0061217364855110645 0.29287925362586975 0.13474480807781219
0.188520148396492 0.38900694251060486 0.025792919099330902
0.57066947221755981 0.46955028176307678 0.0070984633639454842
0.76414209604263306 0.50244313478469849 0.013045681640505791
0.839152991771698 0.52384138107299805 0.0076597174629569054
0.87542474269866943 0.554160475730896 0.019620005041360855
0.01518357265740633 0.33181962370872498 0.19921891391277313
0.01197789516299963 0.41535863280296326 0.18041941523551941
0.15896308422088623 0.55142706632614136 0.022803677245974541
0.62895733118057251 0.66838020086288452 0.0051087471656501293
0.84935373067855835 0.71686393022537231 0.031792555004358292
0.92623889446258545 0.73418605327606201 0.037260871380567551
0.94510602951049805 0.74069440364837646 0.052239600569009781
0.0036825891584157944 0.3911711573600769 0.22732304036617279
0.022353332489728928 0.48025363683700562 0.22009932994842529
0.17463268339633942 0.62177759408950806 0.038208771497011185
0.65655994415283203 0.74389541149139404 0.023606065660715103
0.883431077003479 0.79764771461486816 0.050526097416877747
0.96605300903320312 0.81636518239974976 0.062772281467914581
0.98148828744888306 0.82320833206176758 0.085059478878974915
0.011369219049811363 0.4868328869342804 0.30859038233757019
0.017038486897945404 0.58839982748031616 0.30257639288902283
0.23067611455917358 0.70341944694519043 0.19859783351421356
0.68214064836502075 0.79615950584411621 0.12086783349514008
0.90718525648117065 0.8410637378692627 0.11033287644386292
0.99055713415145874 0.85757201910018921 0.11993765830993652
0.99710935354232788 0.86316335201263428 0.23506274819374084
0.0044522155076265335 0.055009551346302032 0.097078017890453339
0.024066086858510971 0.033338092267513275 0.1305023580789566
0.13156746327877045 0.0079405391588807106 0.14834488928318024
0.33506754040718079 0.0067267920821905136 0.16521108150482178
0.48721247911453247 0.02175070159137249 0.17644569277763367
0.55931681394577026 0.028686299920082092 0.17645677924156189
0.59088188409805298 0.015171394683420658 0.18335011601448059
0.012569651938974857 0.084309026598930359 0.11989575624465942
0.015559402294456959 0.084392532706260681 0.15250073373317719
0.1675858348608017 0.079416714608669281 0.18664523959159851
0.41330519318580627 0.039327912032604218 0.19523893296718597
0.59014254808425903 0.019277505576610565 0.18622936308383942
0.66206103563308716 0.01269855909049511 0.19385218620300293
0.69863229990005493 0.01488031167536974 0.2103428989648819
0.013169472105801105 0.14928616583347321 0.17183239758014679
0.0047794119454920292 0.16020762920379639 0.18368612229824066
0.16831856966018677 0.21870258450508118 0.22373974323272705
0.49881908297538757 0.25004854798316956 0.2264031320810318
0.70421326160430908 0.23146378993988037 0.2157948911190033
0.77904123067855835 0.21333871781826019 0.20004688203334808
0.8116222620010376 0.25514510273933411 0.20369893312454224
0.014762459322810173 0.27033248543739319 0.23771524429321289
0.010840187780559063 0.32757240533828735 0.25382715463638306
0.11532635986804962 0.42543613910675049 0.2678908109664917
0.58585047721862793 0.51606684923171997 0.24136041104793549
0.81755739450454712 0.53620058298110962 0.20648014545440674
0.89761853218078613 0.53817343711853027 0.212233766913414
0.93189817667007446 0.57927417755126953 0.21850869059562683
0.018152514472603798 0.38162478804588318 0.30365058779716492
0.020282385870814323 0.46203204989433289 0.32044899463653564
0.074947521090507507 0.59450465440750122 0.30447381734848022
0.62567007541656494 0.72509551048278809 0.24440005421638489
0.89822381734848022 0.76659601926803589 0.14659394323825836
0.98602080345153809 0.78262507915496826 0.13806165754795074
0.99652093648910522 0.79177939891815186 0.18660983443260193
0.011994964443147182 0.4373873770236969 0.35248860716819763
0.028634194284677505 0.52297389507293701 0.38284271955490112
0.054730240255594254 0.66530144214630127 0.36182489991188049
0.62905001640319824 0.80008560419082642 0.31777828931808472
0.90496820211410522 0.85129088163375854 0.26425516605377197
0.99543195962905884 0.86684954166412354 0.26490071415901184
1 0.87145376205444336 0.34704750776290894
0.0056166704744100571 0.54222995042800903 0.45500949025154114
0.0096486108377575874 0.61510896682739258 0.46870720386505127
0.12557767331600189 0.73874187469482422 0.47560381889343262
0.64165258407592773 0.83973217010498047 0.46921050548553467
0.8992723822593689 0.88717341423034668 0.44595038890838623
0.9926077127456665 0.90152251720428467 0.43412452936172485
1 0.90583997964859009 0.50141870975494385
0.0058938269503414631 0.097499251365661621 0.18266816437244415
0.009963570162653923 0.080542273819446564 0.21148170530796051
0.13059918582439423 0.0069028516300022602 0.29810574650764465
0.35775530338287354 0.0071129295974969864 0.34096801280975342
0.50679343938827515 0.017876030877232552 0.35202068090438843
0.57708120346069336 0.037916205823421478 0.36080649495124817
0.62086313962936401 0.017439166083931923 0.38051632046699524
0.004661948885768652 0.13373388350009918 0.22504833340644836
0.003159496933221817 0.1250557154417038 0.27340424060821533
0.15647943317890167 0.066028356552124023 0.3786243200302124
0.4224623441696167 0.03214678168296814 0.409361332654953
0.5995214581489563 0.016397019848227501 0.41291788220405579
0.676186203956604 0.017229881137609482 0.42987090349197388
0.70725095272064209 0.025400228798389435 0.43487855792045593
0.0024653417058289051 0.20669116079807281 0.29263359308242798
0.0030521617736667395 0.2205604612827301 0.3282773494720459
0.1063864603638649 0.23501572012901306 0.44929879903793335
0.49664831161499023 0.26627203822135925 0.48808324337005615
0.70917129516601562 0.25899976491928101 0.5030638575553894
0.78709793090820312 0.24510139226913452 0.50201535224914551
0.82074844837188721 0.28088885545730591 0.49606180191040039
0.016451293602585793 0.33492809534072876 0.37866774201393127
0.0045773973688483238 0.3905942440032959 0.43344616889953613
0.044581126421689987 0.47693932056427002 0.52133190631866455
0.54492771625518799 0.55420303344726562 0.55414754152297974
0.81431621313095093 0.57762604951858521 0.56539857387542725
0.89770472049713135 0.58824485540390015 0.55650371313095093
0.9305921196937561 0.61848199367523193 0.5779646635055542
0.01388817559927702 0.44739657640457153 0.44892939925193787
0.0042208950035274029 0.52131158113479614 0.51194030046463013
0.0086965374648571014 0.65026414394378662 0.57363951206207275
0.58355188369750977 0.77854412794113159 0.59949737787246704
0.87224972248077393 0.81752443313598633 0.58944648504257202
0.96046477556228638 0.81503689289093018 0.59279865026473999
0.98917728662490845 0.83989226818084717 0.61291974782943726
0.0086130034178495407 0.50284290313720703 0.4981328547000885
0.0068177166394889355 0.59543907642364502 0.57137525081634521
0.0053922017104923725 0.71912431716918945 0.62416279315948486
0.57589751482009888 0.85117924213409424 0.65226203203201294
0.87998306751251221 0.90167486667633057 0.65354496240615845
0.97849744558334351 0.91542428731918335 0.64816379547119141
0.99695020914077759 0.92031621932983398 0.66962915658950806
0.00042257871245965362 0.59661078453063965 0.59551018476486206
0.0021372626069933176 0.67616778612136841 0.65031564235687256
0.050725631415843964 0.7797996997833252 0.69485676288604736
0.60179042816162109 0.88289952278137207 0.72050231695175171
0.86884647607803345 0.92719763517379761 0.72392171621322632
0.97852456569671631 0.94407957792282104 0.72108536958694458
0.99951684474945068 0.94909751415252686 0.74491983652114868
0.0028249253518879414 0.13298404216766357 0.2552274763584137
0.007706331554800272 0.11530406028032303 0.30361658334732056
0.12351526319980621 0.021585127338767052 0.41183418035507202
0.36440613865852356 0.014653658494353294 0.46143212914466858
0.51597136259078979 0.029225638136267662 0.48000520467758179
0.60023736953735352 0.032801773399114609 0.48729479312896729
0.63748687505722046 0.024835430085659027 0.50904965400695801
0.0024013742804527283 0.17450353503227234 0.3109668493270874
0.0030481226276606321 0.1750362366437912 0.3555682897567749
0.14003278315067291 0.029812442138791084 0.5205078125
0.4275420606136322 0.018163388594985008 0.56285929679870605
0.616058349609375 0.015942741185426712 0.57732933759689331
0.69469088315963745 0.016361117362976074 0.58330255746841431
0.73122960329055786 0.014959088526666164 0.60779088735580444
0.0048773670569062233 0.26007518172264099 0.38519272208213806
0.0036730000283569098 0.26693010330200195 0.4422602653503418
0.076327592134475708 0.26270362734794617 0.59174293279647827
0.48097163438796997 0.26448726654052734 0.66530340909957886
0.71429336071014404 0.26067426800727844 0.68579733371734619
0.80300319194793701 0.24741145968437195 0.69591456651687622
0.82440286874771118 0.27739048004150391 0.69821041822433472
0.014434934593737125 0.3884584903717041 0.49025741219520569
0.025908272713422775 0.43651255965232849 0.55465900897979736
0.018067887052893639 0.50734293460845947 0.6807105541229248
0.53429716825485229 0.59466814994812012 0.76462924480438232
0.81164920330047607 0.61632400751113892 0.78179824352264404
0.89893782138824463 0.61958432197570801 0.77955871820449829
0.92928856611251831 0.65274137258529663 0.78480362892150879
0.020227469503879547 0.5053025484085083 0.57233893871307373
0.0088194757699966431 0.57298743724822998 0.63581639528274536
0.015626855194568634 0.68516212701797485 0.73456394672393799
0.54358118772506714 0.81589013338088989 0.81719332933425903
0.85783344507217407 0.85661029815673828 0.83216273784637451
0.95518898963928223 0.86433476209640503 0.83093452453613281
0.98531782627105713 0.87817037105560303 0.82709044218063354
0.016806524246931076 0.55555790662765503 0.61675214767456055
0.028215071186423302 0.63853102922439575 0.6856037974357605
0.0093398597091436386 0.75418609380722046 0.77792179584503174
0.51631385087966919 0.884429931640625 0.84512853622436523
0.8621135950088501 0.93757510185241699 0.8626365065574646
0.97665244340896606 0.95376944541931152 0.8540184497833252
0.99506545066833496 0.95243525505065918 0.86301302909851074
0.010252919048070908 0.62586116790771484 0.68523049354553223
0.0097550190985202789 0.71152269840240479 0.75795489549636841
0.018794205039739609 0.80687934160232544 0.83035403490066528
0.56021183729171753 0.91012823581695557 0.87962615489959717
0.84438341856002808 0.95471203327178955 0.88851255178451538
0.96608144044876099 0.97329521179199219 0.89090877771377563
0.99429059028625488 0.97847115993499756 0.89692056179046631
0.0012642655055969954 0.15869651734828949 0.30531129240989685
0.0074000339955091476 0.15517005324363708 0.33961173892021179
0.12789356708526611 0.026017865166068077 0.47631624341011047
0.35791477560997009 0.022030146792531013 0.52059298753738403
0.53411835432052612 0.044899795204401016 0.54622048139572144
0.61418592929840088 0.04912547767162323 0.56037914752960205
0.64915353059768677 0.049450382590293884 0.58053874969482422
0.00020895565103273839 0.2035258561372757 0.36447826027870178
0.0042220321483910084 0.20815786719322205 0.41213929653167725
0.13123112916946411 0.035813186317682266 0.60044354200363159
0.42866870760917664 0.022494012489914894 0.64950799942016602
0.62601631879806519 0.017589105293154716 0.66559094190597534
0.70524471998214722 0.025938356295228004 0.67288053035736084
0.73866671323776245 0.022065106779336929 0.69287675619125366
0.00015324611740652472 0.28577002882957458 0.44683834910392761
0.0006698459037579596 0.29518216848373413 0.4972730278968811
0.076755061745643616 0.28139215707778931 0.64951664209365845
0.47494238615036011 0.26859301328659058 0.75569659471511841
0.7198290228843689 0.25061619281768799 0.78348392248153687
0.80729538202285767 0.2435644268989563 0.78648489713668823
0.83108723163604736 0.29706820845603943 0.79883217811584473
0.0087294187396764755 0.41228657960891724 0.54584687948226929
0.0084022069349884987 0.45678949356079102 0.60928666591644287
0.023056194186210632 0.52290719747543335 0.75475054979324341
0.51070266962051392 0.60205686092376709 0.86148488521575928
0.80273711681365967 0.62553495168685913 0.88292396068572998
0.89375114440917969 0.63572567701339722 0.88182812929153442
0.92589151859283447 0.66437822580337524 0.88964056968688965
0.0093271145597100258 0.53346192836761475 0.63403189182281494
0.022978749126195908 0.59210509061813354 0.69715875387191772
0.034735091030597687 0.70763248205184937 0.81044399738311768
0.51507747173309326 0.82717800140380859 0.91501563787460327
0.84640884399414062 0.86992692947387695 0.93663221597671509
0.94686806201934814 0.88112229108810425 0.93927139043807983
0.97869253158569336 0.88993579149246216 0.9364740252494812
0.010879606008529663 0.57872354984283447 0.66905689239501953
0.013667132705450058 0.65985679626464844 0.74193918704986572
0.022006075829267502 0.76764225959777832 0.84082281589508057
0.49933531880378723 0.90308433771133423 0.93929100036621094
0.85360300540924072 0.95166820287704468 0.95308548212051392
0.96274787187576294 0.96618658304214478 0.95375210046768188
0.99474316835403442 0.9740605354309082 0.96163630485534668
0.02742399275302887 0.64052218198776245 0.72424238920211792
0.012242276221513748 0.71955037117004395 0.79625600576400757
0.010107795707881451 0.81831473112106323 0.88573706150054932
0.54039043188095093 0.92315387725830078 0.9499821662902832
0.8468819260597229 0.96787351369857788 0.95831680297851562
0.95685505867004395 0.97966092824935913 0.95465743541717529
0.99074476957321167 0.98612666130065918 0.95463615655899048
0 0.17763839662075043 0.33869999647140503
0.0034387325868010521 0.17725561559200287 0.38135766983032227
0.141278937458992 0.019442884251475334 0.54553008079528809
0.38911610841751099 0.017314238473773003 0.58670699596405029
0.5658646821975708 0.035321686416864395 0.60775452852249146
0.64736455678939819 0.038681734353303909 0.62497210502624512
0.68232905864715576 0.047946572303771973 0.64237785339355469
0 0.22087556123733521 0.38795280456542969
0 0.23055760562419891 0.43708536028862
0.12844239175319672 0.080923162400722504 0.64404296875
0.45106586813926697 0.057473395019769669 0.7131231427192688
0.65251260995864868 0.035242550075054169 0.72328609228134155
0.73171544075012207 0.016921892762184143 0.73369097709655762
0.76434189081192017 0.033103540539741516 0.75051242113113403
0.00047743553295731544 0.30759143829345703 0.47373813390731812
0.0065078586339950562 0.33480492234230042 0.54015576839447021
0.08333771675825119 0.3133901059627533 0.6779320240020752
0.49121168255805969 0.30617052316665649 0.79928982257843018
0.7146790623664856 0.30866149067878723 0.8226739764213562
0.81348544359207153 0.31116980314254761 0.83061933517456055
0.84360653162002563 0.34850853681564331 0.8408820629119873
0.0093720974400639534 0.42641171813011169 0.57066076993942261
0.019231265410780907 0.47708255052566528 0.63704186677932739
0.01481653843075037 0.53673100471496582 0.7730860710144043
0.50249838829040527 0.60945761203765869 0.89353018999099731
0.79166632890701294 0.6415981650352478 0.91343134641647339
0.89749884605407715 0.64800763130187988 0.91883784532546997
0.92768174409866333 0.67502647638320923 0.92712926864624023
0.028799034655094147 0.53718048334121704 0.64826101064682007
0.017743129283189774 0.60276412963867188 0.71711361408233643
0.023727146908640862 0.71053266525268555 0.83500009775161743
0.47923338413238525 0.82814031839370728 0.94616764783859253
0.83584439754486084 0.86473459005355835 0.96396160125732422
0.94915378093719482 0.88708996772766113 0.97157436609268188
0.97552353143692017 0.88963145017623901 0.97229683399200439
0.016761375591158867 0.58826345205307007 0.68668484687805176
0.013321147300302982 0.65917044878005981 0.75296825170516968
0.034882161766290665 0.77716612815856934 0.86398470401763916
0.47337573766708374 0.90583640336990356 0.96372139453887939
0.84722244739532471 0.9548567533493042 0.98144239187240601
0.95243841409683228 0.96157032251358032 0.98084467649459839
0.98888564109802246 0.97453337907791138 0.98679137229919434
0.022553073242306709 0.65022176504135132 0.74026340246200562
0.039516597986221313 0.72637039422988892 0.81044697761535645
0.019362116232514381 0.81668305397033691 0.89715087413787842
0.524056077003479 0.92462801933288574 0.97015398740768433
0.84025043249130249 0.97035378217697144 0.9838024377822876
0.947093665599823 0.98300230503082275 0.98511224985122681
0.98866564035415649 0.99296665191650391 0.99101763963699341
