luts/print/kodak_2383_constlclip.cube
# Created by: G'MIC (https://gmic.eu)
TITLE "kodak_2383_constlclip"
# LUT size
LUT_3D_SIZE 7
# Data domain
DOMAIN_MIN 0.0 0.0 0.0
DOMAIN_MAX 1.0 1.0 1.0
# LUT data points
0.0093038072809576988 0.016469558700919151 0.015844337642192841
0.057191632688045502 0.036367513239383698 0.019097346812486649
0.1449684351682663 0.05468132346868515 0.012633963488042355
0.33664789795875549 0.092573903501033783 0.012513418681919575
0.484150230884552 0.12062602490186691 0.016524655744433403
0.57257115840911865 0.13145476579666138 0.021818317472934723
0.59955888986587524 0.14445005357265472 0.020749395713210106
0.01294555701315403 0.062548093497753143 0.043213371187448502
0.058779608458280563 0.077409796416759491 0.041148766875267029
0.17622168362140656 0.09402427077293396 0.018842002376914024
0.38553687930107117 0.1307855099439621 0.0082530006766319275
0.55478471517562866 0.16302795708179474 0.01152508333325386
0.62569546699523926 0.1782514750957489 0.017334733158349991
0.66226887702941895 0.19392098486423492 0.015686275437474251
0.010911171324551105 0.12346450239419937 0.073117077350616455
0.022536931559443474 0.15398868918418884 0.057078342884778976
0.21169279515743256 0.19237878918647766 0.023230444639921188
0.4691498875617981 0.25188741087913513 0.010950350202620029
0.6463463306427002 0.27590399980545044 0.011233101598918438
0.70786499977111816 0.28548398613929749 0.021297439932823181
0.74284809827804565 0.31627106666564941 0.024012740701436996
0.0078431377187371254 0.25835713744163513 0.13483710587024689
0.0061436821706593037 0.30613613128662109 0.11414740979671478
0.18106144666671753 0.38312473893165588 0.020919499918818474
0.56209266185760498 0.46902969479560852 0.0034328983165323734
0.75875329971313477 0.50473368167877197 0.0095052830874919891
0.82389062643051147 0.5236276388168335 0.01108652725815773
0.85878068208694458 0.55742466449737549 0.010232409462332726
0.0078551946207880974 0.36730149388313293 0.17954671382904053
0.0080248061567544937 0.43631991744041443 0.15998359024524689
0.20031598210334778 0.54930150508880615 0.021751748397946358
0.63009774684906006 0.66569322347640991 0.008200417272746563
0.83932989835739136 0.71590769290924072 0.037394057959318161
0.91070318222045898 0.73595583438873291 0.059417814016342163
0.93751877546310425 0.75179964303970337 0.062059797346591949
0.013425804674625397 0.43285265564918518 0.2042761892080307
0.035965412855148315 0.50606560707092285 0.17949788272380829
0.22935105860233307 0.61970424652099609 0.02356172539293766
0.65714800357818604 0.7391013503074646 0.016802394762635231
0.87182086706161499 0.79921877384185791 0.064438775181770325
0.94164067506790161 0.81175452470779419 0.083620570600032806
0.96682876348495483 0.82048100233078003 0.093486800789833069
0.013774721883237362 0.48258432745933533 0.21985712647438049
0.030821153894066811 0.58245313167572021 0.13964438438415527
0.33840259909629822 0.68229871988296509 0.014777478761970997
0.69362044334411621 0.77446448802947998 0.018061768263578415
0.89704442024230957 0.8301466703414917 0.065280929207801819
0.96415138244628906 0.84548598527908325 0.093914583325386047
0.98816394805908203 0.85162472724914551 0.10504008084535599
0.017383994534611702 0.025791855528950691 0.060240231454372406
0.058874405920505524 0.036748446524143219 0.061360858380794525
0.15403231978416443 0.05807088315486908 0.063860587775707245
0.361346036195755 0.034154690802097321 0.030126698315143585
0.52833956480026245 0.021958235651254654 0.012783723883330822
0.60647380352020264 0.045744068920612335 0.021384624764323235
0.63970059156417847 0.049517210572957993 0.018396100029349327
0.005975671112537384 0.069346845149993896 0.080677509307861328
0.052651543170213699 0.08281070739030838 0.083932302892208099
0.18289494514465332 0.099696576595306396 0.073263175785541534
0.42634263634681702 0.10142853856086731 0.034638617187738419
0.60293084383010864 0.095054939389228821 0.011300599202513695
0.67078298330307007 0.10852500796318054 0.012147851288318634
0.70826762914657593 0.12259997427463531 0.0043344534933567047
0.0051370058208703995 0.13933977484703064 0.10827364772558212
0.032199185341596603 0.15538613498210907 0.10117641091346741
0.21048577129840851 0.2099078893661499 0.075404584407806396
0.50734037160873413 0.23941859602928162 0.022696595638990402
0.68829447031021118 0.24226847290992737 0.0057217767462134361
0.76636582612991333 0.25877594947814941 0.0095197642222046852
0.79712694883346558 0.27867689728736877 0.010532738640904427
0.0079667037352919579 0.26708927750587463 0.17175997793674469
0.011309036985039711 0.31699195504188538 0.16270515322685242
0.17396460473537445 0.40388530492782593 0.05965341255068779
0.58677816390991211 0.48776966333389282 0.0041527543216943741
0.79266047477722168 0.51350939273834229 0.0068041332997381687
0.86704403162002563 0.53778111934661865 0.020538674667477608
0.89934766292572021 0.56044715642929077 0.010338173247873783
0.010580429807305336 0.38247242569923401 0.21935488283634186
0.010161321610212326 0.45176798105239868 0.2094048410654068
0.1179787889122963 0.57312136888504028 0.064380109310150146
0.63566410541534424 0.69226443767547607 0.008946392685174942
0.86819326877593994 0.73589575290679932 0.043969336897134781
0.93814986944198608 0.75290048122406006 0.056268222630023956
0.96416467428207397 0.76877719163894653 0.054214507341384888
0.019886614754796028 0.44473004341125488 0.25279763340950012
0.013290779665112495 0.52031487226486206 0.23906564712524414
0.13245357573032379 0.64354485273361206 0.078490987420082092
0.66429948806762695 0.767525315284729 0.0068543525412678719
0.89590620994567871 0.81936502456665039 0.05933665856719017
0.9704514741897583 0.83582979440689087 0.082627870142459869
0.98952621221542358 0.84280186891555786 0.12806776165962219
0.025179095566272736 0.51005584001541138 0.30939006805419922
0.025990549474954605 0.59868580102920532 0.30012404918670654
0.18428929150104523 0.71125930547714233 0.16844019293785095
0.68287134170532227 0.81138616800308228 0.11308033019304276
0.92128235101699829 0.858021080493927 0.055632706731557846
0.99380218982696533 0.87322741746902466 0.11296304315328598
0.99940210580825806 0.87665611505508423 0.27646389603614807
0.013599245809018612 0.053189355880022049 0.13822968304157257
0.047287631779909134 0.023679725825786591 0.15037262439727783
0.15067602694034576 0.047879703342914581 0.16499339044094086
0.36374446749687195 0.024833574891090393 0.1704254150390625
0.54836410284042358 0.0039086434990167618 0.17047809064388275
0.6412542462348938 0.0038420285563915968 0.18418173491954803
0.65986287593841553 0.0045418683439493179 0.17894786596298218
0.0028654509223997593 0.083284728229045868 0.14733181893825531
0.030602682381868362 0.081686384975910187 0.17618414759635925
0.18668150901794434 0.098796144127845764 0.19299924373626709
0.4294779896736145 0.089633375406265259 0.19231213629245758
0.63093471527099609 0.028851782903075218 0.19430609047412872
0.71146279573440552 0.019944539293646812 0.18302206695079803
0.74822169542312622 0.017482921481132507 0.20110863447189331
0.0080599766224622726 0.15950240194797516 0.18109995126724243
0.0072508719749748707 0.17516124248504639 0.20748455822467804
0.19164580106735229 0.21793940663337708 0.23551027476787567
0.50159049034118652 0.24841484427452087 0.22840771079063416
0.72688549757003784 0.23528778553009033 0.19779457151889801
0.80691039562225342 0.23570583760738373 0.20122994482517242
0.8413006067276001 0.26979789137840271 0.20705054700374603
0.0079392679035663605 0.29005563259124756 0.25082466006278992
0.017301671206951141 0.34161880612373352 0.27190235257148743
0.11409630626440048 0.42951595783233643 0.27199414372444153
0.58893400430679321 0.50368654727935791 0.23479662835597992
0.83790141344070435 0.53699374198913574 0.22581750154495239
0.91897612810134888 0.54937106370925903 0.1878143846988678
0.95098483562469482 0.58498936891555786 0.2186046838760376
0.0034772984217852354 0.42171767354011536 0.31612998247146606
0.018836585804820061 0.48823419213294983 0.34032869338989258
0.062476348131895065 0.61073172092437744 0.30425339937210083
0.63509088754653931 0.73707419633865356 0.23067271709442139
0.9145933985710144 0.78299450874328613 0.12798202037811279
0.99288207292556763 0.79641324281692505 0.13518118858337402
0.99747574329376221 0.80670493841171265 0.21183808147907257
0.0015053842216730118 0.48676612973213196 0.36821660399436951
0.015769375488162041 0.55102336406707764 0.38280051946640015
0.051144469529390335 0.6819528341293335 0.35686945915222168
0.63666945695877075 0.81286740303039551 0.27992668747901917
0.92339682579040527 0.86857587099075317 0.21504400670528412
0.99929201602935791 0.88047146797180176 0.26586413383483887
0.99993681907653809 0.88000565767288208 0.36065730452537537
0.008167012594640255 0.55956798791885376 0.45132961869239807
0.019128089770674706 0.63578653335571289 0.46979406476020813
0.10590466111898422 0.74591070413589478 0.4592248797416687
0.65476346015930176 0.85117024183273315 0.42523360252380371
0.9092552661895752 0.90120375156402588 0.41991889476776123
0.99561971426010132 0.91274124383926392 0.41776436567306519
1 0.91420584917068481 0.5191529393196106
0.0039215688593685627 0.10468281805515289 0.24449397623538971
0.035433512181043625 0.028973164036870003 0.30184507369995117
0.15414154529571533 0.010079747065901756 0.34327179193496704
0.38735872507095337 0.0037108478136360645 0.36845928430557251
0.56699287891387939 0.011115549132227898 0.36113262176513672
0.6518481969833374 0.017409889027476311 0.39161238074302673
0.67669272422790527 0.013224223628640175 0.38992223143577576
0.0039215688593685627 0.14323164522647858 0.2751801609992981
0.012178174220025539 0.11813323199748993 0.31145358085632324
0.17310100793838501 0.064862631261348724 0.39560562372207642
0.44388824701309204 0.067336559295654297 0.41584599018096924
0.6463431715965271 0.019528467208147049 0.42044970393180847
0.7234947681427002 0.014215745963156223 0.4287433922290802
0.75831228494644165 0.018928393721580505 0.44412913918495178
0.0029513041954487562 0.21323773264884949 0.313020259141922
0.0039215688593685627 0.223603755235672 0.35821801424026489
0.13770352303981781 0.2404915988445282 0.45686841011047363
0.50867068767547607 0.26101964712142944 0.48720243573188782
0.72825640439987183 0.25355121493339539 0.49006667733192444
0.81349724531173706 0.24099063873291016 0.4954642653465271
0.84645336866378784 0.28468376398086548 0.50504887104034424
0.0039495727978646755 0.362007737159729 0.41049909591674805
0.0083413217216730118 0.39209002256393433 0.44212234020233154
0.043473321944475174 0.47417470812797546 0.5255236029624939
0.56561672687530518 0.56265032291412354 0.56282460689544678
0.82598233222961426 0.58651137351989746 0.56538665294647217
0.91180574893951416 0.5918697714805603 0.56472569704055786
0.9437372088432312 0.62342625856399536 0.58053004741668701
0.0047736223787069321 0.4840150773525238 0.48370680212974548
0.0067749321460723877 0.53202319145202637 0.5197562575340271
0.0067951725795865059 0.65756076574325562 0.57586616277694702
0.56821995973587036 0.78233546018600464 0.60142821073532104
0.88398820161819458 0.83078938722610474 0.59386128187179565
0.97474676370620728 0.84098678827285767 0.58907121419906616
0.99437493085861206 0.85477572679519653 0.61763244867324829
0.014290245249867439 0.54540920257568359 0.52705889940261841
0.0070160808973014355 0.61300474405288696 0.57403272390365601
0.012044196017086506 0.72478377819061279 0.62234371900558472
0.5789794921875 0.8657490611076355 0.64616221189498901
0.89380419254302979 0.91738295555114746 0.64055466651916504
0.98572617769241333 0.92360877990722656 0.64327675104141235
0.99910181760787964 0.93232053518295288 0.68035680055618286
0.0053386911749839783 0.61271631717681885 0.60759997367858887
0.0045815114863216877 0.68447315692901611 0.64752781391143799
0.020072832703590393 0.78648465871810913 0.68947142362594604
0.60790437459945679 0.89627349376678467 0.71297734975814819
0.88868743181228638 0.94212794303894043 0.70745563507080078
0.98791420459747314 0.95634955167770386 0.71987348794937134
0.99963581562042236 0.95556330680847168 0.75388288497924805
0.0039675245061516762 0.15169401466846466 0.32265177369117737
0.014516000635921955 0.11778180301189423 0.36672240495681763
0.14935247600078583 0.004428474698215723 0.47307685017585754
0.3883933424949646 0.0060099880211055279 0.50992792844772339
0.57114356756210327 0.031661178916692734 0.52347111701965332
0.64769816398620605 0.01319986954331398 0.53283083438873291
0.684703528881073 0.027201050892472267 0.55002295970916748
0.0041283699683845043 0.18865115940570831 0.36077985167503357
0.0068267076276242733 0.17909714579582214 0.40485373139381409
0.15963998436927795 0.022556828334927559 0.55199676752090454
0.43501579761505127 0.02870471403002739 0.58665603399276733
0.6505466103553772 0.020620832219719887 0.59988111257553101
0.73043376207351685 0.0076762777753174305 0.60927873849868774
0.76896107196807861 0.011329860426485538 0.629658043384552
0.005010687280446291 0.26891329884529114 0.42627167701721191
0.0063019399531185627 0.27497577667236328 0.46961718797683716
0.08496469259262085 0.25180751085281372 0.61764121055603027
0.49222365021705627 0.27178129553794861 0.68172025680541992
0.73740518093109131 0.24779446423053741 0.69415187835693359
0.82336658239364624 0.23875473439693451 0.70007181167602539
0.84900403022766113 0.28187358379364014 0.71034699678421021
0.012405724264681339 0.41154816746711731 0.52893859148025513
0.02034892700612545 0.44905948638916016 0.5770341157913208
0.022958403453230858 0.50361746549606323 0.68850475549697876
0.53793752193450928 0.57436835765838623 0.77114999294281006
0.81876468658447266 0.60862618684768677 0.78511679172515869
0.90700149536132812 0.61370903253555298 0.78743851184844971
0.93672245740890503 0.64447039365768433 0.79731631278991699
0.012326079420745373 0.53197956085205078 0.60464608669281006
0.013590510003268719 0.57889044284820557 0.65148085355758667
0.0072973361238837242 0.6875496506690979 0.74330097436904907
0.53620314598083496 0.81538236141204834 0.82470703125
0.86255472898483276 0.86382037401199341 0.83935242891311646
0.96219366788864136 0.86696839332580566 0.834850013256073
0.98793995380401611 0.88191002607345581 0.84186249971389771
0.021394677460193634 0.59220153093338013 0.6540490984916687
0.027546467259526253 0.65427196025848389 0.70401966571807861
0.014277514070272446 0.75869441032409668 0.78546613454818726
0.53149563074111938 0.89738017320632935 0.85789394378662109
0.86474895477294922 0.94497710466384888 0.86012279987335205
0.97388231754302979 0.95857185125350952 0.86504799127578735
0.99437141418457031 0.95571887493133545 0.86911088228225708
0.01818167045712471 0.64214789867401123 0.70097166299819946
0.010200261138379574 0.7169690728187561 0.76314789056777954
0.01494909543544054 0.80813729763031006 0.83561331033706665
0.55622130632400513 0.9162285327911377 0.88260841369628906
0.86771363019943237 0.96505796909332275 0.88942521810531616
0.96702241897583008 0.97754865884780884 0.89634013175964355
0.99538338184356689 0.98093056678771973 0.9062836766242981
0.0051916684024035931 0.18281108140945435 0.36704099178314209
0.014338324777781963 0.16629894077777863 0.40256878733634949
0.15130804479122162 0.010892038233578205 0.54212093353271484
0.37691658735275269 0.0056103724054992199 0.57324337959289551
0.57921427488327026 0.04503999650478363 0.5981137752532959
0.65855634212493896 0.050934929400682449 0.60684883594512939
0.6954924464225769 0.033182300627231598 0.62391132116317749
0.0041014580056071281 0.22108803689479828 0.41276419162750244
0.003752031596377492 0.21225512027740479 0.45399752259254456
0.15563976764678955 0.028938174247741699 0.62363004684448242
0.44731810688972473 0.018948903307318687 0.67394071817398071
0.65812885761260986 0.011441130191087723 0.68977385759353638
0.73977982997894287 0.012722942978143692 0.69827383756637573
0.77665078639984131 0.031709484755992889 0.71860146522521973
9.5262716058641672e-05 0.29909667372703552 0.49260672926902771
0.0067688887938857079 0.30018174648284912 0.54191607236862183
0.086537271738052368 0.27931225299835205 0.6709597110748291
0.49987506866455078 0.26869377493858337 0.76907134056091309
0.73181146383285522 0.24735717475414276 0.78591430187225342
0.82088863849639893 0.2322474867105484 0.79191040992736816
0.85475832223892212 0.28453299403190613 0.81115567684173584
0.0065209334716200829 0.43714243173599243 0.58875888586044312
0.033460758626461029 0.46937417984008789 0.63824713230133057
0.014804615639150143 0.51544308662414551 0.76082742214202881
0.51931416988372803 0.59276688098907471 0.86708098649978638
0.80957216024398804 0.61264407634735107 0.8846505880355835
0.90113669633865356 0.62116283178329468 0.88485443592071533
0.93532198667526245 0.65360754728317261 0.89898949861526489
0.019559971988201141 0.55630725622177124 0.66542541980743408
0.014438718557357788 0.60828191041946411 0.71613466739654541
0.036113440990447998 0.706462562084198 0.81847292184829712
0.50626206398010254 0.82115322351455688 0.92054259777069092
0.85357081890106201 0.86802303791046143 0.938029944896698
0.95479720830917358 0.87798774242401123 0.94494813680648804
0.9820447564125061 0.89149075746536255 0.94400101900100708
0.012579764239490032 0.61326092481613159 0.70569527149200439
0.023100834339857101 0.67109817266464233 0.75549286603927612
0.024252573028206825 0.76776766777038574 0.84332442283630371
0.48836970329284668 0.90513497591018677 0.94580769538879395
0.85843801498413086 0.95389509201049805 0.9570954442024231
0.96234762668609619 0.9654119610786438 0.96273845434188843
0.9908449649810791 0.96806240081787109 0.96161669492721558
0.018997566774487495 0.65471392869949341 0.74150818586349487
0.020689690485596657 0.72877651453018188 0.8066895604133606
0.013670110143721104 0.81139427423477173 0.88189888000488281
0.54414635896682739 0.92635852098464966 0.95504915714263916
0.8473166823387146 0.9702039361000061 0.96432143449783325
0.95962870121002197 0.98436325788497925 0.96795177459716797
0.99256503582000732 0.98669898509979248 0.96150249242782593
0.00040857651038095355 0.19650647044181824 0.39158564805984497
3.2312731491401792e-05 0.17924009263515472 0.43237939476966858
0.16280639171600342 0.016156679019331932 0.60399127006530762
0.42684927582740784 0.004416491836309433 0.65019398927688599
0.61567032337188721 0.016867993399500847 0.66157877445220947
0.69625568389892578 0.032039597630500793 0.66426545381546021
0.72492623329162598 0.032985314726829529 0.67660599946975708
8.9757586465566419e-06 0.23865644633769989 0.43866381049156189
0.0061310264281928539 0.23625881969928741 0.47961562871932983
0.13968503475189209 0.096857525408267975 0.6713186502456665
0.46744170784950256 0.080252252519130707 0.73109585046768188
0.68451058864593506 0.035829834640026093 0.74918079376220703
0.76916718482971191 0.02334677055478096 0.75828766822814941
0.8036198616027832 0.053971324115991592 0.77361792325973511
0 0.31904056668281555 0.51411265134811401
0.0056530521251261234 0.32885131239891052 0.56682968139648438
0.069638177752494812 0.30846846103668213 0.70797127485275269
0.49734029173851013 0.3119513988494873 0.81083756685256958
0.73564028739929199 0.29487273097038269 0.8285178542137146
0.82646185159683228 0.30555263161659241 0.83840256929397583
0.86301040649414062 0.3415580689907074 0.85064548254013062
0.0018979540327563882 0.44903466105461121 0.61201578378677368
0.015277129597961903 0.47840547561645508 0.65916949510574341
0.013875460252165794 0.5320202112197876 0.77472597360610962
0.5178641676902771 0.60258406400680542 0.90023303031921387
0.80373573303222656 0.61428564786911011 0.91486126184463501
0.89485633373260498 0.61278843879699707 0.91921669244766235
0.93278944492340088 0.66096037626266479 0.93134450912475586
0.0077972710132598877 0.56365430355072021 0.68266105651855469
0.022046256810426712 0.61424452066421509 0.73441827297210693
0.020602431148290634 0.7093580961227417 0.8366582989692688
0.48803997039794922 0.82288992404937744 0.95154654979705811
0.8446318507194519 0.86879259347915649 0.97083091735839844
0.94981014728546143 0.87540203332901001 0.9752882719039917
0.97864031791687012 0.88822472095489502 0.97760826349258423
0.027735929936170578 0.61658412218093872 0.71759921312332153
0.0097572477534413338 0.67743360996246338 0.77424925565719604
0.037820030003786087 0.77172172069549561 0.86184155941009521
0.46781760454177856 0.90340298414230347 0.96678906679153442
0.8493342399597168 0.95380407571792603 0.98532140254974365
0.95792728662490845 0.96514379978179932 0.98792123794555664
0.98932904005050659 0.97373604774475098 0.99130058288574219
0.0080626839771866798 0.67249816656112671 0.76623892784118652
0.014160260558128357 0.73028481006622314 0.81816357374191284
0.028564782813191414 0.81698673963546753 0.89831125736236572
0.52642190456390381 0.92643290758132935 0.97353529930114746
0.84414643049240112 0.97157818078994751 0.98599410057067871
0.94322198629379272 0.98373597860336304 0.98915070295333862
0.99193435907363892 0.99276638031005859 0.99311816692352295
