luts/print/kodak_2383_constlmap.cube
# Created by: G'MIC (https://gmic.eu)
TITLE "kodak_2383_constlmap"
# LUT size
LUT_3D_SIZE 7
# Data domain
DOMAIN_MIN 0.0 0.0 0.0
DOMAIN_MAX 1.0 1.0 1.0
# LUT data points
0.0118852648884058 0.011832547374069691 0.016272975131869316
0.055155884474515915 0.028580354526638985 0.022980544716119766
0.14953675866127014 0.054618403315544128 0.016588890925049782
0.33371457457542419 0.092841401696205139 0.0081629287451505661
0.48751011490821838 0.12130933254957199 0.0052331364713609219
0.56443434953689575 0.13848556578159332 0.016265060752630234
0.60228675603866577 0.14616745710372925 0.018662905320525169
0.014309572987258434 0.049755755811929703 0.039425794035196304
0.0523390993475914 0.064222536981105804 0.039595853537321091
0.1732591986656189 0.091031692922115326 0.033232908695936203
0.38978815078735352 0.13846515119075775 0.028742637485265732
0.55111241340637207 0.16932550072669983 0.019955383613705635
0.62949144840240479 0.17806868255138397 0.015337506309151649
0.65157043933868408 0.18823926150798798 0.022888796404004097
0.030117513611912727 0.12406259030103683 0.077658437192440033
0.038849461823701859 0.1429809182882309 0.064001001417636871
0.20840254426002502 0.19967043399810791 0.03797314316034317
0.46937888860702515 0.25185373425483704 0.03021310456097126
0.64209878444671631 0.27994006872177124 0.030500764027237892
0.7125554084777832 0.2984125018119812 0.02295023575425148
0.74082159996032715 0.31686976552009583 0.022114040330052376
0.023976195603609085 0.26120105385780334 0.13815365731716156
0.032362546771764755 0.29786905646324158 0.12726595997810364
0.21703451871871948 0.3871094286441803 0.05539264902472496
0.56140601634979248 0.4712899923324585 0.024883029982447624
0.76541227102279663 0.5152469277381897 0.015464588068425655
0.83069014549255371 0.52963829040527344 0.022815374657511711
0.85401415824890137 0.55058807134628296 0.014714079909026623
0.021798377856612206 0.38253599405288696 0.18706138432025909
0.017210567370057106 0.43538549542427063 0.17075002193450928
0.22904329001903534 0.55510073900222778 0.028032205998897552
0.62752795219421387 0.66908413171768188 0.010651577264070511
0.84155392646789551 0.72175419330596924 0.056332606822252274
0.91655707359313965 0.74106836318969727 0.073244340717792511
0.9351118803024292 0.74596941471099854 0.060774229466915131
0.019697794690728188 0.43462547659873962 0.20687976479530334
0.015507731586694717 0.50340777635574341 0.1806674599647522
0.24451695382595062 0.61926227807998657 0.020647983998060226
0.65823447704315186 0.74080121517181396 0.018776912242174149
0.87353253364562988 0.80234760046005249 0.077458806335926056
0.94861030578613281 0.82022607326507568 0.10059846192598343
0.96867501735687256 0.82685685157775879 0.1010768935084343
0.0040802601724863052 0.48415294289588928 0.22177310287952423
0.040760699659585953 0.58191275596618652 0.14375007152557373
0.3439808189868927 0.67680788040161133 0.01116205845028162
0.68223559856414795 0.77179884910583496 0.029728848487138748
0.88545024394989014 0.827431321144104 0.074177384376525879
0.97046613693237305 0.85213309526443481 0.098352156579494476
0.99073582887649536 0.85606127977371216 0.10753615200519562
0.011737314984202385 0.024335345253348351 0.056069362908601761
0.051305986940860748 0.031899157911539078 0.058925390243530273
0.16776713728904724 0.056861728429794312 0.06435287743806839
0.36535099148750305 0.06590665876865387 0.040229063481092453
0.53195559978485107 0.06985868513584137 0.01845284178853035
0.59952706098556519 0.083000615239143372 0.022653887048363686
0.63889652490615845 0.077139399945735931 0.039703384041786194
0.021108230575919151 0.057708412408828735 0.066897206008434296
0.059902399778366089 0.069018930196762085 0.074113793671131134
0.19242972135543823 0.095585919916629791 0.075395159423351288
0.4128669798374176 0.12999275326728821 0.070915237069129944
0.58424317836761475 0.14136125147342682 0.061913657933473587
0.66333609819412231 0.12490938603878021 0.038212422281503677
0.6978529691696167 0.1324474960565567 0.031393896788358688
0.036254119127988815 0.13477583229541779 0.1058850884437561
0.074911095201969147 0.15438468754291534 0.10783546417951584
0.21036529541015625 0.20462879538536072 0.10000181198120117
0.48055315017700195 0.25934895873069763 0.1026361957192421
0.66672784090042114 0.27562236785888672 0.099561698734760284
0.75056362152099609 0.28052133321762085 0.054713394492864609
0.78972971439361572 0.29083850979804993 0.012526493519544601
0.04689393937587738 0.27501711249351501 0.17437194287776947
0.10020411014556885 0.30907595157623291 0.17423054575920105
0.22241269052028656 0.3953244686126709 0.12589140236377716
0.57037419080734253 0.48745915293693542 0.13259920477867126
0.77486759424209595 0.52925795316696167 0.12969863414764404
0.86073857545852661 0.53959155082702637 0.030186790972948074
0.88909721374511719 0.56311619281768799 0.01501038484275341
0.042441841214895248 0.38990959525108337 0.22382527589797974
0.085934236645698547 0.44803005456924438 0.22254155576229095
0.20975561439990997 0.56895929574966431 0.13402716815471649
0.62294381856918335 0.68061840534210205 0.13831931352615356
0.85283404588699341 0.73632824420928955 0.16633546352386475
0.93375539779663086 0.75706201791763306 0.12325473874807358
0.96162861585617065 0.77155762910842896 0.083551935851573944
0.0096262460574507713 0.44483581185340881 0.25079435110092163
0.035778883844614029 0.51569408178329468 0.24502862989902496
0.18526600301265717 0.64392471313476562 0.10695648193359375
0.66361212730407715 0.76259684562683105 0.10357383638620377
0.89086997509002686 0.82081073522567749 0.14745824038982391
0.96562796831130981 0.83697199821472168 0.15868076682090759
0.99118268489837646 0.84657984972000122 0.11930964142084122
0.034105442464351654 0.50828474760055542 0.31107336282730103
0.015260703861713409 0.60300254821777344 0.2991238534450531
0.23481613397598267 0.71473759412765503 0.17057159543037415
0.69409406185150146 0.81042325496673584 0.14019294083118439
0.92361700534820557 0.86026525497436523 0.097588419914245605
0.98594242334365845 0.8711235523223877 0.19646632671356201
0.99974912405014038 0.87421685457229614 0.26098489761352539
0.0053340988233685493 0.044823858886957169 0.12656736373901367
0.052002325654029846 0.031560532748699188 0.15353721380233765
0.16669009625911713 0.040844008326530457 0.17297786474227905
0.38029766082763672 0.039765004068613052 0.18463501334190369
0.54604655504226685 0.032857514917850494 0.18166439235210419
0.61984038352966309 0.042593471705913544 0.18485273420810699
0.65174382925033569 0.044374115765094757 0.19829744100570679
0.025084566324949265 0.083569318056106567 0.14386920630931854
0.044744126498699188 0.08032061904668808 0.17435985803604126
0.17987252771854401 0.10276687890291214 0.19580596685409546
0.43019971251487732 0.12024972587823868 0.20511582493782043
0.6213841438293457 0.10595110803842545 0.20035502314567566
0.70249700546264648 0.068456567823886871 0.19995823502540588
0.73859059810638428 0.054889887571334839 0.20436468720436096
0.042952638119459152 0.1640542596578598 0.18653307855129242
0.08881746232509613 0.17495399713516235 0.19599887728691101
0.20505222678184509 0.21464204788208008 0.23492658138275146
0.50703531503677368 0.26419395208358765 0.25392436981201172
0.72964370250701904 0.25310888886451721 0.22772276401519775
0.80670404434204102 0.24494971334934235 0.21381866931915283
0.83280569314956665 0.25923162698745728 0.21466492116451263
0.053382169455289841 0.30361717939376831 0.26139190793037415
0.12290678173303604 0.33722609281539917 0.27463966608047485
0.27625718712806702 0.42133909463882446 0.29629683494567871
0.57603186368942261 0.5146520733833313 0.31175771355628967
0.82698601484298706 0.54668289422988892 0.2670498788356781
0.92098534107208252 0.5542035698890686 0.21823388338088989
0.94830399751663208 0.58264815807342529 0.19267109036445618
0.041716199368238449 0.42543700337409973 0.32587352395057678
0.11947546899318695 0.48065605759620667 0.34540021419525146
0.23650220036506653 0.60433954000473022 0.33493039011955261
0.62588351964950562 0.73141235113143921 0.31771013140678406
0.87346458435058594 0.7746807336807251 0.35532176494598389
0.97438246011734009 0.79047477245330811 0.26836082339286804
0.99835079908370972 0.81044405698776245 0.26933714747428894
0.024294670671224594 0.4809514582157135 0.36580303311347961
0.059664960950613022 0.54716873168945312 0.38615888357162476
0.13609464466571808 0.68568545579910278 0.3527739942073822
0.64194369316101074 0.81289291381835938 0.30654627084732056
0.91830098628997803 0.86739462614059448 0.29313778877258301
0.98693060874938965 0.87566971778869629 0.35708910226821899
1 0.87958616018295288 0.38462063670158386
0.02232004888355732 0.55927520990371704 0.45762166380882263
0.046345818787813187 0.62602567672729492 0.47008123993873596
0.12489976733922958 0.74172186851501465 0.46713575720787048
0.6597711443901062 0.85221117734909058 0.43102991580963135
0.91845351457595825 0.90274488925933838 0.41979151964187622
0.9943230152130127 0.9139285683631897 0.46742355823516846
1 0.91189706325531006 0.51612502336502075
0.013725490309298038 0.10981500893831253 0.23367637395858765
0.027054671198129654 0.046361226588487625 0.29973238706588745
0.16022588312625885 0.023518640547990799 0.3422921895980835
0.37827906012535095 0.039985314011573792 0.36630237102508545
0.5551561713218689 0.042195353657007217 0.37691721320152283
0.63510358333587646 0.038588356226682663 0.38633212447166443
0.66685813665390015 0.046686988323926926 0.39763972163200378
0.026812788099050522 0.1449705958366394 0.25910860300064087
0.049285873770713806 0.1325438916683197 0.29477548599243164
0.16589877009391785 0.10946530848741531 0.37372392416000366
0.43724203109741211 0.13328202068805695 0.39917272329330444
0.63067233562469482 0.12711013853549957 0.42245182394981384
0.71570324897766113 0.065756224095821381 0.43499234318733215
0.75023609399795532 0.056003108620643616 0.45118618011474609
0.0438828244805336 0.21781526505947113 0.31714925169944763
0.09404996782541275 0.23414763808250427 0.33802139759063721
0.19303303956985474 0.25106245279312134 0.43442294001579285
0.5080491304397583 0.27773651480674744 0.48376888036727905
0.73034501075744629 0.26218399405479431 0.49587029218673706
0.81856894493103027 0.25310540199279785 0.50415027141571045
0.84617406129837036 0.28953316807746887 0.51939243078231812
0.056304559111595154 0.36483165621757507 0.41470003128051758
0.13927935063838959 0.40090802311897278 0.44527846574783325
0.30013379454612732 0.47206169366836548 0.49863240122795105
0.58228498697280884 0.56098824739456177 0.56887024641036987
0.82648849487304688 0.58550870418548584 0.57065796852111816
0.91433495283126831 0.59602242708206177 0.56958800554275513
0.94745922088623047 0.62885397672653198 0.58350425958633423
0.040503542870283127 0.48855772614479065 0.48888620734214783
0.13231953978538513 0.54114538431167603 0.52525752782821655
0.26192525029182434 0.65215617418289185 0.58070582151412964
0.5962178111076355 0.78832852840423584 0.60487419366836548
0.87858051061630249 0.82871329784393311 0.61486256122589111
0.97446238994598389 0.84321445226669312 0.61860489845275879
0.99448800086975098 0.85679930448532104 0.63011926412582397
0.005193762481212616 0.54806053638458252 0.53915798664093018
0.029374081641435623 0.60859096050262451 0.57463294267654419
0.13392587006092072 0.7244945764541626 0.63112348318099976
0.59002834558486938 0.86662620306015015 0.64998888969421387
0.8881528377532959 0.91604083776473999 0.64763718843460083
0.98023229837417603 0.92744415998458862 0.68068552017211914
0.99838829040527344 0.93270683288574219 0.6981813907623291
0.0080309845507144928 0.60705471038818359 0.60427463054656982
0.020002551376819611 0.6852753758430481 0.65608310699462891
0.050673976540565491 0.7892184853553772 0.69886761903762817
0.61177057027816772 0.89675837755203247 0.71515238285064697
0.88850551843643188 0.94320327043533325 0.71792125701904297
0.98452961444854736 0.9583701491355896 0.73401921987533569
0.9998481273651123 0.95889878273010254 0.76295238733291626
0.0062418770976364613 0.15521793067455292 0.30972027778625488
0.01101868599653244 0.1333286315202713 0.36207753419876099
0.15716883540153503 0.034861858934164047 0.46848365664482117
0.38128331303596497 0.047232311218976974 0.50197011232376099
0.56695300340652466 0.056618783622980118 0.52220088243484497
0.64634454250335693 0.038608834147453308 0.53231662511825562
0.68247693777084351 0.035384878516197205 0.54308795928955078
0.013708226382732391 0.19474676251411438 0.35631194710731506
0.022245265543460846 0.18786121904850006 0.38627958297729492
0.15442939102649689 0.10766901075839996 0.52830368280410767
0.43391740322113037 0.13470490276813507 0.5665513277053833
0.63749051094055176 0.14393958449363708 0.58555740118026733
0.72020959854125977 0.094740308821201324 0.59648811817169189
0.76015329360961914 0.052271045744419098 0.62149745225906372
0.0048181423917412758 0.27050089836120605 0.42867639660835266
0.050492677837610245 0.28276851773262024 0.45888054370880127
0.13471955060958862 0.26113581657409668 0.61177945137023926
0.5096859335899353 0.28536227345466614 0.68381136655807495
0.73553729057312012 0.28114870190620422 0.6944461464881897
0.81505012512207031 0.25630539655685425 0.69979500770568848
0.85231125354766846 0.29275089502334595 0.71969807147979736
0.029408607631921768 0.41292527318000793 0.5316169261932373
0.12056209892034531 0.44737452268600464 0.56664830446243286
0.25861331820487976 0.51579290628433228 0.65926194190979004
0.557331383228302 0.58479255437850952 0.77573114633560181
0.81220215559005737 0.60366499423980713 0.7870633602142334
0.90641409158706665 0.61553299427032471 0.79167574644088745
0.94220167398452759 0.65127533674240112 0.80900228023529053
0.0211334228515625 0.53639250993728638 0.61328530311584473
0.13575692474842072 0.58939146995544434 0.65531742572784424
0.28577035665512085 0.69315475225448608 0.73689717054367065
0.57717853784561157 0.81793779134750366 0.82474368810653687
0.86326837539672852 0.86034196615219116 0.84329962730407715
0.96523338556289673 0.87417948246002197 0.84616464376449585
0.9902377724647522 0.88798052072525024 0.85254502296447754
0.018252607434988022 0.59377074241638184 0.65673768520355225
0.061310682445764542 0.6512189507484436 0.70501166582107544
0.12090153247117996 0.76272684335708618 0.78867161273956299
0.53554505109786987 0.89692538976669312 0.8591046929359436
0.86905777454376221 0.94720953702926636 0.8709980845451355
0.97299480438232422 0.9609227180480957 0.87554740905761719
0.99620348215103149 0.96390891075134277 0.88716435432434082
0.022924130782485008 0.64496606588363647 0.70264613628387451
0.050174608826637268 0.71636641025543213 0.7666088342666626
0.033125799149274826 0.81261521577835083 0.84122598171234131
0.57078903913497925 0.91896951198577881 0.88953155279159546
0.86562895774841309 0.9657818078994751 0.89658492803573608
0.97258090972900391 0.9821019172668457 0.90180277824401855
0.99657332897186279 0.9846382737159729 0.9169158935546875
0.000140440693940036 0.17832767963409424 0.35930117964744568
0.012933619320392609 0.1639513224363327 0.4030749499797821
0.14806722104549408 0.036580570042133331 0.5323060154914856
0.39268636703491211 0.023864163085818291 0.57637292146682739
0.57609075307846069 0.055034473538398743 0.59870940446853638
0.65962600708007812 0.061690639704465866 0.60720145702362061
0.69033128023147583 0.058448418974876404 0.61897188425064087
0.0019833133555948734 0.22214227914810181 0.40839290618896484
0.0027078965213149786 0.21538917720317841 0.44251319766044617
0.15410239994525909 0.064197048544883728 0.61518985033035278
0.45586735010147095 0.071910455822944641 0.66892063617706299
0.65160846710205078 0.091038525104522705 0.68041419982910156
0.73281419277191162 0.10206770151853561 0.68783444166183472
0.77360385656356812 0.076711185276508331 0.71341145038604736
0.0034894456621259451 0.30259785056114197 0.48701697587966919
0.0034847036004066467 0.31389951705932617 0.52603268623352051
0.099518746137619019 0.28144881129264832 0.67358279228210449
0.50864559412002563 0.27951553463935852 0.77511996030807495
0.73080706596374512 0.26421564817428589 0.78833377361297607
0.82216018438339233 0.2668730616569519 0.79662859439849854
0.85587209463119507 0.30267047882080078 0.81362408399581909
0.0066182604059576988 0.43842637538909912 0.59208536148071289
0.041126713156700134 0.46973916888237 0.63078576326370239
0.10381713509559631 0.52853810787200928 0.75976145267486572
0.53735971450805664 0.59283286333084106 0.87252038717269897
0.80827862024307251 0.61536288261413574 0.8891485333442688
0.90555441379547119 0.62104392051696777 0.89082646369934082
0.93607079982757568 0.65491753816604614 0.90202462673187256
0.01103185024112463 0.56443256139755249 0.67425680160522461
0.088907785713672638 0.60514348745346069 0.71134811639785767
0.20604366064071655 0.70966488122940063 0.81096869707107544
0.53364640474319458 0.82777971029281616 0.9222952127456665
0.84708207845687866 0.86563229560852051 0.94108098745346069
0.95616507530212402 0.87997162342071533 0.94523292779922485
0.98105382919311523 0.8798675537109375 0.94330513477325439
0.015553507953882217 0.61511647701263428 0.70559787750244141
0.054219577461481094 0.66913342475891113 0.75671321153640747
0.12627248466014862 0.77406054735183716 0.8477054238319397
0.52338999509811401 0.90302568674087524 0.9431300163269043
0.86027950048446655 0.95786201953887939 0.96166777610778809
0.96651327610015869 0.97229337692260742 0.96399027109146118
0.99541288614273071 0.97694796323776245 0.9687037467956543
0.024670485407114029 0.6627008318901062 0.75018769502639771
0.024967776611447334 0.72867786884307861 0.80984342098236084
0.070340506732463837 0.81623005867004395 0.88580965995788574
0.53548789024353027 0.9249534010887146 0.95477104187011719
0.85301834344863892 0.97397607564926147 0.96960937976837158
0.96481972932815552 0.98863309621810913 0.97232675552368164
0.99392962455749512 0.99179303646087646 0.97223621606826782
0.00068939808988943696 0.186263307929039 0.38299101591110229
0.0054381126537919044 0.18498502671718597 0.43122783303260803
0.15041446685791016 0.041136197745800018 0.5775153636932373
0.41726088523864746 0.03783600777387619 0.63770824670791626
0.60793668031692505 0.060196325182914734 0.65507036447525024
0.68828010559082031 0.070009417831897736 0.66022294759750366
0.73505485057830811 0.072915144264698029 0.68976885080337524
0 0.2408626526594162 0.4412086009979248
0.010885724797844887 0.23517239093780518 0.47553962469100952
0.14273881912231445 0.094357602298259735 0.66840332746505737
0.47337892651557922 0.096426807343959808 0.7304074764251709
0.68140250444412231 0.08704521507024765 0.74618065357208252
0.76289588212966919 0.097469553351402283 0.75221109390258789
0.80064982175827026 0.077728033065795898 0.77002215385437012
0 0.30950042605400085 0.50427621603012085
0.0030174704734236002 0.32739537954330444 0.55616366863250732
0.079807385802268982 0.31321170926094055 0.6972116231918335
0.50876235961914062 0.31619605422019958 0.81206923723220825
0.74300891160964966 0.3128541111946106 0.83215177059173584
0.83614885807037354 0.31873944401741028 0.8431396484375
0.86644566059112549 0.35100814700126648 0.85442095994949341
0.00033497530966997147 0.45362591743469238 0.61179399490356445
0.0012375925434753299 0.48299771547317505 0.65992659330368042
0.017026534304022789 0.54120481014251709 0.7847599983215332
0.52014750242233276 0.60445821285247803 0.90054160356521606
0.80662870407104492 0.62755107879638672 0.92087686061859131
0.90525466203689575 0.63797640800476074 0.92677229642868042
0.93677598237991333 0.66753524541854858 0.93519693613052368
0.01846771314740181 0.56961488723754883 0.68855959177017212
0.0071549508720636368 0.61783802509307861 0.73622721433639526
0.026947755366563797 0.7156556248664856 0.83948999643325806
0.49020519852638245 0.82693135738372803 0.9526941180229187
0.84587109088897705 0.86848551034927368 0.97117048501968384
0.95326876640319824 0.8768506646156311 0.97675704956054688
0.98226886987686157 0.89195966720581055 0.97889882326126099
0.019646348431706429 0.61966472864151001 0.71772134304046631
0.016665903851389885 0.67867588996887207 0.77317225933074951
0.053671158850193024 0.77751994132995605 0.86574381589889526
0.47567376494407654 0.90631508827209473 0.96904432773590088
0.84975087642669678 0.95714408159255981 0.98733961582183838
0.96658504009246826 0.9748198390007019 0.99323314428329468
0.99439293146133423 0.97882401943206787 0.99452322721481323
0.00695826206356287 0.66866862773895264 0.76230067014694214
0.0061322827823460102 0.73284924030303955 0.82110077142715454
0.035330034792423248 0.82262766361236572 0.90276247262954712
0.52020019292831421 0.92526066303253174 0.9730495810508728
0.83639651536941528 0.97377079725265503 0.99068248271942139
0.95977556705474854 0.99118471145629883 0.99491626024246216
0.99592387676239014 0.99574500322341919 0.99496877193450928
