luts/print/kodak_2393_cuspclip.cube
# Created by: G'MIC (https://gmic.eu)
TITLE "kodak_2393_cuspclip"
# LUT size
LUT_3D_SIZE 13
# Data domain
DOMAIN_MIN 0.0 0.0 0.0
DOMAIN_MAX 1.0 1.0 1.0
# LUT data points
0.014899414964020252 0.019475765526294708 0.016974834725260735
0.040105856955051422 0.027909686788916588 0.0177181176841259
0.070594340562820435 0.034977812319993973 0.017565842717885971
0.10408522933721542 0.038596659898757935 0.013799435459077358
0.14358386397361755 0.040135655552148819 0.0061042783781886101
0.22721198201179504 0.04497591033577919 0.00015565460489597172
0.33231997489929199 0.056282628327608109 0
0.42624929547309875 0.069765307009220123 0
0.50833213329315186 0.084788769483566284 0.00014857872156426311
0.56070703268051147 0.10195158421993256 0.00299223349429667
0.59151780605316162 0.11202750355005264 0.0071504930965602398
0.60839450359344482 0.11929610371589661 0.013821680098772049
0.62101095914840698 0.12965545058250427 0.021409472450613976
0.01360849104821682 0.034339740872383118 0.023142183199524879
0.035063382238149643 0.040894065052270889 0.018665239214897156
0.061989232897758484 0.047719378024339676 0.015879835933446884
0.099171280860900879 0.052224073559045792 0.010528280399739742
0.15446385741233826 0.057858932763338089 0.0044257668778300285
0.25495797395706177 0.071649692952632904 0.00089738133829087019
0.37406972050666809 0.083665989339351654 0
0.47261112928390503 0.098402194678783417 5.2657782362075523e-05
0.55081021785736084 0.12055770307779312 0.0025983473751693964
0.59715789556503296 0.1334567666053772 0.0060096741653978825
0.62036585807800293 0.14198677241802216 0.011860058642923832
0.63681727647781372 0.14902332425117493 0.020667191594839096
0.64824730157852173 0.1530001312494278 0.024169202893972397
0.0088323252275586128 0.053539831191301346 0.032429877668619156
0.028225947171449661 0.058594945818185806 0.023094926029443741
0.053462129086256027 0.06394512951374054 0.015270397998392582
0.092848576605319977 0.069697283208370209 0.0093185128644108772
0.16601671278476715 0.082045897841453552 0.0056775561533868313
0.27851352095603943 0.10281922668218613 0.00099309289362281561
0.40913140773773193 0.11906639486551285 0.00017412971646990627
0.51745140552520752 0.13610441982746124 0.001712739234790206
0.59372842311859131 0.16456536948680878 0.0058596744202077389
0.63507080078125 0.1756448894739151 0.011090506799519062
0.65493762493133545 0.18103654682636261 0.018727993592619896
0.66973310708999634 0.18929281830787659 0.028209760785102844
0.67741650342941284 0.18896448612213135 0.027815978974103928
0.0030871222261339426 0.091774195432662964 0.042987510561943054
0.0098229050636291504 0.092085070908069611 0.026525998488068581
0.031248010694980621 0.094002202153205872 0.015309352427721024
0.085742101073265076 0.10157370567321777 0.0095261819660663605
0.17919449508190155 0.11635345965623856 0.0058866012841463089
0.30748280882835388 0.1467818021774292 0.0016629387391731143
0.4422534704208374 0.17299595475196838 5.0623275456018746e-05
0.55940443277359009 0.20659162104129791 0.0025392419192939997
0.63298261165618896 0.22726224362850189 0.0091223772615194321
0.67338013648986816 0.23188941180706024 0.017343334853649139
0.69371974468231201 0.23867636919021606 0.025140844285488129
0.70870709419250488 0.24833525717258453 0.030889473855495453
0.71739155054092407 0.2501007616519928 0.025133619084954262
0.00069530709879472852 0.13946019113063812 0.058150555938482285
0.0034038019366562366 0.14147281646728516 0.04125295951962471
0.010609062388539314 0.14440074563026428 0.018906731158494949
0.06941629946231842 0.15493927896022797 0.0060270270332694054
0.19184654951095581 0.18771956861019135 0.0033426322042942047
0.34234422445297241 0.22249418497085571 0.0021723578684031963
0.49037152528762817 0.2594510018825531 0.00032339658355340362
0.60742217302322388 0.2930196225643158 0.0029468312859535217
0.67148464918136597 0.30285400152206421 0.013207962736487389
0.71458637714385986 0.30020806193351746 0.024161379784345627
0.73547595739364624 0.30679374933242798 0.032306209206581116
0.74983382225036621 0.31708356738090515 0.035216804593801498
0.76138389110565186 0.32840928435325623 0.02014242485165596
0.0034724664874374866 0.21105064451694489 0.091839253902435303
0.0041618049144744873 0.22363461554050446 0.079919598996639252
0.0053174933418631554 0.23089748620986938 0.044713396579027176
0.047538187354803085 0.24350236356258392 0.0058977166190743446
0.20945863425731659 0.29329571127891541 0.0028150072321295738
0.39086282253265381 0.34098833799362183 0.0015329846646636724
0.55743527412414551 0.37960830330848694 0.00085494096856564283
0.66164857149124146 0.40595895051956177 0.005185998510569334
0.72330749034881592 0.41010388731956482 0.015524500980973244
0.76655560731887817 0.40889757871627808 0.024530433118343353
0.78726720809936523 0.41222503781318665 0.029124734923243523
0.80115145444869995 0.42260256409645081 0.031156457960605621
0.81353050470352173 0.43759629130363464 0.018292281776666641
0.010698071680963039 0.30686244368553162 0.14488251507282257
0.0095469309017062187 0.32739090919494629 0.13601155579090118
0.0025354870595037937 0.33259779214859009 0.082499228417873383
0.047211576253175735 0.35015588998794556 0.015209856443107128
0.22511182725429535 0.40695628523826599 0.0047675934620201588
0.42771720886230469 0.46232745051383972 0.0038603539578616619
0.61072325706481934 0.50583529472351074 0.0042597600258886814
0.71412599086761475 0.52928322553634644 0.0057550468482077122
0.78209453821182251 0.53846514225006104 0.01043491717427969
0.82177096605300903 0.53991472721099854 0.013181289657950401
0.84580314159393311 0.54332643747329712 0.013487288728356361
0.85943907499313354 0.55745762586593628 0.019559359177947044
0.86992800235748291 0.56940269470214844 0.024117982015013695
0.024037513881921768 0.39888918399810791 0.19483388960361481
0.018056413158774376 0.41765758395195007 0.18353541195392609
0.0061091701500117779 0.42698502540588379 0.13166964054107666
0.045608609914779663 0.44494214653968811 0.031592439860105515
0.23864179849624634 0.50651001930236816 0.008257787674665451
0.4668520987033844 0.57510221004486084 0.0065589156001806259
0.65507799386978149 0.62419354915618896 0.0080231465399265289
0.76478689908981323 0.64463818073272705 0.011659719049930573
0.8309326171875 0.65124052762985229 0.017820844426751137
0.86893582344055176 0.65264755487442017 0.01892383024096489
0.89247679710388184 0.65341025590896606 0.016333052888512611
0.90473222732543945 0.66512107849121094 0.030267348513007164
0.9132506251335144 0.67551225423812866 0.044693950563669205
0.02348257414996624 0.45708221197128296 0.22302800416946411
0.017897138372063637 0.47116243839263916 0.20440883934497833
0.014360749162733555 0.48962670564651489 0.15892498195171356
0.04657294973731041 0.51239198446273804 0.04688262939453125
0.25199320912361145 0.57548606395721436 0.012096449732780457
0.50147813558578491 0.65307378768920898 0.0071195713244378567
0.68368655443191528 0.7008776068687439 0.015207836404442787
0.79759734869003296 0.72292441129684448 0.030385006219148636
0.86809992790222168 0.73227983713150024 0.050306417047977448
0.90405488014221191 0.73163694143295288 0.053685236722230911
0.91981601715087891 0.72376793622970581 0.048152294009923935
0.93271118402481079 0.73387539386749268 0.056606099009513855
0.94204425811767578 0.74392604827880859 0.066829279065132141
0.013061328791081905 0.4873659610748291 0.23525673151016235
0.015895141288638115 0.50679808855056763 0.2167297899723053
0.017760002985596657 0.52707397937774658 0.17139939963817596
0.049965038895606995 0.55395078659057617 0.049811627715826035
0.26631620526313782 0.61682415008544922 0.014246368780732155
0.51908546686172485 0.69085997343063354 0.011000973172485828
0.69727057218551636 0.73906409740447998 0.026285238564014435
0.81490421295166016 0.76661944389343262 0.045380983501672745
0.88301867246627808 0.77676057815551758 0.065782167017459869
0.92401641607284546 0.78012460470199585 0.075098417699337006
0.94298017024993896 0.78063875436782837 0.07467353343963623
0.95453709363937378 0.78156799077987671 0.077546127140522003
0.9589572548866272 0.77857089042663574 0.081696756184101105
0.0095301913097500801 0.50801414251327515 0.24379755556583405
0.023806344717741013 0.53150922060012817 0.2207418829202652
0.02384847030043602 0.55265295505523682 0.16365955770015717
0.057518348097801208 0.58018475770950317 0.046608496457338333
0.2908814549446106 0.64350306987762451 0.013113567605614662
0.53235656023025513 0.71315699815750122 0.014061781577765942
0.70542037487030029 0.76344597339630127 0.030849771574139595
0.8241279125213623 0.79404169321060181 0.05178770050406456
0.88646411895751953 0.80032169818878174 0.069783665239810944
0.93246757984161377 0.80237686634063721 0.081804655492305756
0.95667082071304321 0.80763977766036987 0.083367049694061279
0.96951347589492798 0.80918306112289429 0.084162451326847076
0.97271811962127686 0.80561602115631104 0.093868166208267212
0.017099402844905853 0.5325615406036377 0.2465471625328064
0.018787309527397156 0.55535870790481567 0.2044348418712616
0.027250267565250397 0.57543832063674927 0.13752320408821106
0.076938703656196594 0.6022912859916687 0.020459014922380447
0.32580980658531189 0.6659773588180542 0.0037412457168102264
0.54948127269744873 0.72939234972000122 0.0086770448833703995
0.7095261812210083 0.77450722455978394 0.023577386513352394
0.82580375671386719 0.80381542444229126 0.047437913715839386
0.89506763219833374 0.81570369005203247 0.072067394852638245
0.94105637073516846 0.82009357213973999 0.088705219328403473
0.96582502126693726 0.82434189319610596 0.08754623681306839
0.97796326875686646 0.82588624954223633 0.079833582043647766
0.9813460111618042 0.82308626174926758 0.10053899139165878
0.022378105670213699 0.56615453958511353 0.24886682629585266
0.010938607156276703 0.58465433120727539 0.18593238294124603
0.02335815504193306 0.60130339860916138 0.06359042227268219
0.14713090658187866 0.63286441564559937 0.0080130035057663918
0.35969418287277222 0.68620812892913818 0.0012101416941732168
0.56496322154998779 0.74117016792297363 0.0017098371172323823
0.71018868684768677 0.78081846237182617 0.017209790647029877
0.82725322246551514 0.8105577826499939 0.049701061099767685
0.90437811613082886 0.82564175128936768 0.075822614133358002
0.94666516780853271 0.83078646659851074 0.089764900505542755
0.97007876634597778 0.83278918266296387 0.092903450131416321
0.98312318325042725 0.83678394556045532 0.079160027205944061
0.98884165287017822 0.8381190299987793 0.10660241544246674
0.0090135009959340096 0.023071378469467163 0.033374547958374023
0.029003217816352844 0.029546938836574554 0.034042626619338989
0.061810199171304703 0.035256166011095047 0.034731533378362656
0.10224729031324387 0.037803784012794495 0.029742326587438583
0.15279372036457062 0.035924948751926422 0.014287642203271389
0.23398025333881378 0.024796266108751297 0.0016750410431995988
0.34024029970169067 0.027910389006137848 0.0012942146277055144
0.43395799398422241 0.035779032856225967 0.0015458499547094107
0.51685214042663574 0.048397466540336609 0.00061886355979368091
0.57098644971847534 0.068641260266304016 0.0010543973185122013
0.59722596406936646 0.07375229150056839 0.0046882182359695435
0.61334729194641113 0.080844804644584656 0.0087984567508101463
0.62674272060394287 0.10101379454135895 0.012816470116376877
0.0096782157197594643 0.035864003002643585 0.034981328994035721
0.028826380148530006 0.042826138436794281 0.034825507551431656
0.056107211858034134 0.049068138003349304 0.033667709678411484
0.10043571144342422 0.052877254784107208 0.026785576716065407
0.15435317158699036 0.055566076189279556 0.01196758821606636
0.25388991832733154 0.059919528663158417 0.0019601858220994473
0.3740292489528656 0.055790964514017105 0.0014161203289404511
0.47610571980476379 0.060659535229206085 0.00059394090203568339
0.55733519792556763 0.097712256014347076 0.0017955106450244784
0.6022493839263916 0.11352890729904175 0.003127857344225049
0.62544530630111694 0.11106137931346893 0.0060254712589085102
0.64111977815628052 0.1105952262878418 0.011079511605203152
0.65283381938934326 0.12718814611434937 0.016083063557744026
0.0063399071805179119 0.053179241716861725 0.038615521043539047
0.023822005838155746 0.060684353113174438 0.037235423922538757
0.048454493284225464 0.068002812564373016 0.035890690982341766
0.093702070415019989 0.072856307029724121 0.031252827495336533
0.16448210179805756 0.082610368728637695 0.021689845249056816
0.28309136629104614 0.098400771617889404 0.006626383401453495
0.41182070970535278 0.098916299641132355 0.0050799199379980564
0.51936799287796021 0.10582822561264038 0.0039064297452569008
0.59772318601608276 0.13806526362895966 0.0052706701681017876
0.63905459642410278 0.14971870183944702 0.0062978407368063927
0.66081583499908447 0.15539088845252991 0.0083370283246040344
0.67635184526443481 0.16291916370391846 0.013649988919496536
0.68389135599136353 0.17511026561260223 0.022999214008450508
0.0012471068184822798 0.09242616593837738 0.052824866026639938
0.0077695809304714203 0.09263630211353302 0.044633530080318451
0.026425933465361595 0.094815589487552643 0.038577016443014145
0.081317216157913208 0.10474210232496262 0.031723245978355408
0.17929968237876892 0.12195422500371933 0.022383805364370346
0.31152713298797607 0.14253246784210205 0.0071276645176112652
0.44841086864471436 0.15904140472412109 0.0039551826193928719
0.5614587664604187 0.1830475777387619 0.0039635305292904377
0.63562703132629395 0.20997101068496704 0.0077433120459318161
0.67737460136413574 0.20946462452411652 0.01085338182747364
0.69916677474975586 0.21504014730453491 0.014552786014974117
0.71590983867645264 0.22302615642547607 0.018215538933873177
0.72591638565063477 0.23113183677196503 0.020102826878428459
0.00024140301684383303 0.14094644784927368 0.072191290557384491
0.0028432360850274563 0.14887987077236176 0.065773084759712219
0.010874355211853981 0.1466541588306427 0.046489745378494263
0.069444902241230011 0.15757134556770325 0.024114720523357391
0.19309373199939728 0.18657791614532471 0.016219254583120346
0.34461042284965515 0.22166143357753754 0.014498332515358925
0.49585038423538208 0.24785116314888 0.0051316805183887482
0.60861903429031372 0.27347764372825623 0.0054722507484257221
0.67791485786437988 0.29378944635391235 0.012963313609361649
0.72286760807037354 0.29206496477127075 0.017614627256989479
0.74297195672988892 0.29059067368507385 0.023936731740832329
0.75929558277130127 0.29765647649765015 0.027467360720038414
0.77314025163650513 0.31644335389137268 0.018250439316034317
0.0054261451587080956 0.22095286846160889 0.11233581602573395
0.0031710306648164988 0.23616071045398712 0.10712238401174545
0.0059460657648742199 0.23917762935161591 0.068239174783229828
0.044985856860876083 0.24576860666275024 0.014323694631457329
0.19741153717041016 0.28840914368629456 0.0061695622280240059
0.38354119658470154 0.33464509248733521 0.0059357439167797565
0.558399498462677 0.37456527352333069 0.0052883075550198555
0.66391384601593018 0.40027472376823425 0.011779366061091423
0.7356681227684021 0.41454976797103882 0.022184709087014198
0.77848690748214722 0.41280087828636169 0.02594279870390892
0.79833084344863892 0.41089725494384766 0.02580210380256176
0.81238657236099243 0.4193720817565918 0.026647021993994713
0.82838040590286255 0.43427088856697083 0.015636788681149483
0.019612660631537437 0.33038172125816345 0.17447802424430847
0.0073990914970636368 0.3434922993183136 0.16491720080375671
0.0028134812600910664 0.34284493327140808 0.10512185096740723
0.036709204316139221 0.35137525200843811 0.032859742641448975
0.19813019037246704 0.4014553427696228 0.0050134696066379547
0.41252428293228149 0.45603522658348083 0.0039474936202168465
0.60963994264602661 0.50683510303497314 0.0052108163945376873
0.72253382205963135 0.53264254331588745 0.011394904926419258
0.79435282945632935 0.54279303550720215 0.021953374147415161
0.83318489789962769 0.54477810859680176 0.021302750334143639
0.85614705085754395 0.54493105411529541 0.01257038488984108
0.86807417869567871 0.5573393702507019 0.015900285914540291
0.88002151250839233 0.56895017623901367 0.015949159860610962
0.028688138350844383 0.41567125916481018 0.22130084037780762
0.0092877103015780449 0.43182727694511414 0.21089045703411102
0.0043991985730826855 0.43686738610267639 0.14924977719783783
0.028287999331951141 0.44838064908981323 0.055559553205966949
0.19698768854141235 0.50088101625442505 0.005920021329075098
0.44768908619880676 0.56709188222885132 0.0059302686713635921
0.6515192985534668 0.62456667423248291 0.0075711417011916637
0.7683141827583313 0.64847028255462646 0.01231879461556673
0.84085619449615479 0.6523594856262207 0.027719086036086082
0.87756061553955078 0.65444362163543701 0.026707682758569717
0.90020263195037842 0.65877890586853027 0.020383259281516075
0.91288596391677856 0.67025256156921387 0.028616767376661301
0.92131811380386353 0.67943042516708374 0.039617858827114105
0.027830146253108978 0.46601217985153198 0.24256688356399536
0.0088224820792675018 0.48212835192680359 0.22601507604122162
0.011436133645474911 0.49958860874176025 0.17989255487918854
0.042073823511600494 0.52565485239028931 0.087356254458427429
0.21518385410308838 0.57685452699661255 0.0150488605722785
0.48112884163856506 0.64816963672637939 0.0050268284976482391
0.67354929447174072 0.70119714736938477 0.014278801158070564
0.79563438892364502 0.72643417119979858 0.032124225050210953
0.87276393175125122 0.73549312353134155 0.05102875828742981
0.91059505939483643 0.7368285059928894 0.053214609622955322
0.92759722471237183 0.73321318626403809 0.052571989595890045
0.94048261642456055 0.74125182628631592 0.059814110398292542
0.94825124740600586 0.74938619136810303 0.068638399243354797
0.022570261731743813 0.49854663014411926 0.25818163156509399
0.015331867150962353 0.51783519983291626 0.24176590144634247
0.015529348514974117 0.53769838809967041 0.20169384777545929
0.037049669772386551 0.56306707859039307 0.09160882979631424
0.21006558835506439 0.61411839723587036 0.01052201259881258
0.50113481283187866 0.69005066156387329 0.0048939273692667484
0.69124788045883179 0.7426108717918396 0.018890650942921638
0.8163793683052063 0.77178502082824707 0.041376255452632904
0.88948076963424683 0.78177189826965332 0.066397242248058319
0.93018501996994019 0.78638482093811035 0.075738467276096344
0.94988369941711426 0.78771442174911499 0.078454829752445221
0.95980960130691528 0.7873719334602356 0.080920442938804626
0.964743971824646 0.78685194253921509 0.085621163249015808
0.012280408293008804 0.52274101972579956 0.27367514371871948
0.016558777540922165 0.54414123296737671 0.25346478819847107
0.022542333230376244 0.56392258405685425 0.20521825551986694
0.033221226185560226 0.58691704273223877 0.092377319931983948
0.23392833769321442 0.64087390899658203 0.011050415225327015
0.51409602165222168 0.71264111995697021 0.0072859073989093304
0.69983494281768799 0.76606792211532593 0.021508833393454552
0.82652181386947632 0.7982642650604248 0.045548249036073685
0.8938981294631958 0.80516296625137329 0.071118481457233429
0.93862372636795044 0.8102225661277771 0.082317069172859192
0.96306401491165161 0.81472516059875488 0.085925295948982239
0.97408139705657959 0.81575745344161987 0.091087266802787781
0.97877901792526245 0.8151853084564209 0.099179454147815704
0.016069523990154266 0.5499957799911499 0.29019841551780701
0.015386453829705715 0.57164418697357178 0.25715234875679016
0.022906418889760971 0.58883440494537354 0.19789929687976837
0.043162669986486435 0.60986828804016113 0.074497371912002563
0.28171846270561218 0.66441887617111206 0.0087200691923499107
0.5225028395652771 0.72967469692230225 0.017790460959076881
0.70167386531829834 0.77874213457107544 0.017792975530028343
0.82441169023513794 0.80850076675415039 0.027827497571706772
0.89878499507904053 0.821178138256073 0.062326379120349884
0.94712787866592407 0.82642120122909546 0.08181656152009964
0.97291141748428345 0.83098453283309937 0.084100745618343353
0.98316150903701782 0.83288609981536865 0.082855641841888428
0.9866517186164856 0.83164387941360474 0.11041587591171265
0.025354154407978058 0.58674943447113037 0.31402316689491272
0.024408139288425446 0.60913366079330444 0.28043457865715027
0.014357548207044601 0.61893397569656372 0.1840076744556427
0.070360340178012848 0.63787472248077393 0.081484384834766388
0.31628638505935669 0.69003963470458984 0.026978136971592903
0.54268825054168701 0.7463231086730957 0.014635213650763035
0.70668613910675049 0.78764218091964722 0.017746869474649429
0.82496494054794312 0.81521612405776978 0.029090836644172668
0.90658223628997803 0.83067643642425537 0.041812479496002197
0.95992565155029297 0.83859461545944214 0.061399571597576141
0.98211944103240967 0.84317970275878906 0.081828594207763672
0.99082589149475098 0.84501034021377563 0.078628644347190857
0.99359595775604248 0.84467494487762451 0.11251536011695862
0.0031911812257021666 0.026523664593696594 0.053173784166574478
0.016189485788345337 0.029041066765785217 0.052912738174200058
0.050117596983909607 0.034318286925554276 0.055212326347827911
0.088415496051311493 0.036775209009647369 0.05540035292506218
0.15235599875450134 0.02809823676943779 0.039509791880846024
0.24139171838760376 0.0079038133844733238 0.015841735526919365
0.34512299299240112 0.0062968237325549126 0.019355025142431259
0.4425632655620575 0.0081895114853978157 0.022749284282326698
0.52194225788116455 0.011245847679674625 0.013777908869087696
0.5774957537651062 0.01159845944494009 0.012725291773676872
0.60626423358917236 0.017916331067681313 0.014975783415138721
0.62184888124465942 0.019122583791613579 0.014435113407671452
0.63172072172164917 0.024901026859879494 0.014534460380673409
0.0042267595417797565 0.040204454213380814 0.059477698057889938
0.015494612045586109 0.045211732387542725 0.058708131313323975
0.046074558049440384 0.05056476965546608 0.05902506411075592
0.092028796672821045 0.054007928818464279 0.056693956255912781
0.15842095017433167 0.04831676185131073 0.042596001178026199
0.26127803325653076 0.033751796931028366 0.020065426826477051
0.37661007046699524 0.020199181511998177 0.015806969255208969
0.48066231608390808 0.014296184293925762 0.013663886114954948
0.56047588586807251 0.024504927918314934 0.010769383981823921
0.6084754467010498 0.029391629621386528 0.0076617072336375713
0.63125741481781006 0.031116185709834099 0.0083733648061752319
0.64824599027633667 0.031539376825094223 0.012757215648889542
0.65933823585510254 0.032434113323688507 0.013946698047220707
0.0024226319510489702 0.060064069926738739 0.069533132016658783
0.011218410916626453 0.062809064984321594 0.065667487680912018
0.035600699484348297 0.06854826956987381 0.064159199595451355
0.087679468095302582 0.074454382061958313 0.059931885451078415
0.17000311613082886 0.079104192554950714 0.049978189170360565
0.29182422161102295 0.080283656716346741 0.027078082785010338
0.41418498754501343 0.062329057604074478 0.023344719782471657
0.52234333753585815 0.057626865804195404 0.0159009899944067
0.60125583410263062 0.063591942191123962 0.004817962646484375
0.64569801092147827 0.069432757794857025 0.0031671412289142609
0.6687086820602417 0.059271927922964096 0.0040822648443281651
0.686207115650177 0.073400117456912994 0.0075182747095823288
0.69763904809951782 0.09881485253572464 0.011687933467328548
0.001279045594856143 0.10007047653198242 0.086961783468723297
0.0046325083822011948 0.096521936357021332 0.077182173728942871
0.017622839659452438 0.095921039581298828 0.068747036159038544
0.074867770075798035 0.10973542183637619 0.063944317400455475
0.18311510980129242 0.12886235117912292 0.051256157457828522
0.31705793738365173 0.13593170046806335 0.021238230168819427
0.45242884755134583 0.13570661842823029 0.015473579056560993
0.56641691923141479 0.14199899137020111 0.008586883544921875
0.63720667362213135 0.15198545157909393 0.0041187512688338757
0.6838219165802002 0.15823346376419067 0.0033245012164115906
0.70993196964263916 0.1429937481880188 0.0056074555031955242
