luts/print/kodak_2393_constlmap.cube
# Created by: G'MIC (https://gmic.eu)
TITLE "kodak_2393_constlmap"
# LUT size
LUT_3D_SIZE 7
# Data domain
DOMAIN_MIN 0.0 0.0 0.0
DOMAIN_MAX 1.0 1.0 1.0
# LUT data points
0.010431760922074318 0.021062290295958519 0.020356735214591026
0.035894028842449188 0.029043249785900116 0.02512093260884285
0.11613935232162476 0.052090946584939957 0.022269545122981071
0.29212537407875061 0.083237789571285248 0.0090834973379969597
0.44112405180931091 0.10234653204679489 0.0065019796602427959
0.50258231163024902 0.11242074519395828 0.016026934608817101
0.53844505548477173 0.11655623465776443 0.0095329433679580688
0.025890469551086426 0.04333331435918808 0.034870460629463196
0.047429416328668594 0.055596429854631424 0.03270702064037323
0.14765369892120361 0.081694178283214569 0.020468274131417274
0.35633367300033569 0.12587319314479828 0.0041726804338395596
0.50929814577102661 0.15582829713821411 0.01699148491024971
0.57670629024505615 0.16235502064228058 0.0074242535047233105
0.61245119571685791 0.17951644957065582 0.014317486435174942
0.02460765466094017 0.10101131349802017 0.061879806220531464
0.038585260510444641 0.13413152098655701 0.05050080269575119
0.18673105537891388 0.18024542927742004 0.018825950101017952
0.43980485200881958 0.2391393631696701 0.014739960432052612
0.60752946138381958 0.268370121717453 0.0036951550282537937
0.67429047822952271 0.29110699892044067 0.016290387138724327
0.70451843738555908 0.31357699632644653 0.01570344902575016
0.010779870674014091 0.21429333090782166 0.11042049527168274
0.008688279427587986 0.26664021611213684 0.09767577052116394
0.22214692831039429 0.36461001634597778 0.027047669515013695
0.54036796092987061 0.45482119917869568 0.022466860711574554
0.72547465562820435 0.49814298748970032 0.0167363490909338
0.80104291439056396 0.51907151937484741 0.017636198550462723
0.82945764064788818 0.54543614387512207 0.0068274852819740772
0.011582842096686363 0.31323805451393127 0.15261580049991608
0.011609949171543121 0.38906985521316528 0.13957889378070831
0.26132446527481079 0.51851791143417358 0.025085838511586189
0.62385427951812744 0.64392191171646118 0.010676020756363869
0.82171845436096191 0.69473206996917725 0.042222760617733002
0.89710837602615356 0.71745157241821289 0.053318861871957779
0.91640055179595947 0.72311246395111084 0.049922779202461243
0.0041924123652279377 0.36486712098121643 0.17333443462848663
0.019095806404948235 0.45896145701408386 0.14899466931819916
0.28013718128204346 0.58412563800811768 0.019564161077141762
0.65691667795181274 0.71053850650787354 0.015579119324684143
0.85969167947769165 0.77175992727279663 0.067720480263233185
0.93321263790130615 0.79199701547622681 0.094351522624492645
0.95128893852233887 0.79956960678100586 0.084537908434867859
0.01277459878474474 0.4520229697227478 0.19828861951828003
0.057715248316526413 0.55202710628509521 0.097151540219783783
0.3763943612575531 0.64946585893630981 0.0031732148490846157
0.66508245468139648 0.7377936840057373 0.025440918281674385
0.87859851121902466 0.79852789640426636 0.071931920945644379
0.96227669715881348 0.82739615440368652 0.095345005393028259
0.97233414649963379 0.8268895149230957 0.10083245486021042
0.01902841217815876 0.032017339020967484 0.043877650052309036
0.043371431529521942 0.031047012656927109 0.050219159573316574
0.13432678580284119 0.038405697792768478 0.049840711057186127
0.31372359395027161 0.041688837110996246 0.033614754676818848
0.46085548400878906 0.064914360642433167 0.03944937139749527
0.53696411848068237 0.056231554597616196 0.017478657886385918
0.56818872690200806 0.053527142852544785 0.027250567451119423
0.033499009907245636 0.054248016327619553 0.054910488426685333
0.053037066012620926 0.060414005070924759 0.062269143760204315
0.15139815211296082 0.082642078399658203 0.063743472099304199
0.36408936977386475 0.11663635820150375 0.066997066140174866
0.53184515237808228 0.13660226762294769 0.063997350633144379
0.61324632167816162 0.11458086222410202 0.022246476262807846
0.64575093984603882 0.12283457070589066 0.021863959729671478
0.03632577508687973 0.11506558954715729 0.089031413197517395
0.066142633557319641 0.13536696135997772 0.090352274477481842
0.19406110048294067 0.19137565791606903 0.08613896369934082
0.44582554697990417 0.25173705816268921 0.095480091869831085
0.63381397724151611 0.26778516173362732 0.084512867033481598
0.71847975254058838 0.26900699734687805 0.036696281284093857
0.7580072283744812 0.29580730199813843 0.015417913906276226
0.028560727834701538 0.23055638372898102 0.14243538677692413
0.087939932942390442 0.27928808331489563 0.14775256812572479
0.2181890606880188 0.37968578934669495 0.1111273393034935
0.55055326223373413 0.47385630011558533 0.1277412623167038
0.74655592441558838 0.51295405626296997 0.12960717082023621
0.83304083347320557 0.53514713048934937 0.074519872665405273
0.86820775270462036 0.55703270435333252 0.011167398653924465
0.047873463481664658 0.33796012401580811 0.19424620270729065
0.073300637304782867 0.41120845079421997 0.19283530116081238
0.23848772048950195 0.54345560073852539 0.11954136192798615
0.62625354528427124 0.66151982545852661 0.14654329419136047
0.83618366718292236 0.71718317270278931 0.16905693709850311
0.91309827566146851 0.72662973403930664 0.13012930750846863
0.94440662860870361 0.74667239189147949 0.07815474271774292
0.027026336640119553 0.38464245200157166 0.22834131121635437
0.033373184502124786 0.47693288326263428 0.22556185722351074
0.20300419628620148 0.62023097276687622 0.077960044145584106
0.65888988971710205 0.74162179231643677 0.075000569224357605
0.88207215070724487 0.79990452527999878 0.1188516840338707
0.95653492212295532 0.81604278087615967 0.15489280223846436
0.98129677772521973 0.82280993461608887 0.10834436118602753
0.034110769629478455 0.47752887010574341 0.30831679701805115
0.034111291170120239 0.57390463352203369 0.29304635524749756
0.24910099804401398 0.70242989063262939 0.18062371015548706
0.68738031387329102 0.7925562858581543 0.1356053501367569
0.91034054756164551 0.83826375007629395 0.12463773787021637
0.98780995607376099 0.85578364133834839 0.16908876597881317
0.99588507413864136 0.85905259847640991 0.24707929790019989
0.025030937045812607 0.057133004069328308 0.091279841959476471
0.024958143010735512 0.048511117696762085 0.11968895047903061
0.13450019061565399 0.036538455635309219 0.14446139335632324
0.32890835404396057 0.046292968094348907 0.16746346652507782
0.4846433699131012 0.039801221340894699 0.17247147858142853
0.55544829368591309 0.020703034475445747 0.18156269192695618
0.58860492706298828 0.033145889639854431 0.18935564160346985
0.034706983715295792 0.081464268267154694 0.11713192611932755
0.052727703005075455 0.083870954811573029 0.13874778151512146
0.16046431660652161 0.093743525445461273 0.17982365190982819
0.3852684497833252 0.11758323758840561 0.19889175891876221
0.56384146213531494 0.11461658775806427 0.20779542624950409
0.65436065196990967 0.055227916687726974 0.20210903882980347
0.68644005060195923 0.040288694202899933 0.20886409282684326
0.036245264112949371 0.14362521469593048 0.16446560621261597
0.077389255166053772 0.16595278680324554 0.18292447924613953
0.20115126669406891 0.21094274520874023 0.23313064873218536
0.47431519627571106 0.25113815069198608 0.24057681858539581
0.70025533437728882 0.24505943059921265 0.22954677045345306
0.77828937768936157 0.23164345324039459 0.22229830920696259
0.8157619833946228 0.27434781193733215 0.2393658310174942
0.037003416568040848 0.27273198962211609 0.24081887304782867
0.12137884646654129 0.32906708121299744 0.27183195948600769
0.25684469938278198 0.4115033745765686 0.29294133186340332
0.56550401449203491 0.50936466455459595 0.32285544276237488
0.80689865350723267 0.54437839984893799 0.28396394848823547
0.90244752168655396 0.54768210649490356 0.21700921654701233
0.93017148971557617 0.58622103929519653 0.22649402916431427
0.037310760468244553 0.37858077883720398 0.30720999836921692
0.11340755224227905 0.45118626952171326 0.34061217308044434
0.21938914060592651 0.59395933151245117 0.30978661775588989
0.62510687112808228 0.71273243427276611 0.32667937874794006
0.85831105709075928 0.76006597280502319 0.36188989877700806
0.96975791454315186 0.78180491924285889 0.26913979649543762
0.99497199058532715 0.79544651508331299 0.26161152124404907
0.019060650840401649 0.43754369020462036 0.35752204060554504
0.037788946181535721 0.52223914861679077 0.3897031843662262
0.14032532274723053 0.66997754573822021 0.37921145558357239
0.63558697700500488 0.79950106143951416 0.32420274615287781
0.91011267900466919 0.85333633422851562 0.30497634410858154
0.98119324445724487 0.86521267890930176 0.37150835990905762
0.99852770566940308 0.86889797449111938 0.38477054238319397
0.011643368750810623 0.54433852434158325 0.45879167318344116
0.036791887134313583 0.62384182214736938 0.48674669861793518
0.1656947135925293 0.74498951435089111 0.48546105623245239
0.64991080760955811 0.84073346853256226 0.46973955631256104
0.90640479326248169 0.88866978883743286 0.45339411497116089
0.9929003119468689 0.90276628732681274 0.46872547268867493
1 0.9032406210899353 0.51776915788650513
0.017100090160965919 0.096820041537284851 0.17389115691184998
0.022040184587240219 0.083294965326786041 0.22285869717597961
0.13048161566257477 0.035962752997875214 0.29198703169822693
0.33979305624961853 0.053666073828935623 0.32642823457717896
0.49791190028190613 0.039319012314081192 0.34688454866409302
0.57527720928192139 0.022294871509075165 0.35730999708175659
0.60722863674163818 0.032102115452289581 0.36468949913978577
0.0090456344187259674 0.13323132693767548 0.22503228485584259
0.043192978948354721 0.13674633204936981 0.25305810570716858
0.15435238182544708 0.11339110136032104 0.35288932919502258
0.3975168764591217 0.13563501834869385 0.38783857226371765
0.58061832189559937 0.12616311013698578 0.41067272424697876
0.66908186674118042 0.066918991506099701 0.42570027709007263
0.70436060428619385 0.046162206679582596 0.44455218315124512
0.013141422532498837 0.2013399749994278 0.28837987780570984
0.078343801200389862 0.2269756942987442 0.32414969801902771
0.20219287276268005 0.25765064358711243 0.416603684425354
0.48959407210350037 0.28593739867210388 0.48123440146446228
0.7060578465461731 0.26014441251754761 0.49413484334945679
0.78790146112442017 0.25034546852111816 0.50170451402664185
0.82099366188049316 0.28498712182044983 0.52165937423706055
0.054020196199417114 0.34436413645744324 0.39015099406242371
0.14180722832679749 0.38876071572303772 0.4325694739818573
0.29969248175621033 0.47625714540481567 0.49990886449813843
0.57503986358642578 0.5594906210899353 0.56919115781784058
0.81802177429199219 0.58932161331176758 0.57090872526168823
0.90065759420394897 0.59845483303070068 0.56990504264831543
0.93238598108291626 0.62474942207336426 0.58370709419250488
0.043301347643136978 0.45042416453361511 0.46495604515075684
0.12458255141973495 0.51947504281997681 0.51059871912002563
0.25832036137580872 0.64665597677230835 0.57900094985961914
0.59505844116210938 0.77802211046218872 0.60990077257156372
0.87061530351638794 0.82175976037979126 0.62783646583557129
0.97000056505203247 0.83674955368041992 0.61675220727920532
0.9889330267906189 0.84130275249481201 0.61999547481536865
0.0143598522990942 0.50985813140869141 0.51714617013931274
0.026043342426419258 0.58826708793640137 0.56865543127059937
0.11035715788602829 0.72002524137496948 0.63331001996994019
0.58285236358642578 0.85038775205612183 0.65668666362762451
0.885997474193573 0.90582561492919922 0.65662306547164917
0.98118716478347778 0.91838866472244263 0.67285352945327759
0.99832040071487427 0.92340433597564697 0.68745428323745728
0.02038554847240448 0.58762574195861816 0.5945436954498291
0.037549696862697601 0.67566514015197754 0.65561258792877197
0.054363206028938293 0.78380054235458374 0.70305174589157104
0.6069449782371521 0.88432592153549194 0.72620600461959839
0.88226920366287231 0.93126857280731201 0.72731655836105347
0.98021131753921509 0.94499474763870239 0.72389835119247437
0.99994504451751709 0.94985061883926392 0.75618886947631836
0.0024674208834767342 0.13482707738876343 0.25616377592086792
0.015432574786245823 0.12452060729265213 0.2927754819393158
0.13317173719406128 0.052628699690103531 0.40273359417915344
0.35729816555976868 0.053332041949033737 0.44650539755821228
0.52073150873184204 0.055014844983816147 0.46986821293830872
0.5939556360244751 0.047168746590614319 0.48093962669372559
0.63487863540649414 0.027830654755234718 0.51054400205612183
0.0026628682389855385 0.17894549667835236 0.3144012987613678
0.010062498040497303 0.17756836116313934 0.34847339987754822
0.13537046313285828 0.11589258164167404 0.49119830131530762
0.42111936211585999 0.1380530446767807 0.53990858793258667
0.59795624017715454 0.14955218136310577 0.55632233619689941
0.68091440200805664 0.086258843541145325 0.5745202898979187
0.72164994478225708 0.057340286672115326 0.60399067401885986
0.0024584452621638775 0.2531617283821106 0.38845551013946533
0.036795984953641891 0.27607810497283936 0.43099507689476013
0.16239213943481445 0.27468705177307129 0.58910089731216431
0.49353885650634766 0.2819964587688446 0.666465163230896
0.70649105310440063 0.28160148859024048 0.67967343330383301
0.7984958291053772 0.26630878448486328 0.69345420598983765
0.83077287673950195 0.29568743705749512 0.71043020486831665
0.020808365195989609 0.39323580265045166 0.50047802925109863
0.12917459011077881 0.43765056133270264 0.54561060667037964
0.27006891369819641 0.51825940608978271 0.6463848352432251
0.55328506231307983 0.5902245044708252 0.76556718349456787
0.80798155069351196 0.61564964056015015 0.77840137481689453
0.89837032556533813 0.62064206600189209 0.78148370981216431
0.92987358570098877 0.65781879425048828 0.79623508453369141
0.014395440928637981 0.50554239749908447 0.58055460453033447
0.13396385312080383 0.56894099712371826 0.63411229848861694
0.28820443153381348 0.68595629930496216 0.72467875480651855
0.58058196306228638 0.80940043926239014 0.81386381387710571
0.85854309797286987 0.85403239727020264 0.8308098316192627
0.95997971296310425 0.86771225929260254 0.82803124189376831
0.98675507307052612 0.88365000486373901 0.83991324901580811
0.029715998098254204 0.55428308248519897 0.61882001161575317
0.065803781151771545 0.63739883899688721 0.68901979923248291
0.11708330363035202 0.76107686758041382 0.78395688533782959
0.54033523797988892 0.88879966735839844 0.85543966293334961
0.86546021699905396 0.93929570913314819 0.86327481269836426
0.9763064980506897 0.95641082525253296 0.86693239212036133
0.9964028000831604 0.96040409803390503 0.87364310026168823
0.025575481355190277 0.63211333751678467 0.69231188297271729
0.043608047068119049 0.71061652898788452 0.75983119010925293
0.038126643747091293 0.81456834077835083 0.83735960721969604
0.55922526121139526 0.91159087419509888 0.88344091176986694
0.85603326559066772 0.95671480894088745 0.88718581199645996
0.97366935014724731 0.97533506155014038 0.89187294244766235
0.99742013216018677 0.97963118553161621 0.9027019739151001
0 0.15734235942363739 0.30084797739982605
0.0055981953628361225 0.15629072487354279 0.33382174372673035
0.13787113130092621 0.043119274079799652 0.47232002019882202
0.37394872307777405 0.040155552327632904 0.52184891700744629
0.53847318887710571 0.059381179511547089 0.54700750112533569
0.6112552285194397 0.056360326707363129 0.55485755205154419
0.65594077110290527 0.053965430706739426 0.58791667222976685
0 0.20078405737876892 0.3542635440826416
0.0040569677948951721 0.20751680433750153 0.40029802918434143
0.13016781210899353 0.0861397385597229 0.57573240995407104
0.43628904223442078 0.08140881359577179 0.64118677377700806
0.62092596292495728 0.10950731486082077 0.65350031852722168
0.69742435216903687 0.11061245948076248 0.66219919919967651
0.73744672536849976 0.083481505513191223 0.68957734107971191
0.00012560078175738454 0.2801881730556488 0.44051435589790344
0.008527703583240509 0.30321255326271057 0.49277499318122864
0.10791564732789993 0.29087147116661072 0.66068416833877563
0.49291038513183594 0.27689278125762939 0.76125937700271606
0.71460568904876709 0.27932432293891907 0.77722656726837158
0.79963696002960205 0.2663114070892334 0.78538042306900024
0.8359065055847168 0.30847761034965515 0.80432230234146118
0.0036631117109209299 0.41551554203033447 0.55285435914993286
0.062069956213235855 0.46180832386016846 0.60630506277084351
0.12572333216667175 0.53733038902282715 0.74373757839202881
0.51951855421066284 0.59842419624328613 0.86131983995437622
0.80205368995666504 0.62457108497619629 0.88215690851211548
0.89505410194396973 0.6291193962097168 0.88541847467422485
0.92745757102966309 0.66614514589309692 0.89671850204467773
0.012449481524527073 0.52923023700714111 0.63036209344863892
0.085611350834369659 0.59480947256088257 0.69317531585693359
0.21106119453907013 0.70440101623535156 0.79895734786987305
0.52745038270950317 0.82704496383666992 0.91760110855102539
0.84905672073364258 0.87161064147949219 0.93650966882705688
0.95194607973098755 0.876240074634552 0.93816012144088745
0.98287779092788696 0.89491575956344604 0.9435046911239624
0.010884229093790054 0.57559370994567871 0.66569572687149048
0.068136684596538544 0.65601229667663574 0.73894816637039185
0.14042599499225616 0.77172505855560303 0.84122544527053833
0.51863807439804077 0.90134602785110474 0.93772965669631958
0.85454398393630981 0.95503050088882446 0.95824968814849854
0.96666830778121948 0.96823155879974365 0.96069848537445068
0.99624311923980713 0.9758870005607605 0.96197259426116943
0.029476989060640335 0.64021629095077515 0.72451186180114746
0.028555866330862045 0.72537165880203247 0.80060863494873047
0.055106788873672485 0.82476973533630371 0.89039093255996704
0.53420531749725342 0.92122995853424072 0.94832825660705566
0.85090905427932739 0.97153836488723755 0.96597194671630859
0.96662187576293945 0.98690789937973022 0.9658663272857666
0.99467605352401733 0.99203765392303467 0.96931815147399902
0 0.17737136781215668 0.33196398615837097
0.0040794373489916325 0.18053352832794189 0.3719172477722168
0.1359277218580246 0.029754100367426872 0.54331058263778687
0.39739003777503967 0.024604557082056999 0.59567874670028687
0.56803172826766968 0.058657374233007431 0.60357934236526489
0.64610707759857178 0.06827806681394577 0.61770212650299072
0.69009631872177124 0.068764448165893555 0.65102297067642212
0 0.22334966063499451 0.38999247550964355
0.00098724360577762127 0.23374885320663452 0.43455237150192261
0.12961140275001526 0.081767752766609192 0.63646858930587769
0.45458194613456726 0.057570140808820724 0.70801281929016113
0.64816135168075562 0.098517760634422302 0.7174873948097229
0.72772949934005737 0.089056037366390228 0.72687208652496338
0.76763701438903809 0.080975897610187531 0.75300139188766479
0 0.29765972495079041 0.46627497673034668
0.00080312095815315843 0.31365182995796204 0.51759475469589233
0.081230655312538147 0.31441208720207214 0.68955343961715698
0.49011638760566711 0.31067833304405212 0.80067116022109985
0.72357475757598877 0.30735433101654053 0.82358372211456299
0.80939501523971558 0.30576246976852417 0.8300861120223999
0.84597432613372803 0.34780356287956238 0.84563130140304565
0.0036859549582004547 0.41899514198303223 0.56288105249404907
0.0049419775605201721 0.46978694200515747 0.62995833158493042
0.020206181332468987 0.54132378101348877 0.77479106187820435
0.50952047109603882 0.61069434881210327 0.89404994249343872
0.80007469654083252 0.63293689489364624 0.91497200727462769
0.89483523368835449 0.64038300514221191 0.92142367362976074
0.92974573373794556 0.67662912607192993 0.93264001607894897
0.0050787385553121567 0.53482949733734131 0.64625251293182373
0.046226590871810913 0.60193699598312378 0.71318012475967407
0.021810987964272499 0.71479326486587524 0.8327782154083252
0.48318684101104736 0.82963532209396362 0.9479832649230957
0.83628332614898682 0.86552846431732178 0.96495866775512695
0.94889253377914429 0.87813663482666016 0.97056335210800171
0.97941863536834717 0.89517486095428467 0.97561514377593994
0.010053477250039577 0.59840577840805054 0.69360029697418213
0.019385093823075294 0.66684699058532715 0.75719869136810303
0.034838300198316574 0.77923178672790527 0.86514157056808472
0.48303860425949097 0.90579217672348022 0.96280884742736816
0.84257543087005615 0.95707625150680542 0.98208433389663696
0.96329522132873535 0.97243803739547729 0.98742771148681641
0.99404484033584595 0.97693145275115967 0.98579388856887817
0.0017263374757021666 0.65003758668899536 0.73952502012252808
0.0038972592446953058 0.72833597660064697 0.81308960914611816
0.02409832552075386 0.82372355461120605 0.90075397491455078
0.52175766229629517 0.92289090156555176 0.96724164485931396
0.84497749805450439 0.97431099414825439 0.98773306608200073
0.94864058494567871 0.98824954032897949 0.98915970325469971
0.99700963497161865 0.99559074640274048 0.99339622259140015
