luts/print/kodak_2383_constlmap.cube
# Created by: G'MIC (https://gmic.eu)
TITLE "kodak_2383_constlmap"
# LUT size
LUT_3D_SIZE 13
# Data domain
DOMAIN_MIN 0.0 0.0 0.0
DOMAIN_MAX 1.0 1.0 1.0
# LUT data points
0.0118852648884058 0.011832547374069691 0.016272975131869316
0.027594562619924545 0.016375808045268059 0.018487622961401939
0.055155884474515915 0.028580354526638985 0.022980544716119766
0.08847007155418396 0.040479786694049835 0.02300688810646534
0.14953675866127014 0.054618403315544128 0.016588890925049782
0.23841215670108795 0.073710605502128601 0.0078135617077350616
0.33371457457542419 0.092841401696205139 0.0081629287451505661
0.4183715283870697 0.10859763622283936 0.0088862702250480652
0.48751011490821838 0.12130933254957199 0.0052331364713609219
0.53692001104354858 0.13130317628383636 0.0058323577977716923
0.56443434953689575 0.13848556578159332 0.016265060752630234
0.58315879106521606 0.14103859663009644 0.018757779151201248
0.60228675603866577 0.14616745710372925 0.018662905320525169
0.013687432743608952 0.030415238812565804 0.028427168726921082
0.027952097356319427 0.032357458025217056 0.030151994898915291
0.054260957986116409 0.039991430938243866 0.029802074655890465
0.092673763632774353 0.050760187208652496 0.027934430167078972
0.16586185991764069 0.067053869366645813 0.022339735180139542
0.25792044401168823 0.087519101798534393 0.01856924407184124
0.36163803935050964 0.11029338091611862 0.017935600131750107
0.44956573843955994 0.12763455510139465 0.017172001302242279
0.51490259170532227 0.13924136757850647 0.012339887209236622
0.56477391719818115 0.14725115895271301 0.0067175473086535931
0.59386181831359863 0.15223608911037445 0.012163110077381134
0.61151349544525146 0.15596075356006622 0.016510996967554092
0.6217384934425354 0.16088904440402985 0.021908493712544441
0.014309572987258434 0.049755755811929703 0.039425794035196304
0.026338299736380577 0.05551617220044136 0.041817445307970047
0.0523390993475914 0.064222536981105804 0.039595853537321091
0.098434582352638245 0.074163220822811127 0.036387410014867783
0.1732591986656189 0.091031692922115326 0.033232908695936203
0.27715998888015747 0.1148868054151535 0.031577810645103455
0.38978815078735352 0.13846515119075775 0.028742637485265732
0.48564320802688599 0.15608321130275726 0.025308720767498016
0.55111241340637207 0.16932550072669983 0.019955383613705635
0.60074549913406372 0.17577816545963287 0.013599216006696224
0.62949144840240479 0.17806868255138397 0.015337506309151649
0.6433866024017334 0.1841309517621994 0.018633374944329262
0.65157043933868408 0.18823926150798798 0.022888796404004097
0.016565360128879547 0.079725317656993866 0.053812243044376373
0.017999656498432159 0.084130816161632538 0.052409738302230835
0.048313423991203308 0.096755966544151306 0.049424804747104645
0.10227716714143753 0.11041752249002457 0.044805429875850677
0.18924523890018463 0.12981930375099182 0.040386036038398743
0.30897229909896851 0.16092091798782349 0.03591671958565712
0.42425304651260376 0.18596057593822479 0.033423077315092087
0.52123534679412842 0.19640342891216278 0.033880885690450668
0.58898913860321045 0.20601671934127808 0.026752231642603874
0.6383177638053894 0.21458914875984192 0.018806338310241699
0.66574102640151978 0.22431665658950806 0.02217172272503376
0.6823883056640625 0.23286141455173492 0.025144495069980621
0.69050145149230957 0.23647744953632355 0.02242208831012249
0.030117513611912727 0.12406259030103683 0.077658437192440033
0.023737454786896706 0.12738038599491119 0.071490928530693054
0.038849461823701859 0.1429809182882309 0.064001001417636871
0.10201773792505264 0.16908621788024902 0.052145250141620636
0.20840254426002502 0.19967043399810791 0.03797314316034317
0.34140211343765259 0.22695150971412659 0.03250846266746521
0.46937888860702515 0.25185373425483704 0.03021310456097126
0.56875753402709961 0.26975047588348389 0.035665728151798248
0.64209878444671631 0.27994006872177124 0.030500764027237892
0.68896180391311646 0.28853470087051392 0.02211691252887249
0.7125554084777832 0.2984125018119812 0.02295023575425148
0.73090904951095581 0.30768343806266785 0.028769683092832565
0.74082159996032715 0.31686976552009583 0.022114040330052376
0.030728584155440331 0.18534615635871887 0.10585065186023712
0.031437713652849197 0.19585900008678436 0.10163763910531998
0.027818672358989716 0.21405798196792603 0.093271888792514801
0.080963537096977234 0.24572162330150604 0.069609038531780243
0.2194230854511261 0.28315502405166626 0.039422772824764252
0.37278005480766296 0.31862518191337585 0.028465420007705688
0.51826554536819458 0.35106673836708069 0.030686831101775169
0.62815213203430176 0.37445694208145142 0.035544916987419128
0.70529216527938843 0.38575971126556396 0.02654653787612915
0.74887537956237793 0.39698809385299683 0.017285365611314774
0.77220809459686279 0.40127050876617432 0.012741029262542725
0.78801757097244263 0.41666117310523987 0.01470133475959301
0.80016523599624634 0.42980167269706726 0.010101707652211189
0.023976195603609085 0.26120105385780334 0.13815365731716156
0.030865583568811417 0.27571594715118408 0.13596408069133759
0.032362546771764755 0.29786905646324158 0.12726595997810364
0.054089907556772232 0.33662718534469604 0.096991501748561859
0.21703451871871948 0.3871094286441803 0.05539264902472496
0.4005129337310791 0.433553546667099 0.028087630867958069
0.56140601634979248 0.4712899923324585 0.024883029982447624
0.6851726770401001 0.49827706813812256 0.029114456847310066
0.76541227102279663 0.5152469277381897 0.015464588068425655
0.80768662691116333 0.52364480495452881 0.015641605481505394
0.83069014549255371 0.52963829040527344 0.022815374657511711
0.84464788436889648 0.54145455360412598 0.020603135228157043
0.85401415824890137 0.55058807134628296 0.014714079909026623
0.016062358394265175 0.33128315210342407 0.1679595410823822
0.023090781643986702 0.34590190649032593 0.16439230740070343
0.028150206431746483 0.37574023008346558 0.15337210893630981
0.049535054713487625 0.42371463775634766 0.11716753244400024
0.22827596962451935 0.484200119972229 0.052063573151826859
0.42859280109405518 0.54072707891464233 0.025956800207495689
0.59554809331893921 0.58690339326858521 0.01479638833552599
0.73050493001937866 0.61845624446868896 0.017876943573355675
0.80962353944778442 0.63384902477264404 0.033176109194755554
0.8543286919593811 0.64270961284637451 0.040340602397918701
0.87983578443527222 0.6520804762840271 0.0523972287774086
0.89285218715667725 0.6606985330581665 0.044404271990060806
0.90266567468643188 0.66818696260452271 0.030536770820617676
0.021798377856612206 0.38253599405288696 0.18706138432025909
0.016819942742586136 0.39877361059188843 0.18248374760150909
0.017210567370057106 0.43538549542427063 0.17075002193450928
0.054401442408561707 0.48726862668991089 0.11514932662248611
0.22904329001903534 0.55510073900222778 0.028032205998897552
0.45345696806907654 0.62048214673995972 0.01129461545497179
0.62752795219421387 0.66908413171768188 0.010651577264070511
0.7617642879486084 0.70479190349578857 0.029623309150338173
0.84155392646789551 0.72175419330596924 0.056332606822252274
0.88700735569000244 0.72823405265808105 0.064706407487392426
0.91655707359313965 0.74106836318969727 0.073244340717792511
0.93015104532241821 0.74699032306671143 0.065933465957641602
0.9351118803024292 0.74596941471099854 0.060774229466915131
0.02759818360209465 0.41073176264762878 0.19962786138057709
0.0094858203083276749 0.43573734164237976 0.19495975971221924
0.0081919655203819275 0.47432065010070801 0.18058235943317413
0.054674439132213593 0.52660059928894043 0.11073834449052811
0.2282542884349823 0.59309732913970947 0.02086365595459938
0.46195214986801147 0.6624598503112793 0.007768967654556036
0.64806282520294189 0.71483981609344482 0.012984286993741989
0.77794021368026733 0.75141334533691406 0.043649666011333466
0.861805260181427 0.77383506298065186 0.072572134435176849
0.90896821022033691 0.77975708246231079 0.087352961301803589
0.93725383281707764 0.79011368751525879 0.088265977799892426
0.95087265968322754 0.79501807689666748 0.087311431765556335
0.95893275737762451 0.80097252130508423 0.095386281609535217
0.019697794690728188 0.43462547659873962 0.20687976479530334
0.0096224015578627586 0.46250951290130615 0.20158344507217407
0.015507731586694717 0.50340777635574341 0.1806674599647522
0.051982894539833069 0.55414044857025146 0.11353717744350433
0.24451695382595062 0.61926227807998657 0.020647983998060226
0.46582826972007751 0.68351680040359497 0.013811373151838779
0.65823447704315186 0.74080121517181396 0.018776912242174149
0.79178488254547119 0.78004348278045654 0.048010896891355515
0.87353253364562988 0.80234760046005249 0.077458806335926056
0.92641383409500122 0.8173636794090271 0.10222239792346954
0.94861030578613281 0.82022607326507568 0.10059846192598343
0.96123349666595459 0.82174462080001831 0.095328599214553833
0.96867501735687256 0.82685685157775879 0.1010768935084343
0.0074675916694104671 0.45591554045677185 0.21374116837978363
0.010182369500398636 0.49015584588050842 0.20210690796375275
0.025208191946148872 0.53231841325759888 0.17677909135818481
0.067425988614559174 0.58286917209625244 0.10448732227087021
0.28001272678375244 0.64400976896286011 0.020073490217328072
0.49273526668548584 0.70298486948013306 0.016958065330982208
0.66879415512084961 0.75665152072906494 0.028711969032883644
0.80371326208114624 0.79518848657608032 0.051530636847019196
0.8845178484916687 0.81800228357315063 0.075629264116287231
0.93548482656478882 0.8332255482673645 0.095694087445735931
0.95837461948394775 0.83836561441421509 0.097903519868850708
0.97227281332015991 0.8409501314163208 0.097632527351379395
0.97903531789779663 0.84336525201797485 0.10247305780649185
0.0040802601724863052 0.48415294289588928 0.22177310287952423
0.0056552211754024029 0.53775572776794434 0.19983984529972076
0.040760699659585953 0.58191275596618652 0.14375007152557373
0.13899073004722595 0.62550634145736694 0.07383447140455246
0.3439808189868927 0.67680788040161133 0.01116205845028162
0.52221620082855225 0.72758567333221436 0.012930402532219887
0.68223559856414795 0.77179884910583496 0.029728848487138748
0.81350904703140259 0.80671393871307373 0.053465481847524643
0.88545024394989014 0.827431321144104 0.074177384376525879
0.94251090288162231 0.84549248218536377 0.091204777359962463
0.97046613693237305 0.85213309526443481 0.098352156579494476
0.98368775844573975 0.85343152284622192 0.10097968578338623
0.99073582887649536 0.85606127977371216 0.10753615200519562
0.010906863026320934 0.021253040060400963 0.033939886838197708
0.027030451223254204 0.022423777729272842 0.035039477050304413
0.051501553505659103 0.029724510386586189 0.035777341574430466
0.092576213181018829 0.041964482516050339 0.0361354760825634
0.15843839943408966 0.054246295243501663 0.030060950666666031
0.25151839852333069 0.066719770431518555 0.017354045063257217
0.35134026408195496 0.082211531698703766 0.011677626520395279
0.44258266687393188 0.09709504246711731 0.01004498079419136
0.51301378011703491 0.10458215326070786 0.010238721966743469
0.55566716194152832 0.11146159470081329 0.012236756272614002
0.57837122678756714 0.12323272973299026 0.02047182060778141
0.59831422567367554 0.12277309596538544 0.015445440076291561
0.61584639549255371 0.12507985532283783 0.019595576450228691
0.012392619624733925 0.032131675630807877 0.037752922624349594
0.02794666588306427 0.034284058958292007 0.039738748222589493
0.055766087025403976 0.043193142861127853 0.041946738958358765
0.099454455077648163 0.055810756981372833 0.042497836053371429
0.16969726979732513 0.06888243556022644 0.033312223851680756
0.26586088538169861 0.086007855832576752 0.027884179726243019
0.37054193019866943 0.10313862562179565 0.024916959926486015
0.46420946717262268 0.11852925270795822 0.025858964771032333
0.53118503093719482 0.1318674236536026 0.03235919401049614
0.57775306701660156 0.13463810086250305 0.022593194618821144
0.60622537136077881 0.13748466968536377 0.013209458440542221
0.62571543455123901 0.13969127833843231 0.0095223374664783478
0.63824385404586792 0.14233040809631348 0.017891587689518929
0.017151731997728348 0.053999748080968857 0.049049735069274902
0.029562737792730331 0.056145835667848587 0.049127273261547089
0.058370567858219147 0.065824873745441437 0.050861731171607971
0.10199806094169617 0.076976746320724487 0.051100697368383408
0.17824219167232513 0.093324311077594757 0.04691670835018158
0.28601065278053284 0.11672209203243256 0.046632476150989532
0.39876624941825867 0.1386696845293045 0.045307938009500504
0.49617636203765869 0.15181198716163635 0.043955244123935699
0.56332242488861084 0.16471576690673828 0.043854553252458572
0.61017507314682007 0.16563184559345245 0.029129432514309883
0.64049386978149414 0.16546940803527832 0.016357645392417908
0.65853989124298096 0.17031411826610565 0.017267458140850067
0.67108631134033203 0.17303569614887238 0.021544259041547775
0.02293904684484005 0.082625098526477814 0.063523836433887482
0.029965898022055626 0.085268236696720123 0.061720214784145355
0.056931067258119583 0.096237450838088989 0.061212070286273956
0.10611705482006073 0.11087857186794281 0.058710988610982895
0.19419927895069122 0.13233131170272827 0.059448450803756714
0.31603327393531799 0.16421253979206085 0.058502033352851868
0.43329671025276184 0.19195348024368286 0.056159328669309616
0.52756869792938232 0.19914126396179199 0.057546950876712799
0.60042285919189453 0.20548850297927856 0.052760794758796692
0.64881092309951782 0.21212062239646912 0.036691285669803619
0.67949658632278442 0.21847285330295563 0.026028413325548172
0.6969531774520874 0.22182449698448181 0.019332677125930786
0.70940297842025757 0.2258329838514328 0.011279042810201645
0.034335445612668991 0.12680527567863464 0.086559310555458069
0.04486808180809021 0.13301379978656769 0.0858793705701828
0.059821784496307373 0.14528809487819672 0.079791605472564697
0.10614778101444244 0.17120672762393951 0.067473001778125763
0.21068838238716125 0.2008235901594162 0.063203714787960052
0.34906551241874695 0.23281857371330261 0.064184673130512238
0.4738028347492218 0.25849586725234985 0.062533102929592133
0.56745815277099609 0.26795032620429993 0.065862886607646942
0.64782261848449707 0.27914166450500488 0.064614333212375641
0.69677829742431641 0.29056200385093689 0.05286838486790657
0.72650158405303955 0.29438230395317078 0.039465107023715973
0.74602228403091431 0.2985636293888092 0.024449143558740616
0.76012670993804932 0.31270068883895874 0.0097251590341329575
0.038820303976535797 0.19059965014457703 0.11707641184329987
0.054826267063617706 0.2006206214427948 0.117432601749897
0.064911305904388428 0.21748226881027222 0.1128959059715271
0.10042091459035873 0.24973700940608978 0.090747401118278503
0.21485929191112518 0.28724047541618347 0.0713973268866539
0.37340593338012695 0.3228897750377655 0.069418378174304962
0.52059555053710938 0.35518524050712585 0.069675534963607788
0.62848532199859619 0.37911725044250488 0.071534983813762665
0.71045064926147461 0.39473435282707214 0.064368367195129395
0.75647580623626709 0.40039500594139099 0.058523125946521759
0.7838672399520874 0.40489020943641663 0.034185342490673065
0.8020969033241272 0.41404524445533752 0.018418928608298302
0.81594842672348022 0.4282107949256897 0.010759151540696621
0.03650524839758873 0.26557084918022156 0.15103667974472046
0.055714040994644165 0.27825751900672913 0.14962267875671387
0.067800320684909821 0.30156728625297546 0.14518807828426361
0.092133492231369019 0.34045779705047607 0.12058516591787338
0.2143230140209198 0.39053678512573242 0.085015945136547089
0.39768755435943604 0.43884080648422241 0.07370421290397644
0.56652474403381348 0.47870221734046936 0.072214670479297638
0.68924760818481445 0.50674307346343994 0.075038373470306396
0.76991516351699829 0.52183914184570312 0.061802808195352554
0.81434345245361328 0.52923274040222168 0.051355667412281036
0.8412245512008667 0.53409677743911743 0.026567377150058746
0.85585922002792358 0.54609000682830811 0.023929670453071594
0.86644440889358521 0.55806100368499756 0.023774778470396996
0.031077904626727104 0.33454817533493042 0.18127992749214172
0.052120566368103027 0.35020202398300171 0.17822885513305664
0.069586358964443207 0.38140964508056641 0.17209115624427795
0.084392011165618896 0.4270930290222168 0.13895706832408905
0.21657754480838776 0.48677194118499756 0.091170400381088257
0.43189540505409241 0.54822736978530884 0.075606659054756165
0.60224127769470215 0.59288233518600464 0.065854735672473907
0.73339498043060303 0.62414121627807617 0.071948528289794922
0.8153805136680603 0.64159715175628662 0.084079369902610779
0.8611183762550354 0.65090680122375488 0.085963517427444458
0.88815796375274658 0.65720665454864502 0.063189305365085602
0.90282219648361206 0.66546642780303955 0.049440108239650726
0.91192066669464111 0.67292279005050659 0.044909145683050156
0.044219896197319031 0.38475602865219116 0.20151245594024658
0.051114220172166824 0.40459150075912476 0.19897860288619995
0.055613677948713303 0.44060057401657104 0.19050946831703186
0.074571706354618073 0.49424019455909729 0.13356785476207733
0.19940103590488434 0.56128776073455811 0.064627401530742645
0.44872280955314636 0.62655174732208252 0.059736721217632294
0.62554043531417847 0.67206919193267822 0.058281019330024719
0.76081937551498413 0.70747834444046021 0.074055522680282593
0.84771937131881714 0.72866928577423096 0.10168958455324173
0.89406543970108032 0.73837000131607056 0.11087772250175476
0.92314738035202026 0.74835693836212158 0.088086895644664764
0.93802052736282349 0.75380486249923706 0.072307199239730835
0.94488787651062012 0.75815153121948242 0.072538502514362335
0.033487789332866669 0.41498944163322449 0.21455968916416168
0.02281869575381279 0.44196602702140808 0.2114747166633606
0.028600774705410004 0.47980579733848572 0.19873775541782379
0.059003852307796478 0.53513675928115845 0.13201156258583069
0.18831376731395721 0.60368412733078003 0.047546818852424622
0.45932367444038391 0.67067122459411621 0.043572429567575455
0.64569598436355591 0.71857011318206787 0.050058640539646149
0.78089243173599243 0.75764346122741699 0.071193516254425049
0.86903047561645508 0.78071081638336182 0.10227371007204056
0.91512584686279297 0.78977829217910767 0.12334445118904114
0.94189035892486572 0.79717981815338135 0.10943003743886948
0.95624589920043945 0.80278712511062622 0.09991048276424408
0.96375066041946411 0.80791270732879639 0.1010543555021286
0.021229822188615799 0.43514859676361084 0.22274045646190643
0.012878447771072388 0.46518859267234802 0.21922968327999115
0.032529104501008987 0.50574648380279541 0.20318576693534851
0.050479501485824585 0.56139057874679565 0.12930873036384583
0.21977829933166504 0.63049560785293579 0.042244765907526016
0.46979373693466187 0.69477784633636475 0.040127158164978027
0.66459375619888306 0.75022834539413452 0.043878577649593353
0.79881435632705688 0.78688472509384155 0.059366382658481598
0.8831830620765686 0.80850106477737427 0.090567916631698608
0.93127965927124023 0.82157421112060547 0.12126404792070389
0.95489466190338135 0.82674318552017212 0.12252164632081985
0.96853643655776978 0.82982718944549561 0.10996516793966293
0.9773707389831543 0.8337363600730896 0.10570499300956726
0.021389830857515335 0.45654326677322388 0.23520064353942871
0.0095460927113890648 0.49369573593139648 0.22859784960746765
0.02284616231918335 0.54013985395431519 0.20962049067020416
0.043538711965084076 0.59030276536941528 0.13776014745235443
0.23438617587089539 0.65558540821075439 0.024792002514004707
0.48687922954559326 0.71838653087615967 0.025414770469069481
0.68003827333450317 0.77094167470932007 0.046246964484453201
0.81029194593429565 0.80445808172225952 0.058898493647575378
0.89418876171112061 0.8257216215133667 0.079092584550380707
0.94390064477920532 0.83897244930267334 0.09810861200094223
0.96852278709411621 0.84531456232070923 0.10715563595294952
0.98120439052581787 0.84779196977615356 0.10611642897129059
0.98889124393463135 0.84933441877365112 0.10773845016956329
0.029346959665417671 0.49729907512664795 0.26210549473762512
0.0091152861714363098 0.54326343536376953 0.25126445293426514
0.017065355554223061 0.59046262502670288 0.21708442270755768
0.069802992045879364 0.63632655143737793 0.14628095924854279
0.29449266195297241 0.69208377599716187 0.04419231042265892
0.52695572376251221 0.74616003036499023 0.01928049698472023
0.69961285591125488 0.79107332229614258 0.036274898797273636
0.82293975353240967 0.82148665189743042 0.056196130812168121
0.90153986215591431 0.84023392200469971 0.078987881541252136
0.95272046327590942 0.85249561071395874 0.096031785011291504
0.98009216785430908 0.85918408632278442 0.11275115609169006
0.99036455154418945 0.86081588268280029 0.13125267624855042
0.99610215425491333 0.8615996241569519 0.14126153290271759
0.011737314984202385 0.024335345253348351 0.056069362908601761
0.026299735531210899 0.025420978665351868 0.057172827422618866
0.051305986940860748 0.031899157911539078 0.058925390243530273
0.10189056396484375 0.044586002826690674 0.064153172075748444
0.16776713728904724 0.056861728429794312 0.06435287743806839
0.26258540153503418 0.062202662229537964 0.055261962115764618
0.36535099148750305 0.06590665876865387 0.040229063481092453
0.45968225598335266 0.069154597818851471 0.026175450533628464
0.53195559978485107 0.06985868513584137 0.01845284178853035
0.57434070110321045 0.073199927806854248 0.018784767016768456
0.59952706098556519 0.083000615239143372 0.022653887048363686
0.62044030427932739 0.079883232712745667 0.023848904296755791
0.63889652490615845 0.077139399945735931 0.039703384041786194
0.014188744127750397 0.035534262657165527 0.058664567768573761
0.027856744825839996 0.038380850106477737 0.06310533732175827
0.053701978176832199 0.047667335718870163 0.066459923982620239
0.10254540294408798 0.05892404168844223 0.067738629877567291
0.17302268743515015 0.070620566606521606 0.067493036389350891
0.27542448043823242 0.082756206393241882 0.063510656356811523
0.38593980669975281 0.091276861727237701 0.050853684544563293
0.48438692092895508 0.095869816839694977 0.041200496256351471
0.55396807193756104 0.095587529242038727 0.037132114171981812
0.60006844997406006 0.088707402348518372 0.031781140714883804
0.62815147638320923 0.093959420919418335 0.02727019414305687
0.64756721258163452 0.092437893152236938 0.029017668217420578
0.66305649280548096 0.086933150887489319 0.033343669027090073
0.021108230575919151 0.057708412408828735 0.066897206008434296
0.033689059317111969 0.061009783297777176 0.070025995373725891
0.059902399778366089 0.069018930196762085 0.074113793671131134
0.10420780628919601 0.079680301249027252 0.074270255863666534
0.19242972135543823 0.095585919916629791 0.075395159423351288
0.3002641499042511 0.11429012566804886 0.074694857001304626
0.4128669798374176 0.12999275326728821 0.070915237069129944
0.51466715335845947 0.13567763566970825 0.066502980887889862
0.58424317836761475 0.14136125147342682 0.061913657933473587
0.6322130560874939 0.13423335552215576 0.048783950507640839
0.66333609819412231 0.12490938603878021 0.038212422281503677
0.68291634321212769 0.13295082747936249 0.032460425049066544
0.6978529691696167 0.1324474960565567 0.031393896788358688
0.027679743245244026 0.089510016143321991 0.082652151584625244
0.039696533232927322 0.092494279146194458 0.084278345108032227
0.066228367388248444 0.10191962867975235 0.085487663745880127
0.10932380706071854 0.11770734935998917 0.084239348769187927
0.20176732540130615 0.13723121583461761 0.087341457605361938
0.32436448335647583 0.16349190473556519 0.088113076984882355
0.44298833608627319 0.18395572900772095 0.086231425404548645
0.54364591836929321 0.18794210255146027 0.084159895777702332
0.62171870470046997 0.19099234044551849 0.078060165047645569
0.67244523763656616 0.19192387163639069 0.058225098997354507
0.705974280834198 0.18627540767192841 0.040933258831501007
0.72713708877563477 0.18783734738826752 0.0234056506305933
0.74231219291687012 0.18175098299980164 0.011756253428757191
