luts/print/kodak_2383_cuspclip.cube
# Created by: G'MIC (https://gmic.eu)
TITLE "kodak_2383_cuspclip"
# LUT size
LUT_3D_SIZE 5
# Data domain
DOMAIN_MIN 0.0 0.0 0.0
DOMAIN_MAX 1.0 1.0 1.0
# LUT data points
0.01493733748793602 0.024668211117386818 0.029621468856930733
0.093518294394016266 0.043980810791254044 0.024555863812565804
0.36860710382461548 0.071530930697917938 0.0036223616916686296
0.60647624731063843 0.1228429451584816 0.00068381812889128923
0.66199851036071777 0.14292034506797791 0.0031156651675701141
0.0040312972851097584 0.095752701163291931 0.053247921168804169
0.10068210959434509 0.12194708734750748 0.03862965852022171
0.44278344511985779 0.17313447594642639 0.0031750996131449938
0.68778866529464722 0.21402288973331451 0.0073017044924199581
0.74912363290786743 0.23919728398323059 0.016287336125969887
0.028577407822012901 0.36523300409317017 0.18804559111595154
0.02422008104622364 0.3632848858833313 0.036718301475048065
0.58859032392501831 0.49131020903587341 0.0074688629247248173
0.84107875823974609 0.53676414489746094 0.019598433747887611
0.88024890422821045 0.55553358793258667 0.0095575070008635521
0.020497864112257957 0.54432553052902222 0.26364913582801819
0.017965100705623627 0.59235197305679321 0.12337600439786911
0.69321370124816895 0.76582115888595581 0.016125772148370743
0.93199193477630615 0.79552900791168213 0.078551754355430603
0.96662044525146484 0.7931981086730957 0.0886869877576828
0.01756795309484005 0.60537815093994141 0.26983672380447388
0.081956766545772552 0.65606647729873657 0.024318799376487732
0.71329218149185181 0.80442965030670166 0.021085746586322784
0.94940429925918579 0.85147380828857422 0.085829265415668488
0.99487793445587158 0.85570615530014038 0.10779342800378799
0.0090800262987613678 0.024470878764986992 0.10000339895486832
0.096158482134342194 0.045674432069063187 0.10198992490768433
0.37469524145126343 0.021990248933434486 0.090086720883846283
0.62531906366348267 0.0025435802526772022 0.070856563746929169
0.69486284255981445 0.0018491557566449046 0.069299869239330292
0.0018430672353133559 0.1157916784286499 0.14239686727523804
0.089859038591384888 0.12369942665100098 0.13700993359088898
0.4595550000667572 0.15426966547966003 0.10318625718355179
0.72737663984298706 0.086587049067020416 0.040162958204746246
0.78674125671386719 0.12371450662612915 0.049731608480215073
0.019094908609986305 0.40524706244468689 0.28837525844573975
0.014178990386426449 0.40962588787078857 0.1964191198348999
0.60404461622238159 0.5012282133102417 0.067643679678440094
0.88517457246780396 0.52979016304016113 0.040913045406341553
0.93827933073043823 0.57041770219802856 0.040597759187221527
0.0092148128896951675 0.57656514644622803 0.36336389183998108
0.015146113000810146 0.62875139713287354 0.28820380568504333
0.66118413209915161 0.76797401905059814 0.044397991150617599
0.96948468685150146 0.82966655492782593 0.038928523659706116
0.99777698516845703 0.83452314138412476 0.088249415159225464
0.016806000843644142 0.65203565359115601 0.46138238906860352
0.022958673536777496 0.70262086391448975 0.37681788206100464
0.67431479692459106 0.83215457201004028 0.25782927870750427
0.98703986406326294 0.89077949523925781 0.19243976473808289
1 0.88827544450759888 0.34638667106628418
0.0046512377448379993 0.14204685389995575 0.34917634725570679
0.091487899422645569 0.0086854668334126472 0.34147447347640991
0.38073012232780457 0.0037881589960306883 0.36560177803039551
0.65340763330459595 0.0033092275261878967 0.40214776992797852
0.70149904489517212 1.2925092050863896e-05 0.39466455578804016
0 0.25197324156761169 0.42998313903808594
0.028405746445059776 0.15715660154819489 0.41756299138069153
0.46557590365409851 0.1542140394449234 0.44635266065597534
0.73799067735671997 0.08096516877412796 0.4594816267490387
0.80189651250839233 0.12937913835048676 0.48350813984870911
0.0078270258381962776 0.49012649059295654 0.55064016580581665
0.0075536840595304966 0.51393693685531616 0.56713330745697021
0.56725668907165527 0.55700504779815674 0.56141716241836548
0.88555866479873657 0.58842533826828003 0.56468576192855835
0.94095265865325928 0.60800802707672119 0.56680536270141602
0.0055453432723879814 0.66515070199966431 0.6589396595954895
0.0082690222188830376 0.72311305999755859 0.66380769014358521
0.58547049760818481 0.83915692567825317 0.60976827144622803
0.95413386821746826 0.89598453044891357 0.6143079400062561
0.99661433696746826 0.8875657320022583 0.62902039289474487
0.0057146111503243446 0.73296916484832764 0.72922229766845703
0.0041027292609214783 0.78837519884109497 0.73079437017440796
0.61122781038284302 0.89606702327728271 0.70936489105224609
0.95177310705184937 0.95175433158874512 0.7201123833656311
0.99973487854003906 0.96043092012405396 0.72662830352783203
0.0041242111474275589 0.25093546509742737 0.5170934796333313
0.086810030043125153 0.029573552310466766 0.5255199670791626
0.41272357106208801 0.0011456358479335904 0.57691937685012817
0.67256337404251099 0.0025796927511692047 0.62080860137939453
0.72099125385284424 0.0002100776182487607 0.61544263362884521
0 0.34474781155586243 0.60108375549316406
0.017702693119645119 0.26506456732749939 0.61865693330764771
0.47895628213882446 0.12787367403507233 0.69306379556655884
0.75050383806228638 0.050716880708932877 0.7100902795791626
0.81401568651199341 0.10525407642126083 0.73021179437637329
0.0086041316390037537 0.54092252254486084 0.72042065858840942
0.01119181327521801 0.55944359302520752 0.75911891460418701
0.52866721153259277 0.5847325325012207 0.82951235771179199
0.87535560131072998 0.61770409345626831 0.84497272968292236
0.93727314472198486 0.65700936317443848 0.85980856418609619
0.017345951870083809 0.69614487886428833 0.80014121532440186
0.036126948893070221 0.75758200883865356 0.83936041593551636
0.50985181331634521 0.88131380081176758 0.90516120195388794
0.92778736352920532 0.93049079179763794 0.91605502367019653
0.99319010972976685 0.94036424160003662 0.9172673225402832
0.014246593229472637 0.74054950475692749 0.83174669742584229
0.02636006660759449 0.80871450901031494 0.87589150667190552
0.54466706514358521 0.92267757654190063 0.93075829744338989
0.92368572950363159 0.97995483875274658 0.93814623355865479
0.9947553277015686 0.99038314819335938 0.94276350736618042
0.0023463231045752764 0.29804682731628418 0.5867379903793335
0.063234604895114899 0.10337373614311218 0.59596896171569824
0.43103998899459839 0.0032131867483258247 0.65964138507843018
0.68381345272064209 0.0014735801378265023 0.70023983716964722
0.7630731463432312 0.010423189029097557 0.72261899709701538
0.0003961899783462286 0.37636598944664001 0.64921170473098755
0.0093760024756193161 0.31479522585868835 0.67309796810150146
0.48646748065948486 0.19198276102542877 0.7711482048034668
0.76875883340835571 0.14936801791191101 0.79352521896362305
0.83342689275741577 0.18866628408432007 0.81176668405532837
0.013461737893521786 0.55613785982131958 0.75527167320251465
0.013435289263725281 0.56085896492004395 0.79256212711334229
0.50042152404785156 0.60046285390853882 0.89732646942138672
0.860687255859375 0.63468974828720093 0.92029625177383423
0.93466240167617798 0.66681587696075439 0.92974853515625
0.011823631823062897 0.69608688354492188 0.8220861554145813
0.022340573370456696 0.75045841932296753 0.86690670251846313
0.47653108835220337 0.88086289167404175 0.96351277828216553
0.92235064506530762 0.93649494647979736 0.98411077260971069
0.98456764221191406 0.94406896829605103 0.98448848724365234
0.015814986079931259 0.75342851877212524 0.85830605030059814
0.011195807717740536 0.80623793601989746 0.89408981800079346
0.52305513620376587 0.92573851346969604 0.97390258312225342
0.92017263174057007 0.98403322696685791 0.98969739675521851
0.99350512027740479 0.99344688653945923 0.99160671234130859
