luts/instant_consumer/polaroid_px-100uv+_warm_--.cube
# Created by: G'MIC (https://gmic.eu)
TITLE "polaroid_px-100uv+_warm_--"
# LUT size
LUT_3D_SIZE 13
# Data domain
DOMAIN_MIN 0.0 0.0 0.0
DOMAIN_MAX 1.0 1.0 1.0
# LUT data points
0.011527356691658497 0.013325275853276253 0.024474095553159714
0.028649782761931419 0.02792014367878437 0.038350570946931839
0.082124821841716766 0.075569421052932739 0.083166159689426422
0.16376875340938568 0.14928355813026428 0.15388938784599304
0.24054829776287079 0.22181312739849091 0.2239624559879303
0.3062746524810791 0.28558516502380371 0.28646066784858704
0.36430016160011292 0.34247326850891113 0.34255415201187134
0.41613858938217163 0.39356055855751038 0.39268764853477478
0.46294763684272766 0.4406646192073822 0.43836280703544617
0.50774884223937988 0.48617488145828247 0.48155966401100159
0.55275893211364746 0.53201949596405029 0.52483165264129639
0.59871906042098999 0.58013725280761719 0.56943792104721069
0.64640313386917114 0.62933939695358276 0.61538451910018921
0.04083583876490593 0.038870148360729218 0.048732127994298935
0.059720717370510101 0.054873909801244736 0.064045503735542297
0.10216931998729706 0.093528062105178833 0.10026802867650986
0.17040297389030457 0.15618783235549927 0.16023822128772736
0.24483788013458252 0.22631651163101196 0.22813904285430908
0.31046444177627563 0.29013156890869141 0.29065647721290588
0.36896732449531555 0.34747260808944702 0.3474763035774231
0.4196573793888092 0.39786562323570251 0.3968445360660553
0.46507248282432556 0.44343960285186768 0.44109740853309631
0.50875437259674072 0.48730403184890747 0.48287838697433472
0.55227243900299072 0.53191560506820679 0.52499014139175415
0.59747982025146484 0.57827287912368774 0.56799209117889404
0.64399492740631104 0.62669146060943604 0.6128808856010437
0.11531025171279907 0.10687696933746338 0.11287050694227219
0.12364398688077927 0.11301677674055099 0.11920770257711411
0.15295657515525818 0.1398920863866806 0.14528849720954895
0.20217019319534302 0.18620924651622772 0.18899525701999664
0.26099216938018799 0.24222484230995178 0.24323093891143799
0.32124519348144531 0.30124998092651367 0.30129745602607727
0.37687665224075317 0.35609999299049377 0.35593345761299133
0.42455565929412842 0.40331342816352844 0.40284344553947449
0.46726438403129578 0.44613808393478394 0.44427573680877686
0.50914257764816284 0.48836681246757507 0.48424094915390015
0.55107051134109497 0.53138160705566406 0.52434909343719482
0.5948827862739563 0.57625240087509155 0.56608504056930542
0.64076012372970581 0.62352871894836426 0.60983932018280029
0.20980526506900787 0.19476781785488129 0.19746191799640656
0.21108470857143402 0.19485454261302948 0.19851478934288025
0.22578611969947815 0.20857101678848267 0.21196329593658447
0.25738894939422607 0.2392694503068924 0.24053961038589478
0.30142858624458313 0.28195029497146606 0.28193819522857666
0.34866291284561157 0.32859179377555847 0.32836565375328064
0.39430814981460571 0.37423533201217651 0.37424841523170471
0.4346625804901123 0.41414442658424377 0.41374859213829041
0.47264945507049561 0.45249316096305847 0.45077124238014221
0.51143640279769897 0.49149486422538757 0.48765355348587036
0.551319420337677 0.53226447105407715 0.52550828456878662
0.59359407424926758 0.57539379596710205 0.56528228521347046
0.63843882083892822 0.62161147594451904 0.60814720392227173
0.29480823874473572 0.27653372287750244 0.27823325991630554
0.29587119817733765 0.27652180194854736 0.2785433828830719
0.29935336112976074 0.279905766248703 0.28173360228538513
0.316762775182724 0.29722630977630615 0.29795306921005249
0.34872922301292419 0.32884269952774048 0.32869857549667358
0.38578149676322937 0.36588972806930542 0.36549356579780579
0.42132395505905151 0.40141800045967102 0.40148040652275085
0.45253026485443115 0.43257936835289001 0.43248152732849121
0.48428931832313538 0.46441465616226196 0.46309012174606323
0.51870995759963989 0.49914452433586121 0.49562487006187439
0.55554062128067017 0.53667217493057251 0.52996182441711426
0.59487897157669067 0.57730656862258911 0.56707853078842163
0.63860785961151123 0.62230032682418823 0.60857850313186646
0.36969053745269775 0.35046076774597168 0.35096058249473572
0.36830258369445801 0.3481803834438324 0.3491673469543457
0.36352089047431946 0.34376585483551025 0.34438678622245789
0.37004464864730835 0.35057899355888367 0.35097533464431763
0.39284580945968628 0.37328097224235535 0.37316718697547913
0.42300510406494141 0.40329110622406006 0.40321522951126099
0.45201918482780457 0.43239614367485046 0.43255293369293213
0.47689875960350037 0.45710226893424988 0.45708048343658447
0.50296413898468018 0.48316416144371033 0.4819817841053009
0.53251379728317261 0.51311361789703369 0.50957328081130981
0.56478917598724365 0.54623520374298096 0.53950446844100952
0.60072851181030273 0.58341604471206665 0.57308405637741089
0.64292985200881958 0.62688815593719482 0.61300981044769287
0.43108555674552917 0.4115203320980072 0.41058516502380371
0.42832097411155701 0.40811976790428162 0.40777933597564697
0.42064490914344788 0.40069633722305298 0.40022164583206177
0.42189231514930725 0.40226930379867554 0.4016362726688385
0.43653413653373718 0.41687142848968506 0.41644689440727234
0.45898327231407166 0.43913191556930542 0.43884488940238953
0.48213854432106018 0.46207994222640991 0.462108314037323
0.50371444225311279 0.48365837335586548 0.48325404524803162
0.52653521299362183 0.50651842355728149 0.50489974021911621
0.55240082740783691 0.53277719020843506 0.52891474962234497
0.58088785409927368 0.56217962503433228 0.55510938167572021
0.61309599876403809 0.5957227349281311 0.5850759744644165
0.65367650985717773 0.63788378238677979 0.62352877855300903
0.47739970684051514 0.45801571011543274 0.45408070087432861
0.4759613573551178 0.45599144697189331 0.4527897834777832
0.47092470526695251 0.45097848773002625 0.44807314872741699
0.47101172804832458 0.4511394202709198 0.44857966899871826
0.4801383912563324 0.46019625663757324 0.45822149515151978
0.49568703770637512 0.47541677951812744 0.47448891401290894
0.51374214887619019 0.49362942576408386 0.49254152178764343
0.53255611658096313 0.51220965385437012 0.51081621646881104
0.55327272415161133 0.53304785490036011 0.53012287616729736
0.57720625400543213 0.55725789070129395 0.55230808258056641
0.60341787338256836 0.58439427614212036 0.57644641399383545
0.63401103019714355 0.61628025770187378 0.60458219051361084
0.67523097991943359 0.65906769037246704 0.64392316341400146
0.51856917142868042 0.4998137354850769 0.49192163348197937
0.51856964826583862 0.4989503026008606 0.49160635471343994
0.51702260971069336 0.49717280268669128 0.49078679084777832
0.51782631874084473 0.4978211522102356 0.49216949939727783
0.52356332540512085 0.50348114967346191 0.49897468090057373
0.53463554382324219 0.51430326700210571 0.51088535785675049
0.54902571439743042 0.52863782644271851 0.52579081058502197
0.56501096487045288 0.54452097415924072 0.54108673334121704
0.58287233114242554 0.56275814771652222 0.55755656957626343
0.60403037071228027 0.58435362577438354 0.57723343372344971
0.62829530239105225 0.60954701900482178 0.59919661283493042
0.65994042158126831 0.64231282472610474 0.62838715314865112
0.70568346977233887 0.68922120332717896 0.67263740301132202
0.56285029649734497 0.54487520456314087 0.53218162059783936
0.5645599365234375 0.5454668402671814 0.5337752103805542
0.56574404239654541 0.54647797346115112 0.53562945127487183
0.56675320863723755 0.54729652404785156 0.53755944967269897
0.56965404748916626 0.54989838600158691 0.54149842262268066
0.57708251476287842 0.55710941553115845 0.5500950813293457
0.58906340599060059 0.56908291578292847 0.56298363208770752
0.60294491052627563 0.5832221508026123 0.57613402605056763
0.61847609281539917 0.59934979677200317 0.59029591083526611
0.63505327701568604 0.61589080095291138 0.60553270578384399
0.6543201208114624 0.63676947355270386 0.6236538290977478
0.68754422664642334 0.67079567909240723 0.6545569896697998
0.74008506536483765 0.72381049394607544 0.70594203472137451
0.61766481399536133 0.60022187232971191 0.58388370275497437
0.62145447731018066 0.6035882830619812 0.58778566122055054
0.62469160556793213 0.60656332969665527 0.59160327911376953
0.62494021654129028 0.60678672790527344 0.59260588884353638
0.62356770038604736 0.60523515939712524 0.59176075458526611
0.62563204765319824 0.60707658529281616 0.59434795379638672
0.63568520545959473 0.61727273464202881 0.60516560077667236
0.65126407146453857 0.63251340389251709 0.62082028388977051
0.666545569896698 0.64928954839706421 0.63627910614013672
0.68077802658081055 0.66434895992279053 0.65020251274108887
0.69729304313659668 0.68164891004562378 0.66593736410140991
0.72667092084884644 0.71167927980422974 0.69472372531890869
0.77649670839309692 0.76204675436019897 0.74410825967788696
0.69093412160873413 0.67496311664581299 0.65574872493743896
0.69569855928421021 0.67955374717712402 0.66077566146850586
0.69908124208450317 0.68300586938858032 0.66513258218765259
0.69849485158920288 0.68257886171340942 0.66494327783584595
0.69353365898132324 0.67730468511581421 0.65940737724304199
0.68925875425338745 0.67271006107330322 0.65448617935180664
0.69798564910888672 0.68132513761520386 0.66365009546279907
0.71690964698791504 0.70096087455749512 0.68312549591064453
0.73398679494857788 0.71896243095397949 0.70228832960128784
0.7489205002784729 0.73468828201293945 0.71874064207077026
0.76445448398590088 0.75196725130081177 0.7362942099571228
0.78914332389831543 0.77671009302139282 0.76075738668441772
0.82567137479782104 0.81339949369430542 0.79804313182830811
0.78443092107772827 0.77059042453765869 0.75073230266571045
0.78533935546875 0.77265512943267822 0.75256437063217163
0.7870713472366333 0.77325797080993652 0.75393718481063843
0.78698748350143433 0.77324056625366211 0.75391513109207153
0.78197097778320312 0.76870185136795044 0.74880737066268921
0.77674782276153564 0.76322400569915771 0.74252492189407349
0.78383982181549072 0.77007371187210083 0.74914759397506714
0.80169016122817993 0.78773218393325806 0.76815652847290039
0.81829291582107544 0.8059079647064209 0.78786271810531616
0.83307123184204102 0.82153481245040894 0.8057861328125
0.84918934106826782 0.83861374855041504 0.82457077503204346
0.86925637722015381 0.85956615209579468 0.84731441736221313
0.89377790689468384 0.88452208042144775 0.87337291240692139
0.057241581380367279 0.053958520293235779 0.062372244894504547
0.08168792724609375 0.076317988336086273 0.083550333976745605
0.1338048130273819 0.12266503274440765 0.1276748925447464
0.20978616178035736 0.19250153005123138 0.19500170648097992
0.28504607081413269 0.26440915465354919 0.26524364948272705
0.34612470865249634 0.32420170307159424 0.32464605569839478
0.39974406361579895 0.37659439444541931 0.37642458081245422
0.44601172208786011 0.42252370715141296 0.4216952919960022
0.48745447397232056 0.46409738063812256 0.46179679036140442
0.52714341878890991 0.50408166646957397 0.49970135092735291
0.5672106146812439 0.54567259550094604 0.53909796476364136
0.60933661460876465 0.5891488790512085 0.57960957288742065
0.65401250123977661 0.63561367988586426 0.62252885103225708
0.090515777468681335 0.084358572959899902 0.091507107019424438
0.12301007658243179 0.11310887336730957 0.11882678419351578
0.17019860446453094 0.1559540182352066 0.15937376022338867
0.22796574234962463 0.21032530069351196 0.21132862567901611
0.29095190763473511 0.27083697915077209 0.27036994695663452
0.34874412417411804 0.32757943868637085 0.32747796177864075
0.40213322639465332 0.38006323575973511 0.37982732057571411
0.44722852110862732 0.42469596862792969 0.4238981306552887
0.48779481649398804 0.46481752395629883 0.46261703968048096
0.526866614818573 0.5039438009262085 0.49969244003295898
0.5661996603012085 0.54494714736938477 0.53802776336669922
0.60801219940185547 0.58812409639358521 0.57809978723526001
0.65267372131347656 0.63447058200836182 0.62081128358840942
0.17302899062633514 0.1597784012556076 0.16199234127998352
0.18472260236740112 0.16897860169410706 0.17285414040088654
0.21178698539733887 0.19455952942371368 0.19730156660079956
0.24985922873020172 0.23127537965774536 0.23217272758483887
0.29567977786064148 0.27611491084098816 0.27599310874938965
0.35191944241523743 0.33151519298553467 0.33140143752098083
0.40455549955368042 0.38393986225128174 0.3838578462600708
0.44734945893287659 0.42612215876579285 0.42564404010772705
0.4851929247379303 0.46500694751739502 0.46246886253356934
0.52406400442123413 0.5036853551864624 0.49933424592018127
0.56395727396011353 0.54384994506835938 0.53652656078338623
0.60570716857910156 0.58664572238922119 0.57603436708450317
0.65025311708450317 0.63249319791793823 0.61839795112609863
0.26291850209236145 0.24373820424079895 0.24348767101764679
0.26513481140136719 0.24491173028945923 0.24641555547714233
0.27442112565040588 0.25409218668937683 0.25576871633529663
0.29388865828514099 0.27398523688316345 0.2747226357460022
0.32587543129920959 0.30611902475357056 0.30606710910797119
0.37071838974952698 0.35086473822593689 0.35089913010597229
0.41453683376312256 0.39426195621490479 0.39478424191474915
0.45115962624549866 0.43054893612861633 0.4305894672870636
0.48639035224914551 0.46613001823425293 0.4648769199848175
0.5241582989692688 0.50427180528640747 0.50003647804260254
0.56310832500457764 0.54365414381027222 0.53631621599197388
0.60384237766265869 0.58562135696411133 0.57483989000320435
0.64824962615966797 0.63113564252853394 0.61661273241043091
0.33768394589424133 0.3165794312953949 0.31640905141830444
0.34046155214309692 0.31843620538711548 0.31919214129447937
0.33894303441047668 0.31752428412437439 0.31804490089416504
0.3452218770980835 0.32503479719161987 0.32514721155166626
0.36887151002883911 0.34909600019454956 0.34900051355361938
0.40176135301589966 0.38221383094787598 0.38228011131286621
0.43416190147399902 0.41458907723426819 0.41496193408966064
0.46238037943840027 0.44272294640541077 0.44287422299385071
0.4936676025390625 0.47400197386741638 0.47263932228088379
0.52839457988739014 0.50920814275741577 0.50510710477828979
0.56494283676147461 0.54649460315704346 0.5388304591178894
0.60407024621963501 0.58674728870391846 0.57537293434143066
0.6477820873260498 0.63154828548431396 0.61650598049163818
0.40321320295333862 0.38265594840049744 0.3825816810131073
0.40130999684333801 0.38013646006584167 0.38041397929191589
0.39130109548568726 0.37067267298698425 0.37088307738304138
0.39080315828323364 0.37110337615013123 0.37111911177635193
0.40975251793861389 0.39035442471504211 0.3902890682220459
0.43582373857498169 0.41645154356956482 0.41666200757026672
0.46102887392044067 0.44170808792114258 0.44185355305671692
0.48413205146789551 0.46462514996528625 0.46447896957397461
0.50979596376419067 0.49045145511627197 0.48868054151535034
0.53973394632339478 0.52076190710067749 0.51617985963821411
0.5721392035484314 0.55413496494293213 0.54600459337234497
0.60828953981399536 0.5914078950881958 0.57931965589523315
0.65076768398284912 0.63508540391921997 0.61935776472091675
0.45615452527999878 0.43645545840263367 0.43533521890640259
0.4520781934261322 0.4317328929901123 0.43080165982246399
0.44155663251876831 0.42146354913711548 0.42076098918914795
0.43919718265533447 0.41986018419265747 0.41884443163871765
0.45122596621513367 0.4321340024471283 0.43127542734146118
0.47054055333137512 0.45113039016723633 0.45088070631027222
0.4904521107673645 0.47079446911811829 0.47060799598693848
0.5100824236869812 0.49045544862747192 0.48950764536857605
0.53197163343429565 0.51245385408401489 0.5096936821937561
0.55724096298217773 0.53817439079284668 0.53264957666397095
0.58548402786254883 0.56755506992340088 0.55854976177215576
0.61826521158218384 0.60158884525299072 0.5886993408203125
0.65969139337539673 0.64438116550445557 0.62780797481536865
0.49712589383125305 0.47775065898895264 0.47459375858306885
0.49477905035018921 0.47500041127204895 0.47156849503517151
0.48837512731552124 0.46847954392433167 0.46547397971153259
0.48658621311187744 0.46693187952041626 0.46443015336990356
0.49348330497741699 0.47378033399581909 0.47170385718345642
0.50640767812728882 0.48660147190093994 0.48498797416687012
0.52175009250640869 0.5016934871673584 0.50026506185531616
0.53812050819396973 0.51828199625015259 0.51581525802612305
0.55691623687744141 0.53721523284912109 0.53280878067016602
0.5792509913444519 0.56005144119262695 0.55296039581298828
0.60533088445663452 0.58707189559936523 0.57656973600387573
0.63720446825027466 0.62034201622009277 0.60597914457321167
0.67994076013565063 0.66422683000564575 0.64677667617797852
0.53504264354705811 0.51595437526702881 0.50808322429656982
0.53351336717605591 0.51403611898422241 0.50685423612594604
0.53105974197387695 0.51130789518356323 0.50468909740447998
0.53046435117721558 0.5105900764465332 0.50498169660568237
0.53468328714370728 0.51468628644943237 0.5097840428352356
0.5436786413192749 0.5235590934753418 0.51973384618759155
0.55578607320785522 0.53561621904373169 0.53196591138839722
0.56924140453338623 0.54935228824615479 0.54449814558029175
0.58492177724838257 0.56540435552597046 0.55855798721313477
0.60441851615905762 0.58548814058303833 0.57586973905563354
0.62865060567855835 0.6107056736946106 0.59766393899917603
0.66256654262542725 0.6456407904624939 0.62915432453155518
0.71015465259552002 0.69412815570831299 0.67510116100311279
0.57432436943054199 0.55638349056243896 0.54429584741592407
0.57515144348144531 0.55638331174850464 0.54480445384979248
0.57555806636810303 0.55650550127029419 0.54566270112991333
0.57590299844741821 0.55650174617767334 0.54656660556793213
0.57780057191848755 0.55822330713272095 0.54934394359588623
0.58383327722549438 0.56416159868240356 0.55676710605621338
0.59421622753143311 0.57448118925094604 0.56760722398757935
0.60593080520629883 0.5866093635559082 0.57822287082672119
0.61955547332763672 0.6008751392364502 0.59019780158996582
0.63539379835128784 0.61762166023254395 0.60445255041122437
0.65653127431869507 0.63961541652679443 0.62343513965606689
0.69128155708312988 0.67506921291351318 0.65627562999725342
0.74377292394638062 0.72797983884811401 0.70771688222885132
0.62547659873962402 0.60863202810287476 0.59269273281097412
0.62823492288589478 0.61055701971054077 0.59491544961929321
0.63049542903900146 0.61244267225265503 0.59760719537734985
0.63064724206924438 0.61231464147567749 0.59814149141311646
0.62936091423034668 0.61097925901412964 0.59713125228881836
0.63047158718109131 0.61202514171600342 0.59904223680496216
0.63882219791412354 0.62038165330886841 0.60777181386947632
0.65237820148468018 0.63454592227935791 0.62141209840774536
0.66722595691680908 0.65030878782272339 0.63554596900939941
0.68185776472091675 0.66595178842544556 0.6495094895362854
0.69930291175842285 0.68441933393478394 0.66639590263366699
0.72921872138977051 0.71489393711090088 0.69466507434844971
0.77741754055023193 0.76289445161819458 0.74273002147674561
0.69582349061965942 0.68050342798233032 0.66202807426452637
0.69886100292205811 0.68294423818588257 0.66453850269317627
0.70166963338851929 0.68552631139755249 0.66729497909545898
0.70153111219406128 0.68532848358154297 0.66732931137084961
0.69792324304580688 0.68175619840621948 0.66363286972045898
0.69429850578308105 0.67798095941543579 0.6596413254737854
0.70025283098220825 0.68422609567642212 0.6656607985496521
0.71727478504180908 0.7015724778175354 0.68286293745040894
0.73441541194915771 0.71987700462341309 0.7017788290977478
0.75028377771377563 0.73667222261428833 0.7188599705696106
0.76688128709793091 0.75403285026550293 0.73631840944290161
0.78908234834671021 0.77699995040893555 0.7582671046257019
0.82237845659255981 0.81037676334381104 0.79182183742523193
0.78350907564163208 0.76974892616271973 0.75052338838577271
0.78561794757843018 0.77226418256759644 0.75257283449172974
0.78740590810775757 0.77370280027389526 0.75430458784103394
0.78859835863113403 0.77473306655883789 0.75519639253616333
0.78640484809875488 0.77303141355514526 0.75313013792037964
0.78323489427566528 0.76986753940582275 0.74935227632522583
0.78738141059875488 0.77438771724700928 0.75359761714935303
0.80194199085235596 0.78914171457290649 0.76900655031204224
0.81907206773757935 0.80696731805801392 0.78847414255142212
0.83586347103118896 0.82483923435211182 0.80804485082626343
0.85297369956970215 0.8431168794631958 0.82783341407775879
0.87181168794631958 0.86274570226669312 0.84817904233932495
0.89311999082565308 0.88401526212692261 0.87037259340286255
0.15122462809085846 0.1389634907245636 0.14336389303207397
0.17871077358722687 0.1637890636920929 0.16689789295196533
0.20870164036750793 0.19139412045478821 0.19361922144889832
0.25289320945739746 0.23405121266841888 0.23535643517971039
0.31929108500480652 0.2992250919342041 0.29940655827522278
0.37901562452316284 0.35718333721160889 0.35722067952156067
0.43159887194633484 0.40802013874053955 0.40788653492927551
0.47416999936103821 0.4501338005065918 0.44933024048805237
0.5101628303527832 0.48641601204872131 0.48441925644874573
0.54583144187927246 0.52279943227767944 0.51824897527694702
0.58214408159255981 0.56019002199172974 0.55318468809127808
0.62056416273117065 0.59957981109619141 0.59024131298065186
0.66278350353240967 0.64375388622283936 0.63101601600646973
0.17719197273254395 0.16384239494800568 0.16804981231689453
0.20248997211456299 0.18574763834476471 0.1895410567522049
0.23466382920742035 0.21574383974075317 0.21784898638725281
0.27230638265609741 0.25301826000213623 0.25317820906639099
0.32687035202980042 0.30731439590454102 0.30646821856498718
0.38553059101104736 0.36469119787216187 0.36441034078598022
0.43454408645629883 0.41244217753410339 0.41227477788925171
0.47444403171539307 0.45143449306488037 0.45089387893676758
0.50934702157974243 0.48661062121391296 0.48465651273727417
0.54438257217407227 0.52263003587722778 0.51775383949279785
0.58095270395278931 0.55955880880355835 0.55236613750457764
0.62019360065460205 0.59991675615310669 0.58979505300521851
0.66283667087554932 0.64442557096481323 0.63035440444946289
0.21750497817993164 0.20095059275627136 0.20239505171775818
0.23710235953330994 0.21758462488651276 0.22097255289554596
0.26629948616027832 0.24605235457420349 0.24794608354568481
0.29853588342666626 0.27839750051498413 0.2787415087223053
0.341962069272995 0.32246527075767517 0.32210856676101685
0.39462119340896606 0.37497755885124207 0.37494468688964844
0.43730893731117249 0.41664978861808777 0.41679179668426514
0.47286838293075562 0.4516233503818512 0.45115837454795837
0.50689697265625 0.4855542778968811 0.48347428441047668
0.54232609272003174 0.5215337872505188 0.51665866374969482
0.57916700839996338 0.55869156122207642 0.55131369829177856
0.61905974149703979 0.60001087188720703 0.58848023414611816
0.66241669654846191 0.64465713500976562 0.62950664758682251
0.2904086709022522 0.26909524202346802 0.26863798499107361
0.3046204149723053 0.28212523460388184 0.28354904055595398
0.3208203911781311 0.29910930991172791 0.29988566040992737
0.33828294277191162 0.31767550110816956 0.31784218549728394
0.36787065863609314 0.34804344177246094 0.34799036383628845
0.40717625617980957 0.38772010803222656 0.38798555731773376
0.44297975301742554 0.42332875728607178 0.42346352338790894
0.4738290011882782 0.45385241508483887 0.45346075296401978
0.50597196817398071 0.48609822988510132 0.48403680324554443
0.54150068759918213 0.52206277847290039 0.51673001050949097
0.57755225896835327 0.55951988697052002 0.55099880695343018
0.6182553768157959 0.60045164823532104 0.58811885118484497
0.6619265079498291 0.64502322673797607 0.6291118860244751
0.36626544594764709 0.34377649426460266 0.34348070621490479
0.37856137752532959 0.35521256923675537 0.35531076788902283
0.38226771354675293 0.36003032326698303 0.36004295945167542
0.38467946648597717 0.36404791474342346 0.36396858096122742
0.40258127450942993 0.38288319110870361 0.38292619585990906
0.42926827073097229 0.41005370020866394 0.41027849912643433
0.45618659257888794 0.43699455261230469 0.43742746114730835
0.48174697160720825 0.46251213550567627 0.46209505200386047
