luts/instant_consumer/polaroid_time_zero_expired_-.cube
# Created by: G'MIC (https://gmic.eu)
TITLE "polaroid_time_zero_expired_-"
# LUT size
LUT_3D_SIZE 7
# Data domain
DOMAIN_MIN 0.0 0.0 0.0
DOMAIN_MAX 1.0 1.0 1.0
# LUT data points
0.4067503809928894 0.18050065636634827 0.04956422746181488
0.4289606511592865 0.17998549342155457 0.046011578291654587
0.50751036405563354 0.16917791962623596 0.040054589509963989
0.6148611307144165 0.16004030406475067 0.032467905431985855
0.72537350654602051 0.17045953869819641 0.027601668611168861
0.83547258377075195 0.20602181553840637 0.027737995609641075
0.93636250495910645 0.26509219408035278 0.034388240426778793
0.42073580622673035 0.22661095857620239 0.025117926299571991
0.45254737138748169 0.22410017251968384 0.025308452546596527
0.53191429376602173 0.22501984238624573 0.015198128297924995
0.63535857200622559 0.22591756284236908 0.0088061010465025902
0.73784267902374268 0.23654431104660034 0.0086358161643147469
0.84079664945602417 0.26074278354644775 0.0065444647334516048
0.93823760747909546 0.31277525424957275 0.013930152170360088
0.47429987788200378 0.33761304616928101 0.00076065061148256063
0.51527059078216553 0.33836513757705688 0.0039215688593685627
0.5822291374206543 0.33948370814323425 0.0028396158013492823
0.67142480611801147 0.34768879413604736 0.0024052190128713846
0.75197333097457886 0.3483349084854126 0
0.8470725417137146 0.37128505110740662 3.7099802284501493e-05
0.93656420707702637 0.40629050135612488 0.00031736784148961306
0.54271066188812256 0.46291974186897278 0
0.56931072473526001 0.46096020936965942 0.00030131620587781072
0.63180446624755859 0.46800777316093445 4.5955883251735941e-05
0.71093332767486572 0.47812020778656006 0
0.78701317310333252 0.48627486824989319 0.0020745520014315844
0.8627479076385498 0.50160044431686401 0.00097906077280640602
0.93742632865905762 0.52552115917205811 1.4002182979311328e-05
0.60880440473556519 0.58949190378189087 0
0.63131439685821533 0.5870853066444397 0
0.67659801244735718 0.59563243389129639 0
0.75165277719497681 0.60860550403594971 0.00075873581226915121
0.81979447603225708 0.62122911214828491 0.0039215688593685627
0.88293910026550293 0.63877815008163452 0.0052315057255327702
0.9422340989112854 0.65367579460144043 0.00087298225844278932
0.68050640821456909 0.7162330150604248 0
0.69625520706176758 0.71707427501678467 0
0.73131483793258667 0.72044605016708374 0
0.78421396017074585 0.72794854640960693 0.00037574020097963512
0.84754836559295654 0.73819082975387573 0.0039834114722907543
0.90290635824203491 0.74782323837280273 0.0051894094794988632
0.94801270961761475 0.76354193687438965 0.20266649127006531
0.76035201549530029 0.82032090425491333 0
0.76875424385070801 0.81889182329177856 0
0.79252660274505615 0.81946218013763428 0
0.8252178430557251 0.8202250599861145 0.0005772908334620297
0.87515175342559814 0.82356452941894531 0.0047924863174557686
0.92446714639663696 0.83129894733428955 0.10769356787204742
0.96021980047225952 0.83249425888061523 0.32318148016929626
0.41867315769195557 0.17908954620361328 0.075228311121463776
0.43847769498825073 0.1806892603635788 0.076689913868904114
0.51920711994171143 0.17651502788066864 0.085347659885883331
0.63076877593994141 0.18102027475833893 0.089815311133861542
0.73644566535949707 0.20497041940689087 0.084903120994567871
0.84387397766113281 0.22902636229991913 0.084421269595623016
0.93868720531463623 0.27961975336074829 0.096845187246799469
0.43487712740898132 0.22552153468132019 0.064935095608234406
0.47026950120925903 0.23160780966281891 0.066212356090545654
0.54795879125595093 0.2400747686624527 0.066411003470420837
0.64779788255691528 0.2429502010345459 0.068316519260406494
0.7453034520149231 0.25406917929649353 0.065643265843391418
0.84880506992340088 0.27581959962844849 0.067227683961391449
0.9433484673500061 0.32796722650527954 0.081565737724304199
0.48985689878463745 0.34358474612236023 0.020945515483617783
0.52258586883544922 0.34549063444137573 0.015043924562633038
0.59425550699234009 0.34751331806182861 0.022319629788398743
0.67475104331970215 0.35089728236198425 0.024361195042729378
0.76042604446411133 0.35770431160926819 0.019752517342567444
0.85512524843215942 0.37273740768432617 0.017713194712996483
0.94358706474304199 0.40943065285682678 0.031844016164541245
0.5573238730430603 0.46752917766571045 0.0048072366043925285
0.58214163780212402 0.46756210923194885 0.0039756326004862785
0.64149248600006104 0.47377973794937134 0.0054940767586231232
0.71756047010421753 0.47967469692230225 0.0035443324595689774
0.79053187370300293 0.48917362093925476 0.0030711453873664141
0.86513000726699829 0.50010734796524048 0.0041695986874401569
0.94228428602218628 0.52608609199523926 0.0029678044375032187
0.62268316745758057 0.59453284740447998 0.0039651310071349144
0.63995069265365601 0.59015893936157227 0.0050990236923098564
0.68327420949935913 0.59805762767791748 0.0047783944755792618
0.75553083419799805 0.60751062631607056 0.0039215688593685627
0.82372426986694336 0.62314808368682861 0.0050605176948010921
0.88823205232620239 0.6419256329536438 0.024095334112644196
0.94268131256103516 0.65450185537338257 0.021060584113001823
0.68346905708312988 0.71936315298080444 0.0018805260770022869
0.70244669914245605 0.71634727716445923 0.0016195259522646666
0.73099559545516968 0.71977216005325317 0.00031133912852965295
0.78604841232299805 0.72828906774520874 0
0.84832382202148438 0.73790198564529419 0.0037132862489670515
0.90404784679412842 0.7500801682472229 0.037576265633106232
0.94694560766220093 0.76519984006881714 0.24365414679050446
0.76237183809280396 0.82390040159225464 0.00040815764805302024
0.77043610811233521 0.82154470682144165 0.0012357524828985333
0.79049468040466309 0.82373046875 0
0.82813000679016113 0.82547086477279663 0.00065090705174952745
0.87692791223526001 0.82689148187637329 0.0029183481819927692
0.9241563081741333 0.83144682645797729 0.16070687770843506
0.96057546138763428 0.83307558298110962 0.35463550686836243
0.47390711307525635 0.18630664050579071 0.15306229889392853
0.49706634879112244 0.19171822071075439 0.15826834738254547
0.54451775550842285 0.19838847219944 0.15498894453048706
0.64331823587417603 0.20041657984256744 0.1710532158613205
0.7476654052734375 0.22562240064144135 0.17965981364250183
0.84914994239807129 0.26225161552429199 0.18501387536525726
0.942332923412323 0.31674259901046753 0.19069679081439972
0.50461834669113159 0.24417456984519958 0.15070396661758423
0.53342157602310181 0.25534573197364807 0.15405680239200592
0.5763852596282959 0.26066696643829346 0.15226836502552032
0.66185736656188965 0.25742384791374207 0.16525740921497345
0.75487899780273438 0.27457550168037415 0.16733458638191223
0.85394555330276489 0.3018835186958313 0.17454293370246887
0.94570291042327881 0.34208428859710693 0.17631980776786804
0.53643447160720825 0.33992898464202881 0.1287178248167038
0.56329667568206787 0.34695190191268921 0.13188256323337555
0.61618143320083618 0.35930559039115906 0.13204535841941833
0.68926823139190674 0.35977447032928467 0.13586826622486115
0.77203017473220825 0.370656818151474 0.13653913140296936
0.86323833465576172 0.38772344589233398 0.14272582530975342
0.94795680046081543 0.42157456278800964 0.15568640828132629
0.57157355546951294 0.46382626891136169 0.083712242543697357
0.59777575731277466 0.46670481562614441 0.086486175656318665
0.64971679449081421 0.47552958130836487 0.069920919835567474
0.72734552621841431 0.48511829972267151 0.097055323421955109
0.79690700769424438 0.49356144666671753 0.11196755617856979
0.87063980102539062 0.50217151641845703 0.094482645392417908
0.9465678334236145 0.53081613779067993 0.1154010072350502
0.63128846883773804 0.59830081462860107 0.026818174868822098
0.64736288785934448 0.59698575735092163 0.02042071707546711
0.68605142831802368 0.60158777236938477 0.011581285856664181
0.75245845317840576 0.61033368110656738 0.011523975990712643
0.8255620002746582 0.62619554996490479 0.080039873719215393
0.88894951343536377 0.64099162817001343 0.1508585512638092
0.94387197494506836 0.65356278419494629 0.1351543515920639
0.68759852647781372 0.72030067443847656 0.0072092544287443161
0.69933676719665527 0.72075062990188599 0.0036817064974457026
0.73051327466964722 0.72300761938095093 0.003931382205337286
0.78283363580703735 0.72858154773712158 0.002718248637393117
0.84647530317306519 0.73978167772293091 0.010315121151506901
0.90312463045120239 0.75327235460281372 0.17693443596363068
0.94604653120040894 0.7647327184677124 0.31393265724182129
0.76285362243652344 0.82589733600616455 0.028434004634618759
0.77153366804122925 0.82509511709213257 0.019310206174850464
0.78967118263244629 0.82652562856674194 0.0096603697165846825
0.82509815692901611 0.82626223564147949 0.0026733698323369026
0.87460654973983765 0.83048099279403687 0.023214496672153473
0.92291069030761719 0.83039802312850952 0.24754680693149567
0.9581875205039978 0.83483189344406128 0.40376833081245422
0.58006912469863892 0.2220587432384491 0.2783450186252594
0.59624475240707397 0.22836461663246155 0.27995231747627258
0.63008666038513184 0.24421525001525879 0.28449484705924988
0.68331801891326904 0.25893706083297729 0.28495213389396667
0.76143056154251099 0.25621181726455688 0.28174868226051331
0.85782808065414429 0.2771058976650238 0.31133508682250977
0.94062501192092896 0.33036190271377563 0.3322519063949585
0.62329649925231934 0.30039060115814209 0.27540856599807739
0.62983691692352295 0.3004881739616394 0.27574479579925537
0.6620403528213501 0.30906495451927185 0.28256756067276001
0.7027096152305603 0.31367027759552002 0.27750855684280396
0.76957529783248901 0.30649241805076599 0.27947908639907837
0.86112517118453979 0.32104501128196716 0.30583551526069641
0.94455826282501221 0.37180706858634949 0.32144248485565186
0.6385570764541626 0.36870816349983215 0.26678347587585449
0.65501260757446289 0.38083851337432861 0.26786932349205017
0.69026857614517212 0.39932626485824585 0.26885110139846802
0.7241978645324707 0.40232259035110474 0.26609939336776733
0.78742659091949463 0.39082628488540649 0.27405908703804016
0.86938786506652832 0.40398180484771729 0.28606066107749939
0.94959771633148193 0.44546407461166382 0.2984468936920166
0.63255685567855835 0.46880567073822021 0.23236863315105438
0.65652728080749512 0.46889004111289978 0.23432184755802155
0.69264155626296997 0.4815971851348877 0.23531638085842133
0.74486839771270752 0.4985613226890564 0.24088558554649353
0.80685532093048096 0.50175207853317261 0.24630182981491089
0.87980455160140991 0.50978261232376099 0.24798551201820374
0.94817829132080078 0.53356289863586426 0.2641768753528595
0.65651750564575195 0.59349167346954346 0.19550076127052307
0.6683037281036377 0.59632611274719238 0.19635078310966492
0.7027965784072876 0.604087233543396 0.20588402450084686
0.75919562578201294 0.61557692289352417 0.19907352328300476
0.82866233587265015 0.63288044929504395 0.24023044109344482
0.88932234048843384 0.63901448249816895 0.26555892825126648
0.94488143920898438 0.65042436122894287 0.25131011009216309
0.69022732973098755 0.72264391183853149 0.18989412486553192
0.7050977349281311 0.72407299280166626 0.19079190492630005
0.73590326309204102 0.72773689031600952 0.18250462412834167
0.7788856029510498 0.73167800903320312 0.14233283698558807
0.84264069795608521 0.74068224430084229 0.18034248054027557
0.90435540676116943 0.75782114267349243 0.31921607255935669
0.94450122117996216 0.76539486646652222 0.38870745897293091
0.7692989706993103 0.824371337890625 0.26697871088981628
0.77490496635437012 0.82380408048629761 0.25295093655586243
0.79369097948074341 0.82504594326019287 0.23333020508289337
0.8238295316696167 0.82821768522262573 0.19841006398200989
0.86875414848327637 0.82759302854537964 0.18003591895103455
0.92054623365402222 0.83197247982025146 0.33910420536994934
0.95562577247619629 0.83699494600296021 0.47275152802467346
0.69593709707260132 0.2841927707195282 0.44261074066162109
0.70371270179748535 0.29699993133544922 0.44267243146896362
0.7266770601272583 0.31104639172554016 0.44745868444442749
0.76255190372467041 0.33797907829284668 0.46063652634620667
0.80589818954467773 0.35306602716445923 0.45030343532562256
0.86497992277145386 0.34324681758880615 0.42809322476387024
0.94491565227508545 0.3580009937286377 0.47901839017868042
0.72176271677017212 0.36527806520462036 0.44191157817840576
0.72917360067367554 0.36769837141036987 0.4423825740814209
0.74845540523529053 0.3757966160774231 0.44938427209854126
0.77840167284011841 0.39888229966163635 0.45692881941795349
0.81391662359237671 0.40451055765151978 0.44744694232940674
0.86927115917205811 0.38450634479522705 0.42922487854957581
0.94395184516906738 0.39163511991500854 0.47469457983970642
0.749031662940979 0.45167803764343262 0.43684470653533936
0.75548827648162842 0.46078747510910034 0.43142899870872498
0.77098649740219116 0.47175824642181396 0.43308329582214355
0.79446464776992798 0.48615598678588867 0.44611069560050964
0.82300484180450439 0.48589852452278137 0.43767112493515015
0.87490159273147583 0.45723950862884521 0.42867779731750488
0.94626647233963013 0.45725473761558533 0.46743488311767578
0.73420625925064087 0.5144379734992981 0.41326683759689331
0.74205666780471802 0.51715242862701416 0.41164875030517578
0.77244335412979126 0.53788411617279053 0.40992081165313721
0.80744916200637817 0.56782764196395874 0.42049992084503174
0.83523958921432495 0.5702892541885376 0.42631620168685913
0.88327926397323608 0.54048967361450195 0.42471671104431152
0.94471776485443115 0.55477464199066162 0.43866899609565735
0.72702157497406006 0.6088407039642334 0.37036857008934021
0.73738229274749756 0.60992372035980225 0.37297192215919495
0.75971579551696777 0.61753273010253906 0.3750816285610199
0.79424452781677246 0.63109749555587769 0.38281810283660889
0.8393789529800415 0.64621496200561523 0.39492139220237732
0.89041465520858765 0.64660513401031494 0.39806178212165833
0.94498765468597412 0.65239399671554565 0.40448454022407532
0.73470163345336914 0.72277927398681641 0.36044099926948547
0.74123013019561768 0.72200292348861694 0.35676366090774536
0.75695294141769409 0.72650521993637085 0.36193200945854187
0.79485565423965454 0.73183983564376831 0.37180182337760925
0.84316003322601318 0.74256491661071777 0.36840552091598511
0.90024787187576294 0.75948250293731689 0.43859639763832092
0.94125735759735107 0.76069307327270508 0.46218720078468323
0.77586954832077026 0.82252758741378784 0.40973001718521118
0.7826647162437439 0.82281142473220825 0.41290947794914246
0.79872232675552368 0.82297235727310181 0.41582393646240234
0.82796627283096313 0.82554066181182861 0.41759303212165833
0.86561030149459839 0.82868832349777222 0.39426657557487488
0.9103350043296814 0.83141481876373291 0.44045594334602356
0.95007145404815674 0.83617109060287476 0.56090086698532104
0.78627943992614746 0.39500963687896729 0.60964000225067139
0.79028964042663574 0.40148717164993286 0.60728520154953003
0.80394858121871948 0.41732940077781677 0.61012512445449829
0.82234829664230347 0.4397473931312561 0.61256808042526245
0.85208088159561157 0.47502174973487854 0.62435978651046753
0.88573211431503296 0.48548942804336548 0.60538071393966675
0.93034130334854126 0.47143658995628357 0.58624780178070068
0.80235528945922852 0.4634610116481781 0.61076760292053223
0.80613714456558228 0.46435528993606567 0.60747957229614258
0.81680071353912354 0.47823786735534668 0.60707575082778931
0.83324390649795532 0.49549686908721924 0.61134231090545654
0.8576778769493103 0.51689440011978149 0.61776363849639893
0.8867722749710083 0.52491468191146851 0.60394483804702759
0.93371081352233887 0.50320446491241455 0.58884072303771973
0.82404357194900513 0.55751496553421021 0.60525494813919067
0.8254166841506958 0.55650883913040161 0.59963864088058472
0.83424323797225952 0.56393229961395264 0.6005547046661377
0.84720218181610107 0.57588303089141846 0.60495764017105103
0.86547446250915527 0.59175294637680054 0.61345875263214111
0.89034903049468994 0.58878099918365479 0.60549736022949219
0.9350469708442688 0.55956554412841797 0.59343487024307251
0.82701992988586426 0.60915899276733398 0.59246218204498291
0.83400541543960571 0.61584383249282837 0.58950036764144897
0.84551805257797241 0.63410347700119019 0.59054291248321533
0.85862749814987183 0.64709103107452393 0.59593373537063599
0.87236666679382324 0.65868699550628662 0.60027444362640381
0.89352798461914062 0.65342104434967041 0.59813809394836426
0.93552237749099731 0.62199312448501587 0.60069215297698975
0.80072259902954102 0.65973091125488281 0.56888556480407715
0.80840295553207397 0.66277730464935303 0.57359462976455688
0.8300403356552124 0.68007200956344604 0.57400739192962646
0.85506409406661987 0.69899207353591919 0.58075237274169922
0.87589216232299805 0.71487057209014893 0.59074079990386963
0.89979606866836548 0.71506279706954956 0.59596920013427734
0.93470340967178345 0.68923133611679077 0.59322488307952881
0.78860557079315186 0.74057459831237793 0.54741638898849487
0.79999423027038574 0.7423102855682373 0.55061239004135132
0.81161266565322876 0.74223989248275757 0.54950493574142456
0.84099102020263672 0.75214159488677979 0.55985623598098755
0.86802905797958374 0.76164048910140991 0.56484216451644897
0.90216177701950073 0.77345770597457886 0.58083605766296387
0.93735289573669434 0.76730930805206299 0.58191961050033569
0.81543266773223877 0.81507402658462524 0.56531262397766113
0.82064038515090942 0.81439471244812012 0.56492412090301514
0.8294556736946106 0.81879639625549316 0.56635719537734985
0.84652626514434814 0.82229304313659668 0.57198631763458252
0.8726692795753479 0.82800447940826416 0.58262008428573608
0.90677469968795776 0.83416849374771118 0.58053672313690186
0.9445071816444397 0.83878219127655029 0.64466202259063721
0.84663838148117065 0.55300331115722656 0.72932803630828857
0.84974277019500732 0.55500906705856323 0.72883391380310059
0.85531824827194214 0.56617182493209839 0.72762244939804077
0.86471575498580933 0.58308666944503784 0.72919094562530518
0.8786655068397522 0.60283488035202026 0.73160970211029053
0.89494991302490234 0.62874430418014526 0.73539906740188599
0.9184679388999939 0.63442277908325195 0.72756695747375488
0.85398715734481812 0.59700196981430054 0.72689807415008545
0.85523825883865356 0.59799635410308838 0.72448372840881348
0.86162656545639038 0.60630357265472412 0.72441369295120239
0.86985832452774048 0.61752468347549438 0.72613704204559326
0.88187122344970703 0.62989515066146851 0.7277560830116272
0.89883416891098022 0.65150153636932373 0.73265981674194336
0.92059910297393799 0.6550757884979248 0.72551578283309937
0.86430704593658447 0.65923821926116943 0.72217202186584473
0.86689645051956177 0.65913975238800049 0.72105246782302856
0.87098437547683716 0.65760010480880737 0.71849864721298218
0.87841510772705078 0.66808712482452393 0.72191733121871948
0.88743478059768677 0.6820906400680542 0.72786062955856323
0.89958858489990234 0.69135844707489014 0.73003911972045898
0.92177355289459229 0.69019138813018799 0.72361743450164795
0.8744121789932251 0.70780062675476074 0.71865451335906982
0.8777010440826416 0.71242654323577881 0.71934229135513306
0.88076472282409668 0.71367686986923218 0.71855813264846802
0.88701623678207397 0.72187429666519165 0.71995800733566284
0.89460223913192749 0.72967272996902466 0.72215795516967773
0.90485841035842896 0.73936170339584351 0.73106449842453003
0.92255812883377075 0.73437798023223877 0.72653943300247192
0.87071168422698975 0.73828309774398804 0.71611517667770386
0.87203669548034668 0.74083542823791504 0.71443390846252441
0.8828921914100647 0.74731981754302979 0.71624636650085449
0.89271998405456543 0.76051408052444458 0.71812289953231812
0.90202498435974121 0.76867055892944336 0.72312217950820923
0.91257005929946899 0.77816486358642578 0.72930818796157837
0.92500388622283936 0.77516055107116699 0.72525590658187866
0.85425186157226562 0.78018611669540405 0.71104317903518677
0.85961157083511353 0.7821197509765625 0.71049195528030396
0.8703380823135376 0.78353548049926758 0.71167254447937012
0.88415485620498657 0.78827899694442749 0.71691948175430298
0.90323233604431152 0.80133205652236938 0.72343593835830688
0.91865503787994385 0.81250113248825073 0.73183321952819824
0.93293356895446777 0.81359434127807617 0.7341117262840271
0.85657793283462524 0.83056342601776123 0.71556359529495239
0.85951024293899536 0.82984501123428345 0.71414858102798462
0.8678128719329834 0.83113068342208862 0.71468216180801392
0.88011914491653442 0.83243381977081299 0.7198183536529541
0.89751499891281128 0.83647447824478149 0.72574043273925781
0.91826772689819336 0.84088760614395142 0.73541665077209473
0.94411754608154297 0.84643012285232544 0.74958080053329468
