luts/instant_consumer/polaroid_px-680_cold_-.cube
# Created by: G'MIC (https://gmic.eu)
TITLE "polaroid_px-680_cold_-"
# LUT size
LUT_3D_SIZE 13
# Data domain
DOMAIN_MIN 0.0 0.0 0.0
DOMAIN_MAX 1.0 1.0 1.0
# LUT data points
0.013640997931361198 0.10984960943460464 0.16505318880081177
0.018501775339245796 0.10741322487592697 0.16373544931411743
0.068235717713832855 0.10888749361038208 0.16324906051158905
0.14559037983417511 0.11270895600318909 0.16477879881858826
0.23287813365459442 0.11717795580625534 0.16750906407833099
0.36018916964530945 0.12836259603500366 0.17241813242435455
0.50441461801528931 0.14038032293319702 0.1761394590139389
0.64383190870285034 0.17169097065925598 0.17848750948905945
0.75045508146286011 0.22118765115737915 0.18466860055923462
0.82389527559280396 0.2796880304813385 0.19917525351047516
0.88047093152999878 0.34236231446266174 0.22028267383575439
0.92689931392669678 0.4085233211517334 0.25206843018531799
0.96133279800415039 0.47379690408706665 0.29201442003250122
0.0068635828793048859 0.12122681736946106 0.16552478075027466
0.015850994735956192 0.12240508198738098 0.16643911600112915
0.072792813181877136 0.12539374828338623 0.16702181100845337
0.15257777273654938 0.12754972279071808 0.16646708548069
0.24894854426383972 0.13609632849693298 0.16762295365333557
0.37211164832115173 0.15246523916721344 0.17108385264873505
0.51473373174667358 0.17614279687404633 0.17477990686893463
0.65024089813232422 0.20660354197025299 0.17694608867168427
0.74650567770004272 0.25261572003364563 0.18565554916858673
0.82519584894180298 0.30447101593017578 0.19632649421691895
0.87862175703048706 0.36311492323875427 0.2214311957359314
0.92130750417709351 0.42854705452919006 0.25531315803527832
0.95752418041229248 0.4878896176815033 0.29291483759880066
0.0021586848888546228 0.15093806385993958 0.16998887062072754
0.0095616504549980164 0.15403775870800018 0.17151574790477753
0.063253112137317657 0.1604716032743454 0.17250622808933258
0.15293888747692108 0.16701990365982056 0.17101806402206421
0.26265689730644226 0.17590659856796265 0.16866195201873779
0.39178323745727539 0.19215512275695801 0.16922591626644135
0.5316053032875061 0.22051572799682617 0.17171549797058105
0.65177267789840698 0.25164347887039185 0.17367906868457794
0.74717861413955688 0.29475048184394836 0.18169452250003815
0.82138913869857788 0.34133067727088928 0.19563478231430054
0.87464594841003418 0.39145991206169128 0.21996693313121796
0.91868299245834351 0.45057815313339233 0.25306934118270874
0.95513415336608887 0.504891037940979 0.2921898365020752
0.0014501833356916904 0.20460234582424164 0.17845404148101807
0.0047851861454546452 0.20958523452281952 0.17900568246841431
0.035570614039897919 0.21417911350727081 0.17794042825698853
0.14424197375774384 0.22662152349948883 0.1765768975019455
0.27713263034820557 0.25057488679885864 0.17287790775299072
0.4136277437210083 0.27045109868049622 0.16966474056243896
0.53959476947784424 0.28624948859214783 0.165993332862854
0.65075534582138062 0.31240671873092651 0.16656224429607391
0.74262171983718872 0.3480953574180603 0.17326752841472626
0.81128525733947754 0.38767290115356445 0.19059887528419495
0.86699235439300537 0.42962205410003662 0.21549405157566071
0.91495394706726074 0.4744907021522522 0.24634635448455811
0.95338183641433716 0.5262148380279541 0.28886815905570984
0.0016893872525542974 0.28560474514961243 0.18814800679683685
0.0049223056994378567 0.29370895028114319 0.18944814801216125
0.013951904140412807 0.30032521486282349 0.18845327198505402
0.10195339471101761 0.3130376935005188 0.18538670241832733
0.26322880387306213 0.34424373507499695 0.17942364513874054
0.41612297296524048 0.37504273653030396 0.17060507833957672
0.54402333498001099 0.39115530252456665 0.163688063621521
0.64799082279205322 0.39698648452758789 0.1601787805557251
0.73460584878921509 0.40910714864730835 0.15968841314315796
0.7976909875869751 0.43920958042144775 0.17921063303947449
0.85430777072906494 0.47275391221046448 0.20596587657928467
0.90412163734436035 0.51083648204803467 0.2382357269525528
0.94309186935424805 0.55571281909942627 0.28002822399139404
0.0022802015300840139 0.38295361399650574 0.19767925143241882
0.0047900481149554253 0.39075592160224915 0.19942310452461243
0.007830033078789711 0.39646786451339722 0.19750063121318817
0.033849678933620453 0.40539336204528809 0.19288596510887146
0.20200777053833008 0.43012836575508118 0.18806134164333344
0.37338322401046753 0.45875093340873718 0.17822800576686859
0.53425252437591553 0.48885205388069153 0.16791450977325439
0.64194917678833008 0.49841716885566711 0.16805453598499298
0.72342872619628906 0.49588561058044434 0.17258459329605103
0.78673827648162842 0.49898865818977356 0.18388064205646515
0.84396249055862427 0.51693069934844971 0.19752702116966248
0.89438825845718384 0.54918402433395386 0.22692961990833282
0.93613511323928833 0.58704107999801636 0.27309665083885193
0.0013172673061490059 0.47339200973510742 0.2039182186126709
0.0042087030597031116 0.47905063629150391 0.2069588303565979
0.0061185499653220177 0.48327285051345825 0.20754769444465637
0.0084411324933171272 0.49201008677482605 0.20468103885650635
0.12784329056739807 0.5086524486541748 0.20227949321269989
0.32348746061325073 0.52954232692718506 0.19857299327850342
0.48325476050376892 0.55461424589157104 0.19514328241348267
0.61327803134918213 0.57679975032806396 0.19390104711055756
0.70945686101913452 0.5855715274810791 0.19676414132118225
0.77588826417922974 0.58262628316879272 0.20603616535663605
0.83424091339111328 0.5830758810043335 0.20955216884613037
0.88538497686386108 0.59073424339294434 0.22544518113136292
0.92911392450332642 0.61744678020477295 0.26300227642059326
3.2671759981894866e-05 0.55166685581207275 0.21601229906082153
0.0018992554396390915 0.55390650033950806 0.22085820138454437
0.0039468053728342056 0.55712080001831055 0.22367382049560547
0.0044662323780357838 0.56491279602050781 0.22333472967147827
0.08086877316236496 0.57751548290252686 0.22305767238140106
0.28512406349182129 0.59552478790283203 0.22600679099559784
0.43278634548187256 0.61292099952697754 0.2265574038028717
0.56933659315109253 0.63384711742401123 0.22665533423423767
0.68213379383087158 0.65283733606338501 0.23159018158912659
0.76203799247741699 0.65964937210083008 0.2430063933134079
0.82027137279510498 0.65735101699829102 0.2515619695186615
0.87095397710800171 0.65870517492294312 0.26602968573570251
0.91413205862045288 0.66430151462554932 0.27900612354278564
0 0.62333399057388306 0.23915985226631165
0 0.62376677989959717 0.23895317316055298
0.0016876071458682418 0.62505501508712769 0.24190534651279449
0.0035796221345663071 0.63033497333526611 0.2479960024356842
0.065020345151424408 0.63836926221847534 0.25212109088897705
0.2688908576965332 0.65080749988555908 0.25844582915306091
0.41519579291343689 0.66504967212677002 0.26359379291534424
0.53331094980239868 0.67985409498214722 0.27166363596916199
0.639504075050354 0.69551724195480347 0.27978634834289551
0.73483455181121826 0.71419674158096313 0.29100805521011353
0.80503445863723755 0.7230217456817627 0.30478119850158691
0.8567165732383728 0.72690129280090332 0.31960102915763855
0.90242236852645874 0.73540914058685303 0.33709365129470825
6.4625460254319478e-06 0.68753218650817871 0.27166110277175903
0.00056218163808807731 0.68717598915100098 0.27360019087791443
0.0034717186354100704 0.68646007776260376 0.27436336874961853
0.0054902168922126293 0.68895137310028076 0.27974638342857361
0.10638923197984695 0.69439518451690674 0.28818836808204651
0.28825139999389648 0.70241439342498779 0.29854521155357361
0.40915986895561218 0.7118956446647644 0.308847576379776
0.51636898517608643 0.72444272041320801 0.32018256187438965
0.6179998517036438 0.73723781108856201 0.32979455590248108
0.70418834686279297 0.752299964427948 0.34183362126350403
0.78443533182144165 0.77128291130065918 0.3555063009262085
0.8421129584312439 0.78209173679351807 0.37095096707344055
0.88902771472930908 0.79089826345443726 0.39104202389717102
0.0043642530217766762 0.74691945314407349 0.31756675243377686
0.0080916611477732658 0.74567109346389771 0.31683948636054993
0.025890126824378967 0.74560964107513428 0.31772556900978088
0.10048194974660873 0.7465590238571167 0.32477542757987976
0.23005400598049164 0.75020056962966919 0.33709689974784851
0.34622260928153992 0.75462305545806885 0.35048791766166687
0.44282466173171997 0.76219081878662109 0.36272540688514709
0.52840155363082886 0.77127587795257568 0.37288561463356018
0.61417126655578613 0.78124099969863892 0.38216695189476013
0.6904909610748291 0.79293298721313477 0.39385434985160828
0.76151162385940552 0.80755573511123657 0.40854349732398987
0.82354360818862915 0.82079941034317017 0.42171037197113037
0.87605619430541992 0.83740860223770142 0.44294804334640503
0.17776919901371002 0.80681490898132324 0.3779911994934082
0.19543656706809998 0.8061710000038147 0.37870991230010986
0.23634694516658783 0.80629867315292358 0.38273769617080688
0.29942131042480469 0.80748456716537476 0.38941004872322083
0.3647494912147522 0.80959880352020264 0.40017232298851013
0.42943131923675537 0.81086587905883789 0.4116089940071106
0.50199997425079346 0.81726926565170288 0.42357924580574036
0.57493680715560913 0.82563668489456177 0.43575060367584229
0.64651745557785034 0.8331679105758667 0.44488584995269775
0.70428240299224854 0.84128999710083008 0.45598945021629333
0.76516395807266235 0.8530656099319458 0.47117647528648376
0.81922060251235962 0.86302006244659424 0.48100736737251282
0.86190992593765259 0.87286674976348877 0.49301731586456299
0.41142255067825317 0.87319391965866089 0.45878183841705322
0.42012438178062439 0.87146306037902832 0.4592079222202301
0.43712285161018372 0.87141096591949463 0.46183383464813232
0.46534731984138489 0.87206846475601196 0.46774101257324219
0.50246578454971313 0.87233960628509521 0.47565510869026184
0.54024380445480347 0.87280488014221191 0.48368075489997864
0.58251148462295532 0.87499821186065674 0.49149030447006226
0.63250589370727539 0.88028311729431152 0.50216901302337646
0.69157236814498901 0.88887059688568115 0.5150565505027771
0.73785656690597534 0.89458203315734863 0.52447247505187988
0.78748065233230591 0.90349960327148438 0.5383305549621582
0.82706791162490845 0.90800338983535767 0.54704385995864868
0.86330097913742065 0.91574108600616455 0.56350725889205933
0.013009344227612019 0.1130889430642128 0.17948076128959656
0.018276901915669441 0.1107461079955101 0.17422977089881897
0.061609230935573578 0.11095171421766281 0.17237739264965057
0.1451256275177002 0.11357210576534271 0.17784325778484344
0.23960545659065247 0.11439432203769684 0.18193425238132477
0.37017151713371277 0.12291071563959122 0.19233530759811401
0.52143126726150513 0.15104393661022186 0.20673009753227234
0.65435963869094849 0.18935449421405792 0.21255715191364288
0.75150489807128906 0.24078130722045898 0.22253617644309998
0.82478946447372437 0.30024850368499756 0.23777589201927185
0.87871533632278442 0.36387258768081665 0.26158055663108826
0.92374324798583984 0.42806312441825867 0.2920244038105011
0.95732814073562622 0.49009019136428833 0.32921105623245239
0.0077363857999444008 0.12709039449691772 0.1836731880903244
0.019222693517804146 0.12762385606765747 0.18288683891296387
0.072600223124027252 0.13156834244728088 0.18196351826190948
0.1578475683927536 0.13375051319599152 0.18356917798519135
0.26063573360443115 0.13818804919719696 0.18860790133476257
0.38684594631195068 0.15293096005916595 0.19598378241062164
0.53151857852935791 0.1825832724571228 0.20342087745666504
0.66042745113372803 0.21943922340869904 0.20922307670116425
0.75410753488540649 0.2679232656955719 0.21983979642391205
0.82616835832595825 0.32306787371635437 0.23627851903438568
0.87476629018783569 0.38361719250679016 0.26293843984603882
0.91892468929290771 0.44556033611297607 0.29422882199287415
0.95453351736068726 0.50246942043304443 0.32851988077163696
0.0035203970037400723 0.15839515626430511 0.18908983469009399
0.014627344906330109 0.16117724776268005 0.18989834189414978
0.074505090713500977 0.16923949122428894 0.19203834235668182
0.16839604079723358 0.17297151684761047 0.19168837368488312
0.27884629368782043 0.18124827742576599 0.1897251307964325
0.40860182046890259 0.2015664130449295 0.19551174342632294
0.5440974235534668 0.23113851249217987 0.20097915828227997
0.66041213274002075 0.26456314325332642 0.20694489777088165
0.75162619352340698 0.30834254622459412 0.21890445053577423
0.82131034135818481 0.35635989904403687 0.23452101647853851
0.87392419576644897 0.40955755114555359 0.25803983211517334
0.91716068983078003 0.46740812063217163 0.2925589382648468
0.95485770702362061 0.51954472064971924 0.32916522026062012
0.0005592196830548346 0.21413998305797577 0.19814971089363098
0.005754522979259491 0.21641816198825836 0.19793778657913208
0.046567026525735855 0.22152407467365265 0.19789056479930878
0.15864706039428711 0.2359352707862854 0.19890794157981873
0.29010206460952759 0.25447213649749756 0.19476649165153503
0.42429718375205994 0.27294507622718811 0.19459933042526245
0.55212420225143433 0.29108297824859619 0.19333620369434357
0.65772610902786255 0.32251664996147156 0.20186743140220642
0.74496304988861084 0.36112749576568604 0.21555435657501221
0.81301480531692505 0.40052023530006409 0.23004983365535736
0.87039780616760254 0.44052475690841675 0.25037136673927307
0.91322189569473267 0.4907529354095459 0.28611510992050171
0.95135360956192017 0.54135817289352417 0.32430186867713928
0.00015326107677537948 0.30018877983093262 0.20810781419277191
0.0034328536130487919 0.30121076107025146 0.20854112505912781
0.016823727637529373 0.30531114339828491 0.20818188786506653
0.11797911673784256 0.32057586312294006 0.20668479800224304
0.27762198448181152 0.35075205564498901 0.20311272144317627
0.42677336931228638 0.37789928913116455 0.19849275052547455
0.55294972658157349 0.39050489664077759 0.193067267537117
0.65316146612167358 0.39828115701675415 0.19165690243244171
0.73718416690826416 0.41739121079444885 0.19884638488292694
0.80357193946838379 0.44925045967102051 0.21614816784858704
0.85892581939697266 0.48226046562194824 0.24210268259048462
0.90293192863464355 0.52331250905990601 0.27573463320732117
0.93994283676147461 0.56697940826416016 0.31337040662765503
0.00051478965906426311 0.39659261703491211 0.21688362956047058
0.0036919089034199715 0.39984226226806641 0.21855142712593079
0.0056427749805152416 0.40265756845474243 0.21837586164474487
0.045320998877286911 0.41248536109924316 0.21447762846946716
0.22046010196208954 0.43781057000160217 0.21168085932731628
0.38833793997764587 0.46848645806312561 0.20567001402378082
0.5426979660987854 0.49309471249580383 0.19812355935573578
0.64784133434295654 0.49895408749580383 0.19900335371494293
0.72695952653884888 0.50108551979064941 0.20449855923652649
0.79351454973220825 0.50405716896057129 0.21134328842163086
0.8481631875038147 0.5251428484916687 0.23188073933124542
0.8936537504196167 0.55859857797622681 0.26365906000137329
0.93249994516372681 0.59512102603912354 0.30586996674537659
6.7781933466903865e-05 0.48462697863578796 0.22532176971435547
0.0029891368467360735 0.48705184459686279 0.22858341038227081
0.0048710540868341923 0.49035423994064331 0.22952544689178467
0.0099783800542354584 0.49832326173782349 0.22612044215202332
0.15306080877780914 0.51485109329223633 0.22530072927474976
0.34172025322914124 0.53800034523010254 0.22227895259857178
0.50026434659957886 0.56279945373535156 0.21859139204025269
0.62763994932174683 0.58376240730285645 0.22080731391906738
0.71291273832321167 0.58926385641098022 0.22926051914691925
0.77838170528411865 0.58492273092269897 0.23730607330799103
0.83482950925827026 0.58625549077987671 0.24480140209197998
0.88502579927444458 0.59695398807525635 0.25988683104515076
0.9250679612159729 0.62296122312545776 0.29125025868415833
0 0.55920118093490601 0.23833394050598145
0.001606675679795444 0.56063354015350342 0.24307772517204285
0.0042977724224328995 0.56397175788879395 0.24523340165615082
0.0057785781100392342 0.57050639390945435 0.24444648623466492
0.10362046211957932 0.58205264806747437 0.24530507624149323
0.30623030662536621 0.60013562440872192 0.24854858219623566
0.45378243923187256 0.61875444650650024 0.25163167715072632
0.58103913068771362 0.63704055547714233 0.25684249401092529
0.68579912185668945 0.65634262561798096 0.2613842785358429
0.7639586329460144 0.66363954544067383 0.27140825986862183
0.81947767734527588 0.65877383947372437 0.2845015823841095
0.87086933851242065 0.6628909707069397 0.295367032289505
0.91372424364089966 0.66935199499130249 0.30583080649375916
0 0.62774550914764404 0.26113933324813843
0.00014069501776248217 0.6287839412689209 0.25812402367591858
0.0036097059492021799 0.63095617294311523 0.26238468289375305
0.0058958465233445168 0.6339077353477478 0.26664996147155762
0.09257013350725174 0.64021515846252441 0.27181026339530945
0.28936561942100525 0.6523926854133606 0.27929729223251343
0.42115470767021179 0.66635382175445557 0.28877478837966919
0.54163700342178345 0.68224924802780151 0.29773494601249695
0.64840477705001831 0.70076292753219604 0.30481186509132385
0.7377285361289978 0.71670162677764893 0.31493183970451355
0.80555617809295654 0.7247353196144104 0.32847389578819275
0.85700494050979614 0.73013997077941895 0.34327694773674011
0.9006614089012146 0.73608142137527466 0.35822698473930359
0.00084406533278524876 0.68936896324157715 0.2934640645980835
0.0015812293859198689 0.68939799070358276 0.28955963253974915
0.0043421429581940174 0.68956106901168823 0.29079782962799072
0.018142281100153923 0.69180595874786377 0.29501551389694214
0.14712785184383392 0.69609099626541138 0.30454322695732117
0.2985156774520874 0.70259618759155273 0.31800907850265503
0.4214567244052887 0.71222662925720215 0.3307708203792572
0.52777159214019775 0.72602128982543945 0.34276974201202393
0.6229788064956665 0.74043554067611694 0.35164040327072144
0.70718854665756226 0.75396144390106201 0.36004111170768738
0.78400146961212158 0.7714419960975647 0.37548202276229858
0.84220975637435913 0.78447151184082031 0.39221203327178955
0.88803672790527344 0.79384785890579224 0.40846475958824158
0.0086937099695205688 0.74730390310287476 0.32971328496932983
0.017216118052601814 0.74730390310287476 0.32952845096588135
0.042616706341505051 0.74730390310287476 0.3304390013217926
0.13491427898406982 0.74840867519378662 0.33738788962364197
0.25290036201477051 0.75145930051803589 0.34818586707115173
0.3519342839717865 0.75575220584869385 0.36283287405967712
0.45401892066001892 0.76377302408218384 0.37631997466087341
0.53822320699691772 0.77384030818939209 0.38789814710617065
0.62265098094940186 0.78436130285263062 0.39738759398460388
0.69823765754699707 0.79591101408004761 0.40949210524559021
0.76482474803924561 0.80972862243652344 0.42538273334503174
0.824393630027771 0.82285076379776001 0.43916788697242737
0.87428027391433716 0.83662772178649902 0.45573312044143677
0.19798821210861206 0.80692404508590698 0.38578847050666809
0.21860399842262268 0.80620813369750977 0.38657212257385254
0.25593098998069763 0.8064577579498291 0.39078786969184875
0.31491997838020325 0.80803245306015015 0.3993714451789856
0.37634354829788208 0.81110697984695435 0.40950962901115417
0.4383549690246582 0.81374436616897583 0.42123681306838989
0.51179385185241699 0.81914216279983521 0.4329952597618103
0.58203208446502686 0.82699817419052124 0.44407007098197937
0.64900684356689453 0.83431828022003174 0.4530910849571228
0.70931541919708252 0.84378838539123535 0.46638846397399902
0.76927953958511353 0.85559248924255371 0.48302736878395081
0.81974941492080688 0.86400264501571655 0.49233803153038025
0.86206156015396118 0.87266194820404053 0.50218683481216431
0.41748887300491333 0.87238228321075439 0.46119970083236694
0.42253491282463074 0.87140786647796631 0.46299290657043457
0.43932351469993591 0.87158560752868652 0.46653717756271362
0.47196316719055176 0.87248706817626953 0.47352391481399536
0.50758236646652222 0.87335884571075439 0.48067352175712585
0.54959559440612793 0.875690758228302 0.49151632189750671
0.59566736221313477 0.87801682949066162 0.49991995096206665
0.64241385459899902 0.88148635625839233 0.50763779878616333
0.69345438480377197 0.88776028156280518 0.51859992742538452
0.74129253625869751 0.89511030912399292 0.53044277429580688
0.78694462776184082 0.90129154920578003 0.54124176502227783
0.82634991407394409 0.90707147121429443 0.55274969339370728
0.86292511224746704 0.91554754972457886 0.5677039623260498
0.0067282435484230518 0.11402881145477295 0.19806008040904999
0.020603524520993233 0.11424653232097626 0.19536490738391876
0.0676751509308815 0.11823906749486923 0.19580818712711334
0.13727732002735138 0.12044860422611237 0.19966118037700653
0.24127775430679321 0.11863638460636139 0.20847572386264801
0.37737733125686646 0.10922900587320328 0.21839609742164612
0.53252661228179932 0.12997227907180786 0.23645633459091187
0.66642302274703979 0.19306223094463348 0.25943112373352051
0.75835782289505005 0.26915305852890015 0.28033566474914551
0.82400751113891602 0.33503556251525879 0.30138519406318665
0.87436628341674805 0.40160432457923889 0.32644718885421753
0.91694027185440063 0.46478849649429321 0.35381770133972168
0.95174390077590942 0.52010470628738403 0.38198554515838623
0.007887253537774086 0.13208633661270142 0.2050473541021347
0.023227810859680176 0.13100557029247284 0.20287670195102692
0.080626361072063446 0.13739296793937683 0.20427165925502777
0.1583753377199173 0.14217649400234222 0.20900167524814606
0.26527473330497742 0.14174926280975342 0.21819388866424561
0.39881023764610291 0.14609004557132721 0.22807475924491882
0.54499316215515137 0.18030364811420441 0.24589891731739044
0.67015182971954346 0.23738649487495422 0.26384305953979492
0.75723224878311157 0.2956489622592926 0.28004446625709534
0.82207918167114258 0.35476607084274292 0.30007940530776978
0.87143337726593018 0.41628903150558472 0.32485958933830261
0.91354876756668091 0.47816780209541321 0.3541465699672699
0.94823294878005981 0.53106486797332764 0.38193610310554504
0.0042590121738612652 0.16381685435771942 0.21097029745578766
0.019648307934403419 0.16457058489322662 0.21184560656547546
0.091597661375999451 0.17453929781913757 0.21781185269355774
0.18089105188846588 0.18012408912181854 0.22016766667366028
0.29285624623298645 0.19126312434673309 0.22659026086330414
0.42279386520385742 0.2090776264667511 0.23751898109912872
0.55720251798629761 0.24549134075641632 0.25217655301094055
0.67006778717041016 0.28699859976768494 0.26333019137382507
0.75285273790359497 0.33469951152801514 0.27775740623474121
0.81852883100509644 0.38596466183662415 0.29668238759040833
0.87067645788192749 0.44130045175552368 0.31920009851455688
0.91215741634368896 0.49711427092552185 0.35144582390785217
0.94786942005157471 0.54735642671585083 0.38274729251861572
0.0016103108646348119 0.21935880184173584 0.22040355205535889
0.011733110994100571 0.22267737984657288 0.22279807925224304
0.075453802943229675 0.23401984572410583 0.22978968918323517
0.1850907951593399 0.24482046067714691 0.23167292773723602
0.31370276212692261 0.26197528839111328 0.23169991374015808
0.44164180755615234 0.27917391061782837 0.23585648834705353
0.56311935186386108 0.30747666954994202 0.24621938169002533
0.66932779550552368 0.33968684077262878 0.25357922911643982
0.75133305788040161 0.37854009866714478 0.26901739835739136
0.81367111206054688 0.42280250787734985 0.28917405009269714
0.86707472801208496 0.4681498110294342 0.31185168027877808
0.9091799259185791 0.51657068729400635 0.34261354804039001
0.94523513317108154 0.56481599807739258 0.37591820955276489
0.00089748605387285352 0.31034514307975769 0.23661190271377563
0.0062552955932915211 0.3138653039932251 0.23950198292732239
0.037866927683353424 0.31903523206710815 0.24044650793075562
0.15349176526069641 0.33271926641464233 0.24366509914398193
0.30510208010673523 0.35944345593452454 0.24308107793331146
0.44353306293487549 0.38013896346092224 0.2413225919008255
0.5654875636100769 0.39375963807106018 0.24306659400463104
