luts/instant_consumer/polaroid_px-70_-.cube
# Created by: G'MIC (https://gmic.eu)
TITLE "polaroid_px-70_-"
# LUT size
LUT_3D_SIZE 7
# Data domain
DOMAIN_MIN 0.0 0.0 0.0
DOMAIN_MAX 1.0 1.0 1.0
# LUT data points
0 0.093726545572280884 0.13931109011173248
0.011610113084316254 0.096543408930301666 0.13661676645278931
0.19396564364433289 0.11369374394416809 0.1427450031042099
0.4615006148815155 0.13393008708953857 0.15213009715080261
0.77796667814254761 0.22262786328792572 0.14315028488636017
0.95846962928771973 0.41817903518676758 0.11625730991363525
1 0.54520446062088013 0.14702954888343811
0 0.15640655159950256 0.14486940205097198
0.010727003216743469 0.16469831764698029 0.1420818418264389
0.22446106374263763 0.17596624791622162 0.14286790788173676
0.48863416910171509 0.20830206573009491 0.14621132612228394
0.78351390361785889 0.30841219425201416 0.12542331218719482
0.95376181602478027 0.46505862474441528 0.090606018900871277
0.99987345933914185 0.58424109220504761 0.13566561043262482
0 0.31852170825004578 0.15882477164268494
0.0043420381844043732 0.32545378804206848 0.15802299976348877
0.2327679842710495 0.34648281335830688 0.14553049206733704
0.53898864984512329 0.37920838594436646 0.12011992186307907
0.78393959999084473 0.43857666850090027 0.064390532672405243
0.94049555063247681 0.54775846004486084 0.014571171253919601
0.99484533071517944 0.6319538950920105 0.087657690048217773
1.2925092050863896e-05 0.55603677034378052 0.13783001899719238
0.00058240705402567983 0.557167649269104 0.14037503302097321
0.26290306448936462 0.56988799571990967 0.12788958847522736
0.58070248365402222 0.59018856287002563 0.064268894493579865
0.79951542615890503 0.62686741352081299 0.0058507281355559826
0.92073249816894531 0.65148204565048218 0.0043187760747969151
0.99206525087356567 0.69106477499008179 0.01973673515021801
0.083445511758327484 0.76027959585189819 0.14123161137104034
0.21194882690906525 0.75490540266036987 0.14629869163036346
0.43028834462165833 0.75079596042633057 0.15906132757663727
0.63792997598648071 0.75166612863540649 0.13266411423683167
0.79657536745071411 0.76473462581634521 0.076187342405319214
0.90431737899780273 0.77620309591293335 0.053630590438842773
0.97832810878753662 0.78235739469528198 0.12196311354637146
0.52841740846633911 0.86166614294052124 0.29501384496688843
0.54785388708114624 0.85661804676055908 0.29454195499420166
0.61543649435043335 0.85572946071624756 0.30885538458824158
0.70117753744125366 0.85645407438278198 0.31641390919685364
0.79805535078048706 0.86136263608932495 0.31100711226463318
0.88458609580993652 0.86783421039581299 0.29695531725883484
0.95895659923553467 0.87198710441589355 0.32199797034263611
0.75546848773956299 0.93350934982299805 0.48240810632705688
0.75946521759033203 0.93276417255401611 0.48262938857078552
0.77998310327529907 0.93218088150024414 0.49161922931671143
0.81271374225616455 0.9323418140411377 0.50144737958908081
0.85086697340011597 0.93462890386581421 0.50739264488220215
0.89521777629852295 0.94021874666213989 0.5129706859588623
0.94209188222885132 0.94379782676696777 0.52598649263381958
0 0.099939815700054169 0.16652201116085052
0.0051377988420426846 0.11192713677883148 0.16787852346897125
0.19413915276527405 0.13206227123737335 0.18107271194458008
0.48884457349777222 0.15892483294010162 0.19703404605388641
0.80325925350189209 0.27435752749443054 0.20860603451728821
0.96041524410247803 0.44970116019248962 0.20787575840950012
0.99986875057220459 0.58175742626190186 0.24691405892372131
0 0.17004747688770294 0.18154801428318024
0.017289105802774429 0.17931158840656281 0.18516853451728821
0.24193188548088074 0.20195029675960541 0.18975037336349487
0.52009588479995728 0.24967622756958008 0.19958038628101349
0.80265748500823975 0.35245215892791748 0.1947435736656189
0.95473986864089966 0.49128690361976624 0.19478395581245422
0.99917763471603394 0.60530412197113037 0.2370440810918808
0.0013720194110646844 0.33642002940177917 0.19551479816436768
0.017127975821495056 0.3389325737953186 0.19780910015106201
0.27428707480430603 0.36307376623153687 0.19108591973781586
0.56171685457229614 0.38896951079368591 0.17282196879386902
0.80414003133773804 0.46368911862373352 0.14911051094532013
0.94413435459136963 0.56602543592453003 0.14525119960308075
0.99483925104141235 0.64542633295059204 0.20635943114757538
0.0048823338001966476 0.56796038150787354 0.19342496991157532
0.0093494486063718796 0.56900805234909058 0.18611742556095123
0.31706506013870239 0.57794344425201416 0.18569569289684296
0.60075730085372925 0.59903353452682495 0.15326124429702759
0.80637949705123901 0.63602393865585327 0.1016714945435524
0.92399245500564575 0.66172927618026733 0.078756175935268402
0.99089932441711426 0.69616484642028809 0.14593993127346039
0.18787331879138947 0.76494783163070679 0.20437677204608917
0.30116021633148193 0.75952625274658203 0.21147756278514862
0.46711263060569763 0.75309509038925171 0.22338242828845978
0.64767569303512573 0.75461924076080322 0.21647939085960388
0.80011957883834839 0.76830828189849854 0.18228662014007568
0.90354365110397339 0.77942830324172974 0.1751215010881424
0.9770503044128418 0.78210079669952393 0.20583906769752502
0.55919557809829712 0.8612968921661377 0.33518365025520325
0.58293288946151733 0.85977810621261597 0.3394809365272522
0.64455735683441162 0.85556626319885254 0.35155892372131348
0.72158157825469971 0.85909205675125122 0.35495677590370178
0.80725586414337158 0.86191785335540771 0.35347288846969604
0.88881015777587891 0.86756598949432373 0.34307709336280823
0.95915400981903076 0.87296658754348755 0.36221131682395935
0.75721138715744019 0.93281471729278564 0.49533119797706604
0.76485174894332886 0.9319271445274353 0.49724081158638
0.78390395641326904 0.93154382705688477 0.50491631031036377
0.81590336561203003 0.932902991771698 0.51806604862213135
0.85158520936965942 0.9354977011680603 0.5247005820274353
0.89390867948532104 0.93808245658874512 0.52444016933441162
0.94204270839691162 0.94404155015945435 0.53460985422134399
0.0028386584017425776 0.13062372803688049 0.23524767160415649
0.073326081037521362 0.15784117579460144 0.23870807886123657
0.23025403916835785 0.19845706224441528 0.24012774229049683
0.47702217102050781 0.18153229355812073 0.26219737529754639
0.81207907199859619 0.1901143491268158 0.28798726201057434
0.97198289632797241 0.41136342287063599 0.31691551208496094
1 0.62665808200836182 0.38609835505485535
0.0025032043922692537 0.20541384816169739 0.25142857432365417
0.092814937233924866 0.22129632532596588 0.25467079877853394
0.2763887345790863 0.25909063220024109 0.25474777817726135
0.53124314546585083 0.2589937150478363 0.27387025952339172
0.83072727918624878 0.32503402233123779 0.2927684485912323
0.95921415090560913 0.52098667621612549 0.33619362115859985
0.99538260698318481 0.66411525011062622 0.39211270213127136
0.0017541922861710191 0.3552263081073761 0.26271188259124756
0.084915444254875183 0.36371675133705139 0.26735910773277283
0.34244206547737122 0.384614497423172 0.27284988760948181
0.60959148406982422 0.42159095406532288 0.27790498733520508
0.82988762855529785 0.51679319143295288 0.29441270232200623
0.93906176090240479 0.61871874332427979 0.32383471727371216
0.99170291423797607 0.69412517547607422 0.37231898307800293
0.085220113396644592 0.58852505683898926 0.28199192881584167
0.2500801682472229 0.58956563472747803 0.28467154502868652
0.41984885931015015 0.59479880332946777 0.28274199366569519
0.63991034030914307 0.6122022271156311 0.2735140323638916
0.82074457406997681 0.63876020908355713 0.26274102926254272
0.92346537113189697 0.67508453130722046 0.26759332418441772
0.98460090160369873 0.72484129667282104 0.32326918840408325
0.42838901281356812 0.76743382215499878 0.32772368192672729
0.45226460695266724 0.76259869337081909 0.32092443108558655
0.54713118076324463 0.75923734903335571 0.32233312726020813
0.68055123090744019 0.7622191309928894 0.32648053765296936
0.81081074476242065 0.76968753337860107 0.31213295459747314
0.90486031770706177 0.77956146001815796 0.30827075242996216
0.97409403324127197 0.783966064453125 0.32194572687149048
0.61931878328323364 0.8597227931022644 0.40013331174850464
0.63245779275894165 0.85715097188949585 0.40077438950538635
0.67583727836608887 0.85641646385192871 0.40664294362068176
0.74758917093276978 0.85926032066345215 0.4191533625125885
0.81284749507904053 0.8633386492729187 0.41715487837791443
0.88808989524841309 0.8669285774230957 0.41510573029518127
0.95318406820297241 0.87250715494155884 0.42212983965873718
0.77175414562225342 0.93100219964981079 0.5191301703453064
0.77694922685623169 0.93118035793304443 0.520976722240448
0.79510766267776489 0.92948287725448608 0.52712243795394897
0.82023590803146362 0.929515540599823 0.54038578271865845
0.85882186889648438 0.93416529893875122 0.55062490701675415
0.90009444952011108 0.93784284591674805 0.55772608518600464
0.94051295518875122 0.94504308700561523 0.56284785270690918
0.067776702344417572 0.18605314195156097 0.34986895322799683
0.23045587539672852 0.21073634922504425 0.35507482290267944
0.42784878611564636 0.28204411268234253 0.35900339484214783
0.59987300634384155 0.35347166657447815 0.36811381578445435
0.79371100664138794 0.32564917206764221 0.39786240458488464
0.95283669233322144 0.41260385513305664 0.43050345778465271
0.99705690145492554 0.59318196773529053 0.4566074013710022
0.073319405317306519 0.25958636403083801 0.36734399199485779
0.23612037301063538 0.28218263387680054 0.3727850615978241
0.46184149384498596 0.34537842869758606 0.3752078115940094
0.63135713338851929 0.42147248983383179 0.38319066166877747
0.80634742975234985 0.40256214141845703 0.40746504068374634
0.94778323173522949 0.49624311923980713 0.43751788139343262
0.99484157562255859 0.64374279975891113 0.46766117215156555
0.006461034994572401 0.41690599918365479 0.3769097626209259
0.14828352630138397 0.41584628820419312 0.37820059061050415
0.45970529317855835 0.45004802942276001 0.38898932933807373
0.66986924409866333 0.52723574638366699 0.39945846796035767
0.82818019390106201 0.54203993082046509 0.42168164253234863
0.93199700117111206 0.63421773910522461 0.4537990391254425
0.98777192831039429 0.72812414169311523 0.49214315414428711
0.11804956197738647 0.60480529069900513 0.38743752241134644
0.28312891721725464 0.60410058498382568 0.38870722055435181
0.49146977066993713 0.61434066295623779 0.39943414926528931
0.69319850206375122 0.64350020885467529 0.41267722845077515
0.83461558818817139 0.6803586483001709 0.42834386229515076
0.9179416298866272 0.73045837879180908 0.44831863045692444
0.97543776035308838 0.7777593731880188 0.4813961386680603
0.49148288369178772 0.76844578981399536 0.42486128211021423
0.54297554492950439 0.76600927114486694 0.42655095458030701
0.64168119430541992 0.76540130376815796 0.43526759743690491
0.73246538639068604 0.76793867349624634 0.4412548840045929
0.82580214738845825 0.77445101737976074 0.43619543313980103
0.90778505802154541 0.78436291217803955 0.42909568548202515
0.96809512376785278 0.80008184909820557 0.44240513443946838
0.69428712129592896 0.86010551452636719 0.48073074221611023
0.70585900545120239 0.85809910297393799 0.48083335161209106
0.73593610525131226 0.85686081647872925 0.48641583323478699
0.77900427579879761 0.86028158664703369 0.490843266248703
0.8287355899810791 0.86350363492965698 0.49190294742584229
0.89217686653137207 0.86815178394317627 0.48871096968650818
0.9521903395652771 0.87107080221176147 0.49381518363952637
0.7919623851776123 0.92924028635025024 0.56054818630218506
0.7969052791595459 0.93148976564407349 0.56062799692153931
0.81454920768737793 0.93167179822921753 0.56808984279632568
0.83723902702331543 0.93304204940795898 0.57841938734054565
0.86428260803222656 0.93324857950210571 0.58519667387008667
0.90540719032287598 0.938160240650177 0.59234070777893066
0.9434363842010498 0.94485151767730713 0.60150372982025146
0.34128415584564209 0.27278730273246765 0.50877851247787476
0.46093112230300903 0.29832938313484192 0.51063477993011475
0.63741910457611084 0.36185860633850098 0.51555860042572021
0.78011298179626465 0.51680237054824829 0.51474863290786743
0.84846895933151245 0.5954822301864624 0.51678752899169922
0.9226648211479187 0.58322995901107788 0.52487480640411377
0.98821002244949341 0.64313554763793945 0.53997862339019775
0.33138817548751831 0.34536498785018921 0.51668107509613037
0.45431962609291077 0.37194254994392395 0.51578128337860107
0.63878726959228516 0.43288502097129822 0.52045172452926636
0.77932822704315186 0.57503169775009155 0.51795917749404907
0.84899032115936279 0.63787329196929932 0.51862108707427979
0.9195253849029541 0.62559986114501953 0.52814245223999023
0.9841231107711792 0.67983549833297729 0.54701429605484009
0.26474758982658386 0.50046086311340332 0.51364797353744507
0.39954110980033875 0.50022208690643311 0.5144951343536377
0.61032801866531372 0.53536868095397949 0.52065181732177734
0.77863037586212158 0.63870424032211304 0.52330285310745239
0.85029184818267822 0.69736659526824951 0.52881038188934326
0.91096824407577515 0.69065761566162109 0.53530657291412354
0.9749222993850708 0.73027491569519043 0.55472636222839355
0.2196008563041687 0.64841532707214355 0.50316774845123291
0.34251779317855835 0.64450973272323608 0.50141143798828125
0.54130733013153076 0.64930981397628784 0.50892555713653564
0.74815332889556885 0.69595098495483398 0.52353841066360474
0.84910356998443604 0.75306296348571777 0.53606510162353516
0.90835875272750854 0.75502395629882812 0.54491031169891357
0.96261781454086304 0.79989790916442871 0.57513940334320068
0.50293481349945068 0.77139186859130859 0.51159417629241943
0.55047237873077393 0.76733696460723877 0.51155376434326172
0.64445769786834717 0.76891982555389404 0.51884245872497559
0.75294625759124756 0.7758675217628479 0.52758407592773438
0.84032797813415527 0.79374760389328003 0.53712254762649536
0.90806865692138672 0.81226760149002075 0.54793697595596313
0.95818543434143066 0.84166789054870605 0.57264965772628784
0.68666678667068481 0.86060816049575806 0.53878766298294067
0.7048766016960144 0.86008369922637939 0.54105806350708008
0.74913859367370605 0.86026597023010254 0.54871112108230591
0.79770779609680176 0.86156922578811646 0.55833601951599121
0.84758543968200684 0.86801826953887939 0.56621211767196655
0.90404230356216431 0.87273555994033813 0.5755499005317688
0.95626813173294067 0.87802958488464355 0.5709918737411499
0.79909747838973999 0.93088120222091675 0.60886299610137939
0.80923432111740112 0.93179082870483398 0.61132800579071045
0.82779073715209961 0.93193584680557251 0.61913579702377319
0.85225027799606323 0.93392163515090942 0.62604564428329468
0.8772355318069458 0.93542540073394775 0.63432472944259644
0.91188335418701172 0.93948733806610107 0.64187461137771606
0.94348233938217163 0.94501852989196777 0.6488029956817627
0.60925346612930298 0.44340279698371887 0.63412672281265259
0.67272728681564331 0.47513857483863831 0.63410365581512451
0.76420027017593384 0.54454988241195679 0.63047188520431519
0.84573686122894287 0.65514135360717773 0.62673556804656982
0.8886837363243103 0.75975358486175537 0.62273973226547241
0.92111599445343018 0.77108657360076904 0.623191237449646
0.96289831399917603 0.76598715782165527 0.62787479162216187
0.60662025213241577 0.50854742527008057 0.63398939371109009
0.66507959365844727 0.53071802854537964 0.63237577676773071
0.76375699043273926 0.58856695890426636 0.63021093606948853
0.84019440412521362 0.6826854944229126 0.62846910953521729
0.88915693759918213 0.77807438373565674 0.62560498714447021
0.92044520378112793 0.78905123472213745 0.62816101312637329
0.95748484134674072 0.77840936183929443 0.63154816627502441
0.5780823826789856 0.60211765766143799 0.62874501943588257
0.63783234357833862 0.61067205667495728 0.62661075592041016
0.74111294746398926 0.65722501277923584 0.62639600038528442
0.83017683029174805 0.72593832015991211 0.62830257415771484
0.88341182470321655 0.79648768901824951 0.63019847869873047
0.91617614030838013 0.81018626689910889 0.63079428672790527
0.95462262630462646 0.80853497982025146 0.63946771621704102
0.48199084401130676 0.69972306489944458 0.61036735773086548
0.56298708915710449 0.70138132572174072 0.61087441444396973
0.69918924570083618 0.71723735332489014 0.61823409795761108
0.81325298547744751 0.75818836688995361 0.62660360336303711
0.87845134735107422 0.81594675779342651 0.63659977912902832
0.91544932126998901 0.83868658542633057 0.64180225133895874
0.95316189527511597 0.83622997999191284 0.6465575098991394
0.55767548084259033 0.78734511137008667 0.60766798257827759
0.58794701099395752 0.78513973951339722 0.60635876655578613
0.65803742408752441 0.78137528896331787 0.6090206503868103
0.75416827201843262 0.78973108530044556 0.61201149225234985
0.85549777746200562 0.825003981590271 0.63064086437225342
0.91643637418746948 0.86310112476348877 0.65049487352371216
0.95018273591995239 0.86430293321609497 0.6579211950302124
0.68733644485473633 0.86423808336257935 0.61855345964431763
0.70556795597076416 0.86369508504867554 0.61978799104690552
0.74051731824874878 0.86258918046951294 0.62411689758300781
0.79445898532867432 0.86492323875427246 0.62776100635528564
0.84990566968917847 0.87160634994506836 0.63856804370880127
0.90656691789627075 0.88630670309066772 0.65678447484970093
0.95283252000808716 0.90503519773483276 0.67389535903930664
0.79253768920898438 0.9332924485206604 0.66140651702880859
0.7980760931968689 0.93267500400543213 0.6604495644569397
0.81594407558441162 0.93351972103118896 0.66582506895065308
0.84791386127471924 0.93659788370132446 0.67559289932250977
0.87696897983551025 0.93843704462051392 0.6875377893447876
0.9141727089881897 0.94371926784515381 0.70343029499053955
0.94575124979019165 0.94982361793518066 0.71060717105865479
0.78650939464569092 0.69718760251998901 0.7347491979598999
0.80227547883987427 0.70630627870559692 0.73140799999237061
0.83421176671981812 0.72984760999679565 0.72350233793258667
0.87916523218154907 0.78386670351028442 0.72221076488494873
0.9092174768447876 0.82822257280349731 0.71364772319793701
0.93692219257354736 0.86971813440322876 0.71953785419464111
0.94950622320175171 0.87304878234863281 0.72009611129760742
0.78351962566375732 0.71779602766036987 0.73461437225341797
0.8015856146812439 0.7288704514503479 0.73315668106079102
0.83718967437744141 0.75525671243667603 0.72908663749694824
0.87746345996856689 0.79347419738769531 0.72553175687789917
0.91050273180007935 0.83890140056610107 0.71971720457077026
0.93557488918304443 0.87444716691970825 0.72218996286392212
0.95194494724273682 0.8793225884437561 0.72655075788497925
0.77328968048095703 0.74806290864944458 0.73246616125106812
0.79283064603805542 0.75613373517990112 0.73055309057235718
0.82891786098480225 0.7753862738609314 0.72706335783004761
0.87374734878540039 0.81357699632644653 0.72705835103988647
0.90455120801925659 0.84856277704238892 0.72094714641571045
0.93253302574157715 0.88316458463668823 0.72790104150772095
0.94814389944076538 0.88933825492858887 0.72873735427856445
0.74491304159164429 0.78559267520904541 0.7290465235710144
0.76544582843780518 0.78827404975891113 0.72775036096572876
0.80500596761703491 0.8012050986289978 0.72685754299163818
0.85626959800720215 0.82667088508605957 0.72811281681060791
0.89835691452026367 0.86038076877593994 0.72596281766891479
0.93177962303161621 0.89522308111190796 0.73373222351074219
0.94909375905990601 0.9060596227645874 0.73807960748672485
0.66632747650146484 0.82032638788223267 0.71995186805725098
0.69013023376464844 0.82035547494888306 0.71943789720535278
0.73863786458969116 0.82298386096954346 0.71774971485137939
0.81770861148834229 0.83817863464355469 0.72541588544845581
0.88507413864135742 0.86815398931503296 0.73387539386749268
0.92825865745544434 0.90285897254943848 0.74331903457641602
0.94628942012786865 0.92268359661102295 0.74760985374450684
0.73095303773880005 0.88428264856338501 0.72806364297866821
0.74380660057067871 0.88475441932678223 0.72860038280487061
0.76393330097198486 0.88398510217666626 0.73157858848571777
0.80174177885055542 0.88415586948394775 0.72889667749404907
0.85036075115203857 0.88977319002151489 0.73500007390975952
0.91475594043731689 0.91422045230865479 0.74849337339401245
0.94718092679977417 0.94170105457305908 0.76383358240127563
0.79971981048583984 0.94574719667434692 0.74954944849014282
0.80609577894210815 0.94406133890151978 0.74946582317352295
0.82047760486602783 0.94452649354934692 0.74785536527633667
0.84619826078414917 0.94668281078338623 0.75387907028198242
0.87260067462921143 0.94184261560440063 0.75601506233215332
0.90918916463851929 0.94863158464431763 0.76652765274047852
0.94371610879898071 0.96139079332351685 0.782817542552948
