luts/instant_consumer/polaroid_px-100uv+_cold_-.cube
# Created by: G'MIC (https://gmic.eu)
TITLE "polaroid_px-100uv+_cold_-"
# LUT size
LUT_3D_SIZE 7
# Data domain
DOMAIN_MIN 0.0 0.0 0.0
DOMAIN_MAX 1.0 1.0 1.0
# LUT data points
0.091577000916004181 0.10621699690818787 0.11041919142007828
0.11398562043905258 0.13151569664478302 0.13567627966403961
0.19170664250850677 0.21211506426334381 0.21600629389286041
0.30270585417747498 0.32277694344520569 0.32616236805915833
0.40387547016143799 0.42177185416221619 0.42193600535392761
0.49769169092178345 0.51579374074935913 0.50887268781661987
0.59446805715560913 0.61420488357543945 0.59644252061843872
0.12933860719203949 0.14826202392578125 0.15242940187454224
0.15276174247264862 0.17283423244953156 0.17721223831176758
0.20771969854831696 0.228449746966362 0.23186393082141876
0.31113103032112122 0.33079573512077332 0.33362182974815369
0.40867194533348083 0.42558509111404419 0.42536535859107971
0.50141787528991699 0.51911920309066772 0.51067793369293213
0.59783589839935303 0.61739695072174072 0.59722429513931274
0.24574533104896545 0.26561129093170166 0.26995527744293213
0.24826236069202423 0.26970717310905457 0.27418243885040283
0.28027808666229248 0.30265718698501587 0.30572125315666199
0.35608255863189697 0.37546038627624512 0.37836304306983948
0.42691478133201599 0.44262203574180603 0.44236451387405396
0.51152980327606201 0.52882325649261475 0.51890498399734497
0.60821747779846191 0.62747979164123535 0.6040416955947876
0.36837577819824219 0.38806489109992981 0.39057311415672302
0.35823839902877808 0.38041597604751587 0.38288605213165283
0.36975517868995667 0.39283519983291626 0.39499416947364807
0.4157659113407135 0.43662780523300171 0.43833571672439575
0.46457105875015259 0.48291999101638794 0.48045355081558228
0.53242337703704834 0.55138164758682251 0.53937947750091553
0.62349927425384521 0.64355224370956421 0.617564857006073
0.46497088670730591 0.48658528923988342 0.48131400346755981
0.4560052752494812 0.47899481654167175 0.47453954815864563
0.45797720551490784 0.48152706027030945 0.47762593626976013
0.48056533932685852 0.50329864025115967 0.49846482276916504
0.51891487836837769 0.53981196880340576 0.53103899955749512
0.57383280992507935 0.59419769048690796 0.57707476615905762
0.65824687480926514 0.67876172065734863 0.64801281690597534
0.57516884803771973 0.59707397222518921 0.57846236228942871
0.57164847850799561 0.59309637546539307 0.57414907217025757
0.57081574201583862 0.59253984689712524 0.57460182905197144
0.58279663324356079 0.60438239574432373 0.58606761693954468
0.61925685405731201 0.63938695192337036 0.61575126647949219
0.66119599342346191 0.67948859930038452 0.6500365138053894
0.72785693407058716 0.74544000625610352 0.7054021954536438
0.74264043569564819 0.75710070133209229 0.71807175874710083
0.73913615942001343 0.75361067056655884 0.71300762891769409
0.73437726497650146 0.74940973520278931 0.70935463905334473
0.74053293466567993 0.75587868690490723 0.71539407968521118
0.77680855989456177 0.78985780477523804 0.74404466152191162
0.80580449104309082 0.8167458176612854 0.76801681518554688
0.84483164548873901 0.85405725240707397 0.79968619346618652
0.14419651031494141 0.16473759710788727 0.16893202066421509
0.17911159992218018 0.20071959495544434 0.2046993225812912
0.24730755388736725 0.26872736215591431 0.27339023351669312
0.36200591921806335 0.38148045539855957 0.38540437817573547
0.45303145051002502 0.47024586796760559 0.4692804217338562
0.53014707565307617 0.54798787832260132 0.53836733102798462
0.61117982864379883 0.6309693455696106 0.61022031307220459
0.18618927896022797 0.20667280256748199 0.21102240681648254
0.22434361279010773 0.24663646519184113 0.250754714012146
0.28276476263999939 0.30415043234825134 0.30750373005867004
0.37048032879829407 0.3909110426902771 0.39195674657821655
0.45403316617012024 0.47143688797950745 0.46837574243545532
0.53370827436447144 0.55118662118911743 0.54000526666641235
0.61951833963394165 0.63961553573608398 0.61617904901504517
0.30702689290046692 0.32661610841751099 0.32967346906661987
0.31271758675575256 0.33431068062782288 0.33663719892501831
0.33164393901824951 0.35490453243255615 0.35483109951019287
0.38952803611755371 0.41010195016860962 0.40905174612998962
0.45812025666236877 0.47483950853347778 0.47089290618896484
0.53736227750778198 0.55555599927902222 0.54244190454483032
0.62714123725891113 0.6473844051361084 0.62155789136886597
0.41956302523612976 0.43943828344345093 0.43723472952842712
0.40876269340515137 0.43070226907730103 0.42863860726356506
0.40540826320648193 0.42852246761322021 0.42650946974754333
0.43699538707733154 0.4582040011882782 0.45582789182662964
0.4846508800983429 0.50375473499298096 0.49783754348754883
0.55086684226989746 0.57068973779678345 0.55596685409545898
0.63705337047576904 0.65726828575134277 0.63047504425048828
0.50393974781036377 0.52459728717803955 0.51521140336990356
0.49302440881729126 0.51491081714630127 0.50590747594833374
0.48757299780845642 0.51049375534057617 0.50242781639099121
0.50015950202941895 0.52274566888809204 0.51466166973114014
0.53463119268417358 0.55587136745452881 0.5438428521156311
0.58988839387893677 0.61076253652572632 0.59080737829208374
0.67318886518478394 0.69337290525436401 0.66143906116485596
0.60538101196289062 0.62443369626998901 0.60229480266571045
0.59719598293304443 0.61684626340866089 0.59448730945587158
0.59327590465545654 0.61385726928710938 0.59294396638870239
0.59685587882995605 0.61790567636489868 0.59768688678741455
0.62835860252380371 0.64776015281677246 0.62332546710968018
0.67428535223007202 0.6922295093536377 0.66065120697021484
0.74687725305557251 0.76336503028869629 0.7205735445022583
0.75785541534423828 0.77007007598876953 0.72926056385040283
0.75571179389953613 0.76801043748855591 0.72569364309310913
0.75051844120025635 0.76379823684692383 0.72234660387039185
0.74995607137680054 0.76379096508026123 0.72338545322418213
0.77674055099487305 0.78885078430175781 0.74494224786758423
0.81494206190109253 0.8240399956703186 0.77526801824569702
0.8525313138961792 0.85926228761672974 0.80547380447387695
0.27455461025238037 0.29699605703353882 0.29877352714538574
0.31069701910018921 0.33290931582450867 0.33633244037628174
0.34031802415847778 0.36049020290374756 0.3652711808681488
0.40857717394828796 0.42588427662849426 0.42857176065444946
0.49200937151908875 0.50924986600875854 0.50414341688156128
0.57133316993713379 0.59018623828887939 0.57474756240844727
0.65500307083129883 0.67517781257629395 0.64710980653762817
0.30622565746307373 0.32797196507453918 0.33077847957611084
0.33521828055381775 0.35620442032814026 0.3590942919254303
0.3684181272983551 0.38799309730529785 0.38960403203964233
0.4289093017578125 0.44856095314025879 0.44721686840057373
0.50231009721755981 0.52024048566818237 0.51299643516540527
0.57837778329849243 0.5977434515953064 0.58015644550323486
0.6618838906288147 0.6828685998916626 0.65283221006393433
0.35845044255256653 0.37802749872207642 0.38048112392425537
0.3857634961605072 0.40494018793106079 0.40690803527832031
0.41065230965614319 0.43071243166923523 0.42966434359550476
0.45103251934051514 0.47052481770515442 0.46665948629379272
0.50954157114028931 0.527576744556427 0.51876598596572876
0.581917405128479 0.60146397352218628 0.58237636089324951
0.66546952724456787 0.68654137849807739 0.65382915735244751
0.45822909474372864 0.47756680846214294 0.47335660457611084
0.46243083477020264 0.48207476735115051 0.47815066576004028
0.46683156490325928 0.48717889189720154 0.4816683828830719
0.48801577091217041 0.50833070278167725 0.5006859302520752
0.52993828058242798 0.54969304800033569 0.53781384229660034
0.5916740894317627 0.61217576265335083 0.5918084979057312
0.66968172788619995 0.68986636400222778 0.65869712829589844
0.53915083408355713 0.55836951732635498 0.54626482725143433
0.53851532936096191 0.55828964710235596 0.54598617553710938
0.5409659743309021 0.56172364950180054 0.54775905609130859
0.54675453901290894 0.56825995445251465 0.55367356538772583
0.57232624292373657 0.59392678737640381 0.57588076591491699
0.62064522504806519 0.64171117544174194 0.61707741022109985
0.69646728038787842 0.71466779708862305 0.68041139841079712
0.64217758178710938 0.65863889455795288 0.63382101058959961
0.63976341485977173 0.65600705146789551 0.63118207454681396
0.63527756929397583 0.65370798110961914 0.6285739541053772
0.63153886795043945 0.65101087093353271 0.62664675712585449
0.65377289056777954 0.67274093627929688 0.64451062679290771
0.692108154296875 0.70915347337722778 0.67472964525222778
0.76271659135818481 0.77501410245895386 0.73257696628570557
0.78147017955780029 0.79122024774551392 0.74904453754425049
0.77815985679626465 0.78856170177459717 0.74604171514511108
0.77141106128692627 0.78293901681900024 0.74106359481811523
0.76932787895202637 0.78113281726837158 0.73987042903900146
0.78732442855834961 0.79769635200500488 0.75378692150115967
0.8185691237449646 0.82615143060684204 0.77795577049255371
0.86389052867889404 0.86735618114471436 0.81387966871261597
0.40901479125022888 0.42837771773338318 0.42369359731674194
0.42942610383033752 0.44559800624847412 0.44375723600387573
0.46637135744094849 0.48190438747406006 0.47986212372779846
0.48003605008125305 0.4980333149433136 0.49206715822219849
0.5194319486618042 0.53875279426574707 0.52767574787139893
0.60351443290710449 0.62376695871353149 0.6030353307723999
0.69986486434936523 0.72043198347091675 0.68512415885925293
0.44119605422019958 0.46106821298599243 0.45657449960708618
0.45102754235267639 0.46909761428833008 0.46623653173446655
0.4783477783203125 0.49578100442886353 0.49158120155334473
0.49867013096809387 0.51524394750595093 0.50970768928527832
0.53184348344802856 0.54828476905822754 0.53881621360778809
0.61797523498535156 0.63838720321655273 0.61496067047119141
0.70743513107299805 0.72809839248657227 0.69033706188201904
0.45884978771209717 0.47832873463630676 0.47476118803024292
0.46561786532402039 0.48471075296401978 0.48173132538795471
0.49058735370635986 0.50877600908279419 0.50347816944122314
0.51867330074310303 0.53522294759750366 0.5277588963508606
0.5533033013343811 0.5699230432510376 0.55778831243515015
0.62811291217803955 0.64822882413864136 0.62249422073364258
0.71472114324569702 0.73499161005020142 0.69507712125778198
0.49524912238121033 0.51476794481277466 0.50904589891433716
0.49856588244438171 0.51811283826828003 0.51215243339538574
0.52138876914978027 0.54088103771209717 0.53059643507003784
0.54867291450500488 0.56784439086914062 0.55399805307388306
0.58738559484481812 0.6065552830696106 0.58762663602828979
0.65193623304367065 0.67150962352752686 0.64276069402694702
0.72855114936828613 0.74585890769958496 0.70658165216445923
0.56206399202346802 0.58119803667068481 0.56800240278244019
0.57220911979675293 0.59182441234588623 0.57610225677490234
0.59613585472106934 0.61597335338592529 0.59451091289520264
0.60490626096725464 0.62545770406723022 0.60253745317459106
0.62711614370346069 0.6480591893196106 0.62223833799362183
0.67274302244186401 0.69262796640396118 0.66074341535568237
0.74715805053710938 0.76246809959411621 0.72213560342788696
0.6722792387008667 0.68784874677658081 0.66066688299179077
0.67803412675857544 0.69425129890441895 0.66577297449111938
0.68404000997543335 0.70100212097167969 0.66990679502487183
0.68575102090835571 0.70329970121383667 0.67107594013214111
0.69923478364944458 0.71681362390518188 0.68223404884338379
0.72871690988540649 0.74514806270599365 0.70646637678146362
0.79888075590133667 0.80900520086288452 0.76285511255264282
0.80903059244155884 0.81705814599990845 0.77276730537414551
0.80711489915847778 0.81590980291366577 0.77207005023956299
0.80325925350189209 0.81251829862594604 0.76852256059646606
0.80551838874816895 0.81468290090560913 0.7699592113494873
0.81712049245834351 0.82533365488052368 0.77865183353424072
0.83851438760757446 0.84491229057312012 0.79476141929626465
0.88513857126235962 0.88714635372161865 0.83180719614028931
0.53347533941268921 0.55261850357055664 0.53682428598403931
0.54099887609481812 0.55881625413894653 0.54550719261169434
0.56218236684799194 0.57905536890029907 0.56506264209747314
0.58838266134262085 0.60727322101593018 0.58827924728393555
0.59903156757354736 0.61878705024719238 0.59871655702590942
0.62860774993896484 0.6487998366355896 0.62518161535263062
0.72745293378829956 0.74774444103240967 0.70718342065811157
0.55237752199172974 0.57261085510253906 0.55727469921112061
0.55565434694290161 0.57501876354217529 0.56110221147537231
0.57521402835845947 0.59357756376266479 0.57776427268981934
0.5970841646194458 0.6156916618347168 0.59656929969787598
0.61212003231048584 0.6312745213508606 0.60957425832748413
0.64484071731567383 0.66607648134231567 0.63753890991210938
0.73880022764205933 0.75738203525543213 0.71487009525299072
0.56198388338088989 0.58175158500671387 0.56737357378005981
0.563079833984375 0.58304369449615479 0.56870049238204956
0.58238810300827026 0.60163778066635132 0.58430033922195435
0.60654836893081665 0.62476062774658203 0.60443532466888428
0.63034254312515259 0.64913326501846313 0.62467747926712036
0.66608995199203491 0.68698310852050781 0.65442007780075073
0.75591963529586792 0.77243500947952271 0.72868019342422485
0.569355309009552 0.58932620286941528 0.57466107606887817
0.57220000028610229 0.59289377927780151 0.57680380344390869
0.59403777122497559 0.61472934484481812 0.59396320581436157
0.62363380193710327 0.64368897676467896 0.61848998069763184
0.65623193979263306 0.67603808641433716 0.64636540412902832
0.70380645990371704 0.72130036354064941 0.68516808748245239
0.78443735837936401 0.79636460542678833 0.75110054016113281
0.60558617115020752 0.62556010484695435 0.6056828498840332
0.6150481104850769 0.63625842332839966 0.6136893630027771
0.6323617696762085 0.65383011102676392 0.62649989128112793
0.65811794996261597 0.67894273996353149 0.64749675989151001
0.68874543905258179 0.70854872465133667 0.67386680841445923
0.73175060749053955 0.74844694137573242 0.709217369556427
0.80376714468002319 0.81437820196151733 0.76678007841110229
0.70251619815826416 0.71939629316329956 0.68630003929138184
0.71179622411727905 0.72873610258102417 0.69518041610717773
0.71240246295928955 0.72952711582183838 0.69399839639663696
0.73023009300231934 0.74619370698928833 0.70766645669937134
0.75490957498550415 0.76958662271499634 0.7281537652015686
0.7800137996673584 0.79381442070007324 0.74917685985565186
0.83781379461288452 0.84640222787857056 0.79444974660873413
0.83683604001998901 0.84404414892196655 0.79537314176559448
0.83294385671615601 0.84081101417541504 0.79402643442153931
0.83026653528213501 0.83776646852493286 0.79053264856338501
0.84407645463943481 0.84995710849761963 0.80106377601623535
0.86028385162353516 0.86486291885375977 0.81400889158248901
0.87007337808609009 0.87449085712432861 0.82125550508499146
0.90464568138122559 0.90599626302719116 0.8479112982749939
0.67260897159576416 0.68942821025848389 0.65764325857162476
0.67514604330062866 0.69174939393997192 0.66132980585098267
0.69166254997253418 0.70697641372680664 0.67489218711853027
0.71159142255783081 0.727649986743927 0.69224637746810913
0.73139208555221558 0.74730366468429565 0.70999413728713989
0.74462831020355225 0.76045471429824829 0.72053897380828857
0.76356136798858643 0.78044259548187256 0.73459941148757935
0.68107002973556519 0.69921958446502686 0.66800451278686523
0.68231463432312012 0.70046156644821167 0.66959792375564575
0.69628441333770752 0.71368443965911865 0.6800420880317688
0.71481770277023315 0.73270499706268311 0.69543206691741943
0.74007630348205566 0.75693792104721069 0.71678555011749268
0.74896728992462158 0.76431643962860107 0.72253239154815674
0.78145045042037964 0.79537391662597656 0.74893218278884888
0.68939471244812012 0.70656484365463257 0.67554092407226562
0.68875586986541748 0.70682579278945923 0.67511445283889771
0.70220428705215454 0.72018527984619141 0.68498307466506958
0.72657018899917603 0.74437379837036133 0.70475715398788452
0.75505399703979492 0.77141749858856201 0.72840589284896851
0.76203459501266479 0.77638381719589233 0.73177742958068848
0.7889094352722168 0.80170750617980957 0.7552177906036377
0.69249939918518066 0.70937538146972656 0.67727386951446533
0.69134235382080078 0.70938187837600708 0.67662674188613892
0.70636445283889771 0.72474437952041626 0.68771260976791382
0.73510551452636719 0.7532418966293335 0.71088868379592896
0.76628172397613525 0.78142821788787842 0.73712325096130371
0.78467118740081787 0.7962835431098938 0.7516217827796936
0.8202022910118103 0.82830476760864258 0.77816790342330933
0.70527482032775879 0.72307300567626953 0.68679577112197876
0.70560771226882935 0.72399997711181641 0.68741500377655029
0.71969032287597656 0.737171471118927 0.69805103540420532
0.74751561880111694 0.76393997669219971 0.72070789337158203
0.77768218517303467 0.79199182987213135 0.74643760919570923
0.80136787891387939 0.81281846761703491 0.76517689228057861
0.85554736852645874 0.86100977659225464 0.8058924674987793
0.75042974948883057 0.76736903190612793 0.72306841611862183
0.75507944822311401 0.77115678787231445 0.72822171449661255
0.77072310447692871 0.7831299901008606 0.74001502990722656
0.79303830862045288 0.80360311269760132 0.75757670402526855
0.82062488794326782 0.82977545261383057 0.78089171648025513
0.84423255920410156 0.85181117057800293 0.7999909520149231
0.8882712721824646 0.89143878221511841 0.83308464288711548
0.85623198747634888 0.86286324262619019 0.80905330181121826
0.85203844308853149 0.85878092050552368 0.80710738897323608
0.85826754570007324 0.86237806081771851 0.81108421087265015
0.87530845403671265 0.8773924708366394 0.82411026954650879
0.8955199122428894 0.89606273174285889 0.84105509519577026
0.9014478325843811 0.90212857723236084 0.84581959247589111
0.92389786243438721 0.92286771535873413 0.86266922950744629
0.8377339243888855 0.84436887502670288 0.79423356056213379
0.83790737390518188 0.84472310543060303 0.7949066162109375
0.84613668918609619 0.85173004865646362 0.80091637372970581
0.85490536689758301 0.86095762252807617 0.80857545137405396
0.87398093938827515 0.87905502319335938 0.82479536533355713
0.8933214545249939 0.89610326290130615 0.8397221565246582
0.89041626453399658 0.89103859663009644 0.83511817455291748
0.83900153636932373 0.84764939546585083 0.7978140115737915
0.83984875679016113 0.84868764877319336 0.79845666885375977
0.84772408008575439 0.85553598403930664 0.8033369779586792
0.85841315984725952 0.86600559949874878 0.81165063381195068
0.87861651182174683 0.88415753841400146 0.82802879810333252
0.89795953035354614 0.89986598491668701 0.84224218130111694
0.89165711402893066 0.89245015382766724 0.83624744415283203
0.84330207109451294 0.85134708881378174 0.80150312185287476
0.84125232696533203 0.85041129589080811 0.79952967166900635
0.84777462482452393 0.85687518119812012 0.80349493026733398
0.86222255229949951 0.87088823318481445 0.81456345319747925
0.88082420825958252 0.885611891746521 0.82871133089065552
0.90094161033630371 0.90072262287139893 0.8427044153213501
0.88967162370681763 0.88975095748901367 0.83365696668624878
0.84886455535888672 0.85562986135482788 0.80445897579193115
0.84362977743148804 0.85140347480773926 0.79986709356307983
0.84956330060958862 0.85786205530166626 0.80393511056900024
0.86743748188018799 0.87564069032669067 0.81781941652297974
0.89017510414123535 0.89429295063018799 0.83632689714431763
0.90381962060928345 0.90268784761428833 0.84663212299346924
0.89850330352783203 0.89741623401641846 0.8397289514541626
0.85444146394729614 0.86014473438262939 0.80672550201416016
0.85185128450393677 0.85719805955886841 0.80459940433502197
0.85784965753555298 0.86248689889907837 0.80935204029083252
0.87049013376235962 0.87535804510116577 0.81962090730667114
0.89017963409423828 0.89312267303466797 0.83642750978469849
0.90787190198898315 0.90710741281509399 0.85051345825195312
0.9211847186088562 0.918304443359375 0.85836470127105713
0.87370413541793823 0.87714302539825439 0.82072585821151733
0.87321341037750244 0.87531101703643799 0.82083666324615479
0.88136738538742065 0.88070249557495117 0.82744377851486206
0.88421738147735596 0.88449329137802124 0.82963180541992188
0.89890283346176147 0.89892107248306274 0.84270286560058594
0.91538518667221069 0.91370469331741333 0.8563656210899353
0.93450444936752319 0.93074667453765869 0.86974054574966431
0.90416598320007324 0.90381592512130737 0.8465314507484436
0.91002041101455688 0.90783703327178955 0.85089153051376343
0.91459852457046509 0.91058349609375 0.85335654020309448
0.91431844234466553 0.91063743829727173 0.85253214836120605
0.92933553457260132 0.92483979463577271 0.86576491594314575
0.93666261434555054 0.93167763948440552 0.87244433164596558
0.94647866487503052 0.94110840559005737 0.87988197803497314
