luts/instant_consumer/polaroid_px-70_--.cube
# Created by: G'MIC (https://gmic.eu)
TITLE "polaroid_px-70_--"
# LUT size
LUT_3D_SIZE 7
# Data domain
DOMAIN_MIN 0.0 0.0 0.0
DOMAIN_MAX 1.0 1.0 1.0
# LUT data points
0 0.023304330185055733 0.027230162173509598
0.040364582091569901 0.042635150253772736 0.039718642830848694
0.23464570939540863 0.055582143366336823 0.064303077757358551
0.51298493146896362 0.050963874906301498 0.088688835501670837
0.76890671253204346 0.17103780806064606 0.094269804656505585
0.924591064453125 0.34984579682350159 0.097234927117824554
0.99616008996963501 0.49948659539222717 0.13266803324222565
4.3083641685370822e-06 0.1304592490196228 0.066666774451732635
0.024117907509207726 0.14513956010341644 0.065939746797084808
0.26015552878379822 0.14799676835536957 0.067016512155532837
0.52516388893127441 0.17359238862991333 0.078424371778964996
0.76355642080307007 0.26099285483360291 0.073886767029762268
0.91966432332992554 0.39756917953491211 0.071890003979206085
0.99297314882278442 0.5285065770149231 0.12567175924777985
0 0.31781324744224548 0.10116663575172424
0.0015929876826703548 0.32548284530639648 0.098737709224224091
0.25125426054000854 0.34505867958068848 0.074696317315101624
0.54933613538742065 0.35589295625686646 0.039168264716863632
0.7610284686088562 0.38725998997688293 0.012392350472509861
0.90786856412887573 0.48004958033561707 0.014620567671954632
0.98752808570861816 0.57721030712127686 0.083161689341068268
0.00050485646352171898 0.53319597244262695 0.10902364552021027
0.0025276932865381241 0.53354358673095703 0.11399335414171219
0.270750492811203 0.54281264543533325 0.095171846449375153
0.56905657052993774 0.5561707615852356 0.028417401015758514
0.77126550674438477 0.57054227590560913 0.0074201845563948154
0.89687263965606689 0.58700299263000488 0.0033249200787395239
0.98039859533309937 0.63722974061965942 0.0087685529142618179
0.15861688554286957 0.70113891363143921 0.15187487006187439
0.27685219049453735 0.69861495494842529 0.16403260827064514
0.4390099048614502 0.69642758369445801 0.16859833896160126
0.61257469654083252 0.69801121950149536 0.14260999858379364
0.77343636751174927 0.70482558012008667 0.088615819811820984
0.88533544540405273 0.71468740701675415 0.045861773192882538
0.97031521797180176 0.73471510410308838 0.073843784630298615
0.50917929410934448 0.81329607963562012 0.28038984537124634
0.54183787107467651 0.81162983179092407 0.28796368837356567
0.60364252328872681 0.80974793434143066 0.29748749732971191
0.68276023864746094 0.81257349252700806 0.2964576780796051
0.7887955904006958 0.81518363952636719 0.27305483818054199
0.87469273805618286 0.82481223344802856 0.25377562642097473
0.96081525087356567 0.84533029794692993 0.26224508881568909
0.69563949108123779 0.93263214826583862 0.45341455936431885
0.70570069551467896 0.93114560842514038 0.4569104015827179
0.72945874929428101 0.93047529458999634 0.46467351913452148
0.76623439788818359 0.93673676252365112 0.48106956481933594
0.81758689880371094 0.93896156549453735 0.47339439392089844
0.87908518314361572 0.94775378704071045 0.47543877363204956
0.94724643230438232 0.95922553539276123 0.4787362813949585
0 0.064589619636535645 0.12387868762016296
0.024036677554249763 0.072613433003425598 0.12439650297164917
0.22930604219436646 0.088458314538002014 0.14198869466781616
0.52388876676559448 0.13147139549255371 0.16877888143062592
0.7793964147567749 0.25846108794212341 0.18850016593933105
0.92561286687850952 0.40254557132720947 0.20093922317028046
0.99351364374160767 0.52950942516326904 0.23675189912319183
0 0.14863409101963043 0.14419358968734741
0.031435888260602951 0.16505071520805359 0.14781634509563446
0.27159124612808228 0.1859208345413208 0.15346401929855347
0.54292577505111694 0.23651133477687836 0.16745458543300629
0.77560025453567505 0.31841370463371277 0.17673499882221222
0.91876161098480225 0.44125837087631226 0.19053201377391815
0.99200427532196045 0.54715245962142944 0.22306381165981293
0.00072619866114109755 0.33901768922805786 0.16736991703510284
0.018857993185520172 0.33914393186569214 0.16715463995933533
0.28947710990905762 0.35474857687950134 0.15969814360141754
0.56370145082473755 0.37182211875915527 0.13861194252967834
0.77114248275756836 0.41984286904335022 0.13413876295089722
0.90748900175094604 0.50396919250488281 0.14481988549232483
0.98610973358154297 0.59316223859786987 0.193124920129776
0.0050687901675701141 0.54243642091751099 0.17233346402645111
0.059368237853050232 0.54433751106262207 0.1723930835723877
0.33312880992889404 0.54616934061050415 0.17248779535293579
0.58869260549545288 0.55905920267105103 0.13986523449420929
0.77572524547576904 0.57250803709030151 0.097099140286445618
0.89708524942398071 0.59281408786773682 0.083882108330726624
0.97942137718200684 0.64283508062362671 0.12887817621231079
0.26623117923736572 0.7014128565788269 0.20978257060050964
0.3488318920135498 0.69954639673233032 0.21744151413440704
0.4817623496055603 0.69769746065139771 0.23046760261058807
0.63111835718154907 0.70171463489532471 0.2144601047039032
0.77843016386032104 0.70676666498184204 0.17627415060997009
0.88457691669464111 0.71644389629364014 0.15784531831741333
0.96901184320449829 0.73539823293685913 0.17722207307815552
0.53941220045089722 0.81153923273086548 0.32007452845573425
0.56688231229782104 0.81212335824966431 0.32560050487518311
0.62148690223693848 0.80850732326507568 0.33264327049255371
0.69967401027679443 0.81098669767379761 0.32993057370185852
0.78600150346755981 0.8165208101272583 0.31727153062820435
0.87412959337234497 0.82452630996704102 0.29818397760391235
0.95876163244247437 0.8475831151008606 0.31218841671943665
0.70000755786895752 0.93183428049087524 0.47302958369255066
0.70755577087402344 0.92828470468521118 0.47181591391563416
0.73320609331130981 0.92966705560684204 0.48164960741996765
0.77091449499130249 0.93603801727294922 0.4963061511516571
0.81807106733322144 0.93943041563034058 0.49487119913101196
0.87991607189178467 0.94756114482879639 0.49492064118385315
0.94405978918075562 0.96033960580825806 0.5043874979019165
0.00098066148348152637 0.10048270225524902 0.22917164862155914
0.097864799201488495 0.13512437045574188 0.22854162752628326
0.27297303080558777 0.18307444453239441 0.23077782988548279
0.50885725021362305 0.16332802176475525 0.25084149837493896
0.77749663591384888 0.20918071269989014 0.27123963832855225
0.93010890483856201 0.38837447762489319 0.30450013279914856
0.99089139699935913 0.56729030609130859 0.37030535936355591
0.0012416914105415344 0.19737662374973297 0.24447755515575409
0.11040779203176498 0.21261774003505707 0.24583238363265991
0.31165915727615356 0.25900137424468994 0.24514858424663544
0.55079644918441772 0.26314696669578552 0.26116445660591125
0.79033559560775757 0.32790020108222961 0.28168559074401855
0.92192935943603516 0.47470200061798096 0.32076624035835266
0.98737829923629761 0.60212171077728271 0.3740917444229126
0.00060100184055045247 0.35482108592987061 0.25223284959793091
0.11594565957784653 0.36077365279197693 0.25428012013435364
0.36901742219924927 0.38098224997520447 0.26149418950080872
0.59837722778320312 0.41125226020812988 0.26543843746185303
0.79261547327041626 0.47865629196166992 0.28344273567199707
0.90918445587158203 0.56389665603637695 0.30913665890693665
0.98626410961151123 0.63497048616409302 0.35413339734077454
0.1874830573797226 0.55050396919250488 0.27391624450683594
0.30715098977088928 0.55383098125457764 0.27854907512664795
0.44136726856231689 0.56111264228820801 0.27702954411506653
0.62743204832077026 0.56870031356811523 0.27372455596923828
0.78849297761917114 0.5796695351600647 0.25506508350372314
0.89815062284469604 0.6157839298248291 0.261444091796875
0.97764629125595093 0.67262732982635498 0.30456140637397766
0.44424641132354736 0.70234185457229614 0.31901094317436218
0.47637683153152466 0.70206648111343384 0.31975641846656799
0.55146735906600952 0.70372062921524048 0.32156509160995483
0.66995209455490112 0.70520305633544922 0.32442861795425415
0.78694909811019897 0.70932656526565552 0.29990121722221375
0.88845455646514893 0.71544098854064941 0.28713667392730713
0.96691232919692993 0.73287403583526611 0.28674173355102539
0.58549326658248901 0.81203240156173706 0.38186919689178467
0.61080777645111084 0.81286787986755371 0.38975286483764648
0.65674829483032227 0.81419897079467773 0.40090116858482361
0.72607183456420898 0.81699854135513306 0.4025825560092926
0.79522359371185303 0.82170027494430542 0.39206427335739136
0.87893593311309814 0.8278316855430603 0.37819284200668335
0.9569365382194519 0.84616321325302124 0.38107600808143616
0.71010333299636841 0.93291741609573364 0.50343626737594604
0.71624249219894409 0.93180906772613525 0.50614070892333984
0.74305790662765503 0.93089228868484497 0.51116055250167847
0.77787548303604126 0.93582999706268311 0.52480345964431763
0.82239151000976562 0.94055420160293579 0.53345102071762085
0.87886518239974976 0.94857680797576904 0.53041380643844604
0.94611001014709473 0.95844548940658569 0.53181654214859009
0.080730020999908447 0.17546023428440094 0.35318189859390259
0.25340452790260315 0.20560614764690399 0.35354715585708618
0.45275223255157471 0.28741362690925598 0.35800445079803467
0.59904682636260986 0.35346004366874695 0.35923963785171509
0.75139665603637695 0.32762277126312256 0.37786644697189331
0.91000550985336304 0.39082112908363342 0.40960735082626343
0.98873734474182129 0.52680999040603638 0.43782249093055725
0.10952626913785934 0.2598567008972168 0.36063212156295776
0.26484668254852295 0.28245675563812256 0.36334100365638733
0.4739726185798645 0.34683257341384888 0.3658289909362793
0.61981773376464844 0.41171196103096008 0.36757171154022217
0.77170521020889282 0.39107784628868103 0.3850688636302948
0.91079854965209961 0.45845624804496765 0.41693437099456787
0.98969584703445435 0.5700567364692688 0.44828325510025024
0.013728048652410507 0.39631319046020508 0.35956710577011108
0.20813409984111786 0.40378963947296143 0.36442989110946655
0.47024339437484741 0.43492612242698669 0.37655079364776611
0.64886713027954102 0.49727603793144226 0.38331028819084167
0.7889520525932312 0.50099176168441772 0.40075504779815674
0.91038721799850464 0.56949526071548462 0.43186262249946594
0.98445290327072144 0.65880125761032104 0.47913208603858948
0.22300238907337189 0.55971181392669678 0.37292522192001343
0.33536264300346375 0.56420230865478516 0.37834754586219788
0.50772863626480103 0.57366859912872314 0.39058327674865723
0.67013448476791382 0.58734548091888428 0.39688092470169067
0.80420386791229248 0.61720770597457886 0.41060417890548706
0.89925551414489746 0.66476708650588989 0.4362952709197998
0.97152435779571533 0.71422660350799561 0.46492511034011841
0.48755532503128052 0.70129013061523438 0.41222691535949707
0.53307759761810303 0.70032531023025513 0.41852143406867981
0.62651932239532471 0.70502501726150513 0.42638024687767029
0.70637184381484985 0.70648157596588135 0.42676395177841187
0.80278605222702026 0.71224421262741089 0.41874656081199646
0.89064121246337891 0.71940511465072632 0.40999981760978699
0.97064006328582764 0.74494558572769165 0.41396299004554749
0.65710300207138062 0.81229114532470703 0.47269704937934875
0.67234259843826294 0.81179612874984741 0.47283098101615906
0.69886970520019531 0.81423503160476685 0.46967172622680664
0.74657344818115234 0.81781655550003052 0.4716227650642395
0.80664539337158203 0.8254019021987915 0.47811239957809448
0.87785732746124268 0.83009129762649536 0.46318128705024719
0.96171170473098755 0.84922361373901367 0.46441414952278137
0.73342341184616089 0.93489915132522583 0.56313300132751465
0.73579710721969604 0.93306583166122437 0.55983948707580566
0.75201523303985596 0.93639236688613892 0.55962103605270386
0.78429174423217773 0.93881368637084961 0.56892102956771851
0.82679015398025513 0.94324398040771484 0.58592796325683594
0.88143312931060791 0.95005393028259277 0.58683180809020996
0.94550371170043945 0.95960944890975952 0.58610004186630249
0.34136730432510376 0.27697867155075073 0.49135065078735352
0.45458433032035828 0.30967268347740173 0.49466121196746826
0.60860711336135864 0.37046295404434204 0.49524948000907898
0.73882633447647095 0.48937398195266724 0.49720761179924011
0.81711691617965698 0.54386037588119507 0.50055080652236938
0.88436472415924072 0.52461850643157959 0.50566595792770386
0.9740443229675293 0.57032680511474609 0.53909879922866821
0.3348713219165802 0.34925800561904907 0.4920220673084259
0.44680541753768921 0.37080982327461243 0.49440735578536987
0.60840171575546265 0.43059173226356506 0.49675682187080383
0.7447924017906189 0.52778613567352295 0.50085383653640747
0.81710481643676758 0.57629317045211792 0.50372189283370972
0.88697642087936401 0.55928438901901245 0.51285046339035034
0.97226911783218384 0.60063707828521729 0.54222917556762695
0.31047627329826355 0.46685105562210083 0.48976874351501465
0.4179399311542511 0.47080513834953308 0.49503400921821594
0.58622175455093384 0.51057726144790649 0.50006723403930664
0.74862855672836304 0.58290755748748779 0.509166419506073
0.82124406099319458 0.63451611995697021 0.51753789186477661
0.88893383741378784 0.62145489454269409 0.52757388353347778
0.9735979437828064 0.66295278072357178 0.55962216854095459
0.29646319150924683 0.59191262722015381 0.48179718852043152
0.37962514162063599 0.59236252307891846 0.48640304803848267
0.53846931457519531 0.59754163026809692 0.49376699328422546
0.72111499309539795 0.63046133518218994 0.51186394691467285
0.82599133253097534 0.68605321645736694 0.52973318099975586
0.88904500007629395 0.68215733766555786 0.53780084848403931
0.97312933206558228 0.72007071971893311 0.57218742370605469
0.48922258615493774 0.70805937051773071 0.49789506196975708
0.54177755117416382 0.70951884984970093 0.50550293922424316
0.62226760387420654 0.70519644021987915 0.50731885433197021
0.72214430570602417 0.71113365888595581 0.51815754175186157
0.81679016351699829 0.72872012853622437 0.53032982349395752
0.8950645923614502 0.75013667345046997 0.54511106014251709
0.96793544292449951 0.79104131460189819 0.57803052663803101
0.64274394512176514 0.8128587007522583 0.53964436054229736
0.66623020172119141 0.81099504232406616 0.5426781177520752
0.70834976434707642 0.81392496824264526 0.55366963148117065
0.76680046319961548 0.81988263130187988 0.55839478969573975
0.81831037998199463 0.82715284824371338 0.56200641393661499
0.8856779932975769 0.83542591333389282 0.56510484218597412
0.96459192037582397 0.85144013166427612 0.5597766637802124
0.73058539628982544 0.9299849271774292 0.62583154439926147
0.74207550287246704 0.93484079837799072 0.6353728175163269
0.76737326383590698 0.93293237686157227 0.63693690299987793
0.79619979858398438 0.93998956680297852 0.63971692323684692
0.83356952667236328 0.94352585077285767 0.65304547548294067
0.88184899091720581 0.953998863697052 0.66247290372848511
0.9444655179977417 0.96442675590515137 0.66186922788619995
0.57114923000335693 0.42950350046157837 0.62711250782012939
0.63716620206832886 0.45290291309356689 0.62975293397903442
0.73256319761276245 0.50764518976211548 0.63305801153182983
0.81947779655456543 0.59235996007919312 0.63431859016418457
0.8648952841758728 0.6794055700302124 0.63517636060714722
0.90640336275100708 0.70184433460235596 0.64238119125366211
0.95326566696166992 0.68508046865463257 0.64866620302200317
0.57252103090286255 0.47510236501693726 0.62809962034225464
0.63149368762969971 0.49865171313285828 0.6318548321723938
0.71713393926620483 0.54751098155975342 0.64158838987350464
0.81564164161682129 0.61698013544082642 0.63651853799819946
0.86667513847351074 0.69705253839492798 0.63990277051925659
0.90357887744903564 0.71223586797714233 0.64410769939422607
0.94469398260116577 0.69531309604644775 0.64334934949874878
0.55153638124465942 0.55154895782470703 0.62512773275375366
0.6068609356880188 0.56106698513031006 0.62806946039199829
0.71412885189056396 0.59717237949371338 0.63619577884674072
0.81217247247695923 0.65622782707214355 0.64110243320465088
0.86279207468032837 0.72219598293304443 0.65340805053710938
0.90286320447921753 0.74504572153091431 0.65392237901687622
0.94891798496246338 0.72921192646026611 0.65948247909545898
0.46555447578430176 0.64073628187179565 0.61075127124786377
0.53610610961914062 0.64427840709686279 0.61561578512191772
0.6661573052406311 0.65358012914657593 0.62419998645782471
0.7802356481552124 0.68768715858459473 0.64125967025756836
0.85811430215835571 0.74996650218963623 0.65924322605133057
0.90091639757156372 0.7778124213218689 0.664764404296875
0.9529649019241333 0.76847201585769653 0.67840301990509033
0.50891697406768799 0.72746551036834717 0.61019384860992432
0.55340921878814697 0.72783440351486206 0.61198979616165161
0.61917054653167725 0.72570180892944336 0.61285662651062012
0.71726763248443604 0.72740763425827026 0.62139284610748291
0.82903093099594116 0.76353257894515991 0.65208572149276733
0.90151256322860718 0.81579470634460449 0.68291181325912476
0.95646500587463379 0.81679254770278931 0.69987183809280396
0.62840741872787476 0.81636422872543335 0.63373404741287231
0.64962089061737061 0.81604951620101929 0.63343900442123413
0.69150537252426147 0.81629735231399536 0.63741683959960938
0.74935507774353027 0.82046175003051758 0.64447885751724243
0.81396353244781494 0.83160579204559326 0.66237097978591919
0.88981646299362183 0.85426288843154907 0.68921005725860596
0.95623910427093506 0.88441592454910278 0.72368359565734863
0.70648032426834106 0.93434077501296997 0.70883631706237793
0.71963667869567871 0.93654727935791016 0.71283870935440063
0.74485093355178833 0.93408119678497314 0.71967929601669312
0.78603178262710571 0.94259035587310791 0.72985613346099854
0.832977294921875 0.94763708114624023 0.74401909112930298
0.88637828826904297 0.95555883646011353 0.7648729681968689
0.93408608436584473 0.96491271257400513 0.77158111333847046
0.7450096607208252 0.61900800466537476 0.78943455219268799
0.77206718921661377 0.63575387001037598 0.79503464698791504
0.81324034929275513 0.66482746601104736 0.79307574033737183
0.85670799016952515 0.70311868190765381 0.78951632976531982
0.89787793159484863 0.7601933479309082 0.79088395833969116
0.92587542533874512 0.81263619661331177 0.78913944959640503
0.94854259490966797 0.83003914356231689 0.7974163293838501
0.74587738513946533 0.64643377065658569 0.79783004522323608
0.76733911037445068 0.6568458080291748 0.79862827062606812
0.80897611379623413 0.68529462814331055 0.79895693063735962
0.85594338178634644 0.71938246488571167 0.7927737832069397
0.89682859182357788 0.76762431859970093 0.79130429029464722
0.92749738693237305 0.8262864351272583 0.79607808589935303
0.94969230890274048 0.83399814367294312 0.8025672435760498
0.72500288486480713 0.67701482772827148 0.79773610830307007
0.74993026256561279 0.68316608667373657 0.79908162355422974
0.79472047090530396 0.70564395189285278 0.80319488048553467
0.84618014097213745 0.7416996955871582 0.8043631911277771
0.89299237728118896 0.7879907488822937 0.80633199214935303
0.92548513412475586 0.84193289279937744 0.80632680654525757
0.94790297746658325 0.85337525606155396 0.81465888023376465
0.68110215663909912 0.72089707851409912 0.7951616644859314
0.71137923002243042 0.72340744733810425 0.79992479085922241
0.75867271423339844 0.73396080732345581 0.79845404624938965
0.81804609298706055 0.76064682006835938 0.80098962783813477
0.87942087650299072 0.80606955289840698 0.81348884105682373
0.92173987627029419 0.86130309104919434 0.82243353128433228
0.9451325535774231 0.87832093238830566 0.82923644781112671
0.57897740602493286 0.77685964107513428 0.78730696439743042
0.60692507028579712 0.77519172430038452 0.78866654634475708
0.6701655387878418 0.77516788244247437 0.79237246513366699
0.76310378313064575 0.78405874967575073 0.80399584770202637
0.85276204347610474 0.81795591115951538 0.82291054725646973
0.91379588842391968 0.88030487298965454 0.84134209156036377
0.94172346591949463 0.90889370441436768 0.85428643226623535
0.62976163625717163 0.8613353967666626 0.81368041038513184
0.643901526927948 0.85889893770217896 0.81069093942642212
0.67431700229644775 0.85850459337234497 0.81731569766998291
0.71933412551879883 0.85567528009414673 0.81921249628067017
0.78784078359603882 0.85774141550064087 0.8247380256652832
0.88798916339874268 0.89856761693954468 0.85685837268829346
0.93618464469909668 0.94862467050552368 0.88503742218017578
0.68301975727081299 0.95638954639434814 0.86033928394317627
0.69334280490875244 0.95538842678070068 0.85680723190307617
0.71613478660583496 0.95770472288131714 0.86384332180023193
0.75356036424636841 0.96060019731521606 0.8722226619720459
0.80525052547454834 0.96282094717025757 0.87658905982971191
0.86567181348800659 0.96480643749237061 0.89293050765991211
0.92733097076416016 0.98361563682556152 0.91912329196929932
