luts/instant_consumer/polaroid_px-680_+.cube
# Created by: G'MIC (https://gmic.eu)
TITLE "polaroid_px-680_+"
# LUT size
LUT_3D_SIZE 13
# Data domain
DOMAIN_MIN 0.0 0.0 0.0
DOMAIN_MAX 1.0 1.0 1.0
# LUT data points
0.12585267424583435 0.22501343488693237 0.22206015884876251
0.1353524774312973 0.22494225203990936 0.22181491553783417
0.15697771310806274 0.2252098023891449 0.22175230085849762
0.1933857798576355 0.22751572728157043 0.22223050892353058
0.25183314085006714 0.23099356889724731 0.22273238003253937
0.34756374359130859 0.23603592813014984 0.22320112586021423
0.48752158880233765 0.24317903816699982 0.22254934906959534
0.6499178409576416 0.26058307290077209 0.2191828191280365
0.78064620494842529 0.29762625694274902 0.21495950222015381
0.86190265417098999 0.3572726845741272 0.21354106068611145
0.91237366199493408 0.42069336771965027 0.21856926381587982
0.94673043489456177 0.48318636417388916 0.24088031053543091
0.97679561376571655 0.54473090171813965 0.27697962522506714
0.13070283830165863 0.23581057786941528 0.22359803318977356
0.13935492932796478 0.23382285237312317 0.22210939228534698
0.16512802243232727 0.23480860888957977 0.22253720462322235
0.20476536452770233 0.23660857975482941 0.22351871430873871
0.26145407557487488 0.23938789963722229 0.22274540364742279
0.3613244891166687 0.24578915536403656 0.22274352610111237
0.5057530403137207 0.25696033239364624 0.22174908220767975
0.66811168193817139 0.28113862872123718 0.21695783734321594
0.78941589593887329 0.32314756512641907 0.21296310424804688
0.86621999740600586 0.38111859560012817 0.21241205930709839
0.91289561986923218 0.43816223740577698 0.2173580676317215
0.9451642632484436 0.49424657225608826 0.23874670267105103
0.97586721181869507 0.55201667547225952 0.27365842461585999
0.1332436203956604 0.25106343626976013 0.22496558725833893
0.14179906249046326 0.24896341562271118 0.22405713796615601
0.16896036267280579 0.25069767236709595 0.22423823177814484
0.21343560516834259 0.25498750805854797 0.2246897965669632
0.28263285756111145 0.25895929336547852 0.22349333763122559
0.38746440410614014 0.26784199476242065 0.2223563939332962
0.53095334768295288 0.28513941168785095 0.21987751126289368
0.68252551555633545 0.31602627038955688 0.21339666843414307
0.79403007030487061 0.36032426357269287 0.2094683051109314
0.86498129367828369 0.41342863440513611 0.20950911939144135
0.90839886665344238 0.46582728624343872 0.21634276211261749
0.94067370891571045 0.51521986722946167 0.23903734982013702
0.97095423936843872 0.56475341320037842 0.27183309197425842
0.12639054656028748 0.27460357546806335 0.22651238739490509
0.1390281468629837 0.2793603241443634 0.22720666229724884
0.16815184056758881 0.28074383735656738 0.22721113264560699
0.22007982432842255 0.28568604588508606 0.2260696142911911
0.30673331022262573 0.29964789748191833 0.22400343418121338
0.42373016476631165 0.31462502479553223 0.21966299414634705
0.55892127752304077 0.33113786578178406 0.21445891261100769
0.69183355569839478 0.36166685819625854 0.20736978948116302
0.79019498825073242 0.4054546058177948 0.20285877585411072
0.85757160186767578 0.45344507694244385 0.20445461571216583
0.90083277225494385 0.49886009097099304 0.21339511871337891
0.93501728773117065 0.53900068998336792 0.23864923417568207
0.96653836965560913 0.58565336465835571 0.27536162734031677
0.10425689071416855 0.32276588678359985 0.22871465981006622
0.12223891913890839 0.32552066445350647 0.22890019416809082
0.16405482590198517 0.3319532573223114 0.22884224355220795
0.22346843779087067 0.34064233303070068 0.22691214084625244
0.318330317735672 0.35775458812713623 0.22476653754711151
0.4507344663143158 0.38808959722518921 0.21866320073604584
0.58683019876480103 0.41391146183013916 0.20955158770084381
0.70237129926681519 0.43324831128120422 0.19949692487716675
0.78174722194671631 0.45646452903747559 0.19401432573795319
0.84268170595169067 0.49568909406661987 0.19560331106185913
0.88999104499816895 0.53487312793731689 0.20729872584342957
0.92544806003570557 0.56947863101959229 0.23289129137992859
0.95863479375839233 0.6068798303604126 0.26903572678565979
0.035873983055353165 0.39583942294120789 0.22545738518238068
0.066217400133609772 0.39999336004257202 0.2258613258600235
0.1332394927740097 0.40587425231933594 0.22629471123218536
0.2123667448759079 0.41741397976875305 0.22552953660488129
0.32241007685661316 0.4370284378528595 0.22288671135902405
0.44826772809028625 0.45976072549819946 0.2176547646522522
0.59402525424957275 0.49710556864738464 0.20802783966064453
0.70278316736221313 0.52067732810974121 0.19863121211528778
0.77705264091491699 0.53338360786437988 0.19462256133556366
0.83555704355239868 0.54513400793075562 0.18758469820022583
0.88048499822616577 0.56989997625350952 0.19704139232635498
0.91556340456008911 0.59999513626098633 0.22429129481315613
0.95036923885345459 0.6323171854019165 0.2640967071056366
0.0053011723794043064 0.48371803760528564 0.22260138392448425
0.0095268851146101952 0.4848673939704895 0.22305624186992645
0.070112027227878571 0.48715695738792419 0.22301226854324341
0.18672952055931091 0.49323382973670959 0.22426529228687286
0.31390529870986938 0.51157701015472412 0.22154161334037781
0.44060704112052917 0.53110837936401367 0.21836234629154205
0.57337105274200439 0.55745917558670044 0.2159469872713089
0.69136446714401245 0.58762651681900024 0.21318909525871277
0.77350157499313354 0.61061328649520874 0.2109973132610321
0.82661134004592896 0.61623501777648926 0.20975570380687714
0.86811143159866333 0.62079638242721558 0.21392254531383514
0.90523833036422729 0.63489753007888794 0.22401109337806702
0.94367742538452148 0.6595425009727478 0.26034384965896606
0.0008403104729950428 0.56831258535385132 0.22218975424766541
0.0035503313411027193 0.56428074836730957 0.22287118434906006
0.042205017060041428 0.56482726335525513 0.22240304946899414
0.17549043893814087 0.5664374828338623 0.22527751326560974
0.30882588028907776 0.57495981454849243 0.22702968120574951
0.44292145967483521 0.59601485729217529 0.22835168242454529
0.55999255180358887 0.61589723825454712 0.23114840686321259
0.66194301843643188 0.6325308084487915 0.23624393343925476
0.75248038768768311 0.65886431932449341 0.24750874936580658
0.81043261289596558 0.67177724838256836 0.25548425316810608
0.85520267486572266 0.6787535548210144 0.26310083270072937
0.89449113607406616 0.68489652872085571 0.27544420957565308
0.93167096376419067 0.69428384304046631 0.29039633274078369
0.0031086790841072798 0.63456755876541138 0.22853030264377594
0.013196369633078575 0.63502711057662964 0.22806724905967712
0.092417351901531219 0.63485097885131836 0.22885638475418091
0.21563267707824707 0.63462483882904053 0.23420488834381104
0.33093202114105225 0.64181524515151978 0.23998731374740601
0.44771581888198853 0.65239411592483521 0.2447463721036911
0.5554080605506897 0.66563254594802856 0.25524526834487915
0.65216052532196045 0.6823277473449707 0.26900288462638855
0.72935765981674194 0.69653177261352539 0.28502687811851501
0.79505163431167603 0.71751266717910767 0.30789196491241455
0.84622663259506226 0.73256152868270874 0.32967862486839294
0.88607513904571533 0.73513698577880859 0.34341040253639221
0.92157769203186035 0.74182254076004028 0.36001250147819519
0.1211451068520546 0.69848567247390747 0.24749289453029633
0.15766258537769318 0.69614708423614502 0.2481197714805603
0.22440819442272186 0.69420361518859863 0.25201725959777832
0.30045068264007568 0.69486045837402344 0.25830948352813721
0.38407641649246216 0.69691455364227295 0.26719674468040466
0.4798007607460022 0.70068180561065674 0.27942097187042236
0.57524484395980835 0.71072357892990112 0.29399678111076355
0.65273094177246094 0.72234141826629639 0.31233987212181091
0.72172880172729492 0.73524415493011475 0.33077529072761536
0.77906852960586548 0.74888426065444946 0.35226818919181824
0.82960331439971924 0.76379144191741943 0.37782499194145203
0.8774869441986084 0.77949428558349609 0.40610143542289734
0.91413241624832153 0.78810185194015503 0.4277786910533905
0.31726732850074768 0.74909979104995728 0.29330900311470032
0.32635059952735901 0.74595659971237183 0.29237103462219238
0.35676467418670654 0.74372285604476929 0.29618898034095764
0.40600264072418213 0.74484193325042725 0.30308893322944641
0.45716923475265503 0.74339038133621216 0.31120064854621887
0.53172761201858521 0.7472379207611084 0.32737788558006287
0.60788750648498535 0.75534504652023315 0.34679213166236877
0.67263144254684448 0.765167236328125 0.36751711368560791
0.72640275955200195 0.77444595098495483 0.38264286518096924
0.7747112512588501 0.78367698192596436 0.40296784043312073
0.8206372857093811 0.79337799549102783 0.42477843165397644
0.86466401815414429 0.8065149188041687 0.44975739717483521
0.90583914518356323 0.82147485017776489 0.4796288013458252
0.4744049608707428 0.79593300819396973 0.36416840553283691
0.47812780737876892 0.79425090551376343 0.36382254958152771
0.49707019329071045 0.79336440563201904 0.36793205142021179
0.51683712005615234 0.79240250587463379 0.37254849076271057
0.55205309391021729 0.7916448712348938 0.37985348701477051
0.59381198883056641 0.79340046644210815 0.39048486948013306
0.64492982625961304 0.79914569854736328 0.40796798467636108
0.70119976997375488 0.80747193098068237 0.42762774229049683
0.75000572204589844 0.81428027153015137 0.44684842228889465
0.79086178541183472 0.8213801383972168 0.46592214703559875
0.8256651759147644 0.82767844200134277 0.48201239109039307
0.86073195934295654 0.83528518676757812 0.49977189302444458
0.89519608020782471 0.84418720006942749 0.51851266622543335
0.60819321870803833 0.84210330247879028 0.45164251327514648
0.61180961132049561 0.84185808897018433 0.45135217905044556
0.62044745683670044 0.84166908264160156 0.45266088843345642
0.63317883014678955 0.8406493067741394 0.45754861831665039
0.65405517816543579 0.83996140956878662 0.46419700980186462
0.6789582371711731 0.84109878540039062 0.47450315952301025
0.71022194623947144 0.84470963478088379 0.48643678426742554
0.74553358554840088 0.84736138582229614 0.49724820256233215
0.78097540140151978 0.85210913419723511 0.51333314180374146
0.81618595123291016 0.85627895593643188 0.52907657623291016
0.84664267301559448 0.85971367359161377 0.54322898387908936
0.87379837036132812 0.86454188823699951 0.55718785524368286
0.89825242757797241 0.87050729990005493 0.57405555248260498
0.13000136613845825 0.22818373143672943 0.22799798846244812
0.14188583195209503 0.22772657871246338 0.22759814560413361
0.15969379246234894 0.22704029083251953 0.22726716101169586
0.19923457503318787 0.22895513474941254 0.22827239334583282
0.25884827971458435 0.23196861147880554 0.22995609045028687
0.36868241429328918 0.23703011870384216 0.2319541871547699
0.51213473081588745 0.24533012509346008 0.23440752923488617
0.67408299446105957 0.26468133926391602 0.23343938589096069
0.79101943969726562 0.30546325445175171 0.23410762846469879
0.86629831790924072 0.36732673645019531 0.23574362695217133
0.91355770826339722 0.43133765459060669 0.24900007247924805
0.94585549831390381 0.49437984824180603 0.27161750197410583
0.97452378273010254 0.55187505483627319 0.30393102765083313
0.13184164464473724 0.23473010957241058 0.2284134179353714
0.14454551041126251 0.23520055413246155 0.22881631553173065
0.16675266623497009 0.23665401339530945 0.22867186367511749
0.20853748917579651 0.23871535062789917 0.22926980257034302
0.27415052056312561 0.24298138916492462 0.23101912438869476
0.38105061650276184 0.2486264556646347 0.23249872028827667
0.5303000807762146 0.26308295130729675 0.23248498141765594
0.68686592578887939 0.28753045201301575 0.23117430508136749
0.79762548208236694 0.33124268054962158 0.23076389729976654
0.86728841066360474 0.38971766829490662 0.23561462759971619
0.9139789342880249 0.4504888653755188 0.24819155037403107
0.94402557611465454 0.50700020790100098 0.27543306350708008
0.97276878356933594 0.56293946504592896 0.30907270312309265
0.13975198566913605 0.25034457445144653 0.2311110645532608
0.15020133554935455 0.25179731845855713 0.23125211894512177
0.17504000663757324 0.25460720062255859 0.231111079454422
0.22309203445911407 0.25924256443977356 0.23170274496078491
0.30020183324813843 0.26549407839775085 0.23210315406322479
0.40664678812026978 0.27378007769584656 0.23211967945098877
0.55661123991012573 0.29441139101982117 0.23094040155410767
0.69654154777526855 0.32380995154380798 0.22812595963478088
0.79954797029495239 0.36884257197380066 0.22747316956520081
0.86450731754302979 0.42108860611915588 0.23369874060153961
0.91058558225631714 0.47751015424728394 0.24630603194236755
0.94195294380187988 0.52723497152328491 0.2719234824180603
0.97101938724517822 0.57637143135070801 0.30669543147087097
0.14129506051540375 0.27848625183105469 0.23404920101165771
0.15105102956295013 0.28200224041938782 0.23388642072677612
0.17768387496471405 0.28337332606315613 0.23354005813598633
0.23267017304897308 0.29013735055923462 0.23330450057983398
0.3219350278377533 0.30292457342147827 0.2328711599111557
0.44205167889595032 0.31738963723182678 0.22972233593463898
0.57569444179534912 0.338817298412323 0.22542351484298706
0.70391017198562622 0.37138158082962036 0.22213196754455566
0.79853606224060059 0.41276666522026062 0.22125598788261414
0.85963201522827148 0.45852115750312805 0.22823308408260345
0.90499550104141235 0.50771379470825195 0.24112887680530548
0.93701529502868652 0.55044913291931152 0.26595860719680786
0.96669763326644897 0.5954594612121582 0.30563235282897949
0.1186658963561058 0.33158615231513977 0.2353689968585968
0.13570603728294373 0.33421051502227783 0.23628166317939758
0.17698712646961212 0.34176906943321228 0.23638434708118439
0.24101072549819946 0.35087960958480835 0.23592434823513031
0.33078473806381226 0.36490371823310852 0.23387004435062408
0.46279528737068176 0.39226320385932922 0.22895686328411102
0.59810775518417358 0.41996455192565918 0.22032471001148224
0.71049028635025024 0.43623495101928711 0.21431659162044525
0.79037737846374512 0.46327203512191772 0.21213029325008392
0.84922462701797485 0.50204497575759888 0.21781310439109802
0.89264237880706787 0.54139041900634766 0.23391200602054596
0.92696893215179443 0.57922571897506714 0.26209968328475952
0.95843791961669922 0.61615097522735596 0.30219751596450806
0.044295366853475571 0.40863832831382751 0.23341968655586243
0.081845000386238098 0.41095966100692749 0.23412661254405975
0.1495589017868042 0.416727215051651 0.23501083254814148
0.22844515740871429 0.42595508694648743 0.23602353036403656
0.33216413855552673 0.44107624888420105 0.23407962918281555
0.46133309602737427 0.46661412715911865 0.2291763573884964
0.60397058725357056 0.50258767604827881 0.22242936491966248
0.70809924602508545 0.52448093891143799 0.2178131639957428
0.78315269947052002 0.5370972752571106 0.21146620810031891
0.83986997604370117 0.54974216222763062 0.20853528380393982
0.88352632522583008 0.57499104738235474 0.22240470349788666
0.91799437999725342 0.60667747259140015 0.2530461847782135
0.95126926898956299 0.63892316818237305 0.29393288493156433
0.0043342439457774162 0.49522671103477478 0.23258385062217712
0.015253612771630287 0.49753212928771973 0.23097865283489227
0.091653265058994293 0.49797537922859192 0.23272210359573364
0.20491461455821991 0.50068557262420654 0.23619206249713898
0.32778745889663696 0.51551228761672974 0.23514901101589203
0.45355513691902161 0.53750824928283691 0.23378583788871765
0.58191174268722534 0.56319820880889893 0.23361049592494965
0.69722694158554077 0.59216511249542236 0.23404224216938019
0.77445435523986816 0.60951191186904907 0.2330634593963623
0.82800549268722534 0.61703372001647949 0.22952504456043243
0.87109667062759399 0.62495160102844238 0.23761743307113647
0.90762537717819214 0.63984084129333496 0.25004264712333679
0.94291394948959351 0.66265261173248291 0.28543806076049805
0.0029477735515683889 0.57585734128952026 0.23513425886631012
0.0056704054586589336 0.57177525758743286 0.23226350545883179
0.079270109534263611 0.57328802347183228 0.23340423405170441
0.20534487068653107 0.57409024238586426 0.23798637092113495
0.32422468066215515 0.58284062147140503 0.24075330793857574
0.45118898153305054 0.59844154119491577 0.24451014399528503
0.56712740659713745 0.61757457256317139 0.24778304994106293
0.66946130990982056 0.63900995254516602 0.25890806317329407
0.75807201862335205 0.66546005010604858 0.27208143472671509
0.81460684537887573 0.67566913366317749 0.27949121594429016
0.85689973831176758 0.68223804235458374 0.28795412182807922
0.89603340625762939 0.68854826688766479 0.29773187637329102
0.93401867151260376 0.69906651973724365 0.31311720609664917
0.013998428359627724 0.64337265491485596 0.23926538228988647
0.045758161693811417 0.64135342836380005 0.23934502899646759
0.1419447660446167 0.64068853855133057 0.24138711392879486
0.24647827446460724 0.64019107818603516 0.24733351171016693
0.34628057479858398 0.64509689807891846 0.25409510731697083
0.45957115292549133 0.65559440851211548 0.26382413506507874
0.56610876321792603 0.66818696260452271 0.27552232146263123
0.65747010707855225 0.68577742576599121 0.29240632057189941
0.73507010936737061 0.70341068506240845 0.31057640910148621
0.79729396104812622 0.72093701362609863 0.32940724492073059
0.84586310386657715 0.73318380117416382 0.34675788879394531
0.88648658990859985 0.73727083206176758 0.3599122166633606
0.92312061786651611 0.74444907903671265 0.37596404552459717
0.16669856011867523 0.70181357860565186 0.26082733273506165
0.19807235896587372 0.69912159442901611 0.26204833388328552
0.25333145260810852 0.69688200950622559 0.2656562328338623
0.32304447889328003 0.696341872215271 0.27296221256256104
0.4014488160610199 0.69847029447555542 0.28350499272346497
0.48910373449325562 0.70433169603347778 0.29669189453125
0.58057981729507446 0.7144172191619873 0.31344854831695557
0.66038250923156738 0.72732782363891602 0.33298021554946899
0.72599965333938599 0.74002605676651001 0.35214316844940186
0.78263372182846069 0.75157660245895386 0.37111109495162964
0.83032238483428955 0.76386493444442749 0.39164412021636963
0.8789103627204895 0.78075534105300903 0.41924059391021729
0.91464197635650635 0.78914099931716919 0.43838933110237122
0.33396336436271667 0.74982041120529175 0.30561584234237671
0.34525325894355774 0.74808961153030396 0.3062889575958252
0.3747277557849884 0.74513751268386841 0.31033593416213989
0.41894057393074036 0.74456799030303955 0.31736934185028076
0.47401678562164307 0.74552345275878906 0.32680621743202209
0.53714901208877563 0.74902176856994629 0.34090015292167664
0.60953253507614136 0.75738322734832764 0.3592408299446106
0.67565852403640747 0.76773750782012939 0.37934517860412598
0.72911125421524048 0.77708345651626587 0.39837557077407837
0.7801012396812439 0.78597092628479004 0.41754728555679321
0.82537972927093506 0.79439824819564819 0.43712010979652405
0.86741006374359131 0.80762642621994019 0.46118780970573425
0.90454816818237305 0.81989955902099609 0.48462530970573425
0.48237809538841248 0.79722243547439575 0.37306526303291321
0.4863307774066925 0.79548764228820801 0.37631452083587646
0.50286084413528442 0.79313308000564575 0.37953671813011169
0.52762508392333984 0.79242682456970215 0.38358286023139954
0.56096792221069336 0.79257476329803467 0.3899785578250885
0.60267829895019531 0.79523372650146484 0.40177509188652039
0.65407222509384155 0.80129116773605347 0.41793704032897949
0.70490962266921997 0.80874389410018921 0.43667501211166382
0.75270187854766846 0.81542229652404785 0.45631366968154907
0.79391628503799438 0.82226085662841797 0.47443884611129761
0.8305668830871582 0.82788914442062378 0.48992487788200378
0.86351114511489868 0.83476448059082031 0.50576066970825195
0.89474773406982422 0.84351730346679688 0.52238833904266357
0.61260366439819336 0.8432382345199585 0.45689618587493896
0.61339783668518066 0.84197783470153809 0.45789748430252075
0.62121635675430298 0.84110063314437866 0.4596056342124939
0.63546204566955566 0.84063893556594849 0.46280422806739807
0.65553587675094604 0.83985209465026855 0.46851938962936401
0.68219077587127686 0.84262418746948242 0.47895267605781555
0.71473556756973267 0.8457980751991272 0.49098649621009827
0.74677586555480957 0.84823918342590332 0.50306451320648193
0.7837488055229187 0.8528822660446167 0.51879286766052246
0.81600046157836914 0.85538452863693237 0.53110629320144653
0.8458869457244873 0.85857933759689331 0.54387515783309937
0.87236547470092773 0.86278223991394043 0.55614489316940308
0.89830881357192993 0.87058728933334351 0.57335150241851807
0.13558408617973328 0.23139409720897675 0.23498035967350006
0.14939627051353455 0.23133490979671478 0.23564741015434265
0.16393016278743744 0.22941197454929352 0.23439362645149231
0.1966177374124527 0.22969835996627808 0.2350420206785202
0.26188555359840393 0.23114745318889618 0.2392166405916214
0.37472587823867798 0.23152117431163788 0.24388682842254639
0.53324490785598755 0.22942464053630829 0.25111642479896545
0.6952211856842041 0.26075643301010132 0.25986939668655396
0.80525362491607666 0.31592553853988647 0.26926779747009277
0.87152504920959473 0.38463908433914185 0.28011390566825867
0.91348445415496826 0.45220595598220825 0.29653048515319824
0.9413331151008606 0.5151253342628479 0.32467657327651978
0.96737182140350342 0.57140767574310303 0.35598123073577881
0.13526266813278198 0.23587609827518463 0.23555123805999756
0.14999894797801971 0.23793013393878937 0.23681241273880005
0.17125900089740753 0.23920276761054993 0.23714748024940491
0.21336506307125092 0.241254523396492 0.23886263370513916
0.28419530391693115 0.24418950080871582 0.24274428188800812
0.40191522240638733 0.24626846611499786 0.24904654920101166
0.55500918626785278 0.25228846073150635 0.25378039479255676
0.70491600036621094 0.29124331474304199 0.26152437925338745
0.80957639217376709 0.34284296631813049 0.26830300688743591
0.87126731872558594 0.40653935074806213 0.28037133812904358
0.91260319948196411 0.46826514601707458 0.29727855324745178
0.94081836938858032 0.52468621730804443 0.32488334178924561
0.967964768409729 0.58029204607009888 0.35781016945838928
0.14345014095306396 0.25314036011695862 0.2396867424249649
0.15537844598293304 0.25423780083656311 0.24009740352630615
0.18286214768886566 0.25781834125518799 0.24165627360343933
0.23156097531318665 0.26282283663749695 0.24281294643878937
0.31422269344329834 0.27078044414520264 0.2460736483335495
0.43562078475952148 0.27772712707519531 0.2529289722442627
0.58233213424682617 0.29688870906829834 0.25483465194702148
0.71459501981735229 0.33409935235977173 0.2594447135925293
0.80803978443145752 0.380440354347229 0.26379120349884033
0.86676514148712158 0.43476817011833191 0.27624562382698059
0.90738928318023682 0.49130207300186157 0.29542702436447144
0.93817055225372314 0.54216212034225464 0.32229569554328918
0.96698987483978271 0.59161931276321411 0.35526594519615173
0.15242543816566467 0.2830299437046051 0.24577924609184265
0.16370195150375366 0.28649380803108215 0.24707065522670746
0.19224373996257782 0.28973573446273804 0.24844253063201904
0.24946863949298859 0.29954236745834351 0.24928112328052521
0.34057000279426575 0.30988088250160217 0.24983231723308563
0.46892064809799194 0.32465699315071106 0.24886097013950348
0.60417455434799194 0.34741923213005066 0.24862951040267944
0.72025686502456665 0.37965723872184753 0.25022131204605103
0.805858314037323 0.42272204160690308 0.25512319803237915
0.86268246173858643 0.46910914778709412 0.26761823892593384
0.90247470140457153 0.51808303594589233 0.28723150491714478
0.93364185094833374 0.56217354536056519 0.31523779034614563
0.96298038959503174 0.60905653238296509 0.35324263572692871
0.15382188558578491 0.34016916155815125 0.25269830226898193
0.16525985300540924 0.34498274326324463 0.25394544005393982
0.19767084717750549 0.34977748990058899 0.25246599316596985
0.25690931081771851 0.35876011848449707 0.25236791372299194
0.35421764850616455 0.37518644332885742 0.25320413708686829
0.48826700448989868 0.39899146556854248 0.24949626624584198
0.61621260643005371 0.41918474435806274 0.24365769326686859
0.71696406602859497 0.43897971510887146 0.2420901358127594
