luts/instant_consumer/polaroid_px-100uv+_warm_-.cube
# Created by: G'MIC (https://gmic.eu)
TITLE "polaroid_px-100uv+_warm_-"
# LUT size
LUT_3D_SIZE 5
# Data domain
DOMAIN_MIN 0.0 0.0 0.0
DOMAIN_MAX 1.0 1.0 1.0
# LUT data points
0.12873341143131256 0.10289227217435837 0.10974086821079254
0.18669775128364563 0.16498938202857971 0.16857820749282837
0.33987510204315186 0.32592481374740601 0.32563504576683044
0.48473918437957764 0.47116363048553467 0.46698012948036194
0.62559980154037476 0.6102527379989624 0.59895163774490356
0.21584588289260864 0.19611994922161102 0.19759838283061981
0.24265016615390778 0.22575771808624268 0.22830125689506531
0.35786604881286621 0.34506696462631226 0.34246370196342468
0.48562353849411011 0.47377675771713257 0.46844929456710815
0.62080472707748413 0.60721194744110107 0.59518760442733765
0.40069571137428284 0.38623267412185669 0.38583791255950928
0.38706982135772705 0.37479284405708313 0.37533855438232422
0.44919785857200623 0.43776202201843262 0.43873617053031921
0.52936488389968872 0.51813524961471558 0.51447927951812744
0.64548629522323608 0.63353192806243896 0.61896103620529175
0.54551136493682861 0.53245687484741211 0.52696061134338379
0.53837257623672485 0.52503883838653564 0.52048021554946899
0.55891513824462891 0.54493266344070435 0.54074943065643311
0.61894667148590088 0.60668140649795532 0.59514313936233521
0.72873538732528687 0.71690338850021362 0.69490092992782593
0.77101629972457886 0.75610458850860596 0.73783612251281738
0.76874798536300659 0.75348329544067383 0.73560959100723267
0.77367955446243286 0.75949889421463013 0.74028521776199341
0.80827593803405762 0.7968747615814209 0.77521395683288574
0.86286312341690063 0.85121774673461914 0.83388823270797729
0.23876236379146576 0.22062410414218903 0.22316399216651917
0.29431372880935669 0.27788600325584412 0.27775436639785767
0.41492730379104614 0.40300729870796204 0.40284556150436401
0.53914433717727661 0.52661740779876709 0.52174311876296997
0.66016632318496704 0.64503586292266846 0.63103902339935303
0.30908587574958801 0.29198864102363586 0.29334729909896851
0.35735484957695007 0.34404158592224121 0.34309250116348267
0.43908035755157471 0.42811092734336853 0.4261576235294342
0.54325574636459351 0.53154528141021729 0.52491909265518188
0.66690021753311157 0.65237486362457275 0.63813340663909912
0.47109046578407288 0.45894205570220947 0.45515459775924683
0.47354903817176819 0.46244966983795166 0.46096163988113403
0.49351632595062256 0.48195016384124756 0.48140916228294373
0.56791925430297852 0.55554968118667603 0.54896014928817749
0.68372428417205811 0.66936755180358887 0.65328830480575562
0.59946709871292114 0.58856832981109619 0.5784187912940979
0.59361714124679565 0.58072018623352051 0.57143718004226685
0.59205120801925659 0.57716614007949829 0.56907272338867188
0.64290106296539307 0.62845540046691895 0.61522072553634644
0.74199408292770386 0.72760391235351562 0.70689350366592407
0.79002833366394043 0.77765840291976929 0.75854289531707764
0.78518456220626831 0.77157074213027954 0.75182199478149414
0.78524720668792725 0.77108132839202881 0.75131189823150635
0.82145148515701294 0.80904757976531982 0.78910273313522339
0.87367922067642212 0.86122822761535645 0.84214627742767334
0.44310152530670166 0.43048554658889771 0.42849400639533997
0.4745752215385437 0.46291446685791016 0.46161666512489319
0.50962930917739868 0.49789747595787048 0.49416017532348633
0.58947658538818359 0.57804673910140991 0.56754207611083984
0.7176508903503418 0.70354229211807251 0.6866876482963562
0.47832643985748291 0.46657240390777588 0.46630150079727173
0.50288683176040649 0.49115681648254395 0.4869723916053772
0.52808564901351929 0.51608461141586304 0.51284599304199219
0.60411763191223145 0.59092074632644653 0.58170813322067261
0.73530113697052002 0.72037965059280396 0.70176142454147339
0.51837003231048584 0.50658315420150757 0.50385242700576782
0.55039340257644653 0.53743046522140503 0.53149890899658203
0.57868045568466187 0.56607049703598022 0.55622828006744385
0.64325487613677979 0.6300424337387085 0.61517524719238281
0.76195609569549561 0.74580991268157959 0.72710508108139038
0.65166419744491577 0.63933521509170532 0.62557142972946167
0.66862207651138306 0.6535380482673645 0.63760101795196533
0.67229276895523071 0.65755367279052734 0.64019346237182617
0.70462805032730103 0.68897128105163574 0.67066061496734619
0.79307597875595093 0.77735978364944458 0.75786465406417847
0.83180367946624756 0.81984156370162964 0.79999339580535889
0.8312375545501709 0.81845200061798096 0.79654109477996826
0.83598226308822632 0.82326221466064453 0.80127984285354614
0.84845077991485596 0.83455473184585571 0.81468647718429565
0.88791722059249878 0.87408280372619629 0.856029212474823
0.63120186328887939 0.61942476034164429 0.60695934295654297
0.64061719179153442 0.62819778919219971 0.61496084928512573
0.67682063579559326 0.66246074438095093 0.64614832401275635
0.70278471708297729 0.6884390115737915 0.6693565845489502
0.7710564136505127 0.75549715757369995 0.735024094581604
0.64535850286483765 0.63487100601196289 0.62350505590438843
0.65596252679824829 0.64323699474334717 0.6297575831413269
0.68493694067001343 0.67007231712341309 0.65419012308120728
0.71928006410598755 0.70307242870330811 0.68514657020568848
0.78322559595108032 0.76931744813919067 0.74734050035476685
0.64940875768661499 0.63816255331039429 0.62718755006790161
0.66925138235092163 0.6555713415145874 0.64103949069976807
0.70233088731765747 0.68848598003387451 0.66938126087188721
0.73904597759246826 0.72648704051971436 0.70441645383834839
0.81862890720367432 0.80520695447921753 0.78401076793670654
0.70101594924926758 0.68905484676361084 0.66884011030197144
0.71931308507919312 0.70439428091049194 0.68548721075057983
0.7446628212928772 0.73067677021026611 0.70832961797714233
0.78689563274383545 0.77315014600753784 0.75085997581481934
0.8536689281463623 0.84174412488937378 0.82255631685256958
0.86325329542160034 0.8513789176940918 0.8316606879234314
0.85306280851364136 0.84150773286819458 0.82089102268218994
0.87267249822616577 0.86158567667007446 0.84033870697021484
0.88616096973419189 0.87359005212783813 0.8547632098197937
0.90645760297775269 0.89405602216720581 0.87792164087295532
0.85068023204803467 0.83913570642471313 0.81924468278884888
0.85444289445877075 0.84258443117141724 0.82255649566650391
0.86508041620254517 0.85277175903320312 0.83307504653930664
0.89157372713088989 0.8808664083480835 0.86170369386672974
0.89663457870483398 0.88468515872955322 0.86681908369064331
0.85249179601669312 0.84243297576904297 0.82331496477127075
0.85664761066436768 0.84587723016738892 0.82497167587280273
0.8715827465057373 0.86016499996185303 0.84004050493240356
0.89231348037719727 0.88259059190750122 0.86533659696578979
0.89621824026107788 0.88521802425384521 0.86827462911605835
0.8571326732635498 0.84843927621841431 0.82959556579589844
0.86003071069717407 0.84985268115997314 0.82910406589508057
0.88085615634918213 0.87042200565338135 0.84822231531143188
0.90212148427963257 0.89282536506652832 0.87276387214660645
0.89980918169021606 0.88985568284988403 0.87222403287887573
0.86602741479873657 0.85731148719787598 0.83614319562911987
0.87102735042572021 0.86172407865524292 0.84104901552200317
0.87724095582962036 0.86746561527252197 0.84562778472900391
0.90195876359939575 0.89311188459396362 0.87343686819076538
0.92061710357666016 0.91247940063476562 0.89658999443054199
0.89951753616333008 0.89114558696746826 0.87394297122955322
0.90017086267471313 0.89255332946777344 0.87616461515426636
0.90644156932830811 0.89839804172515869 0.88157254457473755
0.92526334524154663 0.91670554876327515 0.9014020562171936
0.93410766124725342 0.9257429838180542 0.91258144378662109
