luts/instant_consumer/polaroid_px-70_warm_+.cube
# Created by: G'MIC (https://gmic.eu)
TITLE "polaroid_px-70_warm_+"
# LUT size
LUT_3D_SIZE 13
# Data domain
DOMAIN_MIN 0.0 0.0 0.0
DOMAIN_MAX 1.0 1.0 1.0
# LUT data points
0.23978510499000549 0.15894129872322083 0.15686275064945221
0.24507942795753479 0.15755157172679901 0.15686275064945221
0.25211217999458313 0.1577732264995575 0.15663714706897736
0.26250389218330383 0.15818203985691071 0.15456463396549225
0.28376948833465576 0.15691044926643372 0.15662062168121338
0.32918259501457214 0.15560546517372131 0.15686275064945221
0.41072189807891846 0.15649215877056122 0.15640942752361298
0.52330589294433594 0.15888665616512299 0.15225549042224884
0.67008531093597412 0.17326664924621582 0.1461959034204483
0.8140832781791687 0.23305819928646088 0.12876258790493011
0.93090569972991943 0.34157440066337585 0.095930136740207672
0.99249434471130371 0.44092842936515808 0.078779704868793488
1 0.51018458604812622 0.10467679053544998
0.23942357301712036 0.16007505357265472 0.15600277483463287
0.24559867382049561 0.16142581403255463 0.15685807168483734
0.2544063925743103 0.1642499566078186 0.15686275064945221
0.27118641138076782 0.16684164106845856 0.15686275064945221
0.29875212907791138 0.16484415531158447 0.15663637220859528
0.3370855450630188 0.16252169013023376 0.15657337009906769
0.41796419024467468 0.16462983191013336 0.1563662588596344
0.53661006689071655 0.17339365184307098 0.15189608931541443
0.67961013317108154 0.19706481695175171 0.14312802255153656
0.82097792625427246 0.26229050755500793 0.12108118087053299
0.93386286497116089 0.3641592264175415 0.088840916752815247
0.99016153812408447 0.4560331404209137 0.072686843574047089
1 0.52652686834335327 0.10211098194122314
0.23950521647930145 0.16577687859535217 0.15499986708164215
0.24617253243923187 0.16846895217895508 0.15684212744235992
0.25572514533996582 0.17228040099143982 0.15686275064945221
0.2781529426574707 0.17786599695682526 0.15680497884750366
0.30916616320610046 0.17889495193958282 0.15486668050289154
0.35406202077865601 0.18017660081386566 0.15300363302230835
0.44057729840278625 0.19094614684581757 0.15138940513134003
0.56166070699691772 0.20821613073348999 0.14570841193199158
0.69836950302124023 0.23921890556812286 0.13375009596347809
0.8308066725730896 0.30785876512527466 0.10680872946977615
0.93455237150192261 0.40178591012954712 0.071927718818187714
0.98857271671295166 0.48132118582725525 0.05935332179069519
1 0.5498197078704834 0.10043542832136154
0.24191725254058838 0.1925957053899765 0.15700678527355194
0.24839417636394501 0.19513890147209167 0.15711550414562225
0.25714850425720215 0.19451680779457092 0.15697333216667175
0.28203782439231873 0.19916823506355286 0.1560080349445343
0.32086774706840515 0.2089560478925705 0.15309721231460571
0.3831234872341156 0.22405345737934113 0.14964108169078827
0.46905708312988281 0.23189516365528107 0.14530631899833679
0.58467203378677368 0.25195503234863281 0.13649344444274902
0.72053259611129761 0.29589459300041199 0.11881619691848755
0.83565592765808105 0.36180466413497925 0.08771592378616333
0.93524801731109619 0.45203900337219238 0.043218664824962616
0.98606091737747192 0.51698964834213257 0.038813423365354538
0.99965387582778931 0.57527154684066772 0.089874595403671265
0.24186719954013824 0.24403579533100128 0.15720741450786591
0.24914637207984924 0.25383391976356506 0.15714985132217407
0.26296523213386536 0.2521871030330658 0.15671093761920929
0.29106566309928894 0.25132861733436584 0.15448656678199768
0.33737438917160034 0.2615295946598053 0.15112258493900299
0.41071134805679321 0.27857595682144165 0.14537136256694794
0.50435549020767212 0.29776838421821594 0.13618689775466919
0.61625850200653076 0.32312408089637756 0.12059083580970764
0.73215639591217041 0.36159610748291016 0.096486017107963562
0.84125447273254395 0.42661014199256897 0.051242019981145859
0.93160748481750488 0.50252878665924072 0.013801006600260735
0.98221290111541748 0.55878078937530518 0.020055225118994713
0.99915879964828491 0.60767781734466553 0.080368980765342712
0.23297621309757233 0.33067435026168823 0.15256522595882416
0.24500501155853271 0.33238357305526733 0.15282212197780609
0.26473996043205261 0.33421903848648071 0.15254461765289307
0.30149573087692261 0.34224805235862732 0.14964194595813751
0.35722810029983521 0.35608974099159241 0.14355692267417908
0.44012308120727539 0.3729974627494812 0.13520053029060364
0.54526084661483765 0.39937952160835266 0.11849848181009293
0.65398550033569336 0.43087223172187805 0.091672278940677643
0.75720518827438354 0.4671119749546051 0.051079381257295609
0.85193979740142822 0.51094579696655273 0.011656293645501137
0.92500030994415283 0.55868321657180786 0.0036765304394066334
0.97416472434997559 0.60123544931411743 0.0089816078543663025
0.99765539169311523 0.64271271228790283 0.066342972218990326
0.21098297834396362 0.45565688610076904 0.13845168054103851
0.23089134693145752 0.4584958553314209 0.1390199214220047
0.26278743147850037 0.45706009864807129 0.14136365056037903
0.30764010548591614 0.4575217068195343 0.14055913686752319
0.37394365668296814 0.46690753102302551 0.13322046399116516
0.46843931078910828 0.48896297812461853 0.11983617395162582
0.57231920957565308 0.51102226972579956 0.099374212324619293
0.68179088830947876 0.54149794578552246 0.059307742863893509
0.78199565410614014 0.57575255632400513 0.013165178708732128
0.86180001497268677 0.60721671581268311 0.0029503765981644392
0.92257231473922729 0.63454329967498779 0.0032414605375379324
0.96611618995666504 0.65223407745361328 0.0063054105266928673
0.9968915581703186 0.67873579263687134 0.05568898469209671
0.21098595857620239 0.59274661540985107 0.12316346913576126
0.23796136677265167 0.58226579427719116 0.12695243954658508
0.27904245257377625 0.58329647779464722 0.12959180772304535
0.33639022707939148 0.58703070878982544 0.13288873434066772
0.41376486420631409 0.59507220983505249 0.12812556326389313
0.50522643327713013 0.60789716243743896 0.11512687802314758
0.60477083921432495 0.62464314699172974 0.097094468772411346
0.70220160484313965 0.64336711168289185 0.064908407628536224
0.79265940189361572 0.66462492942810059 0.027079712599515915
0.86444824934005737 0.68698394298553467 0.016526585444808006
0.91739428043365479 0.70211738348007202 0.027046039700508118
0.95969492197036743 0.71218162775039673 0.05274016410112381
0.99229907989501953 0.7247123122215271 0.10551954060792923
0.29568639397621155 0.70596235990524292 0.13984636962413788
0.31765735149383545 0.7015002965927124 0.14229473471641541
0.35100939869880676 0.69363230466842651 0.14555574953556061
0.40257918834686279 0.69694578647613525 0.15121819078922272
0.47094565629959106 0.70170456171035767 0.15470944344997406
0.55285614728927612 0.70976519584655762 0.15050952136516571
0.64067882299423218 0.72041666507720947 0.14548766613006592
0.72294169664382935 0.72911655902862549 0.13792510330677032
0.79838144779205322 0.73961979150772095 0.12618845701217651
0.86116987466812134 0.75188642740249634 0.11926323175430298
0.91281402111053467 0.76415473222732544 0.1367671936750412
0.95313066244125366 0.77181029319763184 0.16786378622055054
0.98541665077209473 0.77980154752731323 0.21413427591323853
0.43148207664489746 0.78857421875 0.21247959136962891
0.43871870636940002 0.78357350826263428 0.20910912752151489
0.46075713634490967 0.77928751707077026 0.20920340716838837
0.4947696328163147 0.77637958526611328 0.21437911689281464
0.54878079891204834 0.78110027313232422 0.22705166041851044
0.61205971240997314 0.78567326068878174 0.23348462581634521
0.67731082439422607 0.78775328397750854 0.23320885002613068
0.74332994222640991 0.79111379384994507 0.23865389823913574
0.80765277147293091 0.79798769950866699 0.23865066468715668
0.85682052373886108 0.806449294090271 0.23818306624889374
0.90503644943237305 0.81453824043273926 0.24564330279827118
0.9443354606628418 0.82195204496383667 0.27079316973686218
0.97536712884902954 0.82907921075820923 0.31472292542457581
0.56983369588851929 0.84751969575881958 0.31460535526275635
0.57458376884460449 0.84506028890609741 0.31250086426734924
0.58573329448699951 0.84140497446060181 0.31127333641052246
0.61115580797195435 0.84092962741851807 0.31908497214317322
0.64111363887786865 0.84116446971893311 0.32622495293617249
0.68136680126190186 0.84139430522918701 0.33330997824668884
0.72899550199508667 0.84602344036102295 0.34493902325630188
0.77396589517593384 0.84669041633605957 0.34595319628715515
0.81901460886001587 0.85043162107467651 0.35150280594825745
0.8610842227935791 0.85873609781265259 0.36188527941703796
0.90127760171890259 0.86280560493469238 0.36498957872390747
0.93624359369277954 0.86722230911254883 0.37560370564460754
0.96421211957931519 0.87367761135101318 0.4084831178188324
0.69991773366928101 0.89134037494659424 0.42043116688728333
0.70053547620773315 0.89045226573944092 0.41766592860221863
0.70898395776748657 0.89034587144851685 0.42085427045822144
0.72303205728530884 0.88932424783706665 0.42556652426719666
0.74000793695449829 0.88791358470916748 0.43109947443008423
0.76253277063369751 0.88849377632141113 0.43728974461555481
0.79182195663452148 0.89120817184448242 0.44497027993202209
0.81992828845977783 0.89156925678253174 0.44640669226646423
0.84811395406723022 0.89592021703720093 0.45402425527572632
0.87686073780059814 0.90095198154449463 0.46223551034927368
0.90443193912506104 0.90313255786895752 0.46802544593811035
0.93031215667724609 0.90523535013198853 0.47463798522949219
0.95712143182754517 0.90901798009872437 0.48944929242134094
0.80660152435302734 0.923847496509552 0.50372225046157837
0.80720984935760498 0.92355519533157349 0.50294476747512817
0.81286764144897461 0.9240688681602478 0.50499987602233887
0.81864500045776367 0.92337417602539062 0.50814265012741089
0.8274456262588501 0.92262154817581177 0.5095708966255188
0.83904892206192017 0.92274576425552368 0.51327908039093018
0.85574507713317871 0.92418313026428223 0.52036827802658081
0.87142443656921387 0.92418956756591797 0.5205763578414917
0.88952362537384033 0.92742007970809937 0.52671736478805542
0.90583324432373047 0.92923855781555176 0.53087526559829712
0.92374598979949951 0.93155747652053833 0.53493887186050415
0.93968850374221802 0.93252980709075928 0.53840345144271851
0.95568138360977173 0.93534660339355469 0.54688423871994019
0.23921568691730499 0.15610899031162262 0.15753675997257233
0.24385054409503937 0.15559357404708862 0.15778245031833649
0.25065144896507263 0.1556706577539444 0.15686079859733582
0.25995877385139465 0.15593920648097992 0.15551277995109558
0.28446593880653381 0.15579637885093689 0.15688605606555939
0.32696637511253357 0.15495650470256805 0.15836697816848755
0.41003125905990601 0.15530937910079956 0.15962384641170502
0.53572064638137817 0.16143339872360229 0.15746049582958221
0.68572914600372314 0.17964562773704529 0.15203484892845154
0.82844799757003784 0.24519512057304382 0.14087460935115814
0.93739837408065796 0.35238781571388245 0.12487956136465073
0.99441134929656982 0.4516371488571167 0.1219061017036438
1 0.52091091871261597 0.14935562014579773
0.23940075933933258 0.15878409147262573 0.15753675997257233
0.24457249045372009 0.1593538373708725 0.15741664171218872
0.25310495495796204 0.16138181090354919 0.15693861246109009
0.27011483907699585 0.1648871898651123 0.15755046904087067
0.29945525527000427 0.16548891365528107 0.1583477258682251
0.3390088677406311 0.16293278336524963 0.15896421670913696
0.42346465587615967 0.16698649525642395 0.15906277298927307
0.54973828792572021 0.17867803573608398 0.15665110945701599
0.69651108980178833 0.20585396885871887 0.14940108358860016
0.83399564027786255 0.27347835898399353 0.13545666635036469
0.93958497047424316 0.3749256432056427 0.11824882030487061
0.99417883157730103 0.46795457601547241 0.11787895113229752
1 0.53780925273895264 0.14869554340839386
0.2409142404794693 0.16754952073097229 0.15786094963550568
0.24584244191646576 0.16738833487033844 0.15736745297908783
0.2556319534778595 0.16872884333133698 0.15726014971733093
0.2790839672088623 0.17725430428981781 0.15815441310405731
0.31224340200424194 0.18022896349430084 0.15797683596611023
0.3590969443321228 0.18126480281352997 0.15728467702865601
0.44681990146636963 0.19107232987880707 0.15704676508903503
0.57179880142211914 0.20739500224590302 0.15333639085292816
0.71022951602935791 0.24336177110671997 0.14425927400588989
0.83986121416091919 0.31468403339385986 0.12576912343502045
0.94201672077178955 0.41295751929283142 0.1057051420211792
0.99281096458435059 0.4938189685344696 0.10930357128381729
1 0.55772560834884644 0.14630760252475739
0.24466156959533691 0.19318990409374237 0.16085229814052582
0.24979971349239349 0.19610677659511566 0.16032099723815918
0.26214185357093811 0.19782915711402893 0.1595899909734726
0.28596663475036621 0.20126557350158691 0.15913949906826019
0.32450130581855774 0.20921656489372253 0.15774117410182953
0.38749665021896362 0.22308294475078583 0.15524603426456451
0.47959911823272705 0.23573534190654755 0.1529393196105957
0.59833616018295288 0.2556765079498291 0.1462382972240448
0.72660368680953979 0.29886755347251892 0.1322207897901535
0.84782242774963379 0.37361466884613037 0.10887904465198517
0.9398462176322937 0.46000432968139648 0.088078998029232025
0.98855340480804443 0.52859205007553101 0.097936607897281647
0.99871939420700073 0.58270525932312012 0.13977594673633575
0.24531559646129608 0.249653160572052 0.16200044751167297
0.25233137607574463 0.25177547335624695 0.16194580495357513
0.26975715160369873 0.25443893671035767 0.1622757613658905
0.29829591512680054 0.26022398471832275 0.16143377125263214
0.3455372154712677 0.26827877759933472 0.15754373371601105
0.41872358322143555 0.28278574347496033 0.15207043290138245
0.51539182662963867 0.3024621307849884 0.14394678175449371
0.62787884473800659 0.32735815644264221 0.13122054934501648
0.74504005908966064 0.37031790614128113 0.11112027615308762
0.85209310054779053 0.43786206841468811 0.0800347700715065
0.93496054410934448 0.50924098491668701 0.058932092040777206
0.98375576734542847 0.56752675771713257 0.079875081777572632
0.99880003929138184 0.61183565855026245 0.12986718118190765
0.23673422634601593 0.34103214740753174 0.15856277942657471
0.24950291216373444 0.34077471494674683 0.15926253795623779
0.27190682291984558 0.34296628832817078 0.15992632508277893
0.3090355396270752 0.34876164793968201 0.15927349030971527
0.36626002192497253 0.36394757032394409 0.15390543639659882
0.45159858465194702 0.38307932019233704 0.14479714632034302
0.5544467568397522 0.40656471252441406 0.13065977394580841
0.66417628526687622 0.43760377168655396 0.10728758573532104
0.7686927318572998 0.47491315007209778 0.074188604950904846
0.85374867916107178 0.51400166749954224 0.040810469537973404
0.92779338359832764 0.56206566095352173 0.024142889305949211
0.97657918930053711 0.60813838243484497 0.051397748291492462
0.99727338552474976 0.64817982912063599 0.12338569760322571
0.21757851541042328 0.46654310822486877 0.14886356890201569
0.2383636087179184 0.46408870816230774 0.15022601187229156
0.26945292949676514 0.4610646665096283 0.1518867015838623
0.3163449764251709 0.46778303384780884 0.15253113210201263
0.38789764046669006 0.4775749146938324 0.14903615415096283
0.48153957724571228 0.49674493074417114 0.1371520459651947
0.58243805170059204 0.51722961664199829 0.11679147183895111
0.68988144397735596 0.54895579814910889 0.084964901208877563
0.78894639015197754 0.58315622806549072 0.045895148068666458
0.86728525161743164 0.61077141761779785 0.01970336027443409
0.92397868633270264 0.63340270519256592 0.016272256150841713
0.97073107957839966 0.65541338920593262 0.034167975187301636
0.99605995416641235 0.68420106172561646 0.11280369758605957
0.22635020315647125 0.59856253862380981 0.1405021995306015
0.25662416219711304 0.59330117702484131 0.14401131868362427
0.29245969653129578 0.58812302350997925 0.14639012515544891
0.34657058119773865 0.58941316604614258 0.15096206963062286
0.4236854612827301 0.59751224517822266 0.14818094670772552
0.51468503475189209 0.61352634429931641 0.13729526102542877
0.61070722341537476 0.62855690717697144 0.12187433987855911
0.70992326736450195 0.65013319253921509 0.10056346654891968
0.7998993992805481 0.67068618535995483 0.073981404304504395
0.86856073141098022 0.68972182273864746 0.062830694019794464
0.9205327033996582 0.70513224601745605 0.077628999948501587
0.96140944957733154 0.71359813213348389 0.10197854042053223
0.99163538217544556 0.72445058822631836 0.14282381534576416
0.31302070617675781 0.70947778224945068 0.16244055330753326
0.33433005213737488 0.70686507225036621 0.164674311876297
0.36713579297065735 0.69890528917312622 0.1685829758644104
0.41719689965248108 0.69902974367141724 0.17468881607055664
0.48131665587425232 0.70349264144897461 0.17818400263786316
0.55956745147705078 0.71023845672607422 0.17790435254573822
0.64379006624221802 0.72032970190048218 0.17206282913684845
0.72714853286743164 0.73113203048706055 0.16687934100627899
0.79998648166656494 0.74163877964019775 0.16084840893745422
0.86304068565368652 0.7537076473236084 0.15820400416851044
0.91462498903274536 0.76532679796218872 0.17342773079872131
0.95264339447021484 0.77222305536270142 0.19879652559757233
0.9849047064781189 0.77973270416259766 0.23713809251785278
0.44469684362411499 0.79151642322540283 0.23239533603191376
0.45964846014976501 0.79044288396835327 0.23400896787643433
0.48127812147140503 0.78690952062606812 0.23528695106506348
0.51480060815811157 0.78304493427276611 0.24036648869514465
0.55877745151519775 0.78330284357070923 0.24548709392547607
0.62291532754898071 0.78576236963272095 0.25585955381393433
0.6873200535774231 0.78953313827514648 0.26173055171966553
0.74980360269546509 0.7930610179901123 0.26501590013504028
0.8086591362953186 0.79971557855606079 0.268309086561203
0.8615107536315918 0.80965405702590942 0.27027758955955505
0.9080357551574707 0.81808179616928101 0.27562826871871948
0.94442129135131836 0.82389187812805176 0.2947787344455719
0.9736524224281311 0.82894855737686157 0.3292328417301178
0.5826716423034668 0.85008251667022705 0.33080366253852844
0.58794796466827393 0.84718245267868042 0.32977697253227234
0.6001889705657959 0.84331417083740234 0.3312515914440155
0.6222912073135376 0.84099745750427246 0.3347877562046051
0.65066629648208618 0.84053200483322144 0.33911791443824768
0.6927715539932251 0.84317696094512939 0.35199734568595886
0.73886901140213013 0.84523403644561768 0.36138597130775452
0.78184545040130615 0.8479459285736084 0.36545774340629578
0.82474654912948608 0.85078459978103638 0.37010526657104492
0.86734151840209961 0.85824322700500488 0.37627848982810974
0.90300828218460083 0.86436939239501953 0.38184460997581482
0.93722069263458252 0.86925661563873291 0.39107659459114075
0.96396005153656006 0.87453466653823853 0.41862630844116211
0.70952343940734863 0.89236569404602051 0.43064263463020325
0.70919990539550781 0.89118295907974243 0.42742791771888733
0.71576327085494995 0.88960403203964233 0.42841863632202148
0.7284885048866272 0.8884856104850769 0.43156024813652039
0.746654212474823 0.88689291477203369 0.43715190887451172
0.76964873075485229 0.88815361261367798 0.44505676627159119
0.80086660385131836 0.89013034105300903 0.45116546750068665
0.82734006643295288 0.89063572883605957 0.45285651087760925
0.85263156890869141 0.89587306976318359 0.46137845516204834
0.87998455762863159 0.90093320608139038 0.46868047118186951
0.90575277805328369 0.90255212783813477 0.47271734476089478
0.93143528699874878 0.90603095293045044 0.48121196031570435
0.95601195096969604 0.90956777334213257 0.49495089054107666
0.81091248989105225 0.92377811670303345 0.50810098648071289
0.81203866004943848 0.92407172918319702 0.50770115852355957
0.81405878067016602 0.9235880970954895 0.50761651992797852
0.82115232944488525 0.92332881689071655 0.50932276248931885
0.83033359050750732 0.92280381917953491 0.51251882314682007
0.84276098012924194 0.92313289642333984 0.51838201284408569
0.85972905158996582 0.92330420017242432 0.52115941047668457
0.87704288959503174 0.92340117692947388 0.52346700429916382
0.8918415904045105 0.92642152309417725 0.52796632051467896
0.90833288431167603 0.9292176365852356 0.53423988819122314
0.92423069477081299 0.93034547567367554 0.53574669361114502
0.93955206871032715 0.93261945247650146 0.54066640138626099
0.95505219697952271 0.93526899814605713 0.54899883270263672
0.23921568691730499 0.1526191234588623 0.16118298470973969
0.24121968448162079 0.15163455903530121 0.16076324880123138
0.24982182681560516 0.15334382653236389 0.16060620546340942
0.26057446002960205 0.1547664999961853 0.16103094816207886
0.28429928421974182 0.15511597692966461 0.16325834393501282
0.33478924632072449 0.15330089628696442 0.16742916405200958
0.42895859479904175 0.14744694530963898 0.17003367841243744
0.55469644069671631 0.15708823502063751 0.17193710803985596
0.70350587368011475 0.17951570451259613 0.17487110197544098
0.84304511547088623 0.25259396433830261 0.17488336563110352
0.94401967525482178 0.36137807369232178 0.17314402759075165
0.99567657709121704 0.45993742346763611 0.18372373282909393
1 0.53377693891525269 0.21197237074375153
0.23934206366539001 0.15706300735473633 0.161423459649086
0.24339590966701508 0.15707249939441681 0.16161458194255829
0.25425606966018677 0.15938018262386322 0.16238202154636383
0.2701566219329834 0.16147413849830627 0.16355574131011963
0.29540801048278809 0.16223055124282837 0.16515925526618958
0.34573540091514587 0.16083504259586334 0.16731666028499603
0.44299402832984924 0.1638362854719162 0.17074128985404968
0.57256990671157837 0.17786756157875061 0.17322263121604919
0.71814107894897461 0.21660169959068298 0.17377278208732605
0.84920459985733032 0.28457525372505188 0.17079699039459229
0.94474977254867554 0.38849514722824097 0.17093920707702637
0.99540084600448608 0.48082038760185242 0.18267339468002319
1 0.55042731761932373 0.21608360111713409
0.24155895411968231 0.16693639755249023 0.16292186081409454
0.24717019498348236 0.16930529475212097 0.16442078351974487
0.2588895857334137 0.17106913030147552 0.16544415056705475
0.28107255697250366 0.17692729830741882 0.16645051538944244
0.31353947520256042 0.18076524138450623 0.16725832223892212
0.36754763126373291 0.18263858556747437 0.168866366147995
0.46411263942718506 0.19073796272277832 0.1714273989200592
0.59261780977249146 0.20912569761276245 0.17088305950164795
0.72966676950454712 0.25212547183036804 0.168531134724617
0.85502725839614868 0.32890352606773376 0.16278181970119476
0.94943898916244507 0.42565801739692688 0.16113674640655518
0.9937746524810791 0.50547182559967041 0.17592409253120422
1 0.57008475065231323 0.21345803141593933
0.24858452379703522 0.19972018897533417 0.16843126714229584
0.25351348519325256 0.20153893530368805 0.16972647607326508
0.27103802561759949 0.20514854788780212 0.17203125357627869
0.29677203297615051 0.20854784548282623 0.17163732647895813
0.33155280351638794 0.21087959408760071 0.16904017329216003
0.39937138557434082 0.2215765118598938 0.16967858374118805
0.49340686202049255 0.23616181313991547 0.16966326534748077
0.6162114143371582 0.26317718625068665 0.16641369462013245
0.74466174840927124 0.31175166368484497 0.16003136336803436
0.86409109830856323 0.38878569006919861 0.14990028738975525
0.94781005382537842 0.47262561321258545 0.15011121332645416
0.99161255359649658 0.53649711608886719 0.16695454716682434
0.99951738119125366 0.59270596504211426 0.2063165009021759
0.25488030910491943 0.25442874431610107 0.17398795485496521
0.26001012325286865 0.25864210724830627 0.17460274696350098
0.2812507152557373 0.26588961482048035 0.17597320675849915
0.31082108616828918 0.27213877439498901 0.17649838328361511
0.3556983470916748 0.27570518851280212 0.17315934598445892
0.43219244480133057 0.29040449857711792 0.17135590314865112
0.52989548444747925 0.31315332651138306 0.16580408811569214
0.6438058614730835 0.33685135841369629 0.15505984425544739
0.76219433546066284 0.38553068041801453 0.1424136608839035
0.86498051881790161 0.45062917470932007 0.1301087886095047
0.9422607421875 0.52056318521499634 0.13233281672000885
