luts/instant_consumer/polaroid_px-100uv+_cold_+++.cube
# Created by: G'MIC (https://gmic.eu)
TITLE "polaroid_px-100uv+_cold_+++"
# LUT size
LUT_3D_SIZE 5
# Data domain
DOMAIN_MIN 0.0 0.0 0.0
DOMAIN_MAX 1.0 1.0 1.0
# LUT data points
0.37850886583328247 0.41004070639610291 0.40802299976348877
0.37316662073135376 0.40391820669174194 0.40783879160881042
0.40028661489486694 0.42701399326324463 0.42879852652549744
0.46634173393249512 0.48798450827598572 0.4771055281162262
0.6004372239112854 0.61358678340911865 0.56739062070846558
0.38809749484062195 0.41859999299049377 0.41731590032577515
0.3865320086479187 0.41680708527565002 0.41759395599365234
0.41175118088722229 0.43982312083244324 0.43747809529304504
0.47530597448348999 0.49946275353431702 0.48470225930213928
0.61585551500320435 0.62639915943145752 0.57468175888061523
0.42021706700325012 0.44760364294052124 0.44481167197227478
0.41734781861305237 0.44597184658050537 0.44327577948570251
0.44383886456489563 0.47055506706237793 0.46070036292076111
0.49997001886367798 0.52274525165557861 0.50117933750152588
0.6192966103553772 0.63019323348999023 0.57627677917480469
0.51248157024383545 0.53112488985061646 0.51013088226318359
0.50308841466903687 0.52617049217224121 0.5064617395401001
0.53589791059494019 0.55499792098999023 0.52356815338134766
0.60993319749832153 0.62018126249313354 0.56633013486862183
0.71249794960021973 0.71122133731842041 0.62765026092529297
0.73528695106506348 0.73164093494415283 0.63838964700698853
0.72538024187088013 0.72540336847305298 0.63603085279464722
0.73912805318832397 0.73601990938186646 0.64093208312988281
0.76849913597106934 0.76041340827941895 0.65452677011489868
0.79853940010070801 0.78832107782363892 0.67034363746643066
0.3833652138710022 0.41584369540214539 0.41813516616821289
0.38621413707733154 0.41632866859436035 0.42186573147773743
0.42673787474632263 0.45166197419166565 0.44935393333435059
0.5125582218170166 0.53179234266281128 0.50937819480895996
0.6399112343788147 0.64974391460418701 0.59271544218063354
0.4035070538520813 0.43406108021736145 0.43144685029983521
0.40583214163780212 0.43485447764396667 0.43459543585777283
0.44201862812042236 0.46805849671363831 0.46138602495193481
0.51808679103851318 0.5391727089881897 0.51469051837921143
0.6507868766784668 0.65900003910064697 0.59789621829986572
0.45492485165596008 0.48013800382614136 0.46899381279945374
0.45578736066818237 0.48067167401313782 0.47032463550567627
0.47521474957466125 0.49884194135665894 0.48507636785507202
0.53866088390350342 0.55633032321929932 0.52657896280288696
0.66264110803604126 0.6671600341796875 0.60107326507568359
0.56826740503311157 0.58411115407943726 0.54666203260421753
0.56334501504898071 0.58000916242599487 0.54323476552963257
0.58624416589736938 0.59844577312469482 0.55321270227432251
0.6374092698097229 0.64333510398864746 0.58291608095169067
0.72314363718032837 0.7198103666305542 0.6335795521736145
0.75642085075378418 0.75163346529006958 0.65480232238769531
0.74707740545272827 0.74322831630706787 0.64838433265686035
0.75610172748565674 0.74848711490631104 0.64895093441009521
0.77340483665466309 0.76364743709564209 0.65768903493881226
0.80666589736938477 0.79400187730789185 0.67662084102630615
0.44416135549545288 0.47185513377189636 0.46339106559753418
0.45561274886131287 0.48038396239280701 0.47235280275344849
0.48761934041976929 0.50896495580673218 0.49264410138130188
0.5748056173324585 0.58836424350738525 0.55014443397521973
0.70000249147415161 0.70227634906768799 0.62700605392456055
0.46269753575325012 0.48860406875610352 0.47568055987358093
0.47181609272956848 0.49610444903373718 0.48322993516921997
0.50952452421188354 0.53085958957672119 0.50891542434692383
0.59866631031036377 0.61127567291259766 0.56538361310958862
0.72288113832473755 0.72215884923934937 0.63905882835388184
0.49654030799865723 0.5198943018913269 0.49948388338088989
0.51419603824615479 0.53402042388916016 0.51138389110565186
0.56121885776519775 0.57674175500869751 0.5409967303276062
0.63324618339538574 0.64130610227584839 0.58595174551010132
0.73537623882293701 0.73154294490814209 0.64350742101669312
0.63473057746887207 0.64339792728424072 0.58664202690124512
0.64300376176834106 0.64916574954986572 0.58852744102478027
0.66622233390808105 0.66971820592880249 0.59958416223526001
0.69767946004867554 0.69715970754623413 0.61855506896972656
0.75933933258056641 0.75171279907226562 0.65447330474853516
0.79191035032272339 0.78225469589233398 0.67473101615905762
0.78910481929779053 0.77859616279602051 0.66951918601989746
0.79227614402770996 0.78002041578292847 0.66762310266494751
0.79289412498474121 0.78050893545150757 0.66825741529464722
0.81701219081878662 0.8022768497467041 0.68257427215576172
0.63156026601791382 0.6390843391418457 0.5814814567565918
0.62986910343170166 0.63758045434951782 0.58087396621704102
0.67180192470550537 0.67777806520462036 0.60605990886688232
0.69680929183959961 0.69833648204803467 0.61992847919464111
0.75423872470855713 0.74911338090896606 0.65281873941421509
0.63957422971725464 0.64645802974700928 0.58416855335235596
0.64734423160552979 0.65373766422271729 0.59016001224517822
0.68708288669586182 0.69064712524414062 0.61328387260437012
0.7168269157409668 0.71615743637084961 0.62987196445465088
0.77114206552505493 0.76404005289077759 0.66215384006500244
0.65429818630218506 0.66141623258590698 0.59421098232269287
0.66818439960479736 0.6736101508140564 0.60264885425567627
0.70490270853042603 0.70619505643844604 0.62311476469039917
0.7364385724067688 0.73262953758239746 0.640697181224823
0.78523951768875122 0.77549177408218384 0.66896605491638184
0.7001953125 0.70365571975708008 0.62268602848052979
0.70832377672195435 0.7094237208366394 0.62559258937835693
0.7424309253692627 0.73870432376861572 0.64249521493911743
0.76105242967605591 0.75405311584472656 0.65318131446838379
0.79394781589508057 0.78240674734115601 0.67237401008605957
0.7990725040435791 0.78898900747299194 0.6760827898979187
0.80321753025054932 0.79174292087554932 0.6757323145866394
0.81016194820404053 0.79641163349151611 0.67687076330184937
0.80917984247207642 0.79530125856399536 0.6766510009765625
0.82417881488800049 0.80820059776306152 0.68547141551971436
0.80336755514144897 0.79260343313217163 0.67446935176849365
0.79464870691299438 0.78371524810791016 0.6703762412071228
0.80609273910522461 0.79362708330154419 0.67457431554794312
0.82840639352798462 0.81310093402862549 0.68579435348510742
0.82465451955795288 0.8101198673248291 0.68417340517044067
0.80493581295013428 0.7916715145111084 0.67195791006088257
0.80598735809326172 0.79285126924514771 0.67462843656539917
0.81541067361831665 0.80139839649200439 0.6792871356010437
0.83064776659011841 0.8156740665435791 0.68713235855102539
0.83409929275512695 0.81813466548919678 0.69056594371795654
0.82146447896957397 0.80653673410415649 0.68126660585403442
0.81920218467712402 0.80557847023010254 0.68161886930465698
0.8219534158706665 0.80798375606536865 0.68352818489074707
0.82530778646469116 0.81037610769271851 0.68522769212722778
0.83356392383575439 0.81714868545532227 0.69043195247650146
0.81850069761276245 0.80485719442367554 0.68083041906356812
0.81170076131820679 0.79946434497833252 0.67702776193618774
0.81205528974533081 0.80008518695831299 0.67749691009521484
0.8147352933883667 0.80083823204040527 0.6788831353187561
0.8259512186050415 0.80996239185333252 0.68552857637405396
0.82296586036682129 0.80854290723800659 0.68306666612625122
0.8245576024055481 0.80951672792434692 0.68249708414077759
0.82474726438522339 0.80966967344284058 0.68099808692932129
0.82582616806030273 0.80949753522872925 0.6820186972618103
0.83382731676101685 0.81592762470245361 0.68682187795639038
