luts/instant_consumer/polaroid_time_zero_expired_+.cube
# Created by: G'MIC (https://gmic.eu)
TITLE "polaroid_time_zero_expired_+"
# LUT size
LUT_3D_SIZE 7
# Data domain
DOMAIN_MIN 0.0 0.0 0.0
DOMAIN_MAX 1.0 1.0 1.0
# LUT data points
0.80917549133300781 0.52487528324127197 0.25697079300880432
0.81176471710205078 0.52123099565505981 0.25351047515869141
0.81627935171127319 0.52186030149459839 0.25555223226547241
0.82840168476104736 0.52584618330001831 0.26015040278434753
0.85526639223098755 0.52996551990509033 0.26039427518844604
0.89124464988708496 0.53592789173126221 0.26038029789924622
0.93120819330215454 0.54546016454696655 0.26825979351997375
0.81172674894332886 0.53340995311737061 0.25259125232696533
0.81521451473236084 0.53162968158721924 0.25069299340248108
0.82097429037094116 0.5339171290397644 0.25345152616500854
0.83502715826034546 0.53832948207855225 0.2587827742099762
0.8607017993927002 0.54335743188858032 0.26115196943283081
0.89485293626785278 0.55019021034240723 0.26138386130332947
0.93345588445663452 0.56086248159408569 0.26828625798225403
0.81186974048614502 0.55038917064666748 0.24974372982978821
0.8173375129699707 0.55119258165359497 0.24644939601421356
0.82599526643753052 0.55612146854400635 0.24820154905319214
0.84181129932403564 0.56144487857818604 0.25573310256004333
0.86630964279174805 0.56721943616867065 0.26209390163421631
0.89876985549926758 0.57506722211837769 0.26207125186920166
0.93345588445663452 0.58664590120315552 0.2667941153049469
0.81595605611801147 0.58458560705184937 0.24415327608585358
0.82180595397949219 0.58846509456634521 0.23631471395492554
0.83143341541290283 0.5950247049331665 0.23567524552345276
0.84763485193252563 0.60083436965942383 0.24751830101013184
0.87123072147369385 0.60712915658950806 0.26477822661399841
0.90073239803314209 0.61675995588302612 0.26365810632705688
0.93345588445663452 0.62980848550796509 0.25940287113189697
0.82390129566192627 0.64595311880111694 0.23001205921173096
0.82917869091033936 0.64816886186599731 0.22016322612762451
0.8378671407699585 0.65339881181716919 0.21532453596591949
0.85326772928237915 0.65871715545654297 0.22839036583900452
0.87590551376342773 0.66529726982116699 0.25983646512031555
0.90324079990386963 0.6772385835647583 0.27702605724334717
0.93378496170043945 0.69134008884429932 0.28564357757568359
0.83636784553527832 0.72350889444351196 0.223354771733284
0.84077185392379761 0.72491514682769775 0.2146950364112854
0.84711438417434692 0.72696363925933838 0.20307496190071106
0.86080151796340942 0.73088234663009644 0.20873545110225677
0.88317668437957764 0.73704451322555542 0.25149175524711609
0.90930831432342529 0.74831163883209229 0.30478355288505554
0.93789106607437134 0.76308178901672363 0.36699959635734558
0.8520084023475647 0.80959779024124146 0.24509856104850769
0.8560793399810791 0.80975526571273804 0.24270807206630707
0.86162328720092773 0.8101239800453186 0.23287412524223328
0.87454074621200562 0.8098137378692627 0.23047080636024475
0.8968501091003418 0.81257212162017822 0.27946966886520386
0.92394626140594482 0.81873905658721924 0.35183089971542358
0.95467668771743774 0.82627469301223755 0.43251168727874756
0.80967724323272705 0.52027982473373413 0.26350271701812744
0.81232154369354248 0.51710504293441772 0.26289224624633789
0.81846660375595093 0.5179792046546936 0.2681334912776947
0.83169293403625488 0.52175712585449219 0.27378314733505249
0.85698074102401733 0.52733522653579712 0.27587082982063293
0.89346843957901001 0.53650581836700439 0.27612832188606262
0.93345588445663452 0.54954487085342407 0.2834031879901886
0.81176471710205078 0.53001958131790161 0.26260849833488464
0.8156503438949585 0.52822220325469971 0.26284807920455933
0.82206195592880249 0.53036338090896606 0.26794230937957764
0.83640235662460327 0.53476464748382568 0.27403232455253601
0.86136132478713989 0.54011529684066772 0.27720588445663452
0.89505761861801147 0.5482373833656311 0.27729260921478271
0.93345588445663452 0.56058156490325928 0.2832038402557373
0.8120046854019165 0.54962587356567383 0.26390877366065979
0.81751757860183716 0.54960566759109497 0.26203426718711853
0.82636362314224243 0.55402660369873047 0.26457232236862183
0.84211564064025879 0.55938959121704102 0.27055415511131287
0.86613798141479492 0.56459206342697144 0.27439382672309875
0.89877450466156006 0.57215374708175659 0.27276283502578735
0.93345588445663452 0.58358979225158691 0.27643954753875732
0.81542724370956421 0.58742702007293701 0.2608201801776886
0.8203805685043335 0.58896207809448242 0.25500631332397461
0.83053314685821533 0.59455901384353638 0.25357940793037415
0.84697592258453369 0.60048443078994751 0.26080736517906189
0.87036490440368652 0.60702997446060181 0.27035850286483765
0.89966166019439697 0.61567682027816772 0.26821649074554443
0.93345588445663452 0.62732326984405518 0.26643094420433044
0.8202354907989502 0.64692890644073486 0.24995192885398865
0.82571500539779663 0.64899075031280518 0.24138869345188141
0.83582794666290283 0.65383696556091309 0.23559819161891937
0.85205042362213135 0.65988767147064209 0.24281996488571167
0.8747410774230957 0.66824686527252197 0.2654690146446228
0.90176606178283691 0.67959380149841309 0.28471919894218445
0.93345588445663452 0.6921393871307373 0.30019062757492065
0.83044624328613281 0.72303920984268188 0.23985555768013
0.8357425332069397 0.72488170862197876 0.23444594442844391
0.84464973211288452 0.72820049524307251 0.22540470957756042
0.86057871580123901 0.73337137699127197 0.22771066427230835
0.88291960954666138 0.74133521318435669 0.26378878951072693
0.90844619274139404 0.75314408540725708 0.32209330797195435
0.93771159648895264 0.76535201072692871 0.38434025645256042
0.84439915418624878 0.80638158321380615 0.25802281498908997
0.85008561611175537 0.80990481376647949 0.25885874032974243
0.85869908332824707 0.81176316738128662 0.25065043568611145
0.87439769506454468 0.81290304660797119 0.24791958928108215
0.89690059423446655 0.81734007596969604 0.28954023122787476
0.92362517118453979 0.82403004169464111 0.36922669410705566
0.95411038398742676 0.82991689443588257 0.45847561955451965
0.81256121397018433 0.51989114284515381 0.28503945469856262
0.81718927621841431 0.51638668775558472 0.28839784860610962
0.82415258884429932 0.51768404245376587 0.29715198278427124
0.83676958084106445 0.52151930332183838 0.30380290746688843
0.85926353931427002 0.52708667516708374 0.30857658386230469
0.89472657442092896 0.53746646642684937 0.31259888410568237
0.93345588445663452 0.55390143394470215 0.32044294476509094
0.81565302610397339 0.53110790252685547 0.28854316473007202
0.82002717256546021 0.52881896495819092 0.29127970337867737
0.82762837409973145 0.53139775991439819 0.29859209060668945
0.84110844135284424 0.53560483455657959 0.30513957142829895
0.86375653743743896 0.54005342721939087 0.31016433238983154
0.89680075645446777 0.54729485511779785 0.31374990940093994
0.93735581636428833 0.55994778871536255 0.32244816422462463
0.81697064638137817 0.55337333679199219 0.29311910271644592
0.82223212718963623 0.55286478996276855 0.29324370622634888
0.83151179552078247 0.55706983804702759 0.29683777689933777
0.84638857841491699 0.56220728158950806 0.30135682225227356
0.86861509084701538 0.56613379716873169 0.30374395847320557
0.8987841010093689 0.57079577445983887 0.30294662714004517
0.93658941984176636 0.58038151264190674 0.30982574820518494
0.81725776195526123 0.59191244840621948 0.29292654991149902
0.82330042123794556 0.59289836883544922 0.28946226835250854
0.83414560556411743 0.59814625978469849 0.28820651769638062
0.85029351711273193 0.60446947813034058 0.29184684157371521
0.87203872203826904 0.60969090461730957 0.29632571339607239
0.89993393421173096 0.61432677507400513 0.29186210036277771
0.93345588445663452 0.62312763929367065 0.29302310943603516
0.81949752569198608 0.64983475208282471 0.28913453221321106
0.82539361715316772 0.65112781524658203 0.28111764788627625
0.83673882484436035 0.6557013988494873 0.27540180087089539
0.85368096828460693 0.66307193040847778 0.27837309241294861
0.87621599435806274 0.67240124940872192 0.29444101452827454
0.90291160345077515 0.68125402927398682 0.30964109301567078
0.93417835235595703 0.6904456615447998 0.3195502758026123
0.82689988613128662 0.72303920984268188 0.28466689586639404
0.83247226476669312 0.72575491666793823 0.27907702326774597
0.84309446811676025 0.72931587696075439 0.27001839876174927
0.86064261198043823 0.73517155647277832 0.26523515582084656
0.88388442993164062 0.74557334184646606 0.29217985272407532
0.91036498546600342 0.75871521234512329 0.34922522306442261
0.93978703022003174 0.76772546768188477 0.3995119035243988
0.83941513299942017 0.80828768014907837 0.31104332208633423
0.84476453065872192 0.81101590394973755 0.30644840002059937
0.85512757301330566 0.812846839427948 0.29385548830032349
0.87336248159408569 0.81563842296600342 0.28000691533088684
0.89687055349349976 0.82139110565185547 0.30949169397354126
0.92342603206634521 0.82979989051818848 0.38881328701972961
0.9536011815071106 0.83593493700027466 0.47243064641952515
0.82231605052947998 0.52604705095291138 0.33889606595039368
0.82781249284744263 0.52251309156417847 0.34729835391044617
0.83456486463546753 0.52502787113189697 0.35681581497192383
0.84463310241699219 0.53013420104980469 0.35984951257705688
0.86198985576629639 0.53443711996078491 0.35882249474525452
0.89389926195144653 0.54035443067550659 0.37001848220825195
0.93345588445663452 0.55217570066452026 0.39485785365104675
0.82644462585449219 0.53844362497329712 0.34723740816116333
0.83135843276977539 0.53625226020812988 0.35168573260307312
0.8386344313621521 0.54052245616912842 0.35904663801193237
0.84966748952865601 0.54563945531845093 0.36437234282493591
0.86792397499084473 0.54826480150222778 0.36734414100646973
0.8983418345451355 0.55074584484100342 0.37545913457870483
0.9373774528503418 0.55948281288146973 0.39576193690299988
0.82850205898284912 0.56262147426605225 0.35282447934150696
0.83376497030258179 0.56227856874465942 0.35305416584014893
0.8426743745803833 0.56790506839752197 0.35703146457672119
0.85553479194641113 0.57391387224197388 0.36077812314033508
0.87370413541793823 0.57550889253616333 0.36275312304496765
0.90066516399383545 0.57447487115859985 0.3644939661026001
0.9373774528503418 0.57919275760650635 0.38054162263870239
0.82698380947113037 0.59724527597427368 0.34615778923034668
0.83311492204666138 0.59964174032211304 0.34690743684768677
0.84335935115814209 0.60705995559692383 0.34904107451438904
0.85847502946853638 0.61511284112930298 0.35248121619224548
0.87694352865219116 0.61801481246948242 0.35536390542984009
0.90126079320907593 0.61495602130889893 0.34812512993812561
0.93456804752349854 0.61799049377441406 0.35384419560432434
0.82520627975463867 0.64582949876785278 0.33573079109191895
0.83122712373733521 0.65075081586837769 0.33765888214111328
0.84176766872406006 0.65851551294326782 0.33980211615562439
0.85748124122619629 0.66779023408889771 0.34433376789093018
0.87926584482192993 0.67760157585144043 0.35828858613967896
0.90520823001861572 0.68129920959472656 0.36751705408096313
0.9372255802154541 0.68441033363342285 0.35817620158195496
0.82921069860458374 0.71899724006652832 0.34449219703674316
0.83361494541168213 0.72272998094558716 0.34414863586425781
0.84275418519973755 0.72694635391235352 0.34141457080841064
0.85831093788146973 0.73336231708526611 0.33641660213470459
0.88298946619033813 0.74601095914840698 0.34658613801002502
0.91261029243469238 0.76284515857696533 0.40758395195007324
0.9424864649772644 0.76826208829879761 0.43193495273590088
0.83956754207611084 0.81018978357315063 0.38826200366020203
0.84250187873840332 0.81173717975616455 0.38369530439376831
0.85121661424636841 0.81126326322555542 0.37090474367141724
0.86789679527282715 0.81352323293685913 0.35257387161254883
0.89214587211608887 0.82112127542495728 0.35746288299560547
0.92170196771621704 0.83221900463104248 0.42322701215744019
0.9537118673324585 0.83833807706832886 0.49983245134353638
0.84079104661941528 0.54072308540344238 0.44368788599967957
0.84532386064529419 0.53849875926971436 0.44740283489227295
0.85080480575561523 0.54459375143051147 0.45370620489120483
0.85818988084793091 0.55206698179244995 0.45518332719802856
0.87033307552337646 0.55702888965606689 0.44447225332260132
0.89602309465408325 0.55687934160232544 0.44614425301551819
0.93345588445663452 0.56006354093551636 0.48279216885566711
0.84534347057342529 0.55588030815124512 0.44811856746673584
0.84969669580459595 0.55475634336471558 0.45111286640167236
0.85518229007720947 0.56219351291656494 0.45518535375595093
0.86300748586654663 0.56991416215896606 0.45894607901573181
0.87610644102096558 0.57304781675338745 0.45714887976646423
0.89992725849151611 0.57013475894927979 0.45493844151496887
0.93391221761703491 0.57096225023269653 0.47929880023002625
0.84777665138244629 0.58534151315689087 0.44739612936973572
0.85230666399002075 0.58478081226348877 0.44988799095153809
0.85910981893539429 0.59148454666137695 0.45270225405693054
0.86847329139709473 0.59957152605056763 0.4562566876411438
0.88171553611755371 0.60176360607147217 0.45863065123558044
0.90324097871780396 0.59604084491729736 0.45521235466003418
0.93469983339309692 0.5931583046913147 0.47424188256263733
0.84500151872634888 0.61721450090408325 0.43725308775901794
0.85038274526596069 0.61906939744949341 0.44000262022018433
0.85864287614822388 0.62742650508880615 0.44437167048454285
0.87030673027038574 0.63789272308349609 0.44916188716888428
0.88417458534240723 0.64227163791656494 0.45360264182090759
0.90464252233505249 0.63365155458450317 0.44685927033424377
0.93678563833236694 0.62587958574295044 0.45750102400779724
0.83904844522476196 0.65318655967712402 0.41904425621032715
0.84461581707000732 0.65917760133743286 0.42538836598396301
0.85293322801589966 0.66866624355316162 0.43241438269615173
0.86515384912490845 0.68057835102081299 0.44127467274665833
0.88325750827789307 0.69068747758865356 0.44899556040763855
0.90577566623687744 0.6829107403755188 0.43545058369636536
0.9373774528503418 0.68081396818161011 0.43789151310920715
0.83759450912475586 0.71598994731903076 0.42035803198814392
0.84164291620254517 0.7199283242225647 0.42565324902534485
0.8485567569732666 0.72443705797195435 0.42746317386627197
0.85974031686782837 0.7337765097618103 0.43627798557281494
0.88169890642166138 0.74695134162902832 0.4311985969543457
0.91066634654998779 0.76012271642684937 0.4810156524181366
0.93998301029205322 0.76559114456176758 0.4943510890007019
0.84417736530303955 0.80391222238540649 0.46545714139938354
0.84622359275817871 0.8050997257232666 0.46689265966415405
0.85238897800445557 0.80474048852920532 0.46130949258804321
0.86468183994293213 0.81062817573547363 0.45891430974006653
0.8866155743598938 0.82086074352264404 0.44713467359542847
0.91681164503097534 0.82891136407852173 0.47205269336700439
0.95120698213577271 0.83540743589401245 0.55509752035140991
0.86337172985076904 0.57289934158325195 0.57139962911605835
0.86687934398651123 0.57169836759567261 0.57155293226242065
0.87022930383682251 0.57989597320556641 0.5746762752532959
0.87588280439376831 0.58939188718795776 0.58338427543640137
0.88669401407241821 0.59661489725112915 0.59022688865661621
0.90283495187759399 0.59709650278091431 0.56651550531387329
0.92842304706573486 0.5955740213394165 0.55538403987884521
0.86862176656723022 0.59114009141921997 0.57596653699874878
0.87179762125015259 0.59091758728027344 0.57570916414260864
0.87462902069091797 0.5996820330619812 0.57605928182601929
0.8791353702545166 0.60969668626785278 0.58091193437576294
0.88792228698730469 0.61776924133300781 0.5874640941619873
0.90335226058959961 0.61761033535003662 0.57394599914550781
0.92805010080337524 0.61287385225296021 0.55742460489273071
0.87217140197753906 0.62893223762512207 0.5727003812789917
0.87510442733764648 0.62551796436309814 0.57406264543533325
0.87800723314285278 0.63035953044891357 0.57566487789154053
0.8830147385597229 0.63990980386734009 0.58031702041625977
0.89142954349517822 0.64818233251571655 0.58776700496673584
0.90516442060470581 0.64662116765975952 0.5788382887840271
0.92780619859695435 0.6379084587097168 0.56511646509170532
0.86924654245376587 0.66160869598388672 0.56765317916870117
0.87247633934020996 0.65880078077316284 0.5689815878868103
0.87666416168212891 0.66337519884109497 0.57197535037994385
0.8837464451789856 0.67475539445877075 0.57822048664093018
0.89393121004104614 0.6858559250831604 0.58702915906906128
0.90736502408981323 0.6845928430557251 0.58489024639129639
0.93021881580352783 0.66785651445388794 0.57793253660202026
0.85958349704742432 0.68543446063995361 0.5571935772895813
0.86438119411468506 0.68817424774169922 0.55675035715103149
0.86992579698562622 0.69593411684036255 0.56083112955093384
0.87835931777954102 0.70988649129867554 0.56914442777633667
0.89157086610794067 0.72713911533355713 0.58330041170120239
0.90734249353408813 0.73067647218704224 0.58475130796432495
0.93193620443344116 0.70673167705535889 0.57338368892669678
0.85344195365905762 0.73011517524719238 0.53818660974502563
0.85765916109085083 0.73254895210266113 0.54279524087905884
0.86286646127700806 0.73714971542358398 0.54227137565612793
0.87126576900482178 0.74886655807495117 0.55387741327285767
0.88659787178039551 0.76393157243728638 0.56291371583938599
0.90778666734695435 0.7714734673500061 0.57206040620803833
0.93714445829391479 0.76225727796554565 0.57087200880050659
0.85531759262084961 0.80123502016067505 0.5632401704788208
0.858115553855896 0.80173617601394653 0.56575530767440796
0.86258333921432495 0.80377757549285889 0.56654292345046997
0.87107986211776733 0.80956566333770752 0.57330334186553955
0.88585013151168823 0.82073295116424561 0.57754099369049072
0.908741295337677 0.82892674207687378 0.57053029537200928
0.94656610488891602 0.83834058046340942 0.64165616035461426
0.88510721921920776 0.62809550762176514 0.69975435733795166
0.88719326257705688 0.62502104043960571 0.69907116889953613
0.88818055391311646 0.63031458854675293 0.70010966062545776
0.89071643352508545 0.6399492621421814 0.70515364408493042
0.89703559875488281 0.65172892808914185 0.71092265844345093
0.90830940008163452 0.66280490159988403 0.70430415868759155
0.92545032501220703 0.67305165529251099 0.69487833976745605
0.89040982723236084 0.64854031801223755 0.70420318841934204
0.89266514778137207 0.6460806131362915 0.7035641074180603
0.89266526699066162 0.65136110782623291 0.70190131664276123
0.89346915483474731 0.66108053922653198 0.70260769128799438
0.89827030897140503 0.67417967319488525 0.71248239278793335
0.90862298011779785 0.68598908185958862 0.72024965286254883
0.92543202638626099 0.68714118003845215 0.69920462369918823
0.89391946792602539 0.68400484323501587 0.70642173290252686
0.89497548341751099 0.67904716730117798 0.70688849687576294
0.89545482397079468 0.68075990676879883 0.70689868927001953
0.89705759286880493 0.69008266925811768 0.70993107557296753
0.90188038349151611 0.7034415602684021 0.72164881229400635
0.90986603498458862 0.71315371990203857 0.72719103097915649
0.92475491762161255 0.71006357669830322 0.70440846681594849
0.89118510484695435 0.71502923965454102 0.70841389894485474
0.89327079057693481 0.70918571949005127 0.70983552932739258
0.89449286460876465 0.71089738607406616 0.71157896518707275
0.89838367700576782 0.72081917524337769 0.7147904634475708
0.90556526184082031 0.73363590240478516 0.72093319892883301
0.91272121667861938 0.7434583306312561 0.7255096435546875
0.92450124025344849 0.73804128170013428 0.70644587278366089
0.88114416599273682 0.73232412338256836 0.70550835132598877
0.88498061895370483 0.73286348581314087 0.70656222105026245
0.88834524154663086 0.73956954479217529 0.71098893880844116
0.89415252208709717 0.75146740674972534 0.71366816759109497
0.9045833945274353 0.76537817716598511 0.71720844507217407
0.91521704196929932 0.77540099620819092 0.72005832195281982
0.92884284257888794 0.7667725682258606 0.71519190073013306
0.87368333339691162 0.76489567756652832 0.69146078824996948
0.87725991010665894 0.7662121057510376 0.69463258981704712
0.88075393438339233 0.77430760860443115 0.701629638671875
0.88661551475524902 0.78614240884780884 0.71011555194854736
0.89814645051956177 0.79642248153686523 0.7095874547958374
0.91362768411636353 0.81122094392776489 0.72539341449737549
0.93627667427062988 0.80848902463912964 0.73394328355789185
0.8718266487121582 0.81959295272827148 0.70296090841293335
0.87441021203994751 0.82039946317672729 0.70417076349258423
0.87762951850891113 0.82518088817596436 0.71001088619232178
0.88379466533660889 0.82988846302032471 0.71347212791442871
0.89475363492965698 0.83799594640731812 0.71596986055374146
0.91288226842880249 0.85190486907958984 0.72101956605911255
0.94323849678039551 0.85995471477508545 0.74788558483123779
