luts/instant_consumer/polaroid_px-680_cold_++.cube
# Created by: G'MIC (https://gmic.eu)
TITLE "polaroid_px-680_cold_++"
# LUT size
LUT_3D_SIZE 5
# Data domain
DOMAIN_MIN 0.0 0.0 0.0
DOMAIN_MAX 1.0 1.0 1.0
# LUT data points
0 0.23514476418495178 0.293905109167099
0.018864305689930916 0.22211089730262756 0.29157859086990356
0.48597478866577148 0.24822515249252319 0.29240190982818604
0.81087636947631836 0.36900973320007324 0.29973062872886658
0.94660508632659912 0.54043269157409668 0.33233234286308289
0 0.2935585081577301 0.29561042785644531
0.082209236919879913 0.30860906839370728 0.29246595501899719
0.54715108871459961 0.35314649343490601 0.28737723827362061
0.80176883935928345 0.45962104201316833 0.29742693901062012
0.94186681509017944 0.59338688850402832 0.33270269632339478
0.0039215688593685627 0.50959199666976929 0.30859506130218506
0.058113787323236465 0.52315986156463623 0.30051770806312561
0.52575230598449707 0.57567000389099121 0.29399552941322327
0.78207570314407349 0.61888414621353149 0.29706230759620667
0.91311728954315186 0.66753476858139038 0.3189581036567688
0.088459298014640808 0.7008327841758728 0.31585824489593506
0.25273647904396057 0.69921588897705078 0.32060936093330383
0.50426018238067627 0.72196662425994873 0.3319496214389801
0.72895908355712891 0.76783394813537598 0.34800958633422852
0.88418298959732056 0.81271803379058838 0.3840586245059967
0.52561742067337036 0.87092071771621704 0.41498798131942749
0.5589374303817749 0.86933940649032593 0.41844236850738525
0.65290910005569458 0.8750954270362854 0.44385427236557007
0.7724919319152832 0.8912472128868103 0.48107203841209412
0.88303625583648682 0.91009300947189331 0.52929019927978516
0.00049740658141672611 0.22610786557197571 0.31511589884757996
0.049895461648702621 0.23758293688297272 0.31598851084709167
0.52198803424835205 0.2406669557094574 0.33993661403656006
0.82775801420211792 0.43141743540763855 0.37381896376609802
0.94017875194549561 0.6100771427154541 0.41360491514205933
0.0028258978854864836 0.30907446146011353 0.33176663517951965
0.22221270203590393 0.33919838070869446 0.34108757972717285
0.59028035402297974 0.40165537595748901 0.35310849547386169
0.8185771107673645 0.51965725421905518 0.37446054816246033
0.93107974529266357 0.63634485006332397 0.40541800856590271
0.15894536674022675 0.54261022806167603 0.34847143292427063
0.27529498934745789 0.54645782709121704 0.34725251793861389
0.57418274879455566 0.59232032299041748 0.35200291872024536
0.78606730699539185 0.62946063280105591 0.35583946108818054
0.9124947190284729 0.69401824474334717 0.38112238049507141
0.26667311787605286 0.70893126726150513 0.35205268859863281
0.36100098490715027 0.7077556848526001 0.35654973983764648
0.5462028980255127 0.73061037063598633 0.37131193280220032
0.74276888370513916 0.77706748247146606 0.39149433374404907
0.89098060131072998 0.81651586294174194 0.42474067211151123
0.53886520862579346 0.87149882316589355 0.42899426817893982
0.57246571779251099 0.8732944130897522 0.4355928897857666
0.65946334600448608 0.87587630748748779 0.46045908331871033
0.77525961399078369 0.89183616638183594 0.49904671311378479
0.88715672492980957 0.91184329986572266 0.54947507381439209
0.076169796288013458 0.25612643361091614 0.41747501492500305
0.34853595495223999 0.30331441760063171 0.42783161997795105
0.60513770580291748 0.41988486051559448 0.43729442358016968
0.80872780084609985 0.44219937920570374 0.45990064740180969
0.93642473220825195 0.6047508716583252 0.49001464247703552
0.12659242749214172 0.37940201163291931 0.4365534782409668
0.39786058664321899 0.41331779956817627 0.44404041767120361
0.63829916715621948 0.5199885368347168 0.45195922255516052
0.81141167879104614 0.54211360216140747 0.46793761849403381
0.93123376369476318 0.66655296087265015 0.50055915117263794
0.25534087419509888 0.55733346939086914 0.42443761229515076
0.40356838703155518 0.56609255075454712 0.42940881848335266
0.65013992786407471 0.63124096393585205 0.45627960562705994
0.80234819650650024 0.68786036968231201 0.47678446769714355
0.91209405660629272 0.75542724132537842 0.50556427240371704
0.42512163519859314 0.709308922290802 0.42735961079597473
0.50533229112625122 0.72102230787277222 0.43253913521766663
0.61707550287246704 0.74570292234420776 0.44821497797966003
0.772877037525177 0.79336005449295044 0.47746104001998901
0.89668655395507812 0.81637144088745117 0.49626928567886353
0.58499562740325928 0.87201380729675293 0.48032715916633606
0.6045796275138855 0.87201714515686035 0.48037135601043701
0.67174756526947021 0.88016104698181152 0.49706816673278809
0.78511631488800049 0.89530456066131592 0.54223132133483887
0.89313340187072754 0.91413301229476929 0.59032708406448364
0.45748710632324219 0.38699600100517273 0.56421470642089844
0.57662671804428101 0.44544157385826111 0.56224077939987183
0.74348300695419312 0.58378905057907104 0.56942838430404663
0.82384246587753296 0.68122625350952148 0.57585340738296509
0.90919780731201172 0.68434327840805054 0.58697652816772461
0.46064943075180054 0.48358207941055298 0.56358271837234497
0.58024144172668457 0.52438831329345703 0.56478214263916016
0.73986232280731201 0.63765460252761841 0.57152652740478516
0.82441705465316772 0.72265350818634033 0.58112508058547974
0.90737587213516235 0.72839874029159546 0.59448063373565674
0.35957953333854675 0.60631060600280762 0.53411185741424561
0.48342892527580261 0.61727362871170044 0.54134237766265869
0.70195621252059937 0.68644052743911743 0.56322342157363892
0.82037532329559326 0.77304989099502563 0.5895724892616272
0.90190929174423218 0.77568513154983521 0.60410225391387939
0.43712648749351501 0.72537964582443237 0.50894838571548462
0.50152087211608887 0.72756952047348022 0.51418036222457886
0.64014899730682373 0.75124490261077881 0.53207242488861084
0.80263888835906982 0.81359463930130005 0.5856097936630249
0.90569162368774414 0.85220247507095337 0.62598526477813721
0.51547014713287354 0.86299973726272583 0.53011798858642578
0.56339371204376221 0.86400020122528076 0.53715044260025024
0.67565762996673584 0.87734889984130859 0.5604398250579834
0.79541301727294922 0.89770174026489258 0.60399478673934937
0.90732026100158691 0.92399555444717407 0.66636919975280762
0.71706801652908325 0.66710102558135986 0.71729803085327148
0.75245708227157593 0.68662190437316895 0.71234351396560669
0.82037168741226196 0.74862170219421387 0.70953530073165894
0.87526768445968628 0.82384359836578369 0.70670551061630249
0.90916180610656738 0.8487125039100647 0.70931315422058105
0.70508289337158203 0.69953423738479614 0.71629220247268677
0.74156934022903442 0.71341723203659058 0.71137315034866333
0.81394988298416138 0.76933819055557251 0.70890319347381592
0.87621277570724487 0.83174407482147217 0.70844835042953491
0.91074186563491821 0.86077141761779785 0.71739256381988525
0.64667946100234985 0.74796199798583984 0.70815974473953247
0.6916462779045105 0.7504429817199707 0.70704454183578491
0.78658485412597656 0.78867387771606445 0.71139836311340332
0.87269085645675659 0.85087877511978149 0.7185247540473938
0.90821772813796997 0.8722568154335022 0.71949023008346558
0.52073436975479126 0.81068724393844604 0.68830054998397827
0.55859732627868652 0.80817663669586182 0.68731343746185303
0.66551154851913452 0.81279319524765015 0.6948932409286499
0.84078294038772583 0.86061733961105347 0.7212643027305603
0.91687238216400146 0.89864140748977661 0.74191391468048096
0.57025223970413208 0.90170419216156006 0.69311296939849854
0.59440308809280396 0.90036153793334961 0.69245445728302002
0.67011022567749023 0.90397697687149048 0.70242595672607422
0.78200924396514893 0.91016232967376709 0.71568244695663452
0.92333865165710449 0.93954646587371826 0.77294456958770752
