luts/instant_consumer/polaroid_px-680_cold_--.cube
# Created by: G'MIC (https://gmic.eu)
TITLE "polaroid_px-680_cold_--"
# LUT size
LUT_3D_SIZE 5
# Data domain
DOMAIN_MIN 0.0 0.0 0.0
DOMAIN_MAX 1.0 1.0 1.0
# LUT data points
0.012195452116429806 0.024148739874362946 0.030426908284425735
0.2076437920331955 0.052882369607686996 0.049354657530784607
0.57949447631835938 0.11980804800987244 0.11578348278999329
0.82641375064849854 0.30216872692108154 0.21287952363491058
0.97946399450302124 0.48110681772232056 0.31324845552444458
0.0023284314665943384 0.23236595094203949 0.10353662818670273
0.15772430598735809 0.27448162436485291 0.10202862322330475
0.58292150497436523 0.29555812478065491 0.10361742228269577
0.81078135967254639 0.39441737532615662 0.19829456508159637
0.97367030382156372 0.52492886781692505 0.29735559225082397
0 0.49245935678482056 0.21141605079174042
0.0069199507124722004 0.51052087545394897 0.22195549309253693
0.49021020531654358 0.5599358081817627 0.21472397446632385
0.77221280336380005 0.5783083438873291 0.22218717634677887
0.96188974380493164 0.61767798662185669 0.26068305969238281
0.0030804653652012348 0.6935349702835083 0.29646521806716919
0.011735190637409687 0.69020450115203857 0.30240735411643982
0.41854402422904968 0.7166438102722168 0.31539228558540344
0.70218253135681152 0.75763565301895142 0.31873902678489685
0.93909698724746704 0.80424904823303223 0.3313319981098175
0.29838764667510986 0.91285550594329834 0.40636873245239258
0.37885144352912903 0.91149944067001343 0.41667929291725159
0.53308248519897461 0.91948443651199341 0.43331649899482727
0.71914547681808472 0.93476676940917969 0.44271108508110046
0.9189332127571106 0.95816034078598022 0.46417790651321411
0 0.082451760768890381 0.26976636052131653
0.20451259613037109 0.13561771810054779 0.27548152208328247
0.57549589872360229 0.15413607656955719 0.32262617349624634
0.81679654121398926 0.38375413417816162 0.38415765762329102
0.97434782981872559 0.5511506199836731 0.4321695864200592
0.0031109978444874287 0.26765760779380798 0.29625394940376282
0.26133418083190918 0.31169289350509644 0.32300880551338196
0.58878391981124878 0.37045767903327942 0.34772959351539612
0.80507206916809082 0.47748160362243652 0.37943568825721741
0.973777174949646 0.58019924163818359 0.41823044419288635
0.051578834652900696 0.51453131437301636 0.34398007392883301
0.20540139079093933 0.52727431058883667 0.34633767604827881
0.53805088996887207 0.57008224725723267 0.35380333662033081
0.77801448106765747 0.58570331335067749 0.3510640561580658
0.95903229713439941 0.64906620979309082 0.37784439325332642
0.016344407573342323 0.69057321548461914 0.35698845982551575
0.19124966859817505 0.69491612911224365 0.36194548010826111
0.45944094657897949 0.71937286853790283 0.3762182891368866
0.71732383966445923 0.76555812358856201 0.38478291034698486
0.94552230834960938 0.80694526433944702 0.39441967010498047
0.32379382848739624 0.91110241413116455 0.43023711442947388
0.40322133898735046 0.91255468130111694 0.43847602605819702
0.54423606395721436 0.91718345880508423 0.4569857120513916
0.73291182518005371 0.93676662445068359 0.47733974456787109
0.926025390625 0.95666563510894775 0.49819320440292358
0.13931505382061005 0.20101983845233917 0.47238907217979431
0.40201804041862488 0.29904645681381226 0.474753737449646
0.60243088006973267 0.41843423247337341 0.48016813397407532
0.79011738300323486 0.40455177426338196 0.49401399493217468
0.96832525730133057 0.54309630393981934 0.52193880081176758
0.12263798713684082 0.35880905389785767 0.47728517651557922
0.39963161945343018 0.40529385209083557 0.48410364985466003
0.61543124914169312 0.49900898337364197 0.49002265930175781
0.79790776968002319 0.50391221046447754 0.50111693143844604
0.97355562448501587 0.61543238162994385 0.53271484375
0.14573363959789276 0.52421659231185913 0.4521949291229248
0.3531474769115448 0.54387682676315308 0.46314564347267151
0.60401588678359985 0.60232174396514893 0.48777711391448975
0.79403054714202881 0.64676141738891602 0.50589501857757568
0.96434342861175537 0.7183414101600647 0.53472590446472168
0.2940082848072052 0.68134355545043945 0.45179095864295959
0.39876455068588257 0.69837081432342529 0.4599531888961792
0.5431705117225647 0.72512578964233398 0.46970471739768982
0.75091689825057983 0.77234971523284912 0.49093151092529297
0.95720559358596802 0.80266773700714111 0.49527674913406372
0.41421246528625488 0.90098363161087036 0.49385771155357361
0.44887995719909668 0.9103466272354126 0.49285852909088135
0.55877053737640381 0.91727465391159058 0.50206261873245239
0.74103438854217529 0.93386733531951904 0.53749942779541016
0.93800979852676392 0.96248525381088257 0.57363545894622803
0.44321772456169128 0.40102872252464294 0.61775058507919312
0.57236826419830322 0.46502110362052917 0.62163263559341431
0.71412467956542969 0.57126826047897339 0.61859500408172607
0.82040202617645264 0.64805507659912109 0.6194646954536438
0.93798136711120605 0.63575249910354614 0.6330796480178833
0.44275832176208496 0.47695505619049072 0.60739850997924805
0.54717373847961426 0.51609206199645996 0.61398231983184814
0.7102547287940979 0.62112247943878174 0.63052964210510254
0.82214504480361938 0.68975222110748291 0.62847083806991577
0.94541943073272705 0.67340183258056641 0.64516007900238037
0.28944942355155945 0.57717311382293701 0.57667285203933716
0.43561208248138428 0.59610050916671753 0.58849620819091797
0.6696968674659729 0.66007596254348755 0.61682552099227905
0.82609814405441284 0.75019127130508423 0.64338403940200806
0.95483648777008057 0.74911510944366455 0.66417866945266724
0.28840070962905884 0.6927950382232666 0.54579704999923706
0.37978062033653259 0.69967460632324219 0.55078309774398804
0.56223762035369873 0.7246173620223999 0.56891065835952759
0.80438554286956787 0.8033795952796936 0.63182628154754639
0.97128587961196899 0.84762090444564819 0.68282294273376465
0.27351149916648865 0.89325904846191406 0.56683951616287231
0.37483119964599609 0.89437317848205566 0.57301890850067139
0.57018232345581055 0.91236418485641479 0.59858053922653198
0.75546318292617798 0.9370841383934021 0.63267987966537476
0.95626640319824219 0.96316885948181152 0.70491510629653931
0.67239868640899658 0.64142382144927979 0.82482278347015381
0.71953099966049194 0.66229248046875 0.8209078311920166
0.81165891885757446 0.72061246633529663 0.826873779296875
0.90538239479064941 0.80589240789413452 0.8288114070892334
0.95531481504440308 0.83853179216384888 0.82977235317230225
0.6556517481803894 0.6688159704208374 0.82681357860565186
0.70713812112808228 0.68714314699172974 0.8276638388633728
0.80832952260971069 0.74139738082885742 0.8309292197227478
0.90305924415588379 0.8218916654586792 0.83632570505142212
0.96369302272796631 0.85469913482666016 0.84761244058609009
0.57613837718963623 0.71978986263275146 0.82573413848876953
0.6386377215385437 0.73126524686813354 0.82952475547790527
0.76747137308120728 0.76868730783462524 0.83853280544281006
0.90013349056243896 0.84873610734939575 0.85540211200714111
0.96415561437606812 0.89033013582229614 0.86452913284301758
0.35576483607292175 0.8045538067817688 0.810932457447052
0.42781645059585571 0.80329465866088867 0.81513404846191406
0.58551877737045288 0.80737990140914917 0.82794427871704102
0.8428770899772644 0.86451864242553711 0.86960971355438232
0.97344088554382324 0.93055248260498047 0.9022294282913208
0.24416297674179077 0.94466298818588257 0.83153033256530762
0.32821935415267944 0.94281232357025146 0.83167332410812378
0.49096629023551941 0.94631582498550415 0.84182989597320557
0.7020912766456604 0.95295947790145874 0.86067372560501099
0.96913415193557739 0.97922348976135254 0.93580585718154907
