luts/instant_consumer/polaroid_px-680.cube
# Created by: G'MIC (https://gmic.eu)
TITLE "polaroid_px-680"
# LUT size
LUT_3D_SIZE 5
# Data domain
DOMAIN_MIN 0.0 0.0 0.0
DOMAIN_MAX 1.0 1.0 1.0
# LUT data points
0.020204881206154823 0.1886250227689743 0.20784313976764679
0.08851933479309082 0.18446244299411774 0.2053375244140625
0.5073009729385376 0.18741050362586975 0.20105676352977753
0.86435902118682861 0.33100029826164246 0.20361383259296417
0.97492998838424683 0.5432700514793396 0.28614538908004761
0.00063422706443816423 0.23556265234947205 0.20709012448787689
0.14254868030548096 0.25780892372131348 0.203274205327034
0.58246225118637085 0.3082701563835144 0.18675173819065094
0.85414767265319824 0.44201210141181946 0.1989801824092865
0.96607422828674316 0.58713388442993164 0.28622806072235107
0 0.49306082725524902 0.20694571733474731
0.073237277567386627 0.50692570209503174 0.20962058007717133
0.57611316442489624 0.56502747535705566 0.20473651587963104
0.82708454132080078 0.61520266532897949 0.21040837466716766
0.94114279747009277 0.65740036964416504 0.27229019999504089
0.1645788699388504 0.69503098726272583 0.26173466444015503
0.31843951344490051 0.69178402423858643 0.27284982800483704
0.58163297176361084 0.70905762910842896 0.30813425779342651
0.78165775537490845 0.7504352331161499 0.34439420700073242
0.91165655851364136 0.79301631450653076 0.40052652359008789
0.59744513034820557 0.85760372877120972 0.44265681505203247
0.62307953834533691 0.85598057508468628 0.44937378168106079
0.69633805751800537 0.86533159017562866 0.4785066545009613
0.7952263355255127 0.88593345880508423 0.51200038194656372
0.87325119972229004 0.91316413879394531 0.55878859758377075
0.026373261585831642 0.18576391041278839 0.22812892496585846
0.12685962021350861 0.18936771154403687 0.23162044584751129
0.55436038970947266 0.15775401890277863 0.26951926946640015
0.87234067916870117 0.392433762550354 0.3387451171875
0.96338486671447754 0.59563750028610229 0.41493123769760132
0.0027437845710664988 0.25797885656356812 0.25410455465316772
0.24141150712966919 0.28949514031410217 0.27185523509979248
0.63727140426635742 0.35927161574363708 0.29911795258522034
0.86024260520935059 0.50377374887466431 0.34619995951652527
0.95719587802886963 0.63248997926712036 0.4128146767616272
0.16006867587566376 0.52782648801803589 0.29729408025741577
0.29154828190803528 0.53335273265838623 0.29412403702735901
0.62427937984466553 0.58062684535980225 0.3119206428527832
0.82986444234848022 0.61838227510452271 0.32906618714332581
0.94220376014709473 0.68473225831985474 0.38873130083084106
0.32613760232925415 0.70196902751922607 0.3289344310760498
0.41934630274772644 0.70114696025848389 0.33793556690216064
0.60622471570968628 0.71884292364120483 0.37172228097915649
0.79147613048553467 0.76115798950195312 0.41059109568595886
0.91362631320953369 0.79708850383758545 0.45306244492530823
0.60725313425064087 0.85874092578887939 0.46590545773506165
0.63283103704452515 0.85731405019760132 0.46959885954856873
0.70285296440124512 0.86846786737442017 0.49766457080841064
0.79580479860305786 0.88699579238891602 0.53326153755187988
0.87471461296081543 0.91689509153366089 0.57606816291809082
0.10967002063989639 0.20385102927684784 0.39360371232032776
0.36274570226669312 0.23656377196311951 0.40846818685531616
0.64935141801834106 0.38024479150772095 0.43829372525215149
0.85244178771972656 0.41122567653656006 0.47661283612251282
0.95979732275009155 0.58664935827255249 0.51322764158248901
0.11502934247255325 0.33878389000892639 0.4306378960609436
0.4192124605178833 0.37724065780639648 0.44323775172233582
0.68654626607894897 0.49708044528961182 0.46215933561325073
0.84986990690231323 0.52270793914794922 0.48984447121620178
0.95144468545913696 0.6560370922088623 0.53101867437362671
0.25736585259437561 0.54258638620376587 0.42253598570823669
0.43670216202735901 0.55761212110519409 0.43335685133934021
0.69704741239547729 0.61781817674636841 0.47511792182922363
0.83688855171203613 0.6748473048210144 0.50541549921035767
0.93121492862701416 0.73644810914993286 0.53655070066452026
0.48244690895080566 0.70096892118453979 0.44267928600311279
0.55975097417831421 0.70908933877944946 0.4531787633895874
0.67548227310180664 0.73076128959655762 0.47356611490249634
0.81173861026763916 0.77102863788604736 0.50841218233108521
0.91662847995758057 0.79516661167144775 0.52952092885971069
0.64534765481948853 0.85640352964401245 0.5152965784072876
0.66025853157043457 0.85827553272247314 0.51724874973297119
0.71473473310470581 0.87157630920410156 0.53156846761703491
0.80209624767303467 0.8888247013092041 0.57097607851028442
0.87856543064117432 0.91963160037994385 0.61264973878860474
0.49039670825004578 0.34099295735359192 0.59362494945526123
0.63125687837600708 0.39593994617462158 0.594105064868927
0.7749055027961731 0.56945508718490601 0.59468191862106323
0.85395532846450806 0.67364174127578735 0.60485422611236572
0.92873126268386841 0.67229646444320679 0.61330974102020264
0.49579590559005737 0.46129265427589417 0.59633839130401611
0.62873780727386475 0.50260597467422485 0.59439444541931152
0.78479093313217163 0.62636953592300415 0.5998232364654541
0.8551863431930542 0.70730972290039062 0.61028921604156494
0.92736101150512695 0.70777106285095215 0.62122780084609985
0.38139450550079346 0.60353291034698486 0.56339824199676514
0.52099502086639404 0.6104888916015625 0.56858175992965698
0.74411767721176147 0.6748308539390564 0.59409630298614502
0.85490787029266357 0.75950795412063599 0.6206325888633728
0.92490088939666748 0.77083128690719604 0.63288778066635132
0.49510514736175537 0.71329200267791748 0.54107469320297241
0.55809813737869263 0.71334713697433472 0.54323852062225342
0.69579660892486572 0.73732119798660278 0.56591421365737915
0.83278799057006836 0.79383665323257446 0.6123386025428772
0.91048943996429443 0.83794569969177246 0.64509761333465576
0.590007483959198 0.8507925271987915 0.56421822309494019
0.62508642673492432 0.85163760185241699 0.56767308712005615
0.71675270795822144 0.8642570972442627 0.58804881572723389
0.813648521900177 0.89212667942047119 0.62352710962295532
0.88703829050064087 0.92760562896728516 0.66344928741455078
0.76016265153884888 0.65317970514297485 0.72136682271957397
0.78547632694244385 0.66819649934768677 0.71206927299499512
0.84843510389328003 0.73266613483428955 0.70902723073959351
0.89281100034713745 0.81107223033905029 0.70636433362960815
0.9052240252494812 0.84154301881790161 0.70573651790618896
0.74699860811233521 0.67748928070068359 0.71531438827514648
0.78345000743865967 0.6990770697593689 0.71491402387619019
0.84409916400909424 0.74879354238510132 0.70779561996459961
0.88837635517120361 0.82096648216247559 0.70695358514785767
0.90367639064788818 0.85683506727218628 0.70846056938171387
0.7030634880065918 0.72587436437606812 0.71198928356170654
0.73964542150497437 0.73061442375183105 0.71064990758895874
0.82269245386123657 0.76923716068267822 0.70864886045455933
0.88182532787322998 0.83411622047424316 0.70733702182769775
0.90390205383300781 0.87482881546020508 0.71526420116424561
0.60679620504379272 0.78270918130874634 0.69275093078613281
0.63907915353775024 0.78181767463684082 0.69637292623519897
0.73273634910583496 0.7901381254196167 0.69972151517868042
0.8619464635848999 0.84548097848892212 0.71568816900253296
0.89553189277648926 0.90165215730667114 0.72494924068450928
0.63211393356323242 0.88982224464416504 0.69277650117874146
0.65246021747589111 0.89184629917144775 0.69330549240112305
0.71364521980285645 0.89489519596099854 0.69437229633331299
0.80437254905700684 0.90725576877593994 0.70910990238189697
0.9004894495010376 0.94689154624938965 0.75104320049285889
