luts/instant_consumer/polaroid_px-100uv+_warm_+++.cube
# Created by: G'MIC (https://gmic.eu)
TITLE "polaroid_px-100uv+_warm_+++"
# LUT size
LUT_3D_SIZE 5
# Data domain
DOMAIN_MIN 0.0 0.0 0.0
DOMAIN_MAX 1.0 1.0 1.0
# LUT data points
0.42423611879348755 0.38094678521156311 0.36678442358970642
0.41765064001083374 0.37314733862876892 0.36268040537834167
0.44933435320854187 0.40549033880233765 0.39163544774055481
0.53184741735458374 0.49300453066825867 0.46589803695678711
0.63709026575088501 0.60448247194290161 0.55639582872390747
0.43027812242507935 0.38767042756080627 0.37553310394287109
0.43057680130004883 0.38622364401817322 0.37611103057861328
0.46164262294769287 0.41751876473426819 0.40436479449272156
0.53406006097793579 0.49362722039222717 0.46923735737800598
0.63152897357940674 0.59564054012298584 0.55003213882446289
0.47350817918777466 0.43314167857170105 0.41788294911384583
0.47477251291275024 0.4328608512878418 0.4181678295135498
0.49794945120811462 0.45629438757896423 0.43765410780906677
0.55769270658493042 0.51813787221908569 0.48886975646018982
0.64514786005020142 0.60823303461074829 0.5574677586555481
0.57307529449462891 0.53592044115066528 0.5024293065071106
0.57238686084747314 0.53522670269012451 0.50163954496383667
0.58914279937744141 0.55273973941802979 0.514792799949646
0.63605815172195435 0.60016173124313354 0.55075347423553467
0.7006867527961731 0.66458934545516968 0.59636002779006958
0.72772341966629028 0.6925506591796875 0.61985296010971069
0.71875900030136108 0.68494600057601929 0.61560016870498657
0.72780781984329224 0.69597434997558594 0.6222381591796875
0.75081247091293335 0.71841949224472046 0.63645815849304199
0.78523987531661987 0.75012564659118652 0.65483784675598145
0.42785146832466125 0.38612276315689087 0.37291666865348816
0.43709012866020203 0.39529910683631897 0.38198521733283997
0.48829531669616699 0.44804683327674866 0.42648223042488098
0.57050716876983643 0.5335770845413208 0.49903789162635803
0.67392450571060181 0.64092755317687988 0.58414328098297119
0.44174721837043762 0.40098279714584351 0.38503807783126831
0.46072101593017578 0.41940975189208984 0.40299791097640991
0.50480729341506958 0.46391066908836365 0.44262775778770447
0.57942146062850952 0.54072833061218262 0.50732064247131348
0.67339575290679932 0.63718664646148682 0.58186924457550049
0.51123279333114624 0.473244309425354 0.45002272725105286
0.51179599761962891 0.47236382961273193 0.44985666871070862
0.53554153442382812 0.49618926644325256 0.47085350751876831
0.59737741947174072 0.55958420038223267 0.52235329151153564
0.68062549829483032 0.64385533332824707 0.58510535955429077
0.61318790912628174 0.57776403427124023 0.53789746761322021
0.60805892944335938 0.57150411605834961 0.53154993057250977
0.61218428611755371 0.5774880051612854 0.53609335422515869
0.65369707345962524 0.61977213621139526 0.56765598058700562
0.71797215938568115 0.68276524543762207 0.61121869087219238
0.73770755529403687 0.70292758941650391 0.62922024726867676
0.7359122633934021 0.7017592191696167 0.62770849466323853
0.73184353113174438 0.69999092817306519 0.6264185905456543
0.74784004688262939 0.71614813804626465 0.63655728101730347
0.78500509262084961 0.75072932243347168 0.65754330158233643
0.50246042013168335 0.46464827656745911 0.43950855731964111
0.523090660572052 0.48691603541374207 0.45880752801895142
0.54740697145462036 0.51180034875869751 0.48101934790611267
0.6033247709274292 0.56914037466049194 0.52881932258605957
0.70988625288009644 0.6783105731010437 0.6115347146987915
0.51806008815765381 0.48254060745239258 0.45614725351333618
0.53949201107025146 0.50398498773574829 0.47460666298866272
0.56945019960403442 0.53310632705688477 0.5000883936882019
0.61991304159164429 0.58370339870452881 0.54093748331069946
0.7097284197807312 0.67459678649902344 0.60876750946044922
0.5560411810874939 0.52214628458023071 0.49081909656524658
0.56628364324569702 0.53067111968994141 0.49800843000411987
0.60424202680587769 0.56776195764541626 0.52988523244857788
0.65385305881500244 0.61788320541381836 0.56750750541687012
0.72381848096847534 0.68787229061126709 0.61626273393630981
0.65239298343658447 0.61904096603393555 0.56882357597351074
0.65966027975082397 0.62449860572814941 0.57275378704071045
0.66985523700714111 0.63609999418258667 0.58274871110916138
0.69442474842071533 0.66148871183395386 0.59973287582397461
0.74890613555908203 0.7140200138092041 0.63344681262969971
0.75958377122879028 0.72461855411529541 0.64197170734405518
0.76847261190414429 0.73348426818847656 0.64748620986938477
0.75738787651062012 0.72505241632461548 0.64377886056900024
0.76076024770736694 0.72910875082015991 0.64584994316101074
0.79359579086303711 0.75906115770339966 0.66326344013214111
0.64573216438293457 0.6114269495010376 0.5565640926361084
0.65845692157745361 0.62588715553283691 0.56979852914810181
0.67971020936965942 0.64814555644989014 0.58821219205856323
0.69014102220535278 0.65880399942398071 0.59620195627212524
0.7361457347869873 0.70584410429000854 0.62854468822479248
0.66294008493423462 0.63097155094146729 0.57686173915863037
0.66850411891937256 0.63646495342254639 0.58122020959854126
0.68631315231323242 0.65313589572906494 0.59443765878677368
0.70097923278808594 0.66760265827178955 0.6042211651802063
0.73791706562042236 0.70538026094436646 0.62882256507873535
0.66079568862915039 0.62948209047317505 0.57454377412796021
0.66595005989074707 0.63422888517379761 0.58008348941802979
0.69794082641601562 0.6632346510887146 0.6035231351852417
0.72546172142028809 0.69024741649627686 0.62068682909011841
0.7671629786491394 0.73219472169876099 0.64573484659194946
0.69602745771408081 0.6643301248550415 0.59841388463973999
0.69817668199539185 0.66730862855911255 0.6031222939491272
0.72379493713378906 0.6910516619682312 0.62194919586181641
0.74761009216308594 0.71329504251480103 0.63561838865280151
0.78346019983291626 0.7477765679359436 0.65526074171066284
0.77453875541687012 0.74052494764328003 0.64947664737701416
0.78337281942367554 0.74980306625366211 0.65608364343643188
0.78358370065689087 0.75040268898010254 0.6587185263633728
0.78613638877868652 0.75196957588195801 0.6595420241355896
0.80787938833236694 0.77146297693252563 0.66966217756271362
0.78582948446273804 0.75094026327133179 0.65849047899246216
0.78863805532455444 0.75559502840042114 0.66394251585006714
0.79610466957092285 0.76394522190093994 0.66945189237594604
0.80794119834899902 0.77634209394454956 0.67463237047195435
0.81603389978408813 0.7857968807220459 0.67927783727645874
0.79379010200500488 0.7592005729675293 0.6660035252571106
0.79575681686401367 0.76102942228317261 0.66998565196990967
0.79789137840270996 0.76475191116333008 0.67303705215454102
0.79754137992858887 0.76463651657104492 0.67071080207824707
0.80541962385177612 0.77360433340072632 0.67231982946395874
0.78912729024887085 0.75399655103683472 0.65898329019546509
0.78811001777648926 0.75469154119491577 0.66251182556152344
0.79345899820327759 0.7597547173500061 0.66756510734558105
0.79867655038833618 0.76386284828186035 0.6693263053894043
0.81494259834289551 0.78017491102218628 0.67632049322128296
0.78558856248855591 0.75227892398834229 0.65506654977798462
0.79300868511199951 0.76174306869506836 0.66227060556411743
0.7971152663230896 0.7642093300819397 0.66712552309036255
0.80290669202804565 0.76771718263626099 0.66914939880371094
0.81969368457794189 0.78293335437774658 0.67611169815063477
0.81116420030593872 0.7765810489654541 0.67107546329498291
0.8219110369682312 0.78872561454772949 0.67859786748886108
0.82411175966262817 0.79004663228988647 0.68065088987350464
0.82186460494995117 0.78552341461181641 0.67779314517974854
0.83114159107208252 0.79238176345825195 0.6800881028175354
