luts/instant_consumer/polaroid_px-100uv+_warm_+++.cube
# Created by: G'MIC (https://gmic.eu)
TITLE "polaroid_px-100uv+_warm_+++"
# LUT size
LUT_3D_SIZE 7
# Data domain
DOMAIN_MIN 0.0 0.0 0.0
DOMAIN_MAX 1.0 1.0 1.0
# LUT data points
0.42423611879348755 0.38094678521156311 0.36678442358970642
0.41597971320152283 0.37254902720451355 0.36085218191146851
0.42323789000511169 0.3786851167678833 0.36775451898574829
0.44933435320854187 0.40549033880233765 0.39163544774055481
0.49968615174293518 0.45883083343505859 0.43719398975372314
0.56617873907089233 0.52945584058761597 0.49642184376716614
0.63709026575088501 0.60448247194290161 0.55639582872390747
0.42451766133308411 0.38153970241546631 0.36945641040802002
0.42175972461700439 0.3777560293674469 0.3674311637878418
0.42948687076568604 0.38456866145133972 0.37459173798561096
0.45632940530776978 0.41219434142112732 0.39911380410194397
0.50336271524429321 0.46166488528251648 0.44175362586975098
0.56476116180419922 0.52636075019836426 0.49592834711074829
0.63289666175842285 0.59788376092910767 0.55218082666397095
0.4404694139957428 0.39850226044654846 0.38592416048049927
0.43972694873809814 0.39649999141693115 0.38522171974182129
0.44523075222969055 0.40077584981918335 0.38959768414497375
0.46917378902435303 0.4253200888633728 0.41145646572113037
0.51134204864501953 0.46968179941177368 0.44958579540252686
0.56611335277557373 0.52694571018218994 0.49658298492431641
0.63218122720718384 0.59551775455474854 0.54954278469085693
0.47350817918777466 0.43314167857170105 0.41788294911384583
0.47373190522193909 0.43234783411026001 0.41779330372810364
0.4779602587223053 0.43579089641571045 0.42023292183876038
0.49794945120811462 0.45629438757896423 0.43765410780906677
0.5348808765411377 0.49471265077590942 0.46986845135688782
0.58362865447998047 0.54489994049072266 0.50997418165206909
0.64514786005020142 0.60823303461074829 0.5574677586555481
0.53109419345855713 0.49294635653495789 0.46864265203475952
0.53195428848266602 0.49356776475906372 0.46873348951339722
0.53542071580886841 0.49675688147544861 0.47084024548530579
0.55219364166259766 0.51396316289901733 0.48468992114067078
0.58429867029190063 0.54711347818374634 0.51053214073181152
0.6268150806427002 0.58994269371032715 0.54298728704452515
0.677967369556427 0.64150911569595337 0.58020627498626709
0.62159991264343262 0.58525776863098145 0.54066652059555054
0.61896997690200806 0.58287763595581055 0.53903317451477051
0.61903899908065796 0.58365875482559204 0.53877407312393188
0.63206017017364502 0.5978817343711853 0.54919499158859253
0.65730875730514526 0.62314873933792114 0.56792229413986206
0.68835616111755371 0.65336310863494873 0.58915656805038452
0.72649860382080078 0.69093596935272217 0.61451417207717896
0.72772341966629028 0.6925506591796875 0.61985296010971069
0.72104835510253906 0.68665885925292969 0.61622446775436401
0.71872061491012573 0.68546080589294434 0.61576956510543823
0.72780781984329224 0.69597434997558594 0.6222381591796875
0.7432209849357605 0.71133506298065186 0.6326296329498291
0.76015031337738037 0.72667843103408813 0.64120817184448242
0.78523987531661987 0.75012564659118652 0.65483784675598145
0.42230319976806641 0.37982854247093201 0.36647164821624756
0.42206698656082153 0.37918782234191895 0.36765316128730774
0.43643420934677124 0.39354375004768372 0.38037848472595215
0.47474575042724609 0.43314668536186218 0.41406896710395813
0.52744895219802856 0.48821806907653809 0.46124723553657532
0.59178990125656128 0.55567073822021484 0.51740878820419312
0.66094285249710083 0.62800824642181396 0.57468914985656738
0.42681574821472168 0.38479483127593994 0.3714694082736969
0.43165841698646545 0.38916245102882385 0.37664136290550232
0.44714665412902832 0.40419396758079529 0.39055457711219788
0.4825185239315033 0.44029206037521362 0.42217510938644409
0.53332388401031494 0.49301779270172119 0.46750766038894653
0.59292387962341309 0.5552065372467041 0.51864755153656006
0.65939784049987793 0.62423133850097656 0.57251167297363281
0.45224601030349731 0.41163092851638794 0.39554405212402344
0.45710688829421997 0.41569894552230835 0.40014249086380005
0.46506693959236145 0.42245504260063171 0.40699887275695801
0.49367901682853699 0.4513842761516571 0.43284064531326294
0.53965628147125244 0.49921908974647522 0.47376921772956848
0.59494411945343018 0.55638271570205688 0.52003151178359985
0.65839457511901855 0.62182724475860596 0.56989145278930664
0.49721869826316833 0.45858171582221985 0.43829965591430664
0.49744412302970886 0.45768442749977112 0.4379417896270752
0.49778249859809875 0.45688635110855103 0.43742889165878296
0.51810264587402344 0.47766232490539551 0.45545849204063416
0.55738633871078491 0.51826721429824829 0.48958355188369751
0.60801589488983154 0.57007628679275513 0.530101478099823
0.66689246892929077 0.62996214628219604 0.57480120658874512
0.55673205852508545 0.52017194032669067 0.49143305420875549
0.55563116073608398 0.51814085245132446 0.48938086628913879
0.55253571271896362 0.51456195116043091 0.48596116900444031
0.56582224369049072 0.5287279486656189 0.49730682373046875
0.59789317846298218 0.56147557497024536 0.523296058177948
0.64121437072753906 0.60520678758621216 0.55584585666656494
0.69175952672958374 0.65577775239944458 0.59204602241516113
0.63522577285766602 0.60010319948196411 0.55430370569229126
0.63544696569442749 0.59998226165771484 0.5535513162612915
0.63044673204421997 0.59543132781982422 0.54929906129837036
0.63783711194992065 0.60427963733673096 0.55567663908004761
0.66115361452102661 0.62800794839859009 0.5731768012046814
0.69317632913589478 0.65933108329772949 0.59502553939819336
0.73236453533172607 0.69709306955337524 0.62027406692504883
0.73138594627380371 0.69656264781951904 0.62479150295257568
0.72919142246246338 0.69499665498733521 0.62337487936019897
0.72505336999893188 0.69196981191635132 0.62057709693908691
0.72760272026062012 0.69585186243057251 0.62316656112670898
0.73925435543060303 0.70774638652801514 0.63106447458267212
0.75759851932525635 0.72471815347671509 0.64119380712509155
0.78414750099182129 0.74962478876113892 0.65592902898788452
0.44178920984268188 0.40133976936340332 0.3860352635383606
0.44858184456825256 0.4083506166934967 0.3928048312664032
0.46306437253952026 0.42299798130989075 0.40580224990844727
0.49828222393989563 0.45910128951072693 0.43628951907157898
0.54894602298736572 0.51172375679016113 0.48104536533355713
0.6164889931678772 0.58145314455032349 0.5378798246383667
0.68683874607086182 0.65414369106292725 0.59393942356109619
0.44734779000282288 0.40739837288856506 0.39102813601493835
0.46039217710494995 0.42054641246795654 0.40330156683921814
0.48244947195053101 0.44268512725830078 0.42290621995925903
0.51480346918106079 0.47574657201766968 0.45176637172698975
0.55986005067825317 0.52169996500015259 0.4910990297794342
0.62014871835708618 0.58347934484481812 0.54065901041030884
0.68818444013595581 0.65274679660797119 0.59332162141799927
0.4678281843662262 0.42896497249603271 0.40897846221923828
0.48332598805427551 0.44435951113700867 0.42386683821678162
0.50124055147171021 0.46168750524520874 0.43963208794593811
0.53065246343612671 0.49145051836967468 0.46625164151191711
0.57305777072906494 0.5345158576965332 0.50234097242355347
0.62672466039657593 0.58915305137634277 0.5452808141708374
0.68824684619903564 0.65161657333374023 0.59179013967514038
0.52404916286468506 0.48727142810821533 0.46137720346450806
0.52615392208099365 0.48816758394241333 0.46245878934860229
0.53368085622787476 0.49497255682945251 0.46889033913612366
0.55605071783065796 0.51767253875732422 0.48881596326828003
0.59210860729217529 0.55469667911529541 0.51882451772689819
0.64000213146209717 0.60316985845565796 0.55579513311386108
0.69486540555953979 0.65842640399932861 0.59563690423965454
0.60003894567489624 0.5644344687461853 0.52736306190490723
0.59321874380111694 0.55641692876815796 0.52018207311630249
0.59069168567657471 0.55380779504776001 0.51745229959487915
0.60056471824645996 0.56473594903945923 0.52694511413574219
0.62559455633163452 0.59092527627944946 0.54718524217605591
0.66578143835067749 0.63078784942626953 0.57589739561080933
0.7133411169052124 0.67767846584320068 0.60840195417404175
0.66855782270431519 0.6338309645652771 0.58012485504150391
0.66871190071105957 0.63320541381835938 0.57902222871780396
0.66476541757583618 0.62990432977676392 0.57574474811553955
0.66334080696105957 0.63058674335479736 0.57680577039718628
0.67652279138565063 0.64472895860671997 0.58706390857696533
0.70619028806686401 0.67325079441070557 0.60632264614105225
0.74422717094421387 0.70937007665634155 0.6301037073135376
0.74573308229446411 0.71087145805358887 0.63434910774230957
0.74863988161087036 0.7137453556060791 0.6358296275138855
0.74437832832336426 0.71050345897674561 0.63349699974060059
0.73909324407577515 0.70699161291122437 0.63140064477920532
0.74310362339019775 0.71196192502975464 0.63456434011459351
0.76027113199234009 0.72793036699295044 0.64428162574768066
0.78700965642929077 0.75280272960662842 0.65909105539321899
0.50246042013168335 0.46464827656745911 0.43950855731964111
0.51369905471801758 0.47705331444740295 0.45056343078613281
0.53372502326965332 0.49798408150672913 0.46817764639854431
0.54740697145462036 0.51180034875869751 0.48101934790611267
0.57305282354354858 0.5381089448928833 0.50402158498764038
0.64088577032089233 0.60783970355987549 0.55876719951629639
0.70988625288009644 0.6783105731010437 0.6115347146987915
0.51180708408355713 0.4756200909614563 0.4498651921749115
0.52471685409545898 0.48896235227584839 0.46152591705322266
0.5468142032623291 0.51139497756958008 0.48029410839080811
0.56206005811691284 0.5263059139251709 0.49387678503990173
0.58363324403762817 0.54789453744888306 0.51215064525604248
0.64285910129547119 0.60801011323928833 0.55940592288970947
0.70838141441345215 0.67425268888473511 0.60878211259841919
0.52596509456634521 0.49119937419891357 0.46386507153511047
0.53536546230316162 0.50021260976791382 0.47178640961647034
0.55543458461761475 0.51937222480773926 0.48828256130218506
0.57884681224822998 0.54232633113861084 0.50814628601074219
0.60910558700561523 0.57245147228240967 0.53251445293426514
0.65662097930908203 0.62044388055801392 0.56891143321990967
0.71281975507736206 0.67717987298965454 0.6098594069480896
0.5560411810874939 0.52214628458023071 0.49081909656524658
0.55841577053070068 0.52336758375167847 0.49160087108612061
0.57788479328155518 0.54172676801681519 0.50790894031524658
0.60424202680587769 0.56776195764541626 0.52988523244857788
0.63488274812698364 0.59871435165405273 0.55366635322570801
0.67562681436538696 0.6396973729133606 0.5829082727432251
0.72381848096847534 0.68787229061126709 0.61626273393630981
0.61617273092269897 0.58324331045150757 0.54150289297103882
0.61845844984054565 0.58381325006484985 0.54153817892074585
0.63011568784713745 0.59449416399002075 0.55056965351104736
0.64416599273681641 0.60939711332321167 0.56277036666870117
0.66370803117752075 0.62987983226776123 0.57752084732055664
0.69742053747177124 0.66312074661254883 0.5998607873916626
0.73913097381591797 0.70389330387115479 0.62673771381378174
0.68811428546905518 0.6543886661529541 0.59408974647521973
0.69389081001281738 0.65914732217788696 0.59727627038955688
0.70119881629943848 0.66601836681365967 0.60296899080276489
0.69716352224349976 0.66448873281478882 0.60280948877334595
0.70209622383117676 0.6706085205078125 0.60682159662246704
0.7270391583442688 0.69417017698287964 0.62151670455932617
0.76073706150054932 0.72611266374588013 0.64159619808197021
0.75958377122879028 0.72461855411529541 0.64197170734405518
0.76781892776489258 0.73256897926330566 0.64656132459640503
0.76629054546356201 0.73179322481155396 0.64711689949035645
0.75738787651062012 0.72505241632461548 0.64377886056900024
0.75588935613632202 0.72438240051269531 0.64321613311767578
0.76936036348342896 0.73658162355422974 0.65014839172363281
0.79359579086303711 0.75906115770339966 0.66326344013214111
0.59582549333572388 0.56089431047439575 0.51732319593429565
0.60528093576431274 0.57139909267425537 0.52672570943832397
0.62080687284469604 0.58799922466278076 0.54079049825668335
0.6353645920753479 0.60325217247009277 0.55418926477432251
0.64746946096420288 0.61566650867462158 0.56501227617263794
0.66519397497177124 0.63369488716125488 0.5785832405090332
0.72294110059738159 0.69255644083023071 0.62068092823028564
0.60844254493713379 0.57548117637634277 0.53251796960830688
0.61568367481231689 0.58293527364730835 0.53890824317932129
0.62973737716674805 0.59703803062438965 0.54996979236602783
0.64213091135025024 0.60930246114730835 0.56018370389938354
0.65282851457595825 0.61963659524917603 0.56878703832626343
0.67676061391830444 0.64381110668182373 0.5865854024887085
0.72166728973388672 0.68934363126754761 0.61847519874572754
0.6179160475730896 0.58643615245819092 0.54376381635665894
0.61870712041854858 0.58649301528930664 0.54373574256896973
0.63128411769866943 0.59791684150695801 0.55213707685470581
0.64934563636779785 0.61465287208557129 0.56575071811676025
0.66729462146759033 0.6322893500328064 0.578713059425354
0.69433128833770752 0.6597900390625 0.59792733192443848
0.73399144411087036 0.69985616207122803 0.62513309717178345
0.61837172508239746 0.58730685710906982 0.54327476024627686
0.62124508619308472 0.58944982290267944 0.54581993818283081
0.63772517442703247 0.60434639453887939 0.55853807926177979
0.66443151235580444 0.62930303812026978 0.57828432321548462
0.68814516067504883 0.65242773294448853 0.5947301983833313
0.71549004316329956 0.68027704954147339 0.61232423782348633
0.75287944078445435 0.71789628267288208 0.63621878623962402
0.64665257930755615 0.61569708585739136 0.56398314237594604
0.64935016632080078 0.61785060167312622 0.5676424503326416
0.6615179181098938 0.62917113304138184 0.57830649614334106
0.68708032369613647 0.65323346853256226 0.59645003080368042
0.70782846212387085 0.67354303598403931 0.60979068279266357
0.73326462507247925 0.69864106178283691 0.62476736307144165
0.76691484451293945 0.73157364130020142 0.64498007297515869
0.70487165451049805 0.67233765125274658 0.60478764772415161
0.70931339263916016 0.6766815185546875 0.60855931043624878
0.71741795539855957 0.68450170755386353 0.6160551905632019
0.72627061605453491 0.69340890645980835 0.62338626384735107
0.73465216159820557 0.70173776149749756 0.62856709957122803
0.75258535146713257 0.71870779991149902 0.63818854093551636
0.77943944931030273 0.74405086040496826 0.65308862924575806
0.76877152919769287 0.73431664705276489 0.64654290676116943
0.77684116363525391 0.74237936735153198 0.65115857124328613
0.77845531702041626 0.74459683895111084 0.65476316213607788
0.77474027872085571 0.74164897203445435 0.65399765968322754
0.77379584312438965 0.74096310138702393 0.65346306562423706
0.78290045261383057 0.74883896112442017 0.65760689973831177
0.8027300238609314 0.76698917150497437 0.66763210296630859
0.69471544027328491 0.66047483682632446 0.59360998868942261
0.70026606321334839 0.66723918914794922 0.60053879022598267
0.70823413133621216 0.67619329690933228 0.60795658826828003
0.71970713138580322 0.68829411268234253 0.61730223894119263
0.7338329553604126 0.70257008075714111 0.62688708305358887
0.73683661222457886 0.70565861463546753 0.62761855125427246
0.75808107852935791 0.72798210382461548 0.64247781038284302
0.70555251836776733 0.67249709367752075 0.60589277744293213
0.70939385890960693 0.67709130048751831 0.61066454648971558
0.71598207950592041 0.68387401103973389 0.6161385178565979
0.72578680515289307 0.69362747669219971 0.62373322248458862
0.73231536149978638 0.69987326860427856 0.62739616632461548
0.73299598693847656 0.70099574327468872 0.62657791376113892
0.75044268369674683 0.71910089254379272 0.63734322786331177
0.70963507890701294 0.67722916603088379 0.61003947257995605
0.70978045463562012 0.67779988050460815 0.61160999536514282
0.71561449766159058 0.68288207054138184 0.61625403165817261
0.72684782743453979 0.69332987070083618 0.62426292896270752
0.73499423265457153 0.70092064142227173 0.6287379264831543
0.7426186203956604 0.70906949043273926 0.63234645128250122
0.76347905397415161 0.73027044534683228 0.64484012126922607
0.70523947477340698 0.67297792434692383 0.60492300987243652
0.70474797487258911 0.67304933071136475 0.60679608583450317
0.71273279190063477 0.68080228567123413 0.61400097608566284
0.73069018125534058 0.69650810956954956 0.62678027153015137
0.74425381422042847 0.70916920900344849 0.63494950532913208
0.75767028331756592 0.72282189130783081 0.64163339138031006
0.78115606307983398 0.74644726514816284 0.65495628118515015
0.71137380599975586 0.67959851026535034 0.6083483099937439
0.71133822202682495 0.68068718910217285 0.61067074537277222
0.71920192241668701 0.68807649612426758 0.61821639537811279
0.73744618892669678 0.70452499389648438 0.6310497522354126
0.75276654958724976 0.71838724613189697 0.6400454044342041
0.76838058233261108 0.73316746950149536 0.64790207147598267
0.79144144058227539 0.75568968057632446 0.66028887033462524
0.73991340398788452 0.70784235000610352 0.62722843885421753
0.74343276023864746 0.7122071385383606 0.63069611787796021
0.7497941255569458 0.71842277050018311 0.63668918609619141
0.75942885875701904 0.72684299945831299 0.64402079582214355
0.76780122518539429 0.73388677835464478 0.64870154857635498
0.77880668640136719 0.74364167451858521 0.65382474660873413
0.79788827896118164 0.76143485307693481 0.663299560546875
0.78328919410705566 0.74919074773788452 0.65463054180145264
0.78926020860671997 0.75586616992950439 0.6589428186416626
0.79374605417251587 0.76067012548446655 0.66299819946289062
0.79441934823989868 0.76110827922821045 0.6646609902381897
0.79467839002609253 0.76060765981674194 0.66455143690109253
0.79948502779006958 0.76384133100509644 0.66558325290679932
0.81363916397094727 0.77652746438980103 0.6721222996711731
0.78582948446273804 0.75094026327133179 0.65849047899246216
0.78757786750793457 0.75417804718017578 0.66255545616149902
0.79016059637069702 0.75749766826629639 0.66546481847763062
0.79610466957092285 0.76394522190093994 0.66945189237594604
0.80536139011383057 0.77355968952178955 0.67452579736709595
0.80855375528335571 0.777332603931427 0.67463237047195435
0.81603389978408813 0.7857968807220459 0.67927783727645874
0.79227221012115479 0.75737518072128296 0.66522175073623657
0.79416394233703613 0.76101392507553101 0.66901206970214844
0.79617977142333984 0.76196885108947754 0.67119377851486206
0.79857981204986572 0.76623785495758057 0.67359524965286255
0.8009028434753418 0.76836675405502319 0.67394000291824341
0.79883754253387451 0.76669389009475708 0.67041528224945068
0.80593740940093994 0.77455663681030273 0.67278313636779785
0.79380768537521362 0.75899523496627808 0.66511929035186768
0.79277080297470093 0.76032233238220215 0.66783988475799561
0.79341387748718262 0.76069056987762451 0.66946995258331299
0.79632174968719482 0.76296716928482056 0.67096751928329468
0.79714846611022949 0.76398521661758423 0.67071080207824707
0.79746311902999878 0.76429694890975952 0.66850787401199341
0.80789190530776978 0.77479809522628784 0.67335712909698486
0.78912729024887085 0.75399655103683472 0.65898329019546509
0.78792566061019897 0.75402688980102539 0.66123008728027344
0.78879767656326294 0.75622594356536865 0.66423189640045166
0.79345899820327759 0.7597547173500061 0.66756510734558105
0.79723703861236572 0.76256626844406128 0.66970980167388916
0.80172884464263916 0.76706701517105103 0.67007237672805786
0.81494259834289551 0.78017491102218628 0.67632049322128296
0.78376173973083496 0.7501036524772644 0.65471410751342773
0.78586632013320923 0.75424426794052124 0.65815883874893188
0.78951871395111084 0.75773018598556519 0.66249662637710571
0.79357767105102539 0.76067721843719482 0.66661512851715088
0.79841870069503784 0.76374208927154541 0.66832107305526733
0.80489051342010498 0.76916158199310303 0.67008870840072632
0.81879788637161255 0.78241276741027832 0.67696255445480347
0.79072332382202148 0.7572638988494873 0.65834927558898926
0.79696786403656006 0.76509761810302734 0.66322124004364014
0.80151045322418213 0.76994723081588745 0.66768771409988403
0.80316942930221558 0.7700268030166626 0.66959142684936523
0.80487531423568726 0.77042251825332642 0.67015093564987183
0.80889284610748291 0.77267217636108398 0.67071014642715454
0.82098489999771118 0.78360044956207275 0.67592304944992065
0.81116420030593872 0.7765810489654541 0.67107546329498291
0.81850051879882812 0.78500545024871826 0.67596989870071411
0.82391250133514404 0.79048871994018555 0.67996340990066528
0.82411175966262817 0.79004663228988647 0.68065088987350464
0.82224887609481812 0.78675848245620728 0.67893105745315552
0.82259976863861084 0.78543120622634888 0.67737340927124023
0.83114159107208252 0.79238176345825195 0.6800881028175354
