luts/instant_consumer/polaroid_px-680.cube
# Created by: G'MIC (https://gmic.eu)
TITLE "polaroid_px-680"
# LUT size
LUT_3D_SIZE 7
# Data domain
DOMAIN_MIN 0.0 0.0 0.0
DOMAIN_MAX 1.0 1.0 1.0
# LUT data points
0.020204881206154823 0.1886250227689743 0.20784313976764679
0.04290606826543808 0.18410508334636688 0.20771555602550507
0.1926158219575882 0.18490996956825256 0.20396596193313599
0.5073009729385376 0.18741050362586975 0.20105676352977753
0.78978854417800903 0.25263893604278564 0.19666421413421631
0.91458851099014282 0.4095730185508728 0.21693846583366394
0.97492998838424683 0.5432700514793396 0.28614538908004761
0.0075587253086268902 0.19908016920089722 0.20883752405643463
0.054459471255540848 0.20323842763900757 0.20624144375324249
0.24857145547866821 0.21968808770179749 0.20273420214653015
0.55196964740753174 0.24890494346618652 0.19492250680923462
0.79464054107666016 0.3326239287853241 0.19386948645114899
0.91000556945800781 0.45802792906761169 0.21601393818855286
0.97033518552780151 0.56659805774688721 0.28561121225357056
0 0.31023710966110229 0.20555467903614044
0.017300968989729881 0.32178303599357605 0.20349042117595673
0.29390442371368408 0.36145779490470886 0.19515947997570038
0.60553675889968872 0.40777859091758728 0.17990976572036743
0.78769546747207642 0.44372513890266418 0.17708501219749451
0.88956844806671143 0.52767455577850342 0.21010613441467285
0.9567641019821167 0.60624402761459351 0.27899461984634399
0 0.49306082725524902 0.20694571733474731
0.0020971859339624643 0.50374972820281982 0.20979933440685272
0.27159464359283447 0.5221291184425354 0.20876961946487427
0.57611316442489624 0.56502747535705566 0.20473651587963104
0.7744717001914978 0.60700541734695435 0.20539470016956329
0.8700406551361084 0.62349516153335571 0.22137041389942169
0.94114279747009277 0.65740036964416504 0.27229019999504089
0.0080908834934234619 0.63521945476531982 0.23392494022846222
0.087478116154670715 0.6356741189956665 0.23679202795028687
0.33524057269096375 0.64360398054122925 0.24957740306854248
0.56267774105072021 0.66410845518112183 0.26613211631774902
0.73628324270248413 0.69663476943969727 0.28331413865089417
0.84926426410675049 0.73344129323959351 0.32139468193054199
0.92306268215179443 0.74611210823059082 0.35059750080108643
0.3377305269241333 0.74491477012634277 0.30530935525894165
0.37411659955978394 0.73888319730758667 0.30735328793525696
0.47179186344146729 0.74079537391662598 0.32258737087249756
0.60809928178787231 0.75382965803146362 0.35219475626945496
0.72518801689147949 0.77615070343017578 0.3783932626247406
0.82200473546981812 0.80093371868133545 0.40734624862670898
0.90053379535675049 0.83708280324935913 0.45279192924499512
0.59744513034820557 0.85760372877120972 0.44265681505203247
0.60838574171066284 0.85443884134292603 0.44292089343070984
0.643105149269104 0.85815715789794922 0.45850029587745667
0.69633805751800537 0.86533159017562866 0.4785066545009613
0.75949186086654663 0.8783448338508606 0.4997866153717041
0.82426446676254272 0.89138954877853394 0.52342778444290161
0.87325119972229004 0.91316413879394531 0.55878859758377075
0.026747923344373703 0.18695351481437683 0.21340189874172211
0.045079667121171951 0.18307125568389893 0.21214325726032257
0.21327681839466095 0.17807838320732117 0.22034640610218048
0.55098700523376465 0.17083276808261871 0.23530252277851105
0.80748200416564941 0.29815834760665894 0.26850986480712891
0.9099547266960144 0.45914807915687561 0.3099309504032135
0.96794551610946655 0.57111471891403198 0.36164399981498718
0.0073687233962118626 0.20455576479434967 0.22142961621284485
0.079252921044826508 0.21555721759796143 0.22362346947193146
0.29496684670448303 0.22978396713733673 0.23094387352466583
0.59754061698913574 0.27142047882080078 0.24552908539772034
0.80961149930953979 0.37416771054267883 0.26763999462127686
0.90398234128952026 0.49471363425254822 0.30599460005760193
0.96284860372543335 0.59447699785232544 0.3615739643573761
0.0050136642530560493 0.33367052674293518 0.23916818201541901
0.076506249606609344 0.34519368410110474 0.23843026161193848
0.35125938057899475 0.37977829575538635 0.2384670078754425
0.62724405527114868 0.41843101382255554 0.24153886735439301
0.79544425010681152 0.46685066819190979 0.24877525866031647
0.88666838407516479 0.55464142560958862 0.29409131407737732
0.95450937747955322 0.62872511148452759 0.35370627045631409
0.0066217458806931973 0.51492571830749512 0.24987177550792694
0.06261686235666275 0.51855683326721191 0.24854324758052826
0.34014683961868286 0.53502088785171509 0.25936985015869141
0.6011243462562561 0.57196271419525146 0.26276084780693054
0.7786332368850708 0.61121970415115356 0.27681821584701538
0.86914080381393433 0.62782555818557739 0.29201170802116394
0.94082355499267578 0.67029643058776855 0.33761218190193176
0.11568170040845871 0.64776051044464111 0.27317869663238525
0.22347420454025269 0.64312624931335449 0.27614685893058777
0.38275009393692017 0.64665049314498901 0.29193881154060364
0.58444201946258545 0.66967451572418213 0.31101304292678833
0.7483249306678772 0.70757997035980225 0.33593466877937317
0.85056453943252563 0.73745220899581909 0.3658071756362915
0.92308950424194336 0.74749279022216797 0.38581594824790955
0.38261613249778748 0.74808353185653687 0.33379769325256348
0.42252379655838013 0.74702906608581543 0.3400004506111145
0.50449532270431519 0.74750041961669922 0.35375526547431946
0.61783987283706665 0.75795853137969971 0.37473338842391968
0.7289283275604248 0.77922284603118896 0.40461692214012146
0.82525718212127686 0.80691659450531006 0.43721699714660645
0.89976686239242554 0.84084838628768921 0.47381207346916199
0.60339736938476562 0.85800886154174805 0.45354369282722473
0.61577898263931274 0.85731589794158936 0.45429235696792603
0.64999711513519287 0.86013245582580566 0.46930456161499023
0.70064795017242432 0.86769908666610718 0.48899349570274353
0.76331257820129395 0.87997257709503174 0.51153355836868286
0.8220590353012085 0.89227664470672607 0.53646838665008545
0.87211734056472778 0.91358309984207153 0.56697314977645874
0.030707534402608871 0.18622046709060669 0.2599455714225769
0.12524506449699402 0.18982532620429993 0.26712962985038757
0.27256497740745544 0.21359480917453766 0.27961552143096924
0.54876744747161865 0.19239675998687744 0.31746640801429749
0.80723422765731812 0.26003482937812805 0.35457488894462585
0.91688162088394165 0.45098909735679626 0.4014592170715332
0.96125304698944092 0.6129876971244812 0.46279919147491455
0.003914268221706152 0.22480987012386322 0.29021435976028442
0.1498243659734726 0.23460102081298828 0.29707163572311401
0.35606241226196289 0.27886644005775452 0.31104615330696106
0.61043787002563477 0.28756716847419739 0.34095746278762817
0.81742101907730103 0.38113141059875488 0.37386128306388855
0.90376359224319458 0.53871595859527588 0.42504680156707764
0.95556199550628662 0.64525127410888672 0.47269424796104431
0.0058464347384870052 0.35671314597129822 0.31049004197120667
0.1837916374206543 0.37058895826339722 0.31952446699142456
0.4460386335849762 0.41279208660125732 0.34498691558837891
0.6603165864944458 0.45232060551643372 0.36035871505737305
0.80433028936386108 0.53246110677719116 0.39048594236373901
0.88635063171386719 0.61022269725799561 0.42493817210197449
0.94714939594268799 0.66986823081970215 0.45954629778862
0.21962277591228485 0.52922713756561279 0.33585134148597717
0.32905906438827515 0.5398598313331604 0.34477975964546204
0.46382325887680054 0.55577981472015381 0.35541123151779175
0.65166926383972168 0.5934484601020813 0.36782005429267883
0.78649991750717163 0.61650902032852173 0.37668731808662415
0.87147396802902222 0.64660936594009399 0.3917640745639801
0.93852758407592773 0.6995728611946106 0.44092288613319397
0.39104589819908142 0.65713763236999512 0.36972612142562866
0.40613865852355957 0.6543840765953064 0.3620455265045166
0.48280441761016846 0.6614377498626709 0.3647468090057373
0.62101781368255615 0.67965245246887207 0.39025935530662537
0.75966930389404297 0.71424311399459839 0.41309189796447754
0.85653918981552124 0.74084413051605225 0.43374568223953247
0.92399173974990845 0.75034463405609131 0.44427692890167236
0.46617200970649719 0.7502741813659668 0.3899875283241272
0.48443251848220825 0.74706190824508667 0.3896939754486084
0.54680448770523071 0.75276041030883789 0.40216356515884399
0.64611333608627319 0.7655642032623291 0.42652603983879089
0.74496942758560181 0.7863616943359375 0.45184090733528137
0.83279681205749512 0.81325936317443848 0.48121744394302368
0.90092700719833374 0.83999490737915039 0.50961053371429443
0.61226433515548706 0.85762590169906616 0.47584331035614014
0.62862449884414673 0.85425269603729248 0.47905558347702026
0.65322864055633545 0.8606075644493103 0.48738959431648254
0.70866245031356812 0.86897486448287964 0.50798875093460083
0.76598066091537476 0.8805045485496521 0.52918684482574463
0.82660996913909912 0.89541709423065186 0.55773633718490601
0.87639051675796509 0.91802984476089478 0.58664745092391968
0.10967002063989639 0.20385102927684784 0.39360371232032776
0.2566150426864624 0.21554414927959442 0.4009367823600769
0.47853332757949829 0.28406405448913574 0.41836488246917725
0.64935141801834106 0.38024479150772095 0.43829372525215149
0.78533166646957397 0.37360519170761108 0.46104106307029724
0.89895850419998169 0.46376007795333862 0.48994803428649902
0.95979732275009155 0.58664935827255249 0.51322764158248901
0.11722218990325928 0.26775902509689331 0.42116454243659973
0.28881478309631348 0.28854358196258545 0.42510133981704712
0.52575492858886719 0.36340433359146118 0.44022741913795471
0.67780441045761108 0.45580238103866577 0.45430794358253479
0.79670482873916626 0.44663050770759583 0.47080099582672119
0.89187753200531006 0.52308422327041626 0.49528506398200989
0.95552158355712891 0.62847995758056641 0.52404844760894775
0.04812285304069519 0.40924301743507385 0.42836081981658936
0.26517271995544434 0.41965904831886292 0.43533003330230713
0.5387953519821167 0.46735641360282898 0.45662245154380798
0.69626951217651367 0.54283279180526733 0.47033074498176575
0.79684281349182129 0.54904818534851074 0.48406672477722168
0.8811333179473877 0.61844277381896973 0.51198309659957886
0.94562375545501709 0.69192570447921753 0.54147982597351074
0.25736585259437561 0.54258638620376587 0.42253598570823669
0.35533407330513 0.54903650283813477 0.4269680380821228
0.52470332384109497 0.57087355852127075 0.44559493660926819
0.69704741239547729 0.61781817674636841 0.47511792182922363
0.79888027906417847 0.65130496025085449 0.49373391270637512
0.87180125713348389 0.69780057668685913 0.51667100191116333
0.93121492862701416 0.73644810914993286 0.53655070066452026
0.41162967681884766 0.65079993009567261 0.42812263965606689
0.46316853165626526 0.65226775407791138 0.4333038330078125
0.58201819658279419 0.67244511842727661 0.45272937417030334
0.68321114778518677 0.69393026828765869 0.47223630547523499
0.78116118907928467 0.72358602285385132 0.49189138412475586
0.8589780330657959 0.74099814891815186 0.50289225578308105
0.92491811513900757 0.75914078950881958 0.51547622680664062
0.54581940174102783 0.74867051839828491 0.45981064438819885
0.57244539260864258 0.75160157680511475 0.464193195104599
0.61853492259979248 0.75699698925018311 0.46799784898757935
0.67632639408111572 0.76980471611022949 0.48173302412033081
0.75953781604766846 0.78944653272628784 0.50516438484191895
0.83817780017852783 0.81740671396255493 0.53314697742462158
0.90276968479156494 0.84060746431350708 0.55269402265548706
0.64534765481948853 0.85640352964401245 0.5152965784072876
0.65087890625 0.8576120138168335 0.51538300514221191
0.67153429985046387 0.8612058162689209 0.51785564422607422
0.71473473310470581 0.87157630920410156 0.53156846761703491
0.77066612243652344 0.87797564268112183 0.55418461561203003
0.82880538702011108 0.8977431058883667 0.58569753170013428
0.87856543064117432 0.91963160037994385 0.61264973878860474
0.35341525077819824 0.27252179384231567 0.53564131259918213
0.45999711751937866 0.29759612679481506 0.53776150941848755
0.63332575559616089 0.38225862383842468 0.54557740688323975
0.75208210945129395 0.52402478456497192 0.55232793092727661
0.81519573926925659 0.59882634878158569 0.55989408493041992
0.87078899145126343 0.58497524261474609 0.56579393148422241
0.94204062223434448 0.6296532154083252 0.58194535970687866
0.37911242246627808 0.35550543665885925 0.54588556289672852
0.48399680852890015 0.37662634253501892 0.54570955038070679
0.64869260787963867 0.4518764317035675 0.55252718925476074
0.76194930076599121 0.5710713267326355 0.55765801668167114
0.81609463691711426 0.62526619434356689 0.56315129995346069
0.86956524848937988 0.61673861742019653 0.56981933116912842
0.93880033493041992 0.65120822191238403 0.58785843849182129
0.37162205576896667 0.48308312892913818 0.54238766431808472
0.46509280800819397 0.48377019166946411 0.5440901517868042
0.62568873167037964 0.53012895584106445 0.55191600322723389
0.75785678625106812 0.61653244495391846 0.56076306104660034
0.81465053558349609 0.66994267702102661 0.57075232267379761
0.86819308996200562 0.66665667295455933 0.57677119970321655
0.932547926902771 0.69265586137771606 0.59095549583435059
0.33314841985702515 0.5835040807723999 0.52152973413467407
0.40596398711204529 0.58154016733169556 0.52112352848052979
0.56321507692337036 0.60145342350006104 0.53227770328521729
0.73200041055679321 0.65575438737869263 0.55744224786758423
0.81333917379379272 0.71311229467391968 0.57657754421234131
0.870391845703125 0.71809929609298706 0.58559447526931763
0.92873966693878174 0.75503408908843994 0.60561788082122803
0.44005778431892395 0.6650891900062561 0.50420182943344116
0.48996362090110779 0.6655392050743103 0.50758057832717896
0.58265984058380127 0.67678332328796387 0.51757115125656128
0.70054930448532104 0.70573651790618896 0.542255699634552
0.80055248737335205 0.74875420331954956 0.57126277685165405
0.86870419979095459 0.76693415641784668 0.5870891809463501
0.91792738437652588 0.80264395475387573 0.6116291880607605
0.48524820804595947 0.73480832576751709 0.49619439244270325
0.5228952169418335 0.73807185888290405 0.50149649381637573
0.60338270664215088 0.74786078929901123 0.51437640190124512
0.70412147045135498 0.76901352405548096 0.53938812017440796
0.78141123056411743 0.79599404335021973 0.56639844179153442
0.85215455293655396 0.82253879308700562 0.58982598781585693
0.90500110387802124 0.84455323219299316 0.60513150691986084
0.62191498279571533 0.85485184192657471 0.55161857604980469
0.63946777582168579 0.85598957538604736 0.55291050672531128
0.68069779872894287 0.85954344272613525 0.55951905250549316
0.72850632667541504 0.86900156736373901 0.56982851028442383
0.77858692407608032 0.88260513544082642 0.58701878786087036
0.83554422855377197 0.90052199363708496 0.61721318960189819
0.88006860017776489 0.92267382144927979 0.64377212524414062
0.60155832767486572 0.43492239713668823 0.64069551229476929
0.65778571367263794 0.45806005597114563 0.64079910516738892
0.72280538082122803 0.51477342844009399 0.63596630096435547
0.79729604721069336 0.61772328615188599 0.63604182004928589
0.85164231061935425 0.71846890449523926 0.64049464464187622
0.88482207059860229 0.73584908246994019 0.64560127258300781
0.9175955057144165 0.72118061780929565 0.64496880769729614
0.60830485820770264 0.49614506959915161 0.64167940616607666
0.65521836280822754 0.51372462511062622 0.63844358921051025
0.73772746324539185 0.5620238184928894 0.63662958145141602
0.80403739213943481 0.6477465033531189 0.63671243190765381
0.85355263948440552 0.72935330867767334 0.64257776737213135
0.89035379886627197 0.75306481122970581 0.65014451742172241
0.9224083423614502 0.74146121740341187 0.65146517753601074
0.58526241779327393 0.56457257270812988 0.63287830352783203
0.63230842351913452 0.57577061653137207 0.63252919912338257
0.71380579471588135 0.61238342523574829 0.63291329145431519
0.79662317037582397 0.67849671840667725 0.63688671588897705
0.84960478544235229 0.75230616331100464 0.64638358354568481
0.8831978440284729 0.77085089683532715 0.65038716793060303
0.91919636726379395 0.76277321577072144 0.65449380874633789
0.48267114162445068 0.63428765535354614 0.61161583662033081
0.53760445117950439 0.63773190975189209 0.61199474334716797
0.66266286373138428 0.65389442443847656 0.62081527709960938
0.7667001485824585 0.6986393928527832 0.6330181360244751
0.84069192409515381 0.76645052433013916 0.64758467674255371
0.88432103395462036 0.80493122339248657 0.6591610312461853
0.91504091024398804 0.80024772882461548 0.66096681356430054
0.47580873966217041 0.69739502668380737 0.58969748020172119
0.51914191246032715 0.69819456338882446 0.59262335300445557
0.59313154220581055 0.70206958055496216 0.59773725271224976
0.70213979482650757 0.72253912687301636 0.61216539144515991
0.81660431623458862 0.7726670503616333 0.63994443416595459
0.88189077377319336 0.82605350017547607 0.66370928287506104
0.90929955244064331 0.82552385330200195 0.66586744785308838
0.5336756706237793 0.75914591550827026 0.57923972606658936
0.55742007493972778 0.75926333665847778 0.58014047145843506
0.60957175493240356 0.76291900873184204 0.58506274223327637
0.68908232450485229 0.77598792314529419 0.59675472974777222
0.77561283111572266 0.79667264223098755 0.61956560611724854
0.86682575941085815 0.85177803039550781 0.65730530023574829
0.90127289295196533 0.87275445461273193 0.67109352350234985
0.55051428079605103 0.84503650665283203 0.58329921960830688
0.56297731399536133 0.84150469303131104 0.58186662197113037
0.61603802442550659 0.84758561849594116 0.58884602785110474
0.6879463791847229 0.85634481906890869 0.60049116611480713
0.77999472618103027 0.88235324621200562 0.62987416982650757
0.84724360704421997 0.90776801109313965 0.66318130493164062
0.89470142126083374 0.93593353033065796 0.68611764907836914
0.76016265153884888 0.65317970514297485 0.72136682271957397
0.77374821901321411 0.66035813093185425 0.71639376878738403
0.80198931694030762 0.68353772163391113 0.70948928594589233
0.84843510389328003 0.73266613483428955 0.70902723073959351
0.8826184868812561 0.78321576118469238 0.70694595575332642
0.89915341138839722 0.83651483058929443 0.70664197206497192
0.9052240252494812 0.84154301881790161 0.70573651790618896
0.75329238176345825 0.67073661088943481 0.71769344806671143
0.77211803197860718 0.67663753032684326 0.71595019102096558
0.805186927318573 0.70487844944000244 0.71162265539169312
0.84581983089447021 0.74252092838287354 0.70637631416320801
0.87661397457122803 0.79068988561630249 0.70583999156951904
0.89494526386260986 0.83912122249603271 0.70697355270385742
0.90642243623733521 0.85034024715423584 0.7080916166305542
0.74114018678665161 0.69399964809417725 0.71652078628540039
0.75620764493942261 0.70296752452850342 0.71396207809448242
0.79456186294555664 0.72038173675537109 0.71192622184753418
0.84004944562911987 0.75961190462112427 0.7079770565032959
0.87644922733306885 0.80435091257095337 0.70663726329803467
0.89336186647415161 0.84702903032302856 0.70670348405838013
0.90375757217407227 0.86276215314865112 0.7095608115196228
0.7030634880065918 0.72587436437606812 0.71198928356170654
0.72110038995742798 0.72725284099578857 0.71081763505935669
0.76185470819473267 0.73733639717102051 0.70815634727478027
0.82269245386123657 0.76923716068267822 0.70864886045455933
0.87133133411407471 0.81443846225738525 0.71046215295791626
0.88843917846679688 0.85610157251358032 0.708110511302948
0.90390205383300781 0.87482881546020508 0.71526420116424561
0.60279279947280884 0.75448602437973022 0.6924518346786499
0.62582886219024658 0.75571346282958984 0.70036846399307251
0.68299859762191772 0.75901174545288086 0.70057171583175659
0.77273869514465332 0.77984786033630371 0.70517593622207642
0.85023099184036255 0.81923717260360718 0.71139663457870483
0.88682276010513306 0.87368905544281006 0.71880662441253662
0.89917194843292236 0.89469259977340698 0.7214125394821167
0.62068140506744385 0.81425470113754272 0.6927635669708252
0.62905657291412354 0.81002753973007202 0.68842798471450806
0.66577452421188354 0.81238031387329102 0.6947893500328064
0.72082805633544922 0.81440520286560059 0.69837701320648193
0.78932642936706543 0.82650816440582275 0.70685452222824097
0.86981415748596191 0.87914669513702393 0.72301042079925537
0.89564436674118042 0.91302490234375 0.73231714963912964
0.63211393356323242 0.88982224464416504 0.69277650117874146
0.64039444923400879 0.8910338282585144 0.69181656837463379
0.66880309581756592 0.89114946126937866 0.69560503959655762
0.71364521980285645 0.89489519596099854 0.69437229633331299
0.7725568413734436 0.90540242195129395 0.70573872327804565
0.83703619241714478 0.91644406318664551 0.71837300062179565
0.9004894495010376 0.94689154624938965 0.75104320049285889
