luts/instant_consumer/polaroid_px-680_warm_+.cube
# Created by: G'MIC (https://gmic.eu)
TITLE "polaroid_px-680_warm_+"
# LUT size
LUT_3D_SIZE 13
# Data domain
DOMAIN_MIN 0.0 0.0 0.0
DOMAIN_MAX 1.0 1.0 1.0
# LUT data points
0.30663302540779114 0.23643158376216888 0.12375820428133011
0.31350880861282349 0.2371225506067276 0.12420569360256195
0.32185012102127075 0.23781800270080566 0.12398009747266769
0.33787548542022705 0.2379702627658844 0.12343615293502808
0.37426307797431946 0.23763978481292725 0.12297213822603226
0.4452056884765625 0.23865734040737152 0.12107892334461212
0.54511618614196777 0.24340939521789551 0.11750069260597229
0.64965552091598511 0.25663188099861145 0.11359632760286331
0.74440097808837891 0.28434455394744873 0.11230546236038208
0.82342058420181274 0.31869727373123169 0.11647020280361176
0.88005882501602173 0.36181965470314026 0.12938933074474335
0.92329573631286621 0.40938207507133484 0.15576739609241486
0.95400714874267578 0.46151489019393921 0.19544485211372375
0.30829107761383057 0.24526336789131165 0.1246531754732132
0.3153652548789978 0.24620093405246735 0.12519420683383942
0.3262963593006134 0.2470678985118866 0.1245160698890686
0.34923389554023743 0.2464284747838974 0.12312616407871246
0.38468590378761292 0.24563528597354889 0.12126576900482178
0.45552265644073486 0.24845358729362488 0.11922833323478699
0.55279111862182617 0.25754174590110779 0.11649975925683975
0.65789133310317993 0.27493453025817871 0.11155534535646439
0.74867993593215942 0.30249431729316711 0.1099989041686058
0.82368755340576172 0.33609679341316223 0.1140703409910202
0.87798911333084106 0.37590739130973816 0.12814225256443024
0.92107415199279785 0.42086875438690186 0.15622578561306
0.95360636711120605 0.474263995885849 0.19873788952827454
0.30988460779190063 0.25493356585502625 0.12460646033287048
0.31701886653900146 0.25685030221939087 0.12493356317281723
0.32963329553604126 0.25838473439216614 0.1240842342376709
0.35528793931007385 0.25981602072715759 0.12272962927818298
0.4003695547580719 0.26252603530883789 0.12018344551324844
0.47252377867698669 0.26844069361686707 0.1170073002576828
0.57064366340637207 0.28170374035835266 0.11133959889411926
0.66630458831787109 0.29905480146408081 0.10702661424875259
0.75092172622680664 0.32609236240386963 0.10400474071502686
0.82312732934951782 0.35742661356925964 0.10807172209024429
0.87767672538757324 0.39599424600601196 0.12575156986713409
0.91921532154083252 0.4386688768863678 0.15539950132369995
0.95390790700912476 0.48735859990119934 0.19708859920501709
0.31165000796318054 0.27994948625564575 0.12607944011688232
0.31923133134841919 0.2804228663444519 0.12631826102733612
0.33161357045173645 0.28029909729957581 0.12440155446529388
0.3604947030544281 0.28619900345802307 0.12223352491855621
0.41669896245002747 0.29854026436805725 0.11896010488271713
0.49639233946800232 0.31127715110778809 0.11289128661155701
0.5880122184753418 0.31998956203460693 0.10361965745687485
0.67351001501083374 0.33785298466682434 0.097333706915378571
0.75145423412322998 0.36314767599105835 0.094191715121269226
0.81790018081665039 0.39238512516021729 0.10307739675045013
0.87433958053588867 0.42680245637893677 0.12136414647102356
0.91612434387207031 0.46558970212936401 0.15323613584041595
0.94897639751434326 0.50781530141830444 0.19477197527885437
0.30898115038871765 0.32484346628189087 0.12489119917154312
0.31864944100379944 0.32630419731140137 0.12613137066364288
0.33398494124412537 0.32687640190124512 0.12509560585021973
0.37037855386734009 0.33585420250892639 0.12125816941261292
0.42692875862121582 0.34911215305328369 0.11577270925045013
0.51654374599456787 0.37205171585083008 0.10452032834291458
0.60521280765533447 0.38919517397880554 0.092133462429046631
0.67903304100036621 0.39486616849899292 0.083054892718791962
0.75026583671569824 0.4069398045539856 0.077442154288291931
0.81368887424468994 0.43117028474807739 0.086030296981334686
0.86786633729934692 0.46047884225845337 0.10994914919137955
0.9085882306098938 0.49377632141113281 0.1458934098482132
0.94179332256317139 0.5328059196472168 0.19038419425487518
0.30631199479103088 0.38217854499816895 0.12400536984205246
0.31709474325180054 0.38412636518478394 0.12561911344528198
0.33477139472961426 0.38492539525032043 0.12523366510868073
0.37094500660896301 0.39234769344329834 0.12192016094923019
0.43105161190032959 0.40884751081466675 0.11731527000665665
0.51220571994781494 0.43363353610038757 0.10584293305873871
0.6053168773651123 0.46165889501571655 0.087521843612194061
0.68302005529403687 0.47685450315475464 0.076803155243396759
0.74972128868103027 0.47934260964393616 0.068479038774967194
0.80625921487808228 0.48254382610321045 0.073320470750331879
0.85786616802215576 0.49849015474319458 0.093459725379943848
0.8982575535774231 0.52706903219223022 0.13443261384963989
0.93287241458892822 0.56087487936019897 0.18269239366054535
0.30483624339103699 0.44984418153762817 0.12359677255153656
0.31594321131706238 0.45011159777641296 0.1253538578748703
0.33441388607025146 0.44798517227172852 0.12487727403640747
0.36845123767852783 0.45176434516906738 0.12427289038896561
0.42602306604385376 0.46665620803833008 0.12023437768220901
0.4986303448677063 0.49018555879592896 0.11414292454719543
0.58201402425765991 0.51239699125289917 0.10396052151918411
0.67012244462966919 0.5413089394569397 0.091384083032608032
0.74142473936080933 0.55516409873962402 0.085382513701915741
0.79651248455047607 0.5543137788772583 0.091241650283336639
0.84683102369308472 0.55737215280532837 0.10744546353816986
0.8901711106300354 0.56957143545150757 0.13546118140220642
0.92496001720428467 0.59190315008163452 0.17426370084285736
0.30465087294578552 0.51398164033889771 0.12386393547058105
0.3157859742641449 0.51579725742340088 0.12594112753868103
0.33770206570625305 0.51215153932571411 0.12865342199802399
0.37350314855575562 0.51484131813049316 0.13339845836162567
0.42417562007904053 0.52464777231216431 0.13233506679534912
0.48611623048782349 0.54029923677444458 0.1310700923204422
0.56133192777633667 0.55932378768920898 0.1294269859790802
0.64193367958068848 0.58567219972610474 0.12857663631439209
0.72448533773422241 0.61516976356506348 0.13231256604194641
0.78920453786849976 0.62810927629470825 0.14589764177799225
0.83753693103790283 0.63132095336914062 0.16050325334072113
0.8777955174446106 0.6336943507194519 0.17512911558151245
0.91001838445663452 0.64110374450683594 0.19758285582065582
0.31705889105796814 0.5757942795753479 0.13597516715526581
0.32668903470039368 0.57530641555786133 0.13717001676559448
0.34836271405220032 0.57386857271194458 0.14090836048126221
0.38002738356590271 0.57663506269454956 0.1461770236492157
0.42806020379066467 0.58426284790039062 0.1529487669467926
0.48529046773910522 0.5950971245765686 0.15979111194610596
0.55378389358520508 0.61240899562835693 0.16440112888813019
0.62317609786987305 0.63077551126480103 0.17199386656284332
0.69687646627426147 0.65144062042236328 0.18384228646755219
0.76931631565093994 0.6778031587600708 0.20520265400409698
0.82567936182022095 0.69280797243118286 0.22528626024723053
0.86325132846832275 0.69482898712158203 0.23997531831264496
0.89404082298278809 0.70788264274597168 0.26526364684104919
0.34699270129203796 0.64271795749664307 0.16731056571006775
0.3534381091594696 0.63894927501678467 0.1663908064365387
0.36866986751556396 0.63152915239334106 0.16551217436790466
0.39792540669441223 0.63303965330123901 0.17202304303646088
0.43992003798484802 0.63949298858642578 0.18454083800315857
0.49140870571136475 0.64927786588668823 0.1960841566324234
0.55064576864242554 0.66257786750793457 0.20742054283618927
0.61337840557098389 0.67795443534851074 0.22142302989959717
0.68035644292831421 0.69471800327301025 0.23981218039989471
0.74526005983352661 0.71409761905670166 0.25982171297073364
0.80366724729537964 0.73223382234573364 0.28394284844398499
0.8510938286781311 0.75282943248748779 0.3163331151008606
0.87699270248413086 0.76266038417816162 0.3357245922088623
0.38701963424682617 0.69483751058578491 0.2133604884147644
0.39295756816864014 0.69445788860321045 0.21145647764205933
0.4058891236782074 0.69183403253555298 0.21273514628410339
0.43246892094612122 0.69235730171203613 0.22071897983551025
0.46870976686477661 0.69698697328567505 0.23398324847221375
0.51079690456390381 0.70501261949539185 0.25031906366348267
0.5630066990852356 0.7162322998046875 0.26530653238296509
0.61666452884674072 0.7269929051399231 0.28235515952110291
0.67803412675857544 0.74102967977523804 0.30313935875892639
0.73538076877593994 0.75517815351486206 0.32376506924629211
0.78760135173797607 0.76866692304611206 0.34732767939567566
0.83019721508026123 0.78696948289871216 0.37603759765625
0.86199837923049927 0.80736911296844482 0.4118938148021698
0.44742754101753235 0.75492674112319946 0.2842923104763031
0.45401090383529663 0.75566649436950684 0.28476455807685852
0.46838828921318054 0.75614470243453979 0.29043468832969666
0.48860865831375122 0.75687950849533081 0.2975306510925293
0.51505666971206665 0.75994431972503662 0.30857250094413757
0.55050647258758545 0.76528966426849365 0.3267902135848999
0.5982089638710022 0.77411025762557983 0.34562808275222778
0.64491927623748779 0.78280735015869141 0.3633943498134613
0.69641572237014771 0.79310894012451172 0.38417962193489075
0.74364191293716431 0.8039860725402832 0.40710201859474182
0.78723627328872681 0.81391793489456177 0.42904826998710632
0.81851798295974731 0.82377463579177856 0.45026907324790955
0.84747731685638428 0.83836179971694946 0.4747677743434906
0.5433850884437561 0.82234221696853638 0.39383456110954285
0.54956090450286865 0.82338708639144897 0.39580360054969788
0.55764728784561157 0.82188445329666138 0.3960573673248291
0.57380324602127075 0.82407063245773315 0.40502506494522095
0.59536141157150269 0.8253941535949707 0.41634580492973328
0.62300419807434082 0.8276401162147522 0.43053871393203735
0.66082167625427246 0.83364003896713257 0.44960308074951172
0.69513607025146484 0.83984929323196411 0.46452364325523376
0.73367154598236084 0.84777092933654785 0.48412728309631348
0.76768964529037476 0.85462212562561035 0.50612026453018188
0.7967795729637146 0.86008518934249878 0.52458465099334717
0.82034832239151001 0.86787313222885132 0.54837667942047119
0.8431321382522583 0.87432903051376343 0.56687468290328979
0.30763491988182068 0.23682598769664764 0.12790670990943909
0.31249427795410156 0.23631198704242706 0.1275801807641983
0.32020136713981628 0.2363014817237854 0.12701600790023804
0.34006211161613464 0.2373015433549881 0.12852677702903748
0.38254615664482117 0.2375173419713974 0.12936796247959137
0.45687955617904663 0.23790766298770905 0.12976667284965515
0.55828571319580078 0.24261048436164856 0.13250891864299774
0.66284644603729248 0.2639525830745697 0.1384536474943161
0.75531727075576782 0.29364073276519775 0.14113731682300568
0.82817530632019043 0.33255967497825623 0.15101698040962219
0.88294339179992676 0.37555128335952759 0.16600272059440613
0.92163103818893433 0.42468279600143433 0.19670417904853821
0.95336246490478516 0.47560155391693115 0.23282662034034729
0.31024125218391418 0.24578456580638885 0.1298014223575592
0.31521928310394287 0.24477972090244293 0.12916898727416992
0.32578021287918091 0.24497808516025543 0.12831290066242218
0.35182812809944153 0.24516294896602631 0.1284528523683548
0.39584070444107056 0.24634940922260284 0.12982511520385742
0.46809065341949463 0.24911759793758392 0.13098239898681641
0.56765508651733398 0.25952497124671936 0.13284656405448914
0.67144584655761719 0.28025561571121216 0.13376894593238831
0.75987273454666138 0.31283250451087952 0.13993386924266815
0.82899677753448486 0.35047122836112976 0.14990429580211639
0.88049453496932983 0.39042609930038452 0.16674908995628357
0.92087233066558838 0.43667930364608765 0.19616152346134186
0.95221602916717529 0.488608717918396 0.23634661734104156
0.31297242641448975 0.25667884945869446 0.13206781446933746
0.32068714499473572 0.25896883010864258 0.13191865384578705
0.33287662267684937 0.26033076643943787 0.13113516569137573
0.36030387878417969 0.25916576385498047 0.12979708611965179
0.41030988097190857 0.26427128911018372 0.12979088723659515
0.48249217867851257 0.27141419053077698 0.13061968982219696
0.58092397451400757 0.28676703572273254 0.12977847456932068
0.67856419086456299 0.30630195140838623 0.12821020185947418
0.76091313362121582 0.336883544921875 0.13349862396717072
0.8283991813659668 0.37033313512802124 0.14363035559654236
0.87824302911758423 0.40968731045722961 0.16427727043628693
0.9200320839881897 0.45235392451286316 0.19320334494113922
0.9517328143119812 0.50073486566543579 0.23191788792610168
0.31665056943893433 0.2846049964427948 0.13531447947025299
0.32566633820533752 0.28500756621360779 0.13550253212451935
0.33695152401924133 0.28420919179916382 0.13338640332221985
0.36886829137802124 0.29206579923629761 0.13295878469944
0.42735752463340759 0.30481022596359253 0.13065254688262939
0.50705599784851074 0.3144126832485199 0.12847194075584412
0.59633022546768188 0.32604560256004333 0.12320060282945633
0.68229979276657104 0.34586158394813538 0.11964388191699982
0.75875842571258545 0.37337824702262878 0.12540237605571747
0.82548278570175171 0.40391379594802856 0.13670967519283295
0.87555158138275146 0.44020158052444458 0.15951026976108551
0.91472482681274414 0.47710129618644714 0.19277496635913849
0.94705724716186523 0.51963800191879272 0.23231528699398041
0.31816169619560242 0.33387917280197144 0.1371932327747345
0.32875201106071472 0.33352470397949219 0.13792504370212555
0.34176108241081238 0.33342728018760681 0.13641980290412903
0.37588202953338623 0.34168559312820435 0.13353541493415833
0.43754115700721741 0.35500422120094299 0.13041628897190094
0.52404135465621948 0.37537333369255066 0.12477540969848633
0.61163675785064697 0.39146661758422852 0.11540745943784714
0.68802958726882935 0.39614814519882202 0.10784602165222168
0.7574465274810791 0.41539046168327332 0.1088525801897049
0.82122468948364258 0.44135820865631104 0.12237314134836197
0.87061816453933716 0.47124075889587402 0.15122225880622864
0.90940397977828979 0.50445157289505005 0.18561866879463196
0.94169294834136963 0.54405516386032104 0.22749018669128418
0.31508603692054749 0.39294153451919556 0.13528653979301453
0.32681688666343689 0.39344435930252075 0.13726803660392761
0.34510606527328491 0.39290755987167358 0.13767512142658234
0.38090723752975464 0.39959612488746643 0.13785715401172638
0.43927809596061707 0.4146893322467804 0.13341446220874786
0.51904016733169556 0.43727457523345947 0.12538927793502808
0.6136055588722229 0.46645981073379517 0.11395995318889618
0.68868106603622437 0.47743165493011475 0.10871033370494843
0.75490415096282959 0.48131373524665833 0.10670661181211472
0.81096982955932617 0.48773947358131409 0.113822340965271
0.861011803150177 0.50616937875747681 0.13448061048984528
0.89992165565490723 0.53530532121658325 0.17292429506778717
0.93281173706054688 0.56928896903991699 0.21644143760204315
0.31205582618713379 0.46254116296768188 0.13602551817893982
0.32318490743637085 0.45691114664077759 0.13670073449611664
0.34675401449203491 0.45622360706329346 0.13923826813697815
0.38254311680793762 0.46040806174278259 0.14268529415130615
0.43297186493873596 0.47359961271286011 0.13875582814216614
0.50567030906677246 0.49379998445510864 0.13755796849727631
0.58994299173355103 0.51789873838424683 0.13027708232402802
0.67904430627822876 0.54736506938934326 0.12452727556228638
0.74755263328552246 0.55984622240066528 0.12460055202245712
0.80108964443206787 0.55885845422744751 0.13051463663578033
0.85106492042541504 0.56162935495376587 0.14399223029613495
0.89117085933685303 0.57226103544235229 0.16669954359531403
0.92393475770950317 0.6017078161239624 0.21021227538585663
0.31675273180007935 0.52189517021179199 0.14086282253265381
0.33060464262962341 0.52100056409835815 0.14441968500614166
0.34886091947555542 0.52105259895324707 0.14456216990947723
0.38644948601722717 0.52456861734390259 0.15023036301136017
0.4345824122428894 0.53236526250839233 0.15420836210250854
0.49861186742782593 0.54747986793518066 0.15686494112014771
0.5714726448059082 0.56669151782989502 0.15546666085720062
0.65050750970840454 0.59279078245162964 0.15698553621768951
0.7324487566947937 0.62139177322387695 0.16415601968765259
0.79186433553695679 0.62876278162002563 0.175075963139534
0.83911687135696411 0.63011854887008667 0.19073416292667389
0.8792264461517334 0.63385105133056641 0.2048511803150177
0.91044563055038452 0.64505660533905029 0.22412575781345367
0.33353057503700256 0.58374166488647461 0.15793931484222412
0.34101369976997375 0.5822029709815979 0.15658095479011536
0.36150369048118591 0.58184432983398438 0.15892641246318817
0.39381206035614014 0.58413416147232056 0.16602826118469238
0.4364529550075531 0.59061050415039062 0.17402218282222748
0.49761456251144409 0.60325729846954346 0.18111202120780945
0.56525850296020508 0.61866241693496704 0.18683579564094543
0.63112574815750122 0.63610589504241943 0.19860461354255676
0.7039031982421875 0.65871870517730713 0.21309000253677368
0.77341669797897339 0.68166851997375488 0.22910730540752411
0.82457524538040161 0.69248008728027344 0.25061118602752686
0.86472505331039429 0.69710773229598999 0.26543161273002625
0.89216083288192749 0.70719987154006958 0.2856525182723999
0.36056050658226013 0.64388442039489746 0.18721042573451996
0.36316314339637756 0.63975727558135986 0.18159976601600647
0.38163697719573975 0.63687825202941895 0.18399763107299805
0.41078892350196838 0.63889986276626587 0.19171540439128876
0.4502842128276825 0.64468151330947876 0.20399495959281921
0.50174766778945923 0.65452134609222412 0.21608152985572815
0.55979186296463013 0.66714286804199219 0.22706052660942078
0.6226542592048645 0.68247640132904053 0.24599507451057434
0.68700844049453735 0.69901943206787109 0.26611524820327759
0.74900829792022705 0.71660506725311279 0.2857290506362915
0.80511212348937988 0.73413103818893433 0.30713197588920593
0.85105890035629272 0.75507205724716187 0.33472520112991333
0.87705636024475098 0.76736998558044434 0.35738888382911682
0.39711999893188477 0.69885814189910889 0.22738583385944366
0.40255114436149597 0.69631314277648926 0.22670422494411469
0.4190790057182312 0.69512158632278442 0.23149260878562927
0.44518622756004333 0.69666308164596558 0.24091225862503052
0.47942429780960083 0.70102232694625854 0.25257018208503723
0.52098202705383301 0.70731329917907715 0.26726210117340088
0.56975793838500977 0.71800601482391357 0.28305968642234802
0.62457466125488281 0.7291179895401001 0.30070400238037109
0.68467605113983154 0.74350547790527344 0.32120630145072937
0.73995423316955566 0.75763881206512451 0.3430849015712738
0.79156374931335449 0.77175378799438477 0.36488237977027893
0.83157992362976074 0.7896537184715271 0.39165541529655457
0.86182355880737305 0.80904096364974976 0.42294371128082275
0.45621833205223083 0.75794225931167603 0.29643270373344421
0.46385118365287781 0.75800490379333496 0.29970440268516541
0.47811427712440491 0.75891005992889404 0.30596816539764404
0.49759072065353394 0.76055902242660522 0.31302535533905029
0.52287310361862183 0.76276201009750366 0.32253232598304749
0.56038367748260498 0.76667004823684692 0.34199893474578857
0.6039663553237915 0.77360755205154419 0.36094942688941956
0.65208917856216431 0.78286749124526978 0.37754419445991516
0.69902724027633667 0.7929309606552124 0.39671462774276733
0.74604922533035278 0.80523562431335449 0.41955661773681641
0.78849935531616211 0.81608819961547852 0.44107845425605774
0.82026970386505127 0.82731467485427856 0.46290278434753418
0.84747838973999023 0.84111511707305908 0.48442932963371277
0.54947811365127563 0.82429713010787964 0.40234214067459106
0.55423027276992798 0.82413274049758911 0.40350493788719177
0.56388658285140991 0.82477021217346191 0.40695759654045105
0.57748591899871826 0.82598495483398438 0.41236203908920288
0.598552405834198 0.82621735334396362 0.42312920093536377
0.62722182273864746 0.82806205749511719 0.43796068429946899
0.66233503818511963 0.83340287208557129 0.45693561434745789
0.69865709543228149 0.83955317735671997 0.47286030650138855
0.73407018184661865 0.8464045524597168 0.49028456211090088
0.7673984169960022 0.85382932424545288 0.51134222745895386
0.79710066318511963 0.86130988597869873 0.53233468532562256
0.82162916660308838 0.86988705396652222 0.55549556016921997
0.84297680854797363 0.87529438734054565 0.57096511125564575
0.30867105722427368 0.23613326251506805 0.13265351951122284
0.31469404697418213 0.23673418164253235 0.13467013835906982
0.32096362113952637 0.23644758760929108 0.13437826931476593
0.33982795476913452 0.23766230046749115 0.13673271238803864
0.3849186897277832 0.23742423951625824 0.14190208911895752
0.46219691634178162 0.23347494006156921 0.1459697037935257
0.56708008050918579 0.23608472943305969 0.15265311300754547
0.67788803577423096 0.26569685339927673 0.16864296793937683
0.7652047872543335 0.30554705858230591 0.18442881107330322
0.83309578895568848 0.35046064853668213 0.20272502303123474
0.88322621583938599 0.39796340465545654 0.22430421411991119
0.9214823842048645 0.44824051856994629 0.25197386741638184
0.95081824064254761 0.49966233968734741 0.2873593270778656
0.31189465522766113 0.24540378153324127 0.13737232983112335
0.3178974986076355 0.24566400051116943 0.13992102444171906
0.32719314098358154 0.24584878981113434 0.14000800251960754
0.35284385085105896 0.24690593779087067 0.141640305519104
0.39994528889656067 0.24712017178535461 0.14664635062217712
0.47852510213851929 0.24600706994533539 0.15129069983959198
0.5783354640007019 0.25719857215881348 0.1590726375579834
0.68519288301467896 0.28731909394264221 0.17204007506370544
0.76991277933120728 0.3256557285785675 0.18475165963172913
0.83378523588180542 0.3657127320766449 0.20144027471542358
0.88155966997146606 0.41169542074203491 0.22432632744312286
0.91919404268264771 0.45875933766365051 0.25316682457923889
0.95006787776947021 0.507884681224823 0.28941452503204346
0.31543716788291931 0.25735354423522949 0.1423763781785965
0.32273328304290771 0.26031062006950378 0.14492067694664001
0.33706891536712646 0.26200813055038452 0.14581766724586487
0.36517274379730225 0.26342299580574036 0.14714126288890839
0.42044493556022644 0.26729992032051086 0.15117457509040833
0.50179505348205566 0.27414023876190186 0.15776297450065613
0.59519976377487183 0.29103457927703857 0.16541297733783722
0.69120121002197266 0.3174465000629425 0.17271839082241058
0.77034813165664673 0.35013481974601746 0.18041908740997314
0.83167028427124023 0.38614878058433533 0.19584384560585022
0.87908673286437988 0.42920562624931335 0.22023336589336395
0.91770565509796143 0.47269421815872192 0.24965105950832367
0.94708430767059326 0.52100121974945068 0.28766119480133057
0.32058775424957275 0.28385859727859497 0.14803440868854523
0.32862389087677002 0.28592559695243835 0.14956067502498627
0.34886521100997925 0.28977039456367493 0.15180517733097076
0.38107845187187195 0.29617619514465332 0.15261110663414001
0.44386649131774902 0.30567407608032227 0.15428215265274048
0.52533656358718872 0.31335046887397766 0.15384389460086823
0.60922300815582275 0.32956656813621521 0.15753942728042603
0.69289827346801758 0.35305529832839966 0.1626884937286377
0.76601427793502808 0.38386508822441101 0.17398011684417725
0.82743394374847412 0.4178415834903717 0.19180986285209656
0.87486916780471802 0.45734575390815735 0.21773940324783325
0.91233175992965698 0.49523556232452393 0.24840939044952393
0.94236040115356445 0.53656268119812012 0.28462508320808411
0.33010724186897278 0.33610650897026062 0.15743476152420044
0.33877521753311157 0.33909851312637329 0.15733249485492706
0.35527381300926208 0.34081006050109863 0.15762686729431152
0.39130407571792603 0.34831830859184265 0.15933595597743988
0.45339506864547729 0.36157098412513733 0.15925717353820801
0.53933060169219971 0.3793300986289978 0.1566804051399231
0.62115991115570068 0.39077901840209961 0.15214097499847412
0.69604551792144775 0.39967107772827148 0.1502058207988739
0.76218611001968384 0.42362129688262939 0.16052423417568207
