luts/instant_consumer/polaroid_px-70_warm.cube
# Created by: G'MIC (https://gmic.eu)
TITLE "polaroid_px-70_warm"
# LUT size
LUT_3D_SIZE 5
# Data domain
DOMAIN_MIN 0.0 0.0 0.0
DOMAIN_MAX 1.0 1.0 1.0
# LUT data points
0.11377934366464615 0.12563955783843994 0.14509804546833038
0.17325353622436523 0.12306004017591476 0.14876678586006165
0.41572606563568115 0.12864589691162109 0.16286459565162659
0.83468693494796753 0.23315282166004181 0.16145271062850952
0.99916321039199829 0.50454229116439819 0.19044393301010132
0.12963142991065979 0.19239631295204163 0.15934310853481293
0.22733089327812195 0.20574873685836792 0.16148367524147034
0.49815759062767029 0.23263120651245117 0.15808901190757751
0.85092025995254517 0.37091726064682007 0.14097943902015686
0.99833166599273682 0.57520467042922974 0.19255618751049042
0.16765215992927551 0.48725241422653198 0.17734482884407043
0.30148249864578247 0.48542523384094238 0.18103247880935669
0.59661048650741577 0.5326077938079834 0.15737165510654449
0.86024194955825806 0.60499948263168335 0.12498888373374939
0.9835619330406189 0.6645967960357666 0.17774072289466858
0.48759382963180542 0.77559971809387207 0.26515519618988037
0.54270148277282715 0.76779729127883911 0.269368976354599
0.68991559743881226 0.77402961254119873 0.28160706162452698
0.84927839040756226 0.78969651460647583 0.28548717498779297
0.95635122060775757 0.81654012203216553 0.34299388527870178
0.80020487308502197 0.90967285633087158 0.49612864851951599
0.8054080605506897 0.90710574388504028 0.49349653720855713
0.84233152866363525 0.9087364673614502 0.50543415546417236
0.89427077770233154 0.91610711812973022 0.51821094751358032
0.94552457332611084 0.92853707075119019 0.53723263740539551
0.11512738466262817 0.1312403529882431 0.18251881003379822
0.18290047347545624 0.13617628812789917 0.17938040196895599
0.44080600142478943 0.12541258335113525 0.20918725430965424
0.8677750825881958 0.27099880576133728 0.25484877824783325
0.99689877033233643 0.56728285551071167 0.32686096429824829
0.16149474680423737 0.20703785121440887 0.20538851618766785
0.26110613346099854 0.21892887353897095 0.21286375820636749
0.54394203424453735 0.26501786708831787 0.22986571490764618
0.87265843152999878 0.42484790086746216 0.2568608820438385
0.99691867828369141 0.61224520206451416 0.32093349099159241
0.29740849137306213 0.51388347148895264 0.25137233734130859
0.37880447506904602 0.50881308317184448 0.24700231850147247
0.62895166873931885 0.54969102144241333 0.24285995960235596
0.8706323504447937 0.61071985960006714 0.23859091103076935
0.98341023921966553 0.68632560968399048 0.29706496000289917
0.54833924770355225 0.78430455923080444 0.33124983310699463
0.59476977586746216 0.77255511283874512 0.33524402976036072
0.71894866228103638 0.7796815037727356 0.35285460948944092
0.86008459329605103 0.7977900505065918 0.3542475700378418
0.95864790678024292 0.8198779821395874 0.39247772097587585
0.80846846103668213 0.91043210029602051 0.50928151607513428
0.8189690113067627 0.90711504220962524 0.51021295785903931
0.84921807050704956 0.90791290998458862 0.52015793323516846
0.90037685632705688 0.91812342405319214 0.53266745805740356
0.94864344596862793 0.92743182182312012 0.54545331001281738
0.17275653779506683 0.15361948311328888 0.29209697246551514
0.31443804502487183 0.17328763008117676 0.30197924375534058
0.53636819124221802 0.25848639011383057 0.32682961225509644
0.85704225301742554 0.28075003623962402 0.39605242013931274
0.99587589502334595 0.53967702388763428 0.44448012113571167
0.21760593354701996 0.26366129517555237 0.33689868450164795
0.37247371673583984 0.28075101971626282 0.34330973029136658
0.61914479732513428 0.38996124267578125 0.36381089687347412
0.8760572075843811 0.44186064600944519 0.41371017694473267
0.99365222454071045 0.64337915182113647 0.46659740805625916
0.35731574892997742 0.54430192708969116 0.37892630696296692
0.47051915526390076 0.54419624805450439 0.38256701827049255
0.69541317224502563 0.58665221929550171 0.40122559666633606
0.88042968511581421 0.67122948169708252 0.43737557530403137
0.97250604629516602 0.75801676511764526 0.48527917265892029
0.65418821573257446 0.78927278518676758 0.45055562257766724
0.6916080117225647 0.78513455390930176 0.45160022377967834
0.77247923612594604 0.7924390435218811 0.45991060137748718
0.86914539337158203 0.80549854040145874 0.46186411380767822
0.95934706926345825 0.82130175828933716 0.47749575972557068
0.83516806364059448 0.91285276412963867 0.53934472799301147
0.83912092447280884 0.90968185663223267 0.5384136438369751
0.86723786592483521 0.91365349292755127 0.5469164252281189
0.91056227684020996 0.91958510875701904 0.55549389123916626
0.95469075441360474 0.93045604228973389 0.56720685958862305
0.45113715529441833 0.23735114932060242 0.53163421154022217
0.59422391653060913 0.28063139319419861 0.5351555347442627
0.8055732250213623 0.47584030032157898 0.54243654012680054
0.89897185564041138 0.64496797323226929 0.54368162155151367
0.974822998046875 0.66301053762435913 0.55379217863082886
0.46013620495796204 0.38262441754341125 0.54579389095306396
0.60775655508041382 0.42113450169563293 0.54527753591537476
0.81171464920043945 0.57692945003509521 0.54619801044464111
0.89777946472167969 0.7060706615447998 0.54852831363677979
0.96861428022384644 0.71679103374481201 0.55679035186767578
0.43189218640327454 0.62498778104782104 0.53227800130844116
0.55032467842102051 0.62015223503112793 0.53367668390274048
0.78714001178741455 0.68182480335235596 0.54614359140396118
0.89703512191772461 0.77624702453613281 0.55240082740783691
0.96189236640930176 0.78211414813995361 0.56234300136566162
0.66216355562210083 0.79751706123352051 0.5402522087097168
0.70312207937240601 0.79262614250183105 0.53361284732818604
0.79747527837753296 0.80402153730392456 0.54938596487045288
0.88525259494781494 0.82591456174850464 0.55533850193023682
0.95899116992950439 0.86449509859085083 0.56919515132904053
0.84212440252304077 0.91333824396133423 0.57187873125076294
0.85049033164978027 0.91204202175140381 0.5711168646812439
0.87809503078460693 0.91413378715515137 0.58071213960647583
0.9191623330116272 0.92264902591705322 0.59117192029953003
0.95856767892837524 0.93533086776733398 0.59812098741531372
0.79650014638900757 0.62708675861358643 0.645588219165802
0.83541131019592285 0.66024112701416016 0.63879334926605225
0.90009456872940063 0.74317485094070435 0.62865060567855835
0.94075918197631836 0.83233273029327393 0.61497431993484497
0.96636283397674561 0.85950994491577148 0.61441463232040405
0.79798692464828491 0.68802255392074585 0.64032948017120361
0.83495670557022095 0.71132773160934448 0.63533520698547363
0.89684158563613892 0.77084439992904663 0.62599897384643555
0.94161772727966309 0.84635680913925171 0.61584508419036865
0.96361958980560303 0.87384521961212158 0.61502742767333984
0.76730763912200928 0.76007330417633057 0.62910163402557373
0.80503934621810913 0.76208937168121338 0.62800014019012451
0.88095682859420776 0.80586957931518555 0.62406545877456665
0.93890655040740967 0.86624258756637573 0.61912345886230469
0.96381568908691406 0.89417469501495361 0.61897927522659302
0.74270224571228027 0.83489048480987549 0.61900210380554199
0.76468867063522339 0.83301740884780884 0.61833930015563965
0.822357177734375 0.83552777767181396 0.61667966842651367
0.92379426956176758 0.879402756690979 0.61999642848968506
0.96171784400939941 0.91700941324234009 0.62714731693267822
0.85872358083724976 0.92756181955337524 0.62483090162277222
0.86780077219009399 0.92734867334365845 0.62594544887542725
0.88924992084503174 0.92650097608566284 0.63030725717544556
0.92745649814605713 0.93449515104293823 0.63633638620376587
0.96300530433654785 0.94970977306365967 0.64708274602890015
