luts/instant_consumer/polaroid_px-100uv+_warm.cube
# Created by: G'MIC (https://gmic.eu)
TITLE "polaroid_px-100uv+_warm"
# LUT size
LUT_3D_SIZE 13
# Data domain
DOMAIN_MIN 0.0 0.0 0.0
DOMAIN_MAX 1.0 1.0 1.0
# LUT data points
0.27096548676490784 0.24924060702323914 0.25238564610481262
0.27414998412132263 0.25345328450202942 0.25620934367179871
0.28225263953208923 0.26287445425987244 0.26489761471748352
0.29617124795913696 0.27835094928741455 0.27936887741088867
0.31711038947105408 0.30056998133659363 0.30195599794387817
0.3452393114566803 0.33049342036247253 0.3321470320224762
0.3786652684211731 0.36526408791542053 0.3684745728969574
0.41428095102310181 0.40229532122612 0.40518751740455627
0.45073613524436951 0.43830496072769165 0.44176366925239563
0.48815560340881348 0.47488698363304138 0.47830307483673096
0.528728187084198 0.51419216394424438 0.51577460765838623
0.57362258434295654 0.55713289976119995 0.55563521385192871
0.62186318635940552 0.60342764854431152 0.59772080183029175
0.2767498791217804 0.25630342960357666 0.25837987661361694
0.28001740574836731 0.26056122779846191 0.26213610172271729
0.28787973523139954 0.26948380470275879 0.2706032395362854
0.30075788497924805 0.28364208340644836 0.284187912940979
0.32049453258514404 0.30489310622215271 0.3053736686706543
0.34839889407157898 0.33454874157905579 0.33571812510490417
0.38159307837486267 0.36929184198379517 0.37121427059173584
0.41637521982192993 0.40486389398574829 0.40791928768157959
0.45149070024490356 0.4401361346244812 0.44347289204597473
0.48787152767181396 0.47579741477966309 0.47872674465179443
0.52780866622924805 0.51419526338577271 0.51526802778244019
0.57192790508270264 0.55601829290390015 0.55460327863693237
0.61948776245117188 0.60143572092056274 0.59581989049911499
0.29138761758804321 0.2727169394493103 0.27432987093925476
0.29461836814880371 0.2768496572971344 0.27804923057556152
0.30205264687538147 0.28509724140167236 0.28616470098495483
0.31398585438728333 0.29819110035896301 0.29855981469154358
0.332375168800354 0.31776309013366699 0.3179684579372406
0.35854923725128174 0.34575346112251282 0.34678211808204651
0.38941308856010437 0.3781467080116272 0.3802228569984436
0.42180967330932617 0.41132944822311401 0.4141964316368103
0.45460477471351624 0.44408658146858215 0.44711655378341675
0.48946276307106018 0.4777875542640686 0.48046144843101501
0.52819859981536865 0.51463598012924194 0.51556849479675293
0.57147574424743652 0.5559421181678772 0.55366891622543335
0.618874192237854 0.60042750835418701 0.59428197145462036
0.31665584444999695 0.30000272393226624 0.30174022912979126
0.31947830319404602 0.30343136191368103 0.30518791079521179
0.32594102621078491 0.3110252320766449 0.31237757205963135
0.3365209698677063 0.32257169485092163 0.32379749417304993
0.35309860110282898 0.3403266966342926 0.34142139554023743
0.37598365545272827 0.36471757292747498 0.36643648147583008
0.4031866192817688 0.39303246140480042 0.39547532796859741
0.43156018853187561 0.42204341292381287 0.42501688003540039
0.46060407161712646 0.4508088231086731 0.45389237999916077
0.49270576238632202 0.48159173130989075 0.48372256755828857
0.52970486879348755 0.51675951480865479 0.51695984601974487
0.57238298654556274 0.55712354183197021 0.55425679683685303
0.61926913261413574 0.60130339860916138 0.59423625469207764
0.35054650902748108 0.33562800288200378 0.3383733332157135
0.35246685147285461 0.3384435772895813 0.34110149741172791
0.3569912314414978 0.34368756413459778 0.34647947549819946
0.36527860164642334 0.35319051146507263 0.35582950711250305
0.37913307547569275 0.36813527345657349 0.37074702978134155
0.39853104948997498 0.38879233598709106 0.3915897011756897
0.42164149880409241 0.41294360160827637 0.41602137684822083
0.4456736147403717 0.43711426854133606 0.44043779373168945
0.470255047082901 0.46090513467788696 0.46394571661949158
0.49834483861923218 0.48752093315124512 0.48947784304618835
0.53354108333587646 0.52077388763427734 0.52020829916000366
0.57598865032196045 0.56075060367584229 0.55673140287399292
0.62297517061233521 0.60497111082077026 0.59671300649642944
0.3891206681728363 0.37615877389907837 0.37976083159446716
0.38950824737548828 0.37705957889556885 0.38122311234474182
0.39153489470481873 0.37994134426116943 0.38397663831710815
0.39689528942108154 0.38632035255432129 0.39024737477302551
0.40721040964126587 0.39778405427932739 0.40166708827018738
0.42325261235237122 0.41476574540138245 0.41860350966453552
0.4431920051574707 0.43530124425888062 0.43900558352470398
0.4638306200504303 0.4555339515209198 0.45912003517150879
0.48355364799499512 0.47456395626068115 0.47743615508079529
0.50814193487167358 0.49753114581108093 0.49886831641197205
0.54179364442825317 0.52884364128112793 0.52758264541625977
0.58407902717590332 0.56840616464614868 0.56333297491073608
0.63123834133148193 0.61277526617050171 0.60304749011993408
0.42736443877220154 0.41608628630638123 0.42013058066368103
0.42640316486358643 0.41539257764816284 0.42018383741378784
0.42610439658164978 0.41601520776748657 0.42068260908126831
0.42861112952232361 0.41924166679382324 0.42388394474983215
0.43541204929351807 0.42720761895179749 0.43150603771209717
0.44802498817443848 0.44040879607200623 0.44466039538383484
0.46486374735832214 0.4573424756526947 0.46138849854469299
0.48292797803878784 0.47480097413063049 0.47824996709823608
0.50058287382125854 0.49120855331420898 0.49409899115562439
0.52382200956344604 0.51275324821472168 0.5134737491607666
0.55672198534011841 0.54299247264862061 0.54058998823165894
0.59853297472000122 0.58196735382080078 0.57550716400146484
0.645549476146698 0.62601751089096069 0.61452049016952515
0.46369466185569763 0.45307892560958862 0.45641744136810303
0.46202781796455383 0.45190954208374023 0.45598101615905762
0.46064668893814087 0.45108866691589355 0.45528501272201538
0.46066012978553772 0.45181155204772949 0.45614871382713318
0.46439087390899658 0.45642578601837158 0.46048268675804138
0.47383704781532288 0.46620547771453857 0.46991488337516785
0.48791623115539551 0.48008733987808228 0.48330706357955933
0.50423002243041992 0.49551481008529663 0.49817204475402832
0.52229160070419312 0.51222842931747437 0.51362651586532593
0.54554539918899536 0.53352504968643188 0.5329056978225708
0.5780409574508667 0.56342965364456177 0.55928528308868408
0.61971324682235718 0.60207009315490723 0.59342598915100098
0.66631525754928589 0.64572703838348389 0.63177692890167236
0.50221234560012817 0.49146381020545959 0.4929853081703186
0.50055384635925293 0.49020904302597046 0.4922184944152832
0.49840801954269409 0.48854592442512512 0.49107265472412109
0.49619007110595703 0.48752868175506592 0.4896848201751709
0.4972110390663147 0.48871508240699768 0.4911591112613678
0.50434422492980957 0.49599584937095642 0.49805465340614319
0.51726037263870239 0.50825250148773193 0.50982338190078735
0.53326833248138428 0.5232815146446228 0.52385520935058594
0.55149716138839722 0.53991764783859253 0.53934794664382935
0.57446324825286865 0.56105607748031616 0.55821245908737183
0.60628628730773926 0.59047514200210571 0.58391362428665161
0.6477808952331543 0.62900626659393311 0.61746668815612793
0.69368630647659302 0.67212080955505371 0.65512007474899292
0.54925000667572021 0.5375475287437439 0.5351797342300415
0.54756331443786621 0.53595280647277832 0.53444087505340576
0.54532867670059204 0.53378790616989136 0.53267312049865723
0.54114705324172974 0.53023993968963623 0.52946817874908447
0.53902667760848999 0.52883058786392212 0.52800941467285156
0.54506021738052368 0.53467816114425659 0.53362524509429932
0.55817955732345581 0.5470280647277832 0.54497224092483521
0.57450205087661743 0.56224846839904785 0.55906397104263306
0.59256857633590698 0.57911479473114014 0.57470506429672241
0.61436015367507935 0.59919595718383789 0.59229195117950439
0.64381676912307739 0.62666314840316772 0.61665874719619751
0.68305027484893799 0.6631166934967041 0.64819425344467163
0.72645628452301025 0.70416378974914551 0.68338179588317871
0.60970532894134521 0.59554851055145264 0.58688771724700928
0.60823369026184082 0.59360587596893311 0.58651065826416016
0.6056639552116394 0.59096908569335938 0.58430612087249756
0.60091686248779297 0.5865786075592041 0.58035963773727417
0.5970800518989563 0.58342885971069336 0.57735306024551392
0.6017419695854187 0.58788114786148071 0.58179175853729248
0.6139482855796814 0.59928810596466064 0.59231364727020264
0.62958741188049316 0.61446982622146606 0.60598397254943848
0.64743179082870483 0.63108283281326294 0.62114220857620239
0.66739583015441895 0.6504589319229126 0.63797587156295776
0.69274497032165527 0.6740838885307312 0.65874719619750977
0.72486323118209839 0.70468181371688843 0.68497550487518311
0.76093369722366333 0.73867791891098022 0.71444505453109741
0.68188893795013428 0.66401231288909912 0.64862561225891113
0.68036872148513794 0.66191905736923218 0.64765983819961548
0.67863684892654419 0.65926092863082886 0.64579963684082031
0.67544686794281006 0.65581786632537842 0.64297932386398315
0.67244017124176025 0.65331792831420898 0.64085274934768677
0.67436665296554565 0.6555752158164978 0.64271360635757446
0.68321001529693604 0.66434967517852783 0.65061670541763306
0.69698536396026611 0.67789864540100098 0.66285133361816406
0.71317011117935181 0.69369721412658691 0.67693519592285156
0.7299579381942749 0.71006476879119873 0.69137924909591675
0.74817687273025513 0.72809052467346191 0.70742332935333252
0.77115583419799805 0.75071495771408081 0.72620272636413574
0.79776948690414429 0.77683514356613159 0.74831998348236084
0.75758630037307739 0.73637211322784424 0.71286249160766602
0.75735294818878174 0.73454242944717407 0.71246516704559326
0.75718742609024048 0.73267656564712524 0.71157819032669067
0.7565428614616394 0.73109585046768188 0.71074694395065308
0.75423026084899902 0.72970753908157349 0.70917743444442749
0.75345051288604736 0.72983068227767944 0.70933681726455688
0.75901472568511963 0.73550224304199219 0.71450483798980713
0.76975721120834351 0.74682420492172241 0.72455370426177979
0.78345251083374023 0.76089417934417725 0.73688554763793945
0.79561901092529297 0.77351468801498413 0.7477913498878479
0.80698484182357788 0.78581005334854126 0.75807684659957886
0.82097929716110229 0.80050867795944214 0.77059429883956909
0.8388437032699585 0.81855779886245728 0.78559523820877075
0.28302204608917236 0.26336458325386047 0.26632195711135864
0.28763470053672791 0.26912602782249451 0.27155110239982605
0.29696774482727051 0.27966421842575073 0.28200557827949524
0.31223958730697632 0.29591721296310425 0.29698163270950317
0.33276599645614624 0.31814861297607422 0.31996539235115051
0.36171084642410278 0.34896877408027649 0.35088470578193665
0.39580947160720825 0.38470381498336792 0.38791972398757935
0.43179166316986084 0.42157652974128723 0.42514219880104065
0.46665257215499878 0.45583909749984741 0.45990422368049622
0.50190764665603638 0.48984315991401672 0.49352338910102844
0.539772629737854 0.52535903453826904 0.5276496410369873
0.582550048828125 0.56631803512573242 0.5654371976852417
0.63060611486434937 0.61231356859207153 0.60665762424468994
0.28693968057632446 0.26847827434539795 0.26966026425361633
0.29209941625595093 0.27479609847068787 0.27583882212638855
0.30199524760246277 0.28566277027130127 0.28680786490440369
0.31624510884284973 0.30125907063484192 0.3023313581943512
0.33713075518608093 0.32340022921562195 0.32454985380172729
0.36552590131759644 0.35334616899490356 0.35510027408599854
0.39874482154846191 0.38851138949394226 0.39081835746765137
0.43336579203605652 0.42370551824569702 0.42711344361305237
0.46727880835533142 0.45712676644325256 0.46076905727386475
0.50174301862716675 0.49026542901992798 0.49364796280860901
0.53954178094863892 0.52571046352386475 0.52770096063613892
0.5822872519493103 0.56653308868408203 0.56532716751098633
0.62940311431884766 0.61127263307571411 0.60565316677093506
0.30038860440254211 0.28332406282424927 0.28397461771965027
0.30593353509902954 0.28972882032394409 0.29066765308380127
0.31593102216720581 0.3008849024772644 0.30180653929710388
0.32969683408737183 0.31559431552886963 0.31634697318077087
0.3490636944770813 0.33656412363052368 0.33750498294830322
0.37535950541496277 0.36441275477409363 0.36587584018707275
0.40603375434875488 0.39637044072151184 0.39866179227828979
0.43761762976646423 0.42868298292160034 0.43163794279098511
0.46928691864013672 0.45974335074424744 0.4631023108959198
0.50253391265869141 0.49152335524559021 0.49427148699760437
0.53992706537246704 0.52716636657714844 0.52785634994506836
0.58264529705047607 0.56720298528671265 0.56517702341079712
0.62926310300827026 0.61135780811309814 0.60471600294113159
0.32636088132858276 0.31078228354454041 0.31187698245048523
0.33120995759963989 0.3164026141166687 0.31796503067016602
0.33982190489768982 0.32593405246734619 0.3276343047618866
0.35178205370903015 0.33914411067962646 0.34077531099319458
0.36897003650665283 0.35789990425109863 0.35932821035385132
0.39169597625732422 0.38210910558700562 0.38395550847053528
0.41850584745407104 0.40971633791923523 0.41217926144599915
0.44592753052711487 0.43758690357208252 0.44024384021759033
0.47378432750701904 0.46463665366172791 0.46757197380065918
0.50441557168960571 0.49378833174705505 0.49587720632553101
0.54061436653137207 0.52793526649475098 0.52808064222335815
0.58344751596450806 0.56789720058441162 0.56478011608123779
0.63012814521789551 0.61202907562255859 0.60455495119094849
0.36176973581314087 0.34765192866325378 0.35015276074409485
0.36538666486740112 0.35203254222869873 0.35492879152297974
0.37142375111579895 0.35904893279075623 0.36185979843139648
0.38035225868225098 0.36923789978027344 0.37198904156684875
0.39413049817085266 0.38423216342926025 0.38697847723960876
0.41288453340530396 0.40416362881660461 0.40691182017326355
0.43516463041305542 0.42721825838088989 0.42989635467529297
0.4579346776008606 0.44992002844810486 0.45303341746330261
0.48104375600814819 0.47213825583457947 0.47488641738891602
0.50799119472503662 0.49745061993598938 0.49908873438835144
0.54306530952453613 0.53009188175201416 0.52929645776748657
0.58614981174468994 0.57032358646392822 0.56606960296630859
0.63342654705047607 0.61490404605865479 0.60615575313568115
0.40103155374526978 0.38843724131584167 0.39215674996376038
0.40375575423240662 0.39166763424873352 0.39569821953773499
0.40680637955665588 0.39561071991920471 0.39977428317070007
0.41198581457138062 0.40192070603370667 0.40584573149681091
0.42163768410682678 0.41262134909629822 0.41633427143096924
0.43634161353111267 0.42835849523544312 0.43176311254501343
0.45435675978660583 0.44692203402519226 0.45002579689025879
0.47296583652496338 0.46520054340362549 0.46818768978118896
0.49204620718955994 0.48310127854347229 0.48567911982536316
0.51552778482437134 0.50477337837219238 0.50570225715637207
0.5493088960647583 0.5359116792678833 0.53436827659606934
0.59287166595458984 0.57655441761016846 0.57111519575119019
0.64057248830795288 0.6214936375617981 0.61142241954803467
0.43928754329681396 0.42801973223686218 0.43214884400367737
0.4412674605846405 0.43035805225372314 0.43473970890045166
0.44193720817565918 0.43158251047134399 0.43621045351028442
0.44382810592651367 0.43439391255378723 0.43879625201225281
0.44943267107009888 0.44098055362701416 0.44502520561218262
0.46009612083435059 0.45233297348022461 0.45620086789131165
0.47475868463516235 0.4670434296131134 0.47042644023895264
0.49067589640617371 0.48242780566215515 0.48537951707839966
0.50819724798202515 0.49839380383491516 0.50046491622924805
0.53068697452545166 0.51917082071304321 0.51925218105316162
0.56354039907455444 0.5492713451385498 0.54657375812530518
0.60620206594467163 0.58889907598495483 0.58205801248550415
0.65349626541137695 0.63349300622940063 0.62161505222320557
0.4749511182308197 0.46432468295097351 0.46802166104316711
0.47594159841537476 0.46559777855873108 0.46963697671890259
0.47566342353820801 0.46598902344703674 0.46989655494689941
0.47560569643974304 0.46624237298965454 0.47024133801460266
0.47798526287078857 0.46948504447937012 0.47312790155410767
0.48532402515411377 0.47716575860977173 0.48055377602577209
0.49735286831855774 0.48885688185691833 0.49155554175376892
0.51191252470016479 0.50262504816055298 0.50471204519271851
0.52933973073959351 0.51860624551773071 0.51945871114730835
0.5524483323097229 0.53961646556854248 0.53842544555664062
0.58485966920852661 0.56927031278610229 0.56490719318389893
0.6264718770980835 0.60787546634674072 0.59898042678833008
0.67271554470062256 0.65147417783737183 0.63732600212097168
0.51120620965957642 0.50104689598083496 0.50261306762695312
0.51233339309692383 0.50151306390762329 0.50389856100082397
0.51219165325164795 0.5012742280960083 0.50382548570632935
0.51034653186798096 0.50042498111724854 0.50257283449172974
0.5101744532585144 0.50097876787185669 0.50294965505599976
0.51546388864517212 0.50609344244003296 0.50760161876678467
0.52593863010406494 0.51604241132736206 0.51706379652023315
0.54045307636260986 0.52947670221328735 0.529460608959198
0.55830681324005127 0.545867919921875 0.54441791772842407
0.58141154050827026 0.56685197353363037 0.56337344646453857
0.61309921741485596 0.59599179029464722 0.58907181024551392
0.65343707799911499 0.63379210233688354 0.62201696634292603
0.69841420650482178 0.67617702484130859 0.65908312797546387
0.55502593517303467 0.54358315467834473 0.54187840223312378
0.55652564764022827 0.54489082098007202 0.54356759786605835
0.55643832683563232 0.54465097188949585 0.54336857795715332
0.55386167764663696 0.54203075170516968 0.54083937406539917
0.55173510313034058 0.54054504632949829 0.53915542364120483
0.5554351806640625 0.54385209083557129 0.54226458072662354
0.56539702415466309 0.55322295427322388 0.55085211992263794
0.58023148775100708 0.56694906949996948 0.56336140632629395
0.59812521934509277 0.58349967002868652 0.57846498489379883
0.62062907218933105 0.60427331924438477 0.59698206186294556
0.64999508857727051 0.63159024715423584 0.62095379829406738
0.68757683038711548 0.666908860206604 0.65154075622558594
0.72950655221939087 0.70640575885772705 0.68578392267227173
0.61374616622924805 0.59981018304824829 0.5925714373588562
0.61513757705688477 0.60062044858932495 0.59374231100082397
0.61437135934829712 0.59958785772323608 0.59300285577774048
0.61110574007034302 0.59593242406845093 0.58964818716049194
0.60784041881561279 0.59280812740325928 0.58665364980697632
0.60996687412261963 0.59497600793838501 0.58838081359863281
0.61910605430603027 0.60369008779525757 0.5961717963218689
0.63361233472824097 0.61724334955215454 0.60856908559799194
0.65138143301010132 0.63394683599472046 0.62353712320327759
0.67182624340057373 0.65344768762588501 0.64081543684005737
0.69700735807418823 0.67752689123153687 0.66171568632125854
0.72832578420639038 0.70704787969589233 0.68730676174163818
0.76336812973022461 0.74085253477096558 0.71629661321640015
0.68561285734176636 0.66808998584747314 0.65323114395141602
0.68562161922454834 0.66726607084274292 0.65312492847442627
0.68461364507675171 0.66527819633483887 0.65209215879440308
0.68183404207229614 0.66210520267486572 0.64916765689849854
0.67856466770172119 0.65893161296844482 0.64624577760696411
0.67919826507568359 0.65962016582489014 0.64665663242340088
0.68618947267532349 0.66666549444198608 0.65283674001693726
0.69902795553207397 0.67920506000518799 0.66397607326507568
0.71503669023513794 0.69490730762481689 0.67797273397445679
0.73231959342956543 0.71194678544998169 0.69266092777252197
0.75161552429199219 0.73105454444885254 0.7091672420501709
0.77438390254974365 0.75306719541549683 0.72839462757110596
0.80075401067733765 0.77871090173721313 0.75061959028244019
0.76069456338882446 0.73902589082717896 0.71656101942062378
0.76087695360183716 0.73810058832168579 0.71650499105453491
0.7603192925453186 0.73654747009277344 0.71588486433029175
0.75876182317733765 0.73450088500976562 0.71414875984191895
0.75656598806381226 0.73174470663070679 0.71170729398727417
0.75566047430038452 0.73143213987350464 0.71125274896621704
0.76018953323364258 0.7367435097694397 0.71559852361679077
0.770424485206604 0.74734097719192505 0.72473287582397461
0.78366184234619141 0.76073276996612549 0.73662853240966797
0.7967303991317749 0.77432405948638916 0.74807214736938477
0.80942153930664062 0.78758835792541504 0.75967276096343994
0.82405561208724976 0.80256003141403198 0.77250730991363525
0.8421628475189209 0.82103890180587769 0.78864496946334839
0.30353769659996033 0.28645861148834229 0.28911545872688293
0.30934232473373413 0.2934688925743103 0.29594793915748596
0.31961154937744141 0.3048863410949707 0.3073652982711792
0.33359485864639282 0.31984004378318787 0.32234671711921692
0.35290983319282532 0.34014815092086792 0.34262165427207947
0.38134729862213135 0.37013113498687744 0.37302723526954651
0.41739374399185181 0.40819239616394043 0.41149413585662842
0.45303398370742798 0.44430747628211975 0.44817814230918884
0.48625504970550537 0.47652336955070496 0.48062753677368164
0.51959514617919922 0.50840121507644653 0.51154452562332153
0.55556541681289673 0.54193359613418579 0.54351788759231567
0.59735649824142456 0.58100789785385132 0.5793614387512207
0.64422762393951416 0.62561386823654175 0.61917871236801147
0.30647867918014526 0.29011973738670349 0.29118162393569946
0.31295695900917053 0.29789990186691284 0.29929977655410767
0.32430902123451233 0.31023585796356201 0.31188738346099854
0.33893117308616638 0.32596194744110107 0.32777115702629089
0.35867011547088623 0.34695130586624146 0.34877577424049377
0.38613912463188171 0.37605327367782593 0.37829297780990601
0.41988068819046021 0.41109105944633484 0.4139651358127594
0.454243004322052 0.44583785533905029 0.449349045753479
0.48657438158988953 0.47756564617156982 0.4811917245388031
0.51979660987854004 0.50868505239486694 0.51167088747024536
0.55717331171035767 0.54236507415771484 0.54368650913238525
0.59796357154846191 0.58169341087341309 0.58024901151657104
0.64420104026794434 0.62567102909088135 0.61898434162139893
0.31834140419960022 0.30285719037055969 0.30323004722595215
0.32590484619140625 0.31156075000762939 0.31266799569129944
0.33730176091194153 0.32420724630355835 0.3256489634513855
0.35182508826255798 0.33994588255882263 0.34153348207473755
0.37110000848770142 0.36049550771713257 0.36217105388641357
0.39663562178611755 0.38725101947784424 0.38921332359313965
0.42656862735748291 0.41841939091682434 0.42074558138847351
0.45743325352668762 0.44946905970573425 0.45238354802131653
0.48804965615272522 0.47914409637451172 0.48233166337013245
0.52043217420578003 0.50959885120391846 0.51170629262924194
0.5575980544090271 0.54362338781356812 0.54379808902740479
0.59896469116210938 0.58329206705093384 0.58051097393035889
0.64521259069442749 0.62616723775863647 0.61893391609191895
0.34397369623184204 0.32966762781143188 0.33071884512901306
0.35044771432876587 0.33692175149917603 0.33862701058387756
0.36001092195510864 0.347810298204422 0.34974557161331177
0.37254399061203003 0.36154931783676147 0.3637089729309082
0.38976848125457764 0.38021561503410339 0.38212895393371582
0.41249015927314758 0.40399590134620667 0.40585541725158691
0.43835738301277161 0.43071940541267395 0.43275937438011169
0.46492597460746765 0.4571533203125 0.45959436893463135
0.49197173118591309 0.48308980464935303 0.48545649647712708
0.52197390794754028 0.51119226217269897 0.51263141632080078
0.5577162504196167 0.54558205604553223 0.54369449615478516
0.60060989856719971 0.58445996046066284 0.58051425218582153
0.64634174108505249 0.62760359048843384 0.61911851167678833
0.37904143333435059 0.36619365215301514 0.36857712268829346
0.38431155681610107 0.37185737490653992 0.37484544515609741
0.39093491435050964 0.37950408458709717 0.38257426023483276
0.39974048733711243 0.38967075943946838 0.39266404509544373
0.41344735026359558 0.40451115369796753 0.40712085366249084
0.43167486786842346 0.4239087700843811 0.42676633596420288
0.45365476608276367 0.44646218419075012 0.44812306761741638
0.47583773732185364 0.46813458204269409 0.46990373730659485
0.49846234917640686 0.48954308032989502 0.49141186475753784
