luts/instant_consumer/polaroid_px-100uv+_warm_+++.cube
# Created by: G'MIC (https://gmic.eu)
TITLE "polaroid_px-100uv+_warm_+++"
# LUT size
LUT_3D_SIZE 13
# Data domain
DOMAIN_MIN 0.0 0.0 0.0
DOMAIN_MAX 1.0 1.0 1.0
# LUT data points
0.42423611879348755 0.38094678521156311 0.36678442358970642
0.41992288827896118 0.37587437033653259 0.36397075653076172
0.41597971320152283 0.37254902720451355 0.36085218191146851
0.41765064001083374 0.37314733862876892 0.36268040537834167
0.42323789000511169 0.3786851167678833 0.36775451898574829
0.43355527520179749 0.38925164937973022 0.37724483013153076
0.44933435320854187 0.40549033880233765 0.39163544774055481
0.47155949473381042 0.42899602651596069 0.41169971227645874
0.49968615174293518 0.45883083343505859 0.43719398975372314
0.53184741735458374 0.49300453066825867 0.46589803695678711
0.56617873907089233 0.52945584058761597 0.49642184376716614
0.60185426473617554 0.56732034683227539 0.52706193923950195
0.63709026575088501 0.60448247194290161 0.55639582872390747
0.42335984110832214 0.3799775242805481 0.3671623170375824
0.41967964172363281 0.37626329064369202 0.364705890417099
0.41872844099998474 0.3737010657787323 0.36389937996864319
0.41974851489067078 0.37486374378204346 0.36509588360786438
0.42518669366836548 0.38047504425048828 0.37018910050392151
0.43595018982887268 0.39125707745552063 0.37996569275856018
0.45214369893074036 0.40804904699325562 0.39467740058898926
0.47403612732887268 0.43112456798553467 0.41465771198272705
0.50109493732452393 0.4597773551940918 0.43912962079048157
0.53202378749847412 0.49237874150276184 0.46715572476387024
0.56543773412704468 0.52792894840240479 0.49611750245094299
0.60033589601516724 0.56467986106872559 0.52574914693832397
0.63517880439758301 0.60139405727386475 0.55468142032623291
0.42451766133308411 0.38153970241546631 0.36945641040802002
0.422507643699646 0.37895789742469788 0.36790508031845093
0.42175972461700439 0.3777560293674469 0.3674311637878418
0.4237000048160553 0.3791414201259613 0.36943885684013367
0.42948687076568604 0.38456866145133972 0.37459173798561096
0.44018104672431946 0.39555242657661438 0.3843407928943634
0.45632940530776978 0.41219434142112732 0.39911380410194397
0.47762668132781982 0.43446499109268188 0.41848611831665039
0.50336271524429321 0.46166488528251648 0.44175362586975098
0.53262686729431152 0.49249207973480225 0.46771365404129028
0.56476116180419922 0.52636075019836426 0.49592834711074829
0.59854984283447266 0.56200116872787476 0.52415555715560913
0.63289666175842285 0.59788376092910767 0.55218082666397095
0.43027812242507935 0.38767042756080627 0.37553310394287109
0.42906573414802551 0.38583624362945557 0.37466028332710266
0.42886090278625488 0.3850691020488739 0.37457028031349182
0.43057680130004883 0.38622364401817322 0.37611103057861328
0.43592649698257446 0.39110866189002991 0.38072395324707031
0.44591772556304932 0.40147441625595093 0.38991951942443848
0.46164262294769287 0.41751876473426819 0.40436479449272156
0.48214602470397949 0.43893522024154663 0.4229465126991272
0.50653785467147827 0.46452569961547852 0.44493430852890015
0.53406006097793579 0.49362722039222717 0.46923735737800598
0.56469738483428955 0.52578043937683105 0.49535882472991943
0.59760755300521851 0.56013566255569458 0.52282404899597168
0.63152897357940674 0.59564054012298584 0.55003213882446289
0.4404694139957428 0.39850226044654846 0.38592416048049927
0.43980863690376282 0.39717617630958557 0.38534677028656006
0.43972694873809814 0.39649999141693115 0.38522171974182129
0.44076305627822876 0.39702796936035156 0.38592720031738281
0.44523075222969055 0.40077584981918335 0.38959768414497375
0.45441541075706482 0.41009113192558289 0.39780238270759583
0.46917378902435303 0.4253200888633728 0.41145646572113037
0.4885774552822113 0.4456632137298584 0.42904010415077209
0.51134204864501953 0.46968179941177368 0.44958579540252686
0.53721022605895996 0.49657940864562988 0.472007155418396
0.56611335277557373 0.52694571018218994 0.49658298492431641
0.59839773178100586 0.56041860580444336 0.5228201150894165
0.63218122720718384 0.59551775455474854 0.54954278469085693
0.45489746332168579 0.41380399465560913 0.40012854337692261
0.45431846380233765 0.41255432367324829 0.39976698160171509
0.45422089099884033 0.4119146466255188 0.39933758974075317
0.45511981844902039 0.41207653284072876 0.39976027607917786
0.45871129631996155 0.41511857509613037 0.40228953957557678
0.4669099748134613 0.42334270477294922 0.40956941246986389
0.48068374395370483 0.43760502338409424 0.42195254564285278
0.49877408146858215 0.45664182305335999 0.43840619921684265
0.52020907402038574 0.47893053293228149 0.45724824070930481
0.54418396949768066 0.50409656763076782 0.47790235280990601
0.57170838117599487 0.53253334760665894 0.50064408779144287
0.60293871164321899 0.56491774320602417 0.52591067552566528
0.63628172874450684 0.59930646419525146 0.55177795886993408
0.47350817918777466 0.43314167857170105 0.41788294911384583
0.47326737642288208 0.43258702754974365 0.4177187979221344
0.47373190522193909 0.43234783411026001 0.41779330372810364
0.47477251291275024 0.4328608512878418 0.4181678295135498
0.4779602587223053 0.43579089641571045 0.42023292183876038
0.48540422320365906 0.4431903064250946 0.42655688524246216
0.49794945120811462 0.45629438757896423 0.43765410780906677
0.5150141716003418 0.47373473644256592 0.45257657766342163
0.5348808765411377 0.49471265077590942 0.46986845135688782
0.55769270658493042 0.51813787221908569 0.48886975646018982
0.58362865447998047 0.54489994049072266 0.50997418165206909
0.61334949731826782 0.57548230886459351 0.53326594829559326
0.64514786005020142 0.60823303461074829 0.5574677586555481
0.49800443649291992 0.45869657397270203 0.44017481803894043
0.4982391893863678 0.45872807502746582 0.44031617045402527
0.49912050366401672 0.45920026302337646 0.44045618176460266
0.50049775838851929 0.46012794971466064 0.44095233082771301
0.50349801778793335 0.46299052238464355 0.44316616654396057
0.51034259796142578 0.46986746788024902 0.44880259037017822
0.52182352542877197 0.48175296187400818 0.45863547921180725
0.53755068778991699 0.49799194931983948 0.47209915518760681
0.55642157793045044 0.51743364334106445 0.48772835731506348
0.57801359891891479 0.53962653875350952 0.50552129745483398
0.60248559713363647 0.56464177370071411 0.52449613809585571
0.6298370361328125 0.59247380495071411 0.54540503025054932
0.6591726541519165 0.62241339683532715 0.56714081764221191
0.53109419345855713 0.49294635653495789 0.46864265203475952
0.53101503849029541 0.49286937713623047 0.46856173872947693
0.53195428848266602 0.49356776475906372 0.46873348951339722
0.53301209211349487 0.494161456823349 0.46918246150016785
0.53542071580886841 0.49675688147544861 0.47084024548530579
0.54148536920547485 0.50307130813598633 0.47575056552886963
0.55219364166259766 0.51396316289901733 0.48468992114067078
0.56688868999481201 0.52908343076705933 0.49641820788383484
0.58429867029190063 0.54711347818374634 0.51053214073181152
0.60445374250411987 0.56742912530899048 0.52613610029220581
0.6268150806427002 0.58994269371032715 0.54298728704452515
0.6515653133392334 0.61479711532592773 0.56106603145599365
0.677967369556427 0.64150911569595337 0.58020627498626709
0.57307529449462891 0.53592044115066528 0.5024293065071106
0.57235556840896606 0.53500270843505859 0.50208669900894165
0.57227754592895508 0.53481709957122803 0.50182276964187622
0.57238686084747314 0.53522670269012451 0.50163954496383667
0.57413613796234131 0.5371277928352356 0.50281143188476562
0.57938885688781738 0.5427861213684082 0.50709623098373413
0.58914279937744141 0.55273973941802979 0.514792799949646
0.60234516859054565 0.56650233268737793 0.52544713020324707
0.61855238676071167 0.58301275968551636 0.53751868009567261
0.63605815172195435 0.60016173124313354 0.55075347423553467
0.65586364269256592 0.62002575397491455 0.564838707447052
0.67735284566879272 0.64139086008071899 0.58002060651779175
0.7006867527961731 0.66458934545516968 0.59636002779006958
0.62159991264343262 0.58525776863098145 0.54066652059555054
0.62002021074295044 0.58397108316421509 0.53975671529769897
0.61896997690200806 0.58287763595581055 0.53903317451477051
0.61806923151016235 0.58233928680419922 0.53872549533843994
0.61903899908065796 0.58365875482559204 0.53877407312393188
0.62337023019790649 0.58869457244873047 0.54247146844863892
0.63206017017364502 0.5978817343711853 0.54919499158859253
0.64388138055801392 0.60961800813674927 0.55807042121887207
0.65730875730514526 0.62314873933792114 0.56792229413986206
0.67209511995315552 0.63791728019714355 0.57815122604370117
0.68835616111755371 0.65336310863494873 0.58915656805038452
0.70652258396148682 0.67123317718505859 0.60117822885513306
0.72649860382080078 0.69093596935272217 0.61451417207717896
0.67443293333053589 0.63891375064849854 0.58105206489562988
0.67208325862884521 0.636707603931427 0.57970881462097168
0.66970586776733398 0.63460564613342285 0.577739417552948
0.66811561584472656 0.63339126110076904 0.57732844352722168
0.66842555999755859 0.63435095548629761 0.57732844352722168
0.6720656156539917 0.63855326175689697 0.58010661602020264
0.67950981855392456 0.64649492502212524 0.58608013391494751
0.68918395042419434 0.65650063753128052 0.59301722049713135
0.69976919889450073 0.6669546365737915 0.60004031658172607
0.71086680889129639 0.67793375253677368 0.60717624425888062
0.72369110584259033 0.68958228826522827 0.61503875255584717
0.73825931549072266 0.70368611812591553 0.62391191720962524
0.75484293699264526 0.71970301866531372 0.6343454122543335
0.72772341966629028 0.6925506591796875 0.61985296010971069
0.72441971302032471 0.68961155414581299 0.61894959211349487
0.72104835510253906 0.68665885925292969 0.61622446775436401
0.71875900030136108 0.68494600057601929 0.61560016870498657
0.71872061491012573 0.68546080589294434 0.61576956510543823
0.72171139717102051 0.68919819593429565 0.61749351024627686
0.72780781984329224 0.69597434997558594 0.6222381591796875
0.73573386669158936 0.70410615205764771 0.62805688381195068
0.7432209849357605 0.71133506298065186 0.6326296329498291
0.75081247091293335 0.71841949224472046 0.63645815849304199
0.76015031337738037 0.72667843103408813 0.64120817184448242
0.77147585153579712 0.73728728294372559 0.64740854501724243
0.78523987531661987 0.75012564659118652 0.65483784675598145
0.42187774181365967 0.37895554304122925 0.36489257216453552
0.41960823535919189 0.37621209025382996 0.36455574631690979
0.41872087121009827 0.37441694736480713 0.36375159025192261
0.42107066512107849 0.37705656886100769 0.36612337827682495
0.42861852049827576 0.38469359278678894 0.37291601300239563
0.44183322787284851 0.39824175834655762 0.38476818799972534
0.46097785234451294 0.41810059547424316 0.40176710486412048
0.48466545343399048 0.44303175806999207 0.42319348454475403
0.51286965608596802 0.47278448939323425 0.44861167669296265
0.54452210664749146 0.50618219375610352 0.47693714499473572
0.57860755920410156 0.54217183589935303 0.50665485858917236
0.61378735303878784 0.57922565937042236 0.53672736883163452
0.64849460124969482 0.6157606840133667 0.56550055742263794
0.42210975289344788 0.37928131222724915 0.36602219939231873
0.41986718773841858 0.37678325176239014 0.36501213908195496
0.42038023471832275 0.37682914733886719 0.36573907732963562
0.42375403642654419 0.37971729040145874 0.3688971996307373
0.43156540393829346 0.38745102286338806 0.37599226832389832
0.44487825036048889 0.40110480785369873 0.38791820406913757
0.46371424198150635 0.42048949003219604 0.40485960245132446
0.48733866214752197 0.44513013958930969 0.42618909478187561
0.51478201150894165 0.47400751709938049 0.45087042450904846
0.54539799690246582 0.50615030527114868 0.47794255614280701
0.57828259468078613 0.54107177257537842 0.50677382946014404
0.61298847198486328 0.57743841409683228 0.53615725040435791
0.64729911088943481 0.61337661743164062 0.56420719623565674
0.42483276128768921 0.3821357786655426 0.36986041069030762
0.42451572418212891 0.38135552406311035 0.36970698833465576
0.42538076639175415 0.3818509578704834 0.37070372700691223
0.42892035841941833 0.38497325778007507 0.37394660711288452
0.43651804327964783 0.39239746332168579 0.38070198893547058
0.44939035177230835 0.40547093749046326 0.39225852489471436
0.46776214241981506 0.42433622479438782 0.40892747044563293
0.49072557687759399 0.44830179214477539 0.42975923418998718
0.51708656549453735 0.4760127067565918 0.45351767539978027
0.5463186502456665 0.50661897659301758 0.47923997044563293
0.57801926136016846 0.54000341892242432 0.50657832622528076
0.61160194873809814 0.57498961687088013 0.53456288576126099
0.64550566673278809 0.61035251617431641 0.56209045648574829
0.43256872892379761 0.39045390486717224 0.37734785676002502
0.4329153299331665 0.39047518372535706 0.37800973653793335
0.43405577540397644 0.3910214900970459 0.37906366586685181
0.43688946962356567 0.39324837923049927 0.38153669238090515
0.44343644380569458 0.39936953783035278 0.38731658458709717
0.45520016551017761 0.41111713647842407 0.39789471030235291
0.47243842482566833 0.42916703224182129 0.41378021240234375
0.49450242519378662 0.45218244194984436 0.43374788761138916
0.51965492963790894 0.4784429669380188 0.45639452338218689
0.54747962951660156 0.50751620531082153 0.48059138655662537
0.57795065641403198 0.53925108909606934 0.50656068325042725
0.61071157455444336 0.57318258285522461 0.53316229581832886
0.64399254322052002 0.6080087423324585 0.55997508764266968
0.4455011785030365 0.40409743785858154 0.39006784558296204
0.44631606340408325 0.40469670295715332 0.39116653800010681
0.44674670696258545 0.40441936254501343 0.39141362905502319
0.4481169581413269 0.40492656826972961 0.39217329025268555
0.45284366607666016 0.40892940759658813 0.39610204100608826
0.46290296316146851 0.41894921660423279 0.40501374006271362
0.47901567816734314 0.43569755554199219 0.41985991597175598
0.49983856081962585 0.45740225911140442 0.43883940577507019
0.52362686395645142 0.48243647813796997 0.4601275622844696
0.5500825047492981 0.50993388891220093 0.48285391926765442
0.57924515008926392 0.54025667905807495 0.50729256868362427
0.6111181378364563 0.57312113046646118 0.5330040454864502
0.64415359497070312 0.60747623443603516 0.55896848440170288
0.46258729696273804 0.42257404327392578 0.40693855285644531
0.46355986595153809 0.42310738563537598 0.40741786360740662
0.46317964792251587 0.42164510488510132 0.40695440769195557
0.46315076947212219 0.4209296703338623 0.40628057718276978
0.46591514348983765 0.42284497618675232 0.40833607316017151
0.47432440519332886 0.43104612827301025 0.41570505499839783
0.48920437693595886 0.44658491015434265 0.42927452921867371
0.50857150554656982 0.46677142381668091 0.44684931635856628
0.53099530935287476 0.49021950364112854 0.46661952137947083
0.55603015422821045 0.51627820730209351 0.48801881074905396
0.58385545015335083 0.545093834400177 0.51092314720153809
0.61471754312515259 0.57686680555343628 0.53539007902145386
0.6473013162612915 0.61030972003936768 0.56047731637954712
0.48331540822982788 0.44391894340515137 0.42655935883522034
0.48374113440513611 0.44389212131500244 0.42689228057861328
0.48328948020935059 0.44296026229858398 0.426004558801651
0.48307541012763977 0.44174164533615112 0.42489427328109741
0.4850715696811676 0.44322580099105835 0.42619386315345764
0.49219059944152832 0.45023593306541443 0.43218007683753967
0.50531136989593506 0.46379825472831726 0.44410783052444458
0.52278763055801392 0.48237651586532593 0.45977783203125
0.54399806261062622 0.5041276216506958 0.47784483432769775
0.56761008501052856 0.52857315540313721 0.49759072065353394
0.59413272142410278 0.55577081441879272 0.51885402202606201
0.62366348505020142 0.58593893051147461 0.54166156053543091
0.65476202964782715 0.61770462989807129 0.56519198417663574
0.50874561071395874 0.47024419903755188 0.45012247562408447
0.50887179374694824 0.47012284398078918 0.45003178715705872
0.5086788535118103 0.46949926018714905 0.44919347763061523
0.50848251581192017 0.46862229704856873 0.4480653703212738
0.51013845205307007 0.46988770365715027 0.44909930229187012
0.51602655649185181 0.47581720352172852 0.45408350229263306
0.52762901782989502 0.48787406086921692 0.46405717730522156
0.5438271164894104 0.5046236515045166 0.47787061333656311
0.56336671113967896 0.52488082647323608 0.49412888288497925
0.585601806640625 0.54761821031570435 0.51209628582000732
0.61047255992889404 0.57301223278045654 0.53143632411956787
0.63793379068374634 0.60101503133773804 0.55214834213256836
0.66688209772109985 0.63020902872085571 0.57357120513916016
0.54062390327453613 0.50312811136245728 0.47772014141082764
0.54085850715637207 0.50290149450302124 0.47763407230377197
0.54068946838378906 0.5025591254234314 0.47677668929100037
0.54005426168441772 0.50188058614730835 0.47549861669540405
0.54079616069793701 0.50246524810791016 0.47592452168464661
0.54562532901763916 0.50748676061630249 0.48001432418823242
0.5561489462852478 0.51835983991622925 0.48864227533340454
0.571044921875 0.53380858898162842 0.50091153383255005
0.58908671140670776 0.55211794376373291 0.51525866985321045
0.60961556434631348 0.5730825662612915 0.53117591142654419
0.63242930173873901 0.59597188234329224 0.54835468530654907
0.65731251239776611 0.62091571092605591 0.56644332408905029
0.68379443883895874 0.64723491668701172 0.58534353971481323
0.57963865995407104 0.54324007034301758 0.50952547788619995
0.57966291904449463 0.54317843914031982 0.50951278209686279
0.57938230037689209 0.54255008697509766 0.5086437463760376
0.57814687490463257 0.54144525527954102 0.50724953413009644
0.57782965898513794 0.54117238521575928 0.50667768716812134
0.58131867647171021 0.54514628648757935 0.50972187519073486
0.59100544452667236 0.55529654026031494 0.51739734411239624
0.60464376211166382 0.56933337450027466 0.52835619449615479
0.62084156274795532 0.58562976121902466 0.54073762893676758
0.6390068531036377 0.60385727882385254 0.55425024032592773
0.65915948152542114 0.62374788522720337 0.56852632761001587
0.68106299638748169 0.64538657665252686 0.58372163772583008
0.70446109771728516 0.66859477758407593 0.59995430707931519
0.62575513124465942 0.59020787477493286 0.54532366991043091
0.62529224157333374 0.5894283652305603 0.5452655553817749
0.62438708543777466 0.58883422613143921 0.54443186521530151
0.62272602319717407 0.58718174695968628 0.54273855686187744
0.62174081802368164 0.58657044172286987 0.54182666540145874
0.6244773268699646 0.58991438150405884 0.54428845643997192
0.63258463144302368 0.59869730472564697 0.55069470405578613
0.64423400163650513 0.61051583290100098 0.5595664381980896
0.65789562463760376 0.62429523468017578 0.56954044103622437
0.67289477586746216 0.63914912939071655 0.58005696535110474
0.68974298238754272 0.65535885095596313 0.59144300222396851
0.70830792188644409 0.67337608337402344 0.60356235504150391
0.72854936122894287 0.69308352470397949 0.61693620681762695
0.67703914642333984 0.64190417528152466 0.58427542448043823
0.67561179399490356 0.6405290961265564 0.58331722021102905
0.67368036508560181 0.63887202739715576 0.58207613229751587
0.67149388790130615 0.63701516389846802 0.58004677295684814
0.67055678367614746 0.63671255111694336 0.57959675788879395
0.67274528741836548 0.63955259323120117 0.58164852857589722
0.67911851406097412 0.64643615484237671 0.58663636445999146
0.68807613849639893 0.6558685302734375 0.5931355357170105
0.69856637716293335 0.66616308689117432 0.60040402412414551
0.71006077527999878 0.67732489109039307 0.60784131288528442
0.72335910797119141 0.68969583511352539 0.61590766906738281
0.73837125301361084 0.70398229360580444 0.62493610382080078
0.75530630350112915 0.72032588720321655 0.63545656204223633
0.72830522060394287 0.69330716133117676 0.62209713459014893
0.7264246940612793 0.69187545776367188 0.62078011035919189
0.7238427996635437 0.68960690498352051 0.61922991275787354
0.72130900621414185 0.68764156103134155 0.61726117134094238
0.72027909755706787 0.68733495473861694 0.6166614294052124
0.72190117835998535 0.68966317176818848 0.61846482753753662
0.72649127244949341 0.69483864307403564 0.62196451425552368
0.73323512077331543 0.70179253816604614 0.6269037127494812
0.74054145812988281 0.70892024040222168 0.63144564628601074
0.74873572587966919 0.71639668941497803 0.63599759340286255
0.75833332538604736 0.72530484199523926 0.64087879657745361
0.77021628618240356 0.73639172315597534 0.64754801988601685
0.78428888320922852 0.74946057796478271 0.65535682439804077
0.42230319976806641 0.37982854247093201 0.36647164821624756
0.42091855406761169 0.37803936004638672 0.36619901657104492
0.42206698656082153 0.37918782234191895 0.36765316128730774
0.42686894536018372 0.38380634784698486 0.3720393180847168
0.43643420934677124 0.39354375004768372 0.38037848472595215
0.45263293385505676 0.41018155217170715 0.39455831050872803
0.47474575042724609 0.43314668536186218 0.41406896710395813
0.49994897842407227 0.45941105484962463 0.43652340769767761
0.52744895219802856 0.48821806907653809 0.46124723553657532
0.55816113948822021 0.52038717269897461 0.48845654726028442
0.59178990125656128 0.55567073822021484 0.51740878820419312
0.62666845321655273 0.5921781063079834 0.54635477066040039
0.66094285249710083 0.62800824642181396 0.57468914985656738
0.42305582761764526 0.38055700063705444 0.36789149045944214
0.42283916473388672 0.38023263216018677 0.36821353435516357
0.42527103424072266 0.38258710503578186 0.37076467275619507
0.43084931373596191 0.38780969381332397 0.37579971551895142
0.44088312983512878 0.39773088693618774 0.3846575915813446
0.45675981044769287 0.41404363512992859 0.39862135052680969
0.47811597585678101 0.436168372631073 0.41759401559829712
0.5030326247215271 0.4619978666305542 0.43989244103431702
0.53007245063781738 0.49033620953559875 0.46416610479354858
0.55985504388809204 0.52159953117370605 0.49037548899650574
0.59243613481521606 0.55554533004760742 0.51819896697998047
0.62659215927124023 0.59112203121185303 0.54643392562866211
0.66056293249130249 0.62650424242019653 0.57417166233062744
0.42681574821472168 0.38479483127593994 0.3714694082736969
0.42833042144775391 0.38597908616065979 0.37330067157745361
0.43165841698646545 0.38916245102882385 0.37664136290550232
0.4375261664390564 0.39460635185241699 0.38188928365707397
0.44714665412902832 0.40419396758079529 0.39055457711219788
0.46228402853012085 0.41949978470802307 0.40386161208152771
0.4825185239315033 0.44029206037521362 0.42217510938644409
0.50675904750823975 0.46544495224952698 0.44391626119613647
0.53332388401031494 0.49301779270172119 0.46750766038894653
0.56176960468292236 0.52282023429870605 0.49227333068847656
0.59292387962341309 0.5552065372467041 0.51864755153656006
0.62612926959991455 0.58967691659927368 0.54587393999099731
0.65939784049987793 0.62423133850097656 0.57251167297363281
0.4361078143119812 0.39464953541755676 0.38034060597419739
0.43885630369186401 0.39713171124458313 0.38311827182769775
0.44210472702980042 0.40010467171669006 0.38624319434165955
0.44687080383300781 0.40428435802459717 0.39047908782958984
0.45516800880432129 0.41224735975265503 0.39778923988342285
0.46863308548927307 0.42575958371162415 0.4099128246307373
0.48758193850517273 0.44526994228363037 0.42719399929046631
0.51076412200927734 0.46927431225776672 0.44799023866653442
0.5362280011177063 0.49577188491821289 0.47050902247428894
0.56352567672729492 0.52416956424713135 0.49405583739280701
0.59344041347503662 0.5551755428314209 0.51922392845153809
0.62550216913223267 0.58831602334976196 0.54501742124557495
0.65837651491165161 0.62230956554412842 0.57078021764755249
0.45224601030349731 0.41163092851638794 0.39554405212402344
0.45561376214027405 0.41478279232978821 0.39876285195350647
0.45710688829421997 0.41569894552230835 0.40014249086380005
0.45937284827232361 0.41724398732185364 0.40203693509101868
0.46506693959236145 0.42245504260063171 0.40699887275695801
0.47646209597587585 0.43368080258369446 0.41714909672737122
0.49367901682853699 0.4513842761516571 0.43284064531326294
0.51542133092880249 0.47396457195281982 0.45241069793701172
0.53965628147125244 0.49921908974647522 0.47376921772956848
