luts/instant_consumer/polaroid_px-680_cold_--.cube
# Created by: G'MIC (https://gmic.eu)
TITLE "polaroid_px-680_cold_--"
# LUT size
LUT_3D_SIZE 13
# Data domain
DOMAIN_MIN 0.0 0.0 0.0
DOMAIN_MAX 1.0 1.0 1.0
# LUT data points
0.012195452116429806 0.024148739874362946 0.030426908284425735
0.044440954923629761 0.031254980713129044 0.032434470951557159
0.1076197475194931 0.042464748024940491 0.040413830429315567
0.2076437920331955 0.052882369607686996 0.049354657530784607
0.33317127823829651 0.066847875714302063 0.064115919172763824
0.46442943811416626 0.086725182831287384 0.087324805557727814
0.57949447631835938 0.11980804800987244 0.11578348278999329
0.67945355176925659 0.1662059873342514 0.14427432417869568
0.75932085514068604 0.23742686212062836 0.17983348667621613
0.82641375064849854 0.30216872692108154 0.21287952363491058
0.88391798734664917 0.36601346731185913 0.24642740190029144
0.93595355749130249 0.42493435740470886 0.27898070216178894
0.97946399450302124 0.48110681772232056 0.31324845552444458
0.0067984787747263908 0.068089894950389862 0.048007439821958542
0.032556228339672089 0.075270555913448334 0.048538748174905777
0.11001111567020416 0.088277198374271393 0.047332748770713806
0.21624296903610229 0.10033161193132401 0.054695084691047668
0.34226241707801819 0.11897023767232895 0.067247815430164337
0.46838906407356262 0.13431736826896667 0.085952430963516235
0.58092808723449707 0.1629338264465332 0.11420729756355286
0.67671650648117065 0.2064327746629715 0.14363506436347961
0.75229275226593018 0.27336394786834717 0.1790352463722229
0.82084941864013672 0.33420762419700623 0.21123293042182922
0.88005125522613525 0.39194244146347046 0.24455912411212921
0.93243038654327393 0.44330340623855591 0.27835392951965332
0.97778803110122681 0.48966160416603088 0.30940797924995422
0.0017794291488826275 0.14022092521190643 0.071451924741268158
0.0077120913192629814 0.14775069057941437 0.072644643485546112
0.073467597365379333 0.16055329144001007 0.069125369191169739
0.21564595401287079 0.18113967776298523 0.069028683006763458
0.35240256786346436 0.19071543216705322 0.070745460689067841
0.47432592511177063 0.1979074627161026 0.079064115881919861
0.5832817554473877 0.21971513330936432 0.10724179446697235
0.67294865846633911 0.25717738270759583 0.14206938445568085
0.74916189908981323 0.30938988924026489 0.17482420802116394
0.81606012582778931 0.36326879262924194 0.20562955737113953
0.87626022100448608 0.41607078909873962 0.23967841267585754
0.92928510904312134 0.46300140023231506 0.27486354112625122
0.97968775033950806 0.50446784496307373 0.30678629875183105
0.0023284314665943384 0.23236595094203949 0.10353662818670273
0.0062304479070007801 0.24260042607784271 0.10955899953842163
0.022276919335126877 0.25003093481063843 0.10636912286281586
0.15772430598735809 0.27448162436485291 0.10202862322330475
0.34179303050041199 0.2934386134147644 0.091341309249401093
0.47516635060310364 0.2928643524646759 0.092645041644573212
0.58292150497436523 0.29555812478065491 0.10361742228269577
0.66807335615158081 0.31908303499221802 0.13084341585636139
0.74407380819320679 0.35167577862739563 0.16455942392349243
0.81078135967254639 0.39441737532615662 0.19829456508159637
0.87225252389907837 0.43897214531898499 0.23179332911968231
0.92460215091705322 0.48349830508232117 0.26569661498069763
0.97367030382156372 0.52492886781692505 0.29735559225082397
0.0014112883945927024 0.32899588346481323 0.14286331832408905
0.0055793910287320614 0.33617523312568665 0.14764483273029327
0.0086140800267457962 0.34488615393638611 0.14733663201332092
0.07526785135269165 0.36223381757736206 0.14492018520832062
0.28599083423614502 0.38611313700675964 0.13665808737277985
0.45178955793380737 0.4024079442024231 0.13097541034221649
0.5666930079460144 0.39992219209671021 0.13523858785629272
0.65730071067810059 0.3995840847492218 0.13926471769809723
0.73218178749084473 0.40972191095352173 0.15570864081382751
0.80095392465591431 0.43895992636680603 0.18330028653144836
0.86208087205886841 0.47597253322601318 0.22016705572605133
0.91741073131561279 0.51516473293304443 0.25365796685218811
0.96805638074874878 0.5525130033493042 0.2872319221496582
0.00036082547740079463 0.41646328568458557 0.18351054191589355
0.0037159190978854895 0.42106956243515015 0.18459257483482361
0.0041043749079108238 0.42953485250473022 0.18547064065933228
0.021963875740766525 0.44242876768112183 0.18639497458934784
0.20697720348834991 0.45932656526565552 0.18237325549125671
0.38665562868118286 0.4804997444152832 0.17711909115314484
0.54318833351135254 0.49931275844573975 0.17108026146888733
0.64068412780761719 0.49938824772834778 0.17579551041126251
0.71737569570541382 0.49133521318435669 0.17834503948688507
0.78797787427902222 0.49451354146003723 0.18528003990650177
0.85065895318984985 0.51819503307342529 0.20792298018932343
0.91063988208770752 0.55159217119216919 0.23918883502483368
0.96843379735946655 0.58480560779571533 0.27814516425132751
0 0.49245935678482056 0.21141605079174042
0.0029412063304334879 0.49637547135353088 0.21709585189819336
0.0039644278585910797 0.50231611728668213 0.22083082795143127
0.0069199507124722004 0.51052087545394897 0.22195549309253693
0.14536698162555695 0.52218800783157349 0.22168193757534027
0.33524987101554871 0.54015672206878662 0.22072775661945343
0.49021020531654358 0.5599358081817627 0.21472397446632385
0.61684197187423706 0.57617533206939697 0.21299079060554504
0.70096731185913086 0.57761991024017334 0.21627524495124817
0.77221280336380005 0.5783083438873291 0.22218717634677887
0.83895468711853027 0.584125816822052 0.22449788451194763
0.90321046113967896 0.59578549861907959 0.23574437201023102
0.96188974380493164 0.61767798662185669 0.26068305969238281
0.00016946232062764466 0.56047624349594116 0.23993900418281555
0.002337092999368906 0.56151282787322998 0.24522556364536285
0.0040644328109920025 0.56503212451934814 0.25068444013595581
0.0056713777594268322 0.56991350650787354 0.25374463200569153
0.10823780298233032 0.57894492149353027 0.25518620014190674
0.29944851994514465 0.59344393014907837 0.25663900375366211
0.44697976112365723 0.6096494197845459 0.25436437129974365
0.57431995868682861 0.62577939033508301 0.2518126368522644
0.6775825023651123 0.6468079686164856 0.25256437063217163
0.76006162166595459 0.65951108932495117 0.25461608171463013
0.82689964771270752 0.6600576639175415 0.2588840126991272
0.89238137006759644 0.66369211673736572 0.26347258687019348
0.95269668102264404 0.67015469074249268 0.2667500376701355
0.00095155002782121301 0.62736380100250244 0.26875072717666626
0.0014198452699929476 0.62561339139938354 0.27078983187675476
0.0012063269969075918 0.62590384483337402 0.27608790993690491
0.0043553370051085949 0.62850123643875122 0.28085309267044067
0.10273022949695587 0.63479077816009521 0.2831014096736908
0.29087883234024048 0.64701354503631592 0.28520771861076355
0.42078384757041931 0.66096764802932739 0.28676983714103699
0.53616458177566528 0.674094557762146 0.28666698932647705
0.63790643215179443 0.69255012273788452 0.28608191013336182
0.73278403282165527 0.71468937397003174 0.28568422794342041
0.81532573699951172 0.72892814874649048 0.28975763916969299
0.88392901420593262 0.73485070466995239 0.29449456930160522
0.9471430778503418 0.74225139617919922 0.30074992775917053
0.0030804653652012348 0.6935349702835083 0.29646521806716919
0.0034920636098831892 0.69076699018478394 0.29712298512458801
0.0027802858967334032 0.68930470943450928 0.29886072874069214
0.011735190637409687 0.69020450115203857 0.30240735411643982
0.1412789523601532 0.69418776035308838 0.30762839317321777
0.2961266040802002 0.70360368490219116 0.31236276030540466
0.41854402422904968 0.7166438102722168 0.31539228558540344
0.52706092596054077 0.72917741537094116 0.31655094027519226
0.61805033683776855 0.74274259805679321 0.31916028261184692
0.70218253135681152 0.75763565301895142 0.31873902678489685
0.78846895694732666 0.77579605579376221 0.31833747029304504
0.87207579612731934 0.79483377933502197 0.32483449578285217
0.93909698724746704 0.80424904823303223 0.3313319981098175
0.0036944521125406027 0.75886660814285278 0.32368165254592896
0.0052451640367507935 0.75731128454208374 0.32455384731292725
0.010782892815768719 0.75508451461791992 0.32430139183998108
0.078461453318595886 0.75540715456008911 0.32769525051116943
0.21538586914539337 0.75974071025848389 0.33478468656539917
0.32355877757072449 0.76501882076263428 0.33983933925628662
0.43011954426765442 0.77515214681625366 0.34447634220123291
0.53239381313323975 0.7887413501739502 0.34891185164451599
0.61616462469100952 0.80084824562072754 0.35243082046508789
0.69275301694869995 0.81305849552154541 0.3534453809261322
0.77068066596984863 0.82397085428237915 0.3535817563533783
0.852894127368927 0.84150844812393188 0.35825651884078979
0.93355858325958252 0.86187183856964111 0.36490434408187866
0.050995156168937683 0.82861322164535522 0.35372728109359741
0.080455675721168518 0.82871043682098389 0.35704603791236877
0.14013496041297913 0.82933121919631958 0.36052939295768738
0.22429697215557098 0.82930105924606323 0.36442536115646362
0.30536377429962158 0.83294045925140381 0.36846116185188293
0.38137984275817871 0.83631908893585205 0.37458297610282898
0.46185070276260376 0.84288394451141357 0.37871122360229492
0.54572886228561401 0.85322070121765137 0.38361266255378723
0.62036263942718506 0.86137199401855469 0.38719987869262695
0.69194638729095459 0.87273067235946655 0.38971814513206482
0.76919496059417725 0.8825761079788208 0.39431729912757874
0.84466069936752319 0.89339566230773926 0.39876481890678406
0.91863012313842773 0.90784329175949097 0.40201327204704285
0.29838764667510986 0.91285550594329834 0.40636873245239258
0.31545320153236389 0.91231018304824829 0.40847870707511902
0.34078302979469299 0.91208446025848389 0.41260775923728943
0.37885144352912903 0.91149944067001343 0.41667929291725159
0.42661911249160767 0.913890540599823 0.42114731669425964
0.47742399573326111 0.91609090566635132 0.42818531394004822
0.53308248519897461 0.91948443651199341 0.43331649899482727
0.59787118434906006 0.92566603422164917 0.43965643644332886
0.65704602003097534 0.92587172985076904 0.43729570508003235
0.71914547681808472 0.93476676940917969 0.44271108508110046
0.78947019577026367 0.944862961769104 0.45296305418014526
0.85735136270523071 0.95249384641647339 0.45916396379470825
0.9189332127571106 0.95816034078598022 0.46417790651321411
0.0045577702112495899 0.033882305026054382 0.08777947723865509
0.030303072184324265 0.040698587894439697 0.088278301060199738
0.094868816435337067 0.047389626502990723 0.10001793503761292
0.2049882560968399 0.051569096744060516 0.11823982000350952
0.3365967869758606 0.069451123476028442 0.14251157641410828
0.46815964579582214 0.11829648166894913 0.1765894889831543
0.58249384164810181 0.16048696637153625 0.20135520398616791
0.67629271745681763 0.21318994462490082 0.22319082915782928
0.75314885377883911 0.2782425582408905 0.24881467223167419
0.82015186548233032 0.33334451913833618 0.2692779004573822
0.87827420234680176 0.39069759845733643 0.29210391640663147
0.93248206377029419 0.44414001703262329 0.31659102439880371
0.97817552089691162 0.49393519759178162 0.34301170706748962
0.0024302613455802202 0.077613174915313721 0.10862996429204941
0.022956563159823418 0.084223560988903046 0.11368179321289062
0.10511106252670288 0.09765499085187912 0.12006074190139771
0.21834225952625275 0.10981545597314835 0.1317591518163681
0.34999209642410278 0.13684087991714478 0.15570265054702759
0.47215768694877625 0.16259032487869263 0.17656977474689484
0.58227312564849854 0.19715568423271179 0.19830532371997833
0.67395973205566406 0.24315108358860016 0.21892257034778595
0.74798548221588135 0.30214026570320129 0.2438061535358429
0.81638455390930176 0.35787442326545715 0.26508250832557678
0.87457257509231567 0.41194343566894531 0.28824886679649353
0.92751616239547729 0.46250161528587341 0.31676971912384033
0.97327476739883423 0.50553297996520996 0.34218844771385193
0.0023233750835061073 0.15003593266010284 0.13409093022346497
0.0083942785859107971 0.15788452327251434 0.14163799583911896
0.083100065588951111 0.16860140860080719 0.14341402053833008
0.22586621344089508 0.18394868075847626 0.14326536655426025
0.35948711633682251 0.19869862496852875 0.15144266188144684
0.48040089011192322 0.22025176882743835 0.16800566017627716
0.58556628227233887 0.24786213040351868 0.19013960659503937
0.6700635552406311 0.2837899923324585 0.21227529644966125
0.7439885139465332 0.33725202083587646 0.23865461349487305
0.81244558095932007 0.38614246249198914 0.25990667939186096
0.87129604816436768 0.43595102429389954 0.28431007266044617
0.92356085777282715 0.48120731115341187 0.31450042128562927
0.97158908843994141 0.52015018463134766 0.34130978584289551
0.0023284314665943384 0.24411030113697052 0.16272102296352386
0.0064958906732499599 0.25277048349380493 0.17161047458648682
0.028536373749375343 0.26032236218452454 0.17104935646057129
0.1808210164308548 0.28009277582168579 0.16728565096855164
0.35372710227966309 0.29555508494377136 0.16699868440628052
0.48166918754577637 0.29817336797714233 0.17010106146335602
0.58444797992706299 0.31196185946464539 0.18044279515743256
0.66439288854598999 0.33899718523025513 0.20140200853347778
0.73870623111724854 0.37603741884231567 0.22764632105827332
0.80778759717941284 0.41372686624526978 0.25062194466590881
0.86857509613037109 0.45693886280059814 0.27699759602546692
0.92072659730911255 0.49831259250640869 0.30532339215278625
0.96899974346160889 0.53648978471755981 0.33116784691810608
0.0014977847458794713 0.34143736958503723 0.189204141497612
0.0048711588606238365 0.34798189997673035 0.19818742573261261
0.0076244277879595757 0.353607177734375 0.19847223162651062
0.10118873417377472 0.36819696426391602 0.19795146584510803
0.30759397149085999 0.39113026857376099 0.19632804393768311
0.46377047896385193 0.40522345900535583 0.19321991503238678
0.57141685485839844 0.40220150351524353 0.19428963959217072
0.65684473514556885 0.40543597936630249 0.20111101865768433
0.73113411664962769 0.42098060250282288 0.21518383920192719
0.79894065856933594 0.45139321684837341 0.23609907925128937
0.86084580421447754 0.48665088415145874 0.26486444473266602
0.91681426763534546 0.52514886856079102 0.2925812304019928
0.96724420785903931 0.56092870235443115 0.3188471794128418
6.1573700804729015e-05 0.42619490623474121 0.21596889197826385
0.003808444133028388 0.43125352263450623 0.22549670934677124
0.0044832564890384674 0.4367465078830719 0.22821913659572601
0.045869983732700348 0.44610986113548279 0.22690844535827637
0.23968090116977692 0.46202883124351501 0.2254984974861145
0.40763720870018005 0.48232564330101013 0.22392319142818451
0.547454833984375 0.49975129961967468 0.22157348692417145
0.6408308744430542 0.49925315380096436 0.22442027926445007
0.71534329652786255 0.49541112780570984 0.22635878622531891
0.78645926713943481 0.50070196390151978 0.23003280162811279
0.84861701726913452 0.52742606401443481 0.25218811631202698
0.90953207015991211 0.56135475635528564 0.27844801545143127
0.96606802940368652 0.59269678592681885 0.30794054269790649
0.00053362379549071193 0.50002825260162354 0.24272386729717255
0.0038270538207143545 0.50359785556793213 0.25176510214805603
0.0059178820811212063 0.50616884231567383 0.25450235605239868
0.020885063335299492 0.51210141181945801 0.2532193660736084
0.18391622602939606 0.52452147006988525 0.25310376286506653
0.35392084717750549 0.54127442836761475 0.25229504704475403
0.50216227769851685 0.56174159049987793 0.25109821557998657
0.61787092685699463 0.57675397396087646 0.25271007418632507
0.69906985759735107 0.57785946130752563 0.25439143180847168
0.77114027738571167 0.57824540138244629 0.25674870610237122
0.83714139461517334 0.58833611011505127 0.26234874129295349
0.90088355541229248 0.60423094034194946 0.27349504828453064
0.96191447973251343 0.62487232685089111 0.29034137725830078
0.0031729454640299082 0.56573027372360229 0.27036702632904053
0.0039197136647999287 0.56562268733978271 0.2725624144077301
0.0054263393394649029 0.56718450784683228 0.27406659722328186
0.01275933999568224 0.57132446765899658 0.27630710601806641
0.15034182369709015 0.58076512813568115 0.27796849608421326
0.32084742188453674 0.59486454725265503 0.28053629398345947
0.46111693978309631 0.61102652549743652 0.28179913759231567
0.5782354474067688 0.62809067964553833 0.28371629118919373
0.67699378728866577 0.64613014459609985 0.28438109159469604
0.75736653804779053 0.65727448463439941 0.28336188197135925
0.82606881856918335 0.66291284561157227 0.28655537962913513
0.89118611812591553 0.66965401172637939 0.29245677590370178
0.95484089851379395 0.67524081468582153 0.29361793398857117
0.0035596510861068964 0.62999981641769409 0.29462388157844543
0.0039215688593685627 0.62780469655990601 0.29278120398521423
0.004497916903346777 0.62738358974456787 0.29294148087501526
0.011972060427069664 0.62996292114257812 0.29539835453033447
0.14270390570163727 0.63685017824172974 0.29973998665809631
0.30369082093238831 0.6495477557182312 0.30474469065666199
0.43359023332595825 0.66374105215072632 0.30832141637802124
0.54249799251556396 0.6770317554473877 0.30977734923362732
0.64228677749633789 0.6944880485534668 0.30926135182380676
0.73296129703521729 0.71663296222686768 0.30801475048065186
0.81500124931335449 0.7312360405921936 0.31045818328857422
0.88222533464431763 0.73822689056396484 0.31565803289413452
0.94046097993850708 0.74282997846603394 0.32033523917198181
0.0039116502739489079 0.69396686553955078 0.31380549073219299
0.0043985256925225258 0.69077271223068237 0.31141859292984009
0.0062716016545891762 0.6894524097442627 0.31123971939086914
0.033402267843484879 0.69056624174118042 0.31438568234443665
0.17115770280361176 0.69614958763122559 0.32106927037239075
0.3027317225933075 0.70671826601028442 0.32754328846931458
0.42405015230178833 0.71996712684631348 0.33243384957313538
0.52399545907974243 0.73110884428024292 0.33335527777671814
0.6159135103225708 0.7430572509765625 0.33406049013137817
0.70069974660873413 0.7587287425994873 0.33378356695175171
0.79016017913818359 0.77883517742156982 0.33376806974411011
0.87431108951568604 0.79968386888504028 0.33992442488670349
0.93388372659683228 0.80531185865402222 0.3465915322303772
0.0036298863124102354 0.75852710008621216 0.33379876613616943
0.0079526565968990326 0.75583159923553467 0.33290702104568481
0.019945167005062103 0.75462710857391357 0.33313491940498352
0.11035898327827454 0.75586849451065063 0.33839750289916992
0.22499898076057434 0.76067376136779785 0.34571927785873413
0.33372536301612854 0.7693781852722168 0.35287341475486755
0.44056779146194458 0.78019207715988159 0.35799723863601685
0.52646857500076294 0.789154052734375 0.36008259654045105
0.61235499382019043 0.80024755001068115 0.36226889491081238
0.69192224740982056 0.81244182586669922 0.36369377374649048
0.77147144079208374 0.82575500011444092 0.36554157733917236
0.8583797812461853 0.8467564582824707 0.36998170614242554
0.93242591619491577 0.86135900020599365 0.37553578615188599
0.063016124069690704 0.8280671238899231 0.36012056469917297
0.095608748495578766 0.82771521806716919 0.36280184984207153
0.16534711420536041 0.82907181978225708 0.3694477379322052
0.24382789433002472 0.82978904247283936 0.37368324398994446
0.31357505917549133 0.8325875997543335 0.37791460752487183
0.38678714632987976 0.83733338117599487 0.38199260830879211
0.46573522686958313 0.84411782026290894 0.38678181171417236
0.54596066474914551 0.85173606872558594 0.39110147953033447
0.61993569135665894 0.86088043451309204 0.3938441276550293
0.69482308626174927 0.87103855609893799 0.39831075072288513
0.76961106061935425 0.8829839825630188 0.40154284238815308
0.84539484977722168 0.89542633295059204 0.40577578544616699
0.91884267330169678 0.90818542242050171 0.41296154260635376
0.3021317720413208 0.91122239828109741 0.41016268730163574
0.31752026081085205 0.91128629446029663 0.41217526793479919
0.3490854799747467 0.91187649965286255 0.41824546456336975
0.38595020771026611 0.91180950403213501 0.42179003357887268
0.43559005856513977 0.91304802894592285 0.4262586236000061
0.48302918672561646 0.91658776998519897 0.43250709772109985
0.53863781690597534 0.9196782112121582 0.43792980909347534
0.59878581762313843 0.92287439107894897 0.44326737523078918
0.66163277626037598 0.92966794967651367 0.44695472717285156
0.72455084323883057 0.93440121412277222 0.45039239525794983
0.78892815113067627 0.9420894980430603 0.45710420608520508
0.85673779249191284 0.95050925016403198 0.46422460675239563
0.91945540904998779 0.95710951089859009 0.47214174270629883
9.4125782197806984e-05 0.053786333650350571 0.17615078389644623
0.019491232931613922 0.058725155889987946 0.17660129070281982
0.087746515870094299 0.074969768524169922 0.1835668683052063
0.18827824294567108 0.079393289983272552 0.19674263894557953
0.32577735185623169 0.069668352603912354 0.21459861099720001
0.4642680287361145 0.091866001486778259 0.23880989849567413
0.58473438024520874 0.16599595546722412 0.26947218179702759
0.67867732048034668 0.25129750370979309 0.29734861850738525
0.75181156396865845 0.31778925657272339 0.31715688109397888
0.81676310300827026 0.37441492080688477 0.33402049541473389
0.87415701150894165 0.42867472767829895 0.35153555870056152
0.92817527055740356 0.47574463486671448 0.36822444200515747
0.97554826736450195 0.51991575956344604 0.38604119420051575
0.0013399012386798859 0.099190779030323029 0.19266882538795471
0.016707610338926315 0.10453974455595016 0.1974559873342514
0.095245659351348877 0.11790497601032257 0.20205752551555634
0.2087266594171524 0.13009825348854065 0.21407009661197662
0.34416252374649048 0.14056958258152008 0.2333388477563858
0.47414758801460266 0.16671639680862427 0.25318652391433716
0.58549314737319946 0.22361926734447479 0.27768769860267639
0.67571926116943359 0.28318801522254944 0.29783827066421509
0.74885505437850952 0.33977833390235901 0.31568679213523865
0.8124040961265564 0.39176318049430847 0.32995352149009705
0.86953055858612061 0.44287598133087158 0.34699982404708862
0.92347580194473267 0.48854845762252808 0.36663687229156494
0.97181278467178345 0.53036326169967651 0.38472726941108704
0.0021932714153081179 0.1650688648223877 0.20896631479263306
0.0076898611150681973 0.17163453996181488 0.21760405600070953
0.096606433391571045 0.18492795526981354 0.22443002462387085
0.23374053835868835 0.19817245006561279 0.22984111309051514
0.36269471049308777 0.21553835272789001 0.24170814454555511
0.48545277118682861 0.24874599277973175 0.26095202565193176
0.58863449096679688 0.28801143169403076 0.2800535261631012
0.6712152361869812 0.32654032111167908 0.2941858172416687
0.74425864219665527 0.37255200743675232 0.30898019671440125
0.80961614847183228 0.41730257868766785 0.32486766576766968
0.86646366119384766 0.46183502674102783 0.34112408757209778
0.91995477676391602 0.50378549098968506 0.36227899789810181
0.97026336193084717 0.54189908504486084 0.38099879026412964
0.0019949071574956179 0.25363802909851074 0.22980222105979919
0.0067331502214074135 0.26264074444770813 0.23959843814373016
0.061616051942110062 0.27217292785644531 0.2444857656955719
0.22144706547260284 0.28757894039154053 0.24703940749168396
0.3722895085811615 0.30331981182098389 0.25026905536651611
0.49146005511283875 0.31425899267196655 0.25616610050201416
0.58701604604721069 0.34027528762817383 0.26908057928085327
0.66587615013122559 0.37093380093574524 0.28180825710296631
0.73793476819992065 0.40710732340812683 0.29577594995498657
0.80596911907196045 0.44273820519447327 0.31413036584854126
0.86543387174606323 0.48091423511505127 0.33008873462677002
0.92001509666442871 0.51943057775497437 0.35026153922080994
0.96944832801818848 0.55550944805145264 0.37180608510971069
0.0024669421836733818 0.35079053044319153 0.252298504114151
0.0052617243491113186 0.36058855056762695 0.26318928599357605
0.02878112718462944 0.36798447370529175 0.2637275755405426
0.16675609350204468 0.37959969043731689 0.26551178097724915
0.34238442778587341 0.39802724123001099 0.26648595929145813
