luts/instant_consumer/polaroid_time_zero_expired_++.cube
# Created by: G'MIC (https://gmic.eu)
TITLE "polaroid_time_zero_expired_++"
# LUT size
LUT_3D_SIZE 7
# Data domain
DOMAIN_MIN 0.0 0.0 0.0
DOMAIN_MAX 1.0 1.0 1.0
# LUT data points
0.75151526927947998 0.50812208652496338 0.1336071640253067
0.75647705793380737 0.50561881065368652 0.12901367247104645
0.76415443420410156 0.5052039623260498 0.12994338572025299
0.78039216995239258 0.50876414775848389 0.13612022995948792
0.80919116735458374 0.51446491479873657 0.13896451890468597
0.85291051864624023 0.52112448215484619 0.13675680756568909
0.90261465311050415 0.53064239025115967 0.14148958027362823
0.75301408767700195 0.52401101589202881 0.12765978276729584
0.75804799795150757 0.52037125825881958 0.12728013098239899
0.76633858680725098 0.51908552646636963 0.13174320757389069
0.78175705671310425 0.5214158296585083 0.13618965446949005
0.80920672416687012 0.52697658538818359 0.13458004593849182
0.853107750415802 0.53573489189147949 0.12867799401283264
0.90496194362640381 0.54820895195007324 0.12927274405956268
0.75655257701873779 0.54647988080978394 0.1230844259262085
0.76162815093994141 0.54164969921112061 0.1263543963432312
0.77076435089111328 0.53945422172546387 0.13134260475635529
0.78606349229812622 0.54189848899841309 0.133755162358284
0.81177973747253418 0.54857075214385986 0.12794637680053711
0.85358244180679321 0.56006652116775513 0.11795634776353836
0.9069589376449585 0.57583379745483398 0.11640468239784241
0.76063567399978638 0.57841736078262329 0.11292386800050735
0.76641744375228882 0.5728142261505127 0.11551637947559357
0.77788490056991577 0.57344251871109009 0.1153709888458252
0.79459333419799805 0.57815057039260864 0.12089553475379944
0.82077580690383911 0.58899825811386108 0.1191047802567482
0.86137855052947998 0.60434174537658691 0.10992345213890076
0.91187775135040283 0.61989736557006836 0.096224747598171234
0.76783472299575806 0.62580561637878418 0.071981452405452728
0.77327054738998413 0.6248779296875 0.071866057813167572
0.7868422269821167 0.63006818294525146 0.055299364030361176
0.80695509910583496 0.63620787858963013 0.074653521180152893
0.83823531866073608 0.65200066566467285 0.085599325597286224
0.87917470932006836 0.673145592212677 0.12013675272464752
0.92273604869842529 0.68586522340774536 0.11169218271970749
0.78313136100769043 0.71890521049499512 0.00031018725712783635
0.78943145275115967 0.71759188175201416 0.0019154866458848119
0.80272090435028076 0.71972739696502686 0
0.82454425096511841 0.72382587194442749 0.0058642816729843616
0.85797876119613647 0.73359370231628418 0.0040030237287282944
0.89694631099700928 0.74952411651611328 0.097185410559177399
0.93634504079818726 0.76539969444274902 0.21332372725009918
0.80921381711959839 0.81398254632949829 2.8004365958622657e-05
0.81698650121688843 0.81543660163879395 0.0015705781988799572
0.82949036359786987 0.81592923402786255 0.00094320258358493447
0.85188603401184082 0.81906288862228394 0.0034993789158761501
0.88758158683776855 0.82289022207260132 0.0066302279010415077
0.92160028219223022 0.82397764921188354 0.14919589459896088
0.9551202654838562 0.82894772291183472 0.30904850363731384
0.75332558155059814 0.50780099630355835 0.13629786670207977
0.75733500719070435 0.50488275289535522 0.13367281854152679
0.76524192094802856 0.50522512197494507 0.13967032730579376
0.78070628643035889 0.50909125804901123 0.14913104474544525
0.80940639972686768 0.51511698961257935 0.15724581480026245
0.85688972473144531 0.5224459171295166 0.15987604856491089
0.91101741790771484 0.53222155570983887 0.16064649820327759
0.75647908449172974 0.52114599943161011 0.13466346263885498
0.75968831777572632 0.51775276660919189 0.13584661483764648
0.7665601372718811 0.51726782321929932 0.14474290609359741
0.78210538625717163 0.52030962705612183 0.15476348996162415
0.81116330623626709 0.52582985162734985 0.15962333977222443
0.85724127292633057 0.53384959697723389 0.1560768336057663
0.9132307767868042 0.5456729531288147 0.15393945574760437
0.75732886791229248 0.54184627532958984 0.13608911633491516
0.76192700862884521 0.53767019510269165 0.13982048630714417
0.77064692974090576 0.53700190782546997 0.14901334047317505
0.78665709495544434 0.54065489768981934 0.15759602189064026
0.81385201215744019 0.54669713973999023 0.15599408745765686
0.85804742574691772 0.55655074119567871 0.14729629456996918
0.9153674840927124 0.57206648588180542 0.14851997792720795
0.76091861724853516 0.57448697090148926 0.13247312605381012
0.76622289419174194 0.57087534666061401 0.13251727819442749
0.77709746360778809 0.57180225849151611 0.13801419734954834
0.79545193910598755 0.5790368914604187 0.14866895973682404
0.82305252552032471 0.58969497680664062 0.14802871644496918
0.86395573616027832 0.60235613584518433 0.13527029752731323
0.91770899295806885 0.61885815858840942 0.12754417955875397
0.7676277756690979 0.63014703989028931 0.095164157450199127
0.77305120229721069 0.63014703989028931 0.087342865765094757
0.78564250469207764 0.63292801380157471 0.084726221859455109
0.80757218599319458 0.64093375205993652 0.098800703883171082
0.84024804830551147 0.65732890367507935 0.11698422580957413
0.87945127487182617 0.67409992218017578 0.13666146993637085
0.92316794395446777 0.68688333034515381 0.13418620824813843
0.78031879663467407 0.72012591361999512 0.0081880455836653709
0.78507435321807861 0.72034311294555664 0.014860968105494976
0.79876244068145752 0.7219541072845459 0.012349221855401993
0.82287079095840454 0.72747915983200073 0.0067860023118555546
0.85979640483856201 0.73890602588653564 0.02685597725212574
0.89829260110855103 0.7520257830619812 0.12754327058792114
0.93606579303741455 0.76849651336669922 0.23688642680644989
0.80668395757675171 0.81609904766082764 0.0010155471973121166
0.81252157688140869 0.81695687770843506 0.0022220686078071594
0.82623094320297241 0.8172382116317749 9.2764465080108494e-05
0.84969782829284668 0.81888681650161743 0
0.88557285070419312 0.82380205392837524 0.020522398874163628
0.92146396636962891 0.82385468482971191 0.19886931777000427
0.95546627044677734 0.82949024438858032 0.33786386251449585
0.76023304462432861 0.50923585891723633 0.1622045487165451
0.76367449760437012 0.5060458779335022 0.16243943572044373
0.77045834064483643 0.50724703073501587 0.17119969427585602
0.78457164764404297 0.51206314563751221 0.18007737398147583
0.81311273574829102 0.51827138662338257 0.19242751598358154
0.85890680551528931 0.5244482159614563 0.20755457878112793
0.91476964950561523 0.53262835741043091 0.20859535038471222
0.76223695278167725 0.5196416974067688 0.16441646218299866
0.76502138376235962 0.51631754636764526 0.16544605791568756
0.77190101146697998 0.51807445287704468 0.17582415044307709
0.78694969415664673 0.52247887849807739 0.18891638517379761
0.81529921293258667 0.52719390392303467 0.20028200745582581
0.86136573553085327 0.532603919506073 0.20513023436069489
0.91808223724365234 0.54151070117950439 0.20103268325328827
0.76318889856338501 0.53813731670379639 0.16866807639598846
0.76647424697875977 0.53486675024032593 0.17087921500205994
0.77492505311965942 0.53716772794723511 0.17959854006767273
0.79184895753860474 0.54274725914001465 0.19056904315948486
0.8206486701965332 0.54783564805984497 0.19718144834041595
0.86466419696807861 0.55294132232666016 0.19166700541973114
0.92231351137161255 0.56600826978683472 0.19157220423221588
0.76454311609268188 0.57234793901443481 0.16747741401195526
0.76857560873031616 0.56907159090042114 0.16805295646190643
0.779499351978302 0.57253426313400269 0.17225959897041321
0.80074393749237061 0.58350807428359985 0.18167413771152496
0.83033674955368042 0.59351551532745361 0.18619927763938904
0.86791223287582397 0.5977630615234375 0.16921116411685944
0.92503088712692261 0.61605173349380493 0.17631275951862335
0.76836878061294556 0.6336904764175415 0.15352289378643036
0.77250277996063232 0.63014703989028931 0.14702132344245911
0.78554058074951172 0.63281804323196411 0.1406901478767395
0.80972915887832642 0.64514172077178955 0.13595369458198547
0.84518271684646606 0.66290825605392456 0.16691724956035614
0.88320869207382202 0.67663669586181641 0.19093778729438782
0.92694938182830811 0.68792867660522461 0.17929406464099884
0.77839440107345581 0.72492259740829468 0.10554357618093491
0.7798607349395752 0.72024184465408325 0.092359624803066254
0.79523569345474243 0.72149825096130371 0.075902976095676422
0.82136601209640503 0.73010718822479248 0.049828741699457169
0.86061394214630127 0.74214541912078857 0.11232609301805496
0.90057992935180664 0.75612455606460571 0.199951171875
0.93805408477783203 0.77163237333297729 0.2910861074924469
0.80441558361053467 0.81730467081069946 0.098616130650043488
0.80722057819366455 0.81636881828308105 0.075211390852928162
0.82231491804122925 0.81792545318603516 0.050827085971832275
0.84741377830505371 0.82012939453125 0.017842849716544151
0.8844725489616394 0.82373142242431641 0.091397032141685486
0.92119717597961426 0.82375931739807129 0.24557381868362427
0.95383501052856445 0.82894259691238403 0.36943516135215759
0.77495837211608887 0.51388108730316162 0.24217265844345093
0.77848303318023682 0.51027721166610718 0.24444302916526794
0.7849164605140686 0.51377838850021362 0.25138074159622192
0.79634219408035278 0.52091509103775024 0.25490686297416687
0.81674885749816895 0.5265389084815979 0.24965314567089081
0.86176532506942749 0.52827513217926025 0.28452086448669434
0.91242003440856934 0.53218263387680054 0.30137541890144348
0.77776211500167847 0.52330267429351807 0.24706122279167175
0.779654860496521 0.52135175466537476 0.24527823925018311
0.78632628917694092 0.52602213621139526 0.25175881385803223
0.80033528804779053 0.53281623125076294 0.26483812928199768
0.82260799407958984 0.53508216142654419 0.26299864053726196
0.86556094884872437 0.53610706329345703 0.28411418199539185
0.91794145107269287 0.54186517000198364 0.29784807562828064
0.7778429388999939 0.54347449541091919 0.24414664506912231
0.77986347675323486 0.54120892286300659 0.24408692121505737
0.78757697343826294 0.5460134744644165 0.24875412881374359
0.80194699764251709 0.55267852544784546 0.25266698002815247
0.82793986797332764 0.55484247207641602 0.25868484377861023
0.86996495723724365 0.55430841445922852 0.27234578132629395
0.92343825101852417 0.5632438063621521 0.28559529781341553
0.7744063138961792 0.57854962348937988 0.22902309894561768
0.77798199653625488 0.57509046792984009 0.23199556767940521
0.78820383548736572 0.57950204610824585 0.23600250482559204
0.80710774660110474 0.59059435129165649 0.23827920854091644
0.83611077070236206 0.59869986772537231 0.24753671884536743
0.87426388263702393 0.59505879878997803 0.25190585851669312
0.9273790717124939 0.60607719421386719 0.25803893804550171
0.77177244424819946 0.63691467046737671 0.21797366440296173
0.77569317817687988 0.63060683012008667 0.21389329433441162
0.78750395774841309 0.63391196727752686 0.2154376357793808
0.80910390615463257 0.64461934566497803 0.21099518239498138
0.84652209281921387 0.66359305381774902 0.24195690453052521
0.88683086633682251 0.67317914962768555 0.2604706883430481
0.93032753467559814 0.6788405179977417 0.23734113574028015
0.77303153276443481 0.72391551733016968 0.20971453189849854
0.77838337421417236 0.71721130609512329 0.19895832240581512
0.79148393869400024 0.71933084726333618 0.1952480673789978
0.81468230485916138 0.73120498657226562 0.18575413525104523
0.85592693090438843 0.74594855308532715 0.20708361268043518
0.90287566184997559 0.7628968358039856 0.29698407649993896
0.93767857551574707 0.77151691913604736 0.3609173595905304
0.80009371042251587 0.8190314769744873 0.25538209080696106
0.80205893516540527 0.81457662582397461 0.2279987633228302
0.81494772434234619 0.81429135799407959 0.21949048340320587
0.83892643451690674 0.82274782657623291 0.19538797438144684
0.87546557188034058 0.82518017292022705 0.18160551786422729
0.91948765516281128 0.82821851968765259 0.29808208346366882
0.95309740304946899 0.83461123704910278 0.45077195763587952
0.80031353235244751 0.52280682325363159 0.40007820725440979
0.80322444438934326 0.52261853218078613 0.39407870173454285
0.80975151062011719 0.52981698513031006 0.39546287059783936
0.82227295637130737 0.53860485553741455 0.40646231174468994
0.83758825063705444 0.54460781812667847 0.39141768217086792
0.8687254786491394 0.54174900054931641 0.37494140863418579
0.92200577259063721 0.54140502214431763 0.42841804027557373
0.80409997701644897 0.53807449340820312 0.39936336874961853
0.80554020404815674 0.53816324472427368 0.39369431138038635
0.81176018714904785 0.54692530632019043 0.39325651526451111
0.82669240236282349 0.55748075246810913 0.41614222526550293
0.84179031848907471 0.56075620651245117 0.39845263957977295
0.87290859222412109 0.55330502986907959 0.38385733962059021
0.92495256662368774 0.55470895767211914 0.4280981719493866
0.80526959896087646 0.56608211994171143 0.38776946067810059
0.80607587099075317 0.56548529863357544 0.38570162653923035
0.81355398893356323 0.57289177179336548 0.38737404346466064
0.82747822999954224 0.58409994840621948 0.39542379975318909
0.84550553560256958 0.5902172327041626 0.39067396521568298
0.8773571252822876 0.577614426612854 0.38464054465293884
0.92707514762878418 0.57702553272247314 0.42336714267730713
0.79985690116882324 0.6048310399055481 0.36892268061637878
0.80172955989837646 0.60246479511260986 0.36413115262985229
0.81181192398071289 0.60765534639358521 0.36785554885864258
0.82909232378005981 0.62123686075210571 0.37559330463409424
0.84923189878463745 0.62955248355865479 0.37682566046714783
0.88065147399902344 0.6121056079864502 0.38060298562049866
0.93191134929656982 0.61030793190002441 0.40744903683662415
0.78910422325134277 0.65555876493453979 0.3424568772315979
0.79314762353897095 0.6460418701171875 0.32760190963745117
0.80382621288299561 0.65147793292999268 0.33968773484230042
0.82177114486694336 0.65970152616500854 0.34517639875411987
0.85077673196792603 0.67488682270050049 0.36021128296852112
0.88709169626235962 0.67320054769515991 0.35173681378364563
0.93562209606170654 0.67498636245727539 0.35990074276924133
0.78418910503387451 0.72103649377822876 0.32392767071723938
0.7914128303527832 0.7153313159942627 0.31734505295753479
0.80068445205688477 0.7208976149559021 0.32420864701271057
0.81619662046432495 0.73633193969726562 0.33696892857551575
0.85054194927215576 0.74718689918518066 0.33014935255050659
0.89830082654953003 0.76306062936782837 0.39941966533660889
0.93739277124404907 0.76632273197174072 0.42113867402076721
0.79393190145492554 0.8128545880317688 0.35900530219078064
0.80953377485275269 0.80476361513137817 0.36554333567619324
0.82116532325744629 0.80972123146057129 0.37438672780990601
0.8312753438949585 0.82423985004425049 0.36814677715301514
0.86461460590362549 0.82769608497619629 0.34803801774978638
0.91125643253326416 0.82976454496383667 0.38435101509094238
0.95078331232070923 0.83746391534805298 0.53039658069610596
0.83039891719818115 0.55320054292678833 0.58307337760925293
0.83273422718048096 0.55621224641799927 0.57368922233581543
0.83840250968933105 0.56444817781448364 0.57097709178924561
0.85042726993560791 0.57305598258972168 0.58418911695480347
0.86659747362136841 0.58461648225784302 0.60312908887863159
0.8865545392036438 0.58912074565887451 0.57571446895599365
0.92131960391998291 0.57754552364349365 0.54531371593475342
0.83600485324859619 0.5770496129989624 0.58055657148361206
0.83701461553573608 0.5775943398475647 0.57982277870178223
0.84227067232131958 0.58592498302459717 0.57731860876083374
0.85367792844772339 0.59742814302444458 0.5880618691444397
0.86862671375274658 0.61155790090560913 0.60461211204528809
0.88701897859573364 0.60989850759506226 0.57461351156234741
0.92126584053039551 0.59673291444778442 0.55168992280960083
0.83994334936141968 0.61575949192047119 0.56581801176071167
0.84018909931182861 0.61526942253112793 0.56703048944473267
0.84684401750564575 0.62060219049453735 0.56716072559356689
0.85842990875244141 0.63074624538421631 0.57361185550689697
0.8735472559928894 0.64491266012191772 0.59588420391082764
0.8913264274597168 0.64590227603912354 0.58198243379592896
0.922527015209198 0.62090641260147095 0.54828888177871704
0.84192675352096558 0.65306073427200317 0.5591052770614624
0.83966660499572754 0.65579056739807129 0.5491524338722229
0.84855663776397705 0.66120368242263794 0.55156403779983521
0.86538738012313843 0.67709779739379883 0.56825155019760132
0.87859839200973511 0.6933780312538147 0.58867806196212769
0.89055240154266357 0.684783935546875 0.56034523248672485
0.92710369825363159 0.65791696310043335 0.56447428464889526
0.82765465974807739 0.69587725400924683 0.54047560691833496
0.82830220460891724 0.69365507364273071 0.52624130249023438
0.83823186159133911 0.69852608442306519 0.53520292043685913
0.86036211252212524 0.71479427814483643 0.55098807811737061
0.87716645002365112 0.72752350568771362 0.56463479995727539
0.89322733879089355 0.72713214159011841 0.55704748630523682
0.93204092979431152 0.70954024791717529 0.55728042125701904
0.81452339887619019 0.74473881721496582 0.50498384237289429
0.82042258977890015 0.73856943845748901 0.4968564510345459
0.8266642689704895 0.74153679609298706 0.50429749488830566
0.8428642749786377 0.75230211019515991 0.51042044162750244
0.86863809823989868 0.7640455961227417 0.52477407455444336
0.89760333299636841 0.77751058340072632 0.54712754487991333
0.93426209688186646 0.767447829246521 0.53351545333862305
0.82239323854446411 0.8103100061416626 0.51988023519515991
0.83125203847885132 0.80442488193511963 0.51975792646408081
0.83765906095504761 0.80758845806121826 0.52661025524139404
0.84458005428314209 0.81739825010299683 0.53124243021011353
0.87073850631713867 0.82472902536392212 0.54893726110458374
0.90181249380111694 0.83425319194793701 0.54048311710357666
0.9449884295463562 0.83788537979125977 0.62238425016403198
0.85697567462921143 0.62439465522766113 0.72363018989562988
0.85915422439575195 0.620819091796875 0.7240593433380127
0.86239957809448242 0.6251143217086792 0.72163909673690796
0.86941182613372803 0.63491344451904297 0.72435617446899414
0.87978988885879517 0.65096956491470337 0.73014599084854126
0.89433032274246216 0.66855877637863159 0.73049682378768921
0.91506427526473999 0.67552304267883301 0.7149890661239624
0.8643983006477356 0.64950740337371826 0.72871392965316772
0.86582189798355103 0.64662981033325195 0.7321363091468811
0.8684924840927124 0.6505247950553894 0.72780555486679077
0.87358111143112183 0.66112673282623291 0.72284269332885742
0.88216203451156616 0.67694312334060669 0.72776615619659424
0.89615321159362793 0.68931698799133301 0.73240196704864502
0.91786658763885498 0.68970435857772827 0.72351038455963135
0.87014847993850708 0.69112312793731689 0.71796756982803345
0.87225747108459473 0.68855887651443481 0.72109603881835938
0.87645459175109863 0.68733084201812744 0.71959578990936279
0.88146102428436279 0.6942751407623291 0.71529924869537354
0.88779020309448242 0.70726299285888672 0.72225338220596313
0.89846134185791016 0.71831727027893066 0.7276957631111145
0.91587841510772705 0.71310913562774658 0.71151858568191528
0.87378615140914917 0.72856682538986206 0.71348565816879272
0.87606918811798096 0.72757965326309204 0.70933336019515991
0.8840641975402832 0.72600960731506348 0.71084702014923096
0.89299672842025757 0.73429566621780396 0.71834802627563477
0.89672553539276123 0.74638879299163818 0.72555959224700928
0.90100127458572388 0.75822120904922485 0.72531062364578247
0.91787475347518921 0.75118380784988403 0.71689069271087646
0.86595636606216431 0.75461673736572266 0.7164490818977356
0.86982089281082153 0.75444036722183228 0.70621323585510254
0.88163715600967407 0.75656020641326904 0.70725274085998535
0.89496999979019165 0.76858508586883545 0.72059959173202515
0.90160423517227173 0.77919107675552368 0.72728419303894043
0.90838330984115601 0.78973966836929321 0.72999650239944458
0.92781120538711548 0.78359401226043701 0.72922819852828979
0.852680504322052 0.7900160551071167 0.7092089056968689
0.85927462577819824 0.78440302610397339 0.69631749391555786
0.86760646104812622 0.78559237718582153 0.6996227502822876
0.88180077075958252 0.79404634237289429 0.70593863725662231
0.89633840322494507 0.80641341209411621 0.72162646055221558
0.91164445877075195 0.8192782998085022 0.733936607837677
0.93560332059860229 0.81846648454666138 0.73547279834747314
0.86009347438812256 0.82847034931182861 0.70274585485458374
0.86403971910476685 0.82546877861022949 0.69909870624542236
0.86877715587615967 0.82664680480957031 0.70035415887832642
0.87732326984405518 0.83014827966690063 0.70311039686203003
0.89132481813430786 0.83592534065246582 0.71469777822494507
0.91092455387115479 0.84906882047653198 0.73318904638290405
0.94115197658538818 0.84906274080276489 0.73802900314331055
