luts/instant_consumer/polaroid_px-100uv+_warm_-.cube
# Created by: G'MIC (https://gmic.eu)
TITLE "polaroid_px-100uv+_warm_-"
# LUT size
LUT_3D_SIZE 13
# Data domain
DOMAIN_MIN 0.0 0.0 0.0
DOMAIN_MAX 1.0 1.0 1.0
# LUT data points
0.12873341143131256 0.10289227217435837 0.10974086821079254
0.13574118912220001 0.11060658097267151 0.1170409694314003
0.15362350642681122 0.13002443313598633 0.1353384405374527
0.18669775128364563 0.16498938202857971 0.16857820749282837
0.23427979648113251 0.21621659398078918 0.21793417632579803
0.28763678669929504 0.27199095487594604 0.27265709638595581
0.33987510204315186 0.32592481374740601 0.32563504576683044
0.39052033424377441 0.37696841359138489 0.37619635462760925
0.43838080763816833 0.42509102821350098 0.42308536171913147
0.48473918437957764 0.47116363048553467 0.46698012948036194
0.53067135810852051 0.51646620035171509 0.50998067855834961
0.5774223804473877 0.56268864870071411 0.55375915765762329
0.62559980154037476 0.6102527379989624 0.59895163774490356
0.13956667482852936 0.11550750583410263 0.12105117738246918
0.14717251062393188 0.12361970543861389 0.12947671115398407
0.16328120231628418 0.14121542870998383 0.14648042619228363
0.19034379720687866 0.16982387006282806 0.17409704625606537
0.23349539935588837 0.21577233076095581 0.21816183626651764
0.28696036338806152 0.27154931426048279 0.27211937308311462
0.33979439735412598 0.32613968849182129 0.32517746090888977
0.38990986347198486 0.37703666090965271 0.37503165006637573
0.43761166930198669 0.4248039722442627 0.42172521352767944
0.48360738158226013 0.47085344791412354 0.46588855981826782
0.52909290790557861 0.51563483476638794 0.50887256860733032
0.57555508613586426 0.56141000986099243 0.5521770715713501
0.62317627668380737 0.60839086771011353 0.59680795669555664
0.16772580146789551 0.1455143541097641 0.14919500052928925
0.17401675879955292 0.15232452750205994 0.15653622150421143
0.18619959056377411 0.16576114296913147 0.16998259723186493
0.20743146538734436 0.18828238546848297 0.19211819767951965
0.24484778940677643 0.22790592908859253 0.22986605763435364
0.29391381144523621 0.27901878952980042 0.27889949083328247
0.34352827072143555 0.3301713764667511 0.32820159196853638
0.39150574803352356 0.37891277670860291 0.37579905986785889
0.43779852986335754 0.42563924193382263 0.42165172100067139
0.48308277130126953 0.47060900926589966 0.46538680791854858
0.52779817581176758 0.51499110460281372 0.507743239402771
0.57363545894622803 0.56018614768981934 0.55085819959640503
0.62110066413879395 0.60705029964447021 0.59515416622161865
0.21584588289260864 0.19611994922161102 0.19759838283061981
0.21898646652698517 0.19993765652179718 0.20218680799007416
0.22572469711303711 0.20749971270561218 0.21037681400775909
0.24265016615390778 0.22575771808624268 0.22830125689506531
0.27434051036834717 0.25872209668159485 0.25952863693237305
0.31531104445457458 0.30126276612281799 0.30062714219093323
0.35786604881286621 0.34506696462631226 0.34246370196342468
0.40031653642654419 0.3881678581237793 0.38442802429199219
0.44328901171684265 0.43147322535514832 0.42724758386611938
0.48562353849411011 0.47377675771713257 0.46844929456710815
0.52845227718353271 0.51623982191085815 0.50920671224594116
0.57325989007949829 0.56044930219650269 0.55112338066101074
0.62080472707748413 0.60721194744110107 0.59518760442733765
0.27876767516136169 0.26112508773803711 0.26159417629241943
0.27688860893249512 0.25993287563323975 0.26104974746704102
0.27663823962211609 0.26084226369857788 0.26231229305267334
0.28777080774307251 0.27311494946479797 0.27459961175918579
0.31389793753623962 0.29986676573753357 0.30093306303024292
0.34954681992530823 0.33652359247207642 0.33640730381011963
0.38618791103363037 0.37409746646881104 0.37241581082344055
0.42082405090332031 0.40916252136230469 0.40647062659263611
0.45656174421310425 0.44516319036483765 0.44154161214828491
0.49361366033554077 0.48222619295120239 0.47765684127807617
0.53286921977996826 0.52108097076416016 0.51456588506698608
0.57603418827056885 0.56370609998703003 0.55440491437911987
0.6231377124786377 0.61034250259399414 0.59799456596374512
0.34452736377716064 0.32835683226585388 0.32852137088775635
0.33758854866027832 0.32272279262542725 0.32317882776260376
0.33181160688400269 0.31731775403022766 0.31828606128692627
0.33705192804336548 0.32383552193641663 0.32483783364295959
0.35743111371994019 0.34500756859779358 0.3460468053817749
0.38814836740493774 0.37621328234672546 0.37681871652603149
0.42006337642669678 0.40859019756317139 0.40857052803039551
0.44769755005836487 0.43648639321327209 0.43550595641136169
0.47648462653160095 0.46547654271125793 0.46323177218437195
0.50820624828338623 0.4970099925994873 0.49304744601249695
0.54317611455917358 0.53173810243606567 0.52543771266937256
0.58397668600082397 0.57218003273010254 0.5626487135887146
0.63081073760986328 0.61832493543624878 0.60535168647766113
0.40069571137428284 0.38623267412185669 0.38583791255950928
0.39309647679328918 0.37955561280250549 0.37948951125144958
0.38561004400253296 0.37292680144309998 0.37292096018791199
0.38706982135772705 0.37479284405708313 0.37533855438232422
0.40096384286880493 0.38895431160926819 0.38997527956962585
0.42364192008972168 0.41193455457687378 0.4131426215171814
0.44919785857200623 0.43776202201843262 0.43873617053031921
0.47407513856887817 0.46276348829269409 0.46278417110443115
0.50034958124160767 0.48910361528396606 0.48760291934013367
0.52936488389968872 0.51813524961471558 0.51447927951812744
0.56157165765762329 0.55016887187957764 0.54340112209320068
0.59995639324188232 0.58831322193145752 0.57788729667663574
0.64548629522323608 0.63353192806243896 0.61896103620529175
0.4461769163608551 0.43258792161941528 0.43153932690620422
0.44089791178703308 0.42794740200042725 0.42704382538795471
0.43558472394943237 0.42319515347480774 0.42245304584503174
0.43562737107276917 0.4233756959438324 0.42330688238143921
0.44377723336219788 0.43153256177902222 0.43218132853507996
0.45923089981079102 0.44707024097442627 0.44794401526451111
0.47932130098342896 0.46702593564987183 0.46789813041687012
0.50196874141693115 0.48997899889945984 0.48974573612213135
0.52771413326263428 0.51610225439071655 0.51389294862747192
0.55666190385818481 0.54512888193130493 0.54023319482803345
0.58722454309463501 0.57581502199172974 0.56725353002548218
0.62347811460494995 0.61194843053817749 0.59891766309738159
0.66753542423248291 0.65578585863113403 0.63855385780334473
0.49131590127944946 0.47821572422981262 0.47559785842895508
0.48743000626564026 0.47486385703086853 0.47235119342803955
0.48454847931861877 0.47213283181190491 0.46972852945327759
0.48429849743843079 0.47159132361412048 0.46981829404830933
0.48866128921508789 0.47561651468276978 0.47465366125106812
0.49876782298088074 0.48540991544723511 0.48493501543998718
0.51485103368759155 0.50124692916870117 0.50041842460632324
0.53495359420776367 0.52226114273071289 0.51990121603012085
0.55906027555465698 0.5467531681060791 0.5421597957611084
0.58599221706390381 0.57403844594955444 0.56646239757537842
0.61444681882858276 0.60277062654495239 0.59111440181732178
0.65062081813812256 0.63889151811599731 0.62289512157440186
0.69544458389282227 0.68373626470565796 0.66365087032318115
0.54551136493682861 0.53245687484741211 0.52696061134338379
0.5414397120475769 0.52855658531188965 0.52316981554031372
0.53903526067733765 0.52622866630554199 0.52131325006484985
0.53837257623672485 0.52503883838653564 0.52048021554946899
0.53988003730773926 0.5259210467338562 0.52238482236862183
0.54594123363494873 0.53151476383209229 0.52824300527572632
0.55891513824462891 0.54493266344070435 0.54074943065643311
0.5770685076713562 0.56391459703445435 0.55788731575012207
0.59775811433792114 0.58500546216964722 0.57646822929382324
0.61894667148590088 0.60668140649795532 0.59514313936233521
0.64436399936676025 0.63250577449798584 0.61736488342285156
0.68262577056884766 0.67094141244888306 0.65202790498733521
0.72873538732528687 0.71690338850021362 0.69490092992782593
0.61214148998260498 0.59871011972427368 0.58914119005203247
0.6072615385055542 0.59395462274551392 0.58459591865539551
0.60465109348297119 0.59141647815704346 0.58239966630935669
0.60412430763244629 0.5896601676940918 0.58150660991668701
0.60321998596191406 0.58807200193405151 0.58079886436462402
0.60553479194641113 0.59015798568725586 0.58320009708404541
0.61678433418273926 0.602142333984375 0.59370702505111694
0.63337653875350952 0.61996179819107056 0.60889750719070435
0.65127456188201904 0.63831502199172974 0.62513893842697144
0.66876226663589478 0.65658414363861084 0.64094620943069458
0.69149190187454224 0.67967903614044189 0.66172605752944946
0.7254188060760498 0.71377170085906982 0.69350540637969971
0.76645249128341675 0.75458675622940063 0.73304450511932373
0.689106285572052 0.67495274543762207 0.66107630729675293
0.68478262424468994 0.67069762945175171 0.65680533647537231
0.68259578943252563 0.66874587535858154 0.65565961599349976
0.68228262662887573 0.66741460561752319 0.6544344425201416
0.68108546733856201 0.665546715259552 0.65311866998672485
0.681876540184021 0.66639268398284912 0.65393942594528198
0.69058459997177124 0.67586231231689453 0.66200131177902222
0.70498192310333252 0.6910514235496521 0.67547070980072021
0.71991848945617676 0.70759862661361694 0.6896202564239502
0.73472237586975098 0.72286689281463623 0.7038915753364563
0.75316482782363892 0.74156200885772705 0.72198635339736938
0.77898937463760376 0.76741641759872437 0.74757987260818481
0.81134814023971558 0.79967224597930908 0.77971255779266357
0.77101629972457886 0.75610458850860596 0.73783612251281738
0.76797378063201904 0.75325894355773926 0.73466676473617554
0.76768243312835693 0.75247377157211304 0.7342262864112854
0.76874798536300659 0.75348329544067383 0.73560959100723267
0.7678646445274353 0.7523224949836731 0.73483306169509888
0.7676544189453125 0.75246477127075195 0.73460626602172852
0.77367955446243286 0.75949889421463013 0.74028521776199341
0.78535288572311401 0.77241289615631104 0.75153976678848267
0.79770714044570923 0.78581452369689941 0.76393187046051025
0.80827593803405762 0.7968747615814209 0.77521395683288574
0.82110941410064697 0.80986827611923218 0.78947204351425171
0.83914476633071899 0.82778185606002808 0.80883306264877319
0.86286312341690063 0.85121774673461914 0.83388823270797729
0.14605234563350677 0.12241382896900177 0.12841178476810455
0.15677984058856964 0.13330677151679993 0.1386958509683609
0.17666575312614441 0.15431603789329529 0.1584353893995285
0.21073606610298157 0.19053067266941071 0.19298991560935974
0.26225501298904419 0.24573197960853577 0.24624133110046387
0.31629997491836548 0.30234745144844055 0.30209726095199585
0.3673069179058075 0.35459035634994507 0.35436534881591797
0.41573247313499451 0.40351963043212891 0.40297749638557434
0.46022745966911316 0.44795730710029602 0.44598287343978882
0.50290912389755249 0.48932838439941406 0.48455923795700073
0.54426127672195435 0.53099870681762695 0.52403521537780762
0.5870240330696106 0.57224422693252563 0.56280601024627686
0.63182163238525391 0.61619347333908081 0.60455304384231567
0.15827725827693939 0.13585324585437775 0.14108479022979736
0.1708626002073288 0.1490633487701416 0.15393824875354767
0.19297492504119873 0.17213048040866852 0.1767449676990509
0.22434511780738831 0.20527271926403046 0.20878815650939941
0.26725810766220093 0.25112658739089966 0.25248029828071594
0.3179422914981842 0.30418682098388672 0.30386802554130554
0.36791500449180603 0.3554767370223999 0.35438242554664612
0.41477996110916138 0.40279707312583923 0.40101385116577148
0.45882096886634827 0.44682192802429199 0.44393834471702576
0.50088894367218018 0.48828741908073425 0.48396936058998108
0.54316431283950806 0.53007012605667114 0.52295219898223877
0.58617639541625977 0.57197588682174683 0.56246328353881836
0.63133770227432251 0.61637896299362183 0.60457682609558105
0.19055129587650299 0.16931308805942535 0.17386265099048615
0.20018008351325989 0.17966088652610779 0.18389028310775757
0.21663308143615723 0.19728380441665649 0.20117522776126862
0.24231632053852081 0.2246280312538147 0.22747604548931122
0.27874553203582764 0.2633325457572937 0.26404795050621033
0.32330536842346191 0.30984625220298767 0.30917537212371826
0.36897623538970947 0.35655602812767029 0.35433787107467651
0.41327473521232605 0.40140554308891296 0.39832302927970886
0.45652267336845398 0.44484707713127136 0.4410082995891571
0.49925869703292847 0.48735299706459045 0.48134234547615051
0.54155975580215454 0.52855402231216431 0.52129173278808594
0.58511912822723389 0.57158982753753662 0.56190699338912964
0.63094097375869751 0.61660516262054443 0.60442548990249634
0.24909128248691559 0.22936679422855377 0.23273016512393951
0.24881556630134583 0.2301853746175766 0.23335528373718262
0.25456300377845764 0.23724406957626343 0.23982502520084381
0.27256646752357483 0.25689965486526489 0.25857415795326233
0.30238673090934753 0.28834891319274902 0.28893387317657471
0.33951541781425476 0.32662293314933777 0.32531589269638062
0.37752839922904968 0.36552560329437256 0.36232113838195801
0.41721534729003906 0.4055778980255127 0.40160918235778809
0.45858225226402283 0.44711831212043762 0.44278299808502197
0.49969834089279175 0.48807749152183533 0.48224923014640808
0.54064875841140747 0.52837669849395752 0.52113538980484009
0.58411413431167603 0.5713430643081665 0.56172460317611694
0.63097643852233887 0.61708080768585205 0.6046411395072937
0.31124112010002136 0.2933354377746582 0.29523327946662903
0.30665186047554016 0.2903296947479248 0.29193508625030518
0.30389118194580078 0.28892883658409119 0.29032796621322632
0.31320410966873169 0.29965457320213318 0.30051413178443909
0.33663678169250488 0.32385891675949097 0.324146568775177
0.36714699864387512 0.35516676306724548 0.35440266132354736
0.39881837368011475 0.38735911250114441 0.38515907526016235
0.43250247836112976 0.42127811908721924 0.41812685132026672
0.46816849708557129 0.45706760883331299 0.45341295003890991
0.5045773983001709 0.49336361885070801 0.48853015899658203
0.54297220706939697 0.53111553192138672 0.5244213342666626
0.58514469861984253 0.57280486822128296 0.56332540512084961
0.63239353895187378 0.61926257610321045 0.60660040378570557
0.36942103505134583 0.35399085283279419 0.35417193174362183
0.36419185996055603 0.35012543201446533 0.35041001439094543
0.35608759522438049 0.34333568811416626 0.34361973404884338
0.35828366875648499 0.34629571437835693 0.34656760096549988
0.37585330009460449 0.36436152458190918 0.36473029851913452
0.40103304386138916 0.38969552516937256 0.38993734121322632
0.42777112126350403 0.416829913854599 0.41659659147262573
0.45522797107696533 0.444254070520401 0.44329604506492615
0.48453715443611145 0.47361910343170166 0.47157734632492065
0.51593518257141113 0.50459772348403931 0.50105470418930054
0.54978656768798828 0.5383293628692627 0.53205692768096924
0.59046584367752075 0.57839888334274292 0.56889104843139648
0.63835674524307251 0.62570571899414062 0.61242830753326416
0.42116281390190125 0.40752357244491577 0.40650609135627747
0.41621837019920349 0.40351143479347229 0.40272146463394165
0.40792810916900635 0.39609244465827942 0.39551466703414917
0.40649229288101196 0.3950653076171875 0.39513593912124634
0.41673535108566284 0.40580487251281738 0.40651819109916687
0.43495535850524902 0.42367202043533325 0.42480191588401794
0.45656666159629822 0.44517204165458679 0.44633734226226807
0.47975420951843262 0.46864667534828186 0.46907055377960205
0.50598978996276855 0.49466294050216675 0.49366748332977295
0.53467011451721191 0.5231788158416748 0.51985174417495728
0.56585884094238281 0.55437791347503662 0.54779583215713501
0.60456502437591553 0.59257799386978149 0.58192729949951172
0.65142470598220825 0.639057457447052 0.62434250116348267
0.46259376406669617 0.45039159059524536 0.44963660836219788
0.45992216467857361 0.44811981916427612 0.44622772932052612
0.45474141836166382 0.44321981072425842 0.44185605645179749
0.45282670855522156 0.44144904613494873 0.44065302610397339
0.45805007219314575 0.44648796319961548 0.44632503390312195
0.46969389915466309 0.4577237069606781 0.45846113562583923
0.48628711700439453 0.47421354055404663 0.47519567608833313
0.50701451301574707 0.49498018622398376 0.49519503116607666
0.53198593854904175 0.5201796293258667 0.51843595504760742
0.56044811010360718 0.54859840869903564 0.54396635293960571
0.59111028909683228 0.57923018932342529 0.57079070806503296
0.62778586149215698 0.61562728881835938 0.60284864902496338
0.67237943410873413 0.66002297401428223 0.64298540353775024
0.50251251459121704 0.49064001441001892 0.48845136165618896
0.50139647722244263 0.48981651663780212 0.4863821268081665
0.49926552176475525 0.48766455054283142 0.48459756374359131
0.49840626120567322 0.4864448606967926 0.48382145166397095
0.50071901082992554 0.48820400238037109 0.48662856221199036
0.50819873809814453 0.49516889452934265 0.49411094188690186
0.52125090360641479 0.50810831785202026 0.50702768564224243
0.53972619771957397 0.52689856290817261 0.52458453178405762
0.56301212310791016 0.55047458410263062 0.54610824584960938
0.59001654386520386 0.57766687870025635 0.57013547420501709
0.61935633420944214 0.60721796751022339 0.59570491313934326
0.65542864799499512 0.64321094751358032 0.62720608711242676
0.69929957389831543 0.68697285652160645 0.66702789068222046
0.55314010381698608 0.54127174615859985 0.53537404537200928
0.55010014772415161 0.53846418857574463 0.53243815898895264
0.54923355579376221 0.53726977109909058 0.53111398220062256
0.54928779602050781 0.53623020648956299 0.53108155727386475
0.55019629001617432 0.53642868995666504 0.53198230266571045
0.5548022985458374 0.54064953327178955 0.53659230470657349
0.56528723239898682 0.55128300189971924 0.54668140411376953
0.5816916823387146 0.56813716888427734 0.56200015544891357
0.60214126110076904 0.58897197246551514 0.58061635494232178
0.62501204013824463 0.61220341920852661 0.6009979248046875
0.65204602479934692 0.63976478576660156 0.62469762563705444
0.68803954124450684 0.67583692073822021 0.65685474872589111
0.73147463798522949 0.71912461519241333 0.69716966152191162
0.6171337366104126 0.60507732629776001 0.59493458271026611
0.61164593696594238 0.59946346282958984 0.5893557071685791
0.61034911870956421 0.59783387184143066 0.58782517910003662
0.61119931936264038 0.59752440452575684 0.58828133344650269
0.61126309633255005 0.59675616025924683 0.58845049142837524
0.61383950710296631 0.59887927770614624 0.59057259559631348
0.62275910377502441 0.60798829793930054 0.59888666868209839
0.63739114999771118 0.6233404278755188 0.61246240139007568
0.65487664937973022 0.64168852567672729 0.62857544422149658
0.67443114519119263 0.66147816181182861 0.64595335721969604
0.69811701774597168 0.68571692705154419 0.66779947280883789
0.73026955127716064 0.71799677610397339 0.69790607690811157
0.76936948299407959 0.75713056325912476 0.73497408628463745
0.69215446710586548 0.67920476198196411 0.66489416360855103
0.68706309795379639 0.67409795522689819 0.6596534252166748
0.68576914072036743 0.67237097024917603 0.65826678276062012
0.68634998798370361 0.67221194505691528 0.65834099054336548
0.68604367971420288 0.67135715484619141 0.65813308954238892
0.68745827674865723 0.67237859964370728 0.65905654430389404
0.69452768564224243 0.67992115020751953 0.66561681032180786
0.70731019973754883 0.69370442628860474 0.67763102054595947
0.72258532047271729 0.70967972278594971 0.69216239452362061
0.73872077465057373 0.72640937566757202 0.70760238170623779
0.75783586502075195 0.74585133790969849 0.7263256311416626
0.78310590982437134 0.77108049392700195 0.75099718570709229
0.81408977508544922 0.80187356472015381 0.7816702127456665
0.77244144678115845 0.75870335102081299 0.74036413431167603
0.76963323354721069 0.75593346357345581 0.73742580413818359
0.76899760961532593 0.7550055980682373 0.73657011985778809
0.77001243829727173 0.75513005256652832 0.73693877458572388
0.76969951391220093 0.75465750694274902 0.73671376705169678
0.77025336027145386 0.75531202554702759 0.73704034090042114
0.77565830945968628 0.76148468255996704 0.7422863245010376
0.7861628532409668 0.77307695150375366 0.75261247158050537
0.79868113994598389 0.78676784038543701 0.76524430513381958
0.81100130081176758 0.79950070381164551 0.77833586931228638
0.82502537965774536 0.81376188993453979 0.79327952861785889
0.84297072887420654 0.83164143562316895 0.81223177909851074
0.86601078510284424 0.85422271490097046 0.83582335710525513
0.18066413700580597 0.15973421931266785 0.16425499320030212
0.19456478953361511 0.17367655038833618 0.17732894420623779
0.21257385611534119 0.19234369695186615 0.19456744194030762
0.23922142386436462 0.22025121748447418 0.22079312801361084
0.28629544377326965 0.27036237716674805 0.27030345797538757
0.34057527780532837 0.32721728086471558 0.32705315947532654
0.39309883117675781 0.38098511099815369 0.38109910488128662
0.44014826416969299 0.42845532298088074 0.42838779091835022
0.48126572370529175 0.46956613659858704 0.4685690701007843
0.52225220203399658 0.50751715898513794 0.50406652688980103
0.56144958734512329 0.54596555233001709 0.53975373506546021
0.60038584470748901 0.58531457185745239 0.57546365261077881
0.64230680465698242 0.62688678503036499 0.61452347040176392
0.1928887665271759 0.17275629937648773 0.17677463591098785
0.20936457812786102 0.19018128514289856 0.19302824139595032
0.23229412734508514 0.21338413655757904 0.21612356603145599
0.26132118701934814 0.2442023754119873 0.24564965069293976
0.30058544874191284 0.28587639331817627 0.28621205687522888
0.3493979275226593 0.33640789985656738 0.33603036403656006
0.39801055192947388 0.38622045516967773 0.38555213809013367
0.44112974405288696 0.42967525124549866 0.42842027544975281
0.48078158497810364 0.46947774291038513 0.46712839603424072
0.52040296792984009 0.50740885734558105 0.50344324111938477
0.56121450662612915 0.54592382907867432 0.53929299116134644
0.60072177648544312 0.58668869733810425 0.57656240463256836
0.64414888620376587 0.62900429964065552 0.61622446775436401
0.22004735469818115 0.20047135651111603 0.20426774024963379
0.23452690243721008 0.215656578540802 0.21854941546916962
0.25427216291427612 0.23678503930568695 0.23884502053260803
0.28242790699005127 0.26656273007392883 0.26768913865089417
0.31726312637329102 0.3035893440246582 0.303529292345047
0.35848903656005859 0.34598615765571594 0.34489813446998596
0.40022066235542297 0.38861170411109924 0.38687834143638611
0.44016078114509583 0.42876166105270386 0.42639043927192688
0.47941842675209045 0.46793189644813538 0.46444845199584961
0.51896494626998901 0.50722068548202515 0.50189977884292603
0.5593189001083374 0.54586470127105713 0.53803032636642456
0.60116904973983765 0.58783996105194092 0.57665765285491943
0.6453249454498291 0.63089132308959961 0.61778533458709717
0.27666914463043213 0.25766277313232422 0.26093912124633789
0.27891463041305542 0.26130557060241699 0.26353698968887329
0.28889471292495728 0.27291989326477051 0.27430209517478943
0.31136396527290344 0.29682084918022156 0.29734021425247192
0.34005329012870789 0.32719242572784424 0.3266984224319458
0.37311366200447083 0.36106005311012268 0.35917133092880249
0.40697744488716125 0.39550837874412537 0.39304795861244202
0.4426804780960083 0.43160775303840637 0.4283754825592041
0.48051857948303223 0.46942615509033203 0.46517500281333923
0.51929885149002075 0.50762724876403809 0.50203126668930054
0.55882829427719116 0.54614728689193726 0.5382080078125
0.60118705034255981 0.58796262741088867 0.57683426141738892
0.64616531133651733 0.63231885433197021 0.61906307935714722
0.33706268668174744 0.32026514410972595 0.32180720567703247
0.33743804693222046 0.32180774211883545 0.32292702794075012
0.34024146199226379 0.32618281245231628 0.32659173011779785
0.3510010838508606 0.33843883872032166 0.33860176801681519
0.3705279529094696 0.35874748229980469 0.35823756456375122
0.39538455009460449 0.38405290246009827 0.38306069374084473
0.42302894592285156 0.41181856393814087 0.40987038612365723
0.45350983738899231 0.44268268346786499 0.43997523188591003
