luts/instant_consumer/polaroid_px-680_warm.cube
# Created by: G'MIC (https://gmic.eu)
TITLE "polaroid_px-680_warm"
# LUT size
LUT_3D_SIZE 5
# Data domain
DOMAIN_MIN 0.0 0.0 0.0
DOMAIN_MAX 1.0 1.0 1.0
# LUT data points
0.25801840424537659 0.21106809377670288 0.084742046892642975
0.28566300868988037 0.21077542006969452 0.084563128650188446
0.54047238826751709 0.21356987953186035 0.06859135627746582
0.83858108520507812 0.29570510983467102 0.054743628948926926
0.98125118017196655 0.46973088383674622 0.18970456719398499
0.25273406505584717 0.25569054484367371 0.083237066864967346
0.31394922733306885 0.26856273412704468 0.075740128755569458
0.59301573038101196 0.30346810817718506 0.02939789742231369
0.8386344313621521 0.38361552357673645 0.032994542270898819
0.9736325740814209 0.52079087495803833 0.19116167724132538
0.22667837142944336 0.45573601126670837 0.065231502056121826
0.32122018933296204 0.45909038186073303 0.074526064097881317
0.58546990156173706 0.51666784286499023 0.052284855395555496
0.81790602207183838 0.56974774599075317 0.053327552974224091
0.94898617267608643 0.60793286561965942 0.17384852468967438
0.32962742447853088 0.65181624889373779 0.16185289621353149
0.39553463459014893 0.64968091249465942 0.17235943675041199
0.56285661458969116 0.67902678251266479 0.20998229086399078
0.76976031064987183 0.72996759414672852 0.26923307776451111
0.91459488868713379 0.76717793941497803 0.35582855343818665
0.57834649085998535 0.82055151462554932 0.4059569239616394
0.60539418458938599 0.81928139925003052 0.41312375664710999
0.69677698612213135 0.82569563388824463 0.45799520611763
0.81256240606307983 0.83258366584777832 0.50931674242019653
0.90733379125595093 0.84646964073181152 0.5743335485458374
0.26158848404884338 0.21103595197200775 0.11681680381298065
0.29645800590515137 0.21646912395954132 0.11858682334423065
0.56869924068450928 0.20053154230117798 0.16066087782382965
0.8551868200302124 0.35553622245788574 0.2573997974395752
0.96713250875473022 0.54562193155288696 0.36319631338119507
0.2653191089630127 0.27110433578491211 0.14544773101806641
0.35898908972740173 0.28946572542190552 0.16430991888046265
0.63246792554855347 0.33332544565200806 0.1983712762594223
0.84685814380645752 0.45305374264717102 0.26931184530258179
0.96142047643661499 0.57495009899139404 0.35715761780738831
0.35594579577445984 0.48333960771560669 0.21048201620578766
0.407785564661026 0.48629939556121826 0.20389522612094879
0.61995381116867065 0.54012477397918701 0.22927817702293396
0.82238894701004028 0.57355844974517822 0.24702604115009308
0.94379943609237671 0.63852214813232422 0.32550922036170959
0.39581498503684998 0.66383969783782959 0.25169354677200317
0.44804674386978149 0.66200417280197144 0.25967535376548767
0.58512622117996216 0.6883050799369812 0.30098631978034973
0.78192132711410522 0.73792380094528198 0.35682421922683716
0.91532397270202637 0.76880925893783569 0.4225500226020813
0.59200495481491089 0.82269752025604248 0.43410152196884155
0.62376856803894043 0.8195723295211792 0.44395267963409424
0.70324414968490601 0.82479089498519897 0.48236849904060364
0.8139348030090332 0.83334934711456299 0.53363305330276489
0.90941530466079712 0.84776979684829712 0.59358829259872437
0.30218642950057983 0.22621817886829376 0.31445443630218506
0.43243357539176941 0.25325503945350647 0.33561849594116211
0.63695377111434937 0.3585779070854187 0.37486672401428223
0.83115315437316895 0.36870995163917542 0.4272213876247406
0.96255767345428467 0.53476834297180176 0.48498854041099548
0.31800031661987305 0.33059307932853699 0.3636816143989563
0.47125494480133057 0.35694918036460876 0.38327404856681824
0.66620540618896484 0.4566226601600647 0.41356495022773743
0.83805829286575317 0.47877517342567444 0.45225900411605835
0.95027101039886475 0.61283916234970093 0.51132333278656006
0.38823798298835754 0.50139933824539185 0.36733445525169373
0.48164057731628418 0.50742185115814209 0.38000443577766418
0.6775018572807312 0.57884901762008667 0.44107586145401001
0.83351993560791016 0.64173674583435059 0.48276203870773315
0.92888695001602173 0.71231174468994141 0.53500890731811523
0.48681166768074036 0.66526514291763306 0.39810168743133545
0.54166007041931152 0.67450767755508423 0.40873199701309204
0.64791953563690186 0.70633077621459961 0.44163107872009277
0.80759060382843018 0.74933600425720215 0.4907633364200592
0.91548967361450195 0.76508402824401855 0.51505500078201294
0.63164407014846802 0.82003504037857056 0.50453442335128784
0.64609444141387939 0.82140815258026123 0.50145488977432251
0.7184029221534729 0.82695984840393066 0.52938222885131836
0.82454472780227661 0.83700776100158691 0.58155375719070435
0.91187518835067749 0.84656095504760742 0.62839901447296143
0.49834424257278442 0.33173057436943054 0.57647663354873657
0.60257607698440552 0.37651887536048889 0.57621818780899048
0.76455748081207275 0.5269811749458313 0.59215259552001953
0.84975600242614746 0.64102679491043091 0.60862654447555542
0.92787176370620728 0.64319819211959839 0.61983400583267212
0.50541174411773682 0.42270442843437195 0.58255094289779663
0.6051403284072876 0.46141141653060913 0.5847364068031311
0.76414865255355835 0.58556687831878662 0.60019880533218384
0.85088706016540527 0.68286764621734619 0.61353009939193726
0.92171871662139893 0.67791509628295898 0.6248316764831543
0.43131062388420105 0.55293279886245728 0.54944133758544922
0.52557796239852905 0.56375592947006226 0.55982416868209839
0.72713834047317505 0.64124125242233276 0.59442031383514404
0.84474641084671021 0.7287367582321167 0.62184494733810425
0.91738450527191162 0.73264044523239136 0.63672429323196411
0.48186305165290833 0.68257397413253784 0.52839380502700806
0.5327877402305603 0.6845594048500061 0.53193598985671997
0.66938716173171997 0.71079635620117188 0.55988401174545288
0.83355945348739624 0.77494162321090698 0.6236070990562439
0.92090779542922974 0.7967868447303772 0.65733528137207031
0.56395655870437622 0.81406193971633911 0.55998307466506958
0.60823255777359009 0.81663566827774048 0.56617265939712524
0.72131246328353882 0.8206183910369873 0.59781110286712646
0.82832497358322144 0.83757972717285156 0.63857311010360718
0.92421317100524902 0.84724962711334229 0.6905333399772644
0.73770636320114136 0.61493831872940063 0.74041050672531128
0.77314555644989014 0.64055031538009644 0.73505371809005737
0.84351038932800293 0.70548224449157715 0.73282504081726074
0.89458870887756348 0.77757638692855835 0.73129993677139282
0.92476773262023926 0.7965276837348938 0.73580044507980347
0.72718709707260132 0.64966344833374023 0.73765468597412109
0.77038204669952393 0.67048686742782593 0.73564201593399048
0.84036874771118164 0.72604024410247803 0.73314708471298218
0.89368909597396851 0.78694570064544678 0.73534560203552246
0.92661952972412109 0.80386561155319214 0.74143946170806885
0.6770365834236145 0.698699951171875 0.73029029369354248
0.72243255376815796 0.70272409915924072 0.72890913486480713
0.81622850894927979 0.7444838285446167 0.73493731021881104
0.89299219846725464 0.79658162593841553 0.74292629957199097
0.9302172064781189 0.82246315479278564 0.74826061725616455
0.55903750658035278 0.76425594091415405 0.71355503797531128
0.5955350399017334 0.75958472490310669 0.70987582206726074
0.7043721079826355 0.76729565858840942 0.72052961587905884
0.86682593822479248 0.80471360683441162 0.74426442384719849
0.93733614683151245 0.83835351467132568 0.76342368125915527
0.62802547216415405 0.84388643503189087 0.71835368871688843
0.65097939968109131 0.84297317266464233 0.71708434820175171
0.7250068187713623 0.84500515460968018 0.72683835029602051
0.82316172122955322 0.84635186195373535 0.74286460876464844
0.93778002262115479 0.86381709575653076 0.77872055768966675
