luts/instant_consumer/polaroid_px-70_++.cube
# Created by: G'MIC (https://gmic.eu)
TITLE "polaroid_px-70_++"
# LUT size
LUT_3D_SIZE 7
# Data domain
DOMAIN_MIN 0.0 0.0 0.0
DOMAIN_MAX 1.0 1.0 1.0
# LUT data points
0.21085456013679504 0.32004919648170471 0.25929510593414307
0.22239652276039124 0.32074698805809021 0.26034450531005859
0.24417488276958466 0.31893214583396912 0.25887882709503174
0.36376681923866272 0.32360497117042542 0.25886785984039307
0.64360058307647705 0.34325692057609558 0.24953661859035492
0.88235640525817871 0.42151123285293579 0.22967027127742767
0.97158235311508179 0.52236193418502808 0.23933762311935425
0.21068401634693146 0.32676553726196289 0.25882354378700256
0.22411534190177917 0.32839217782020569 0.26154354214668274
0.2634444534778595 0.32990148663520813 0.26092937588691711
0.40082329511642456 0.34196758270263672 0.25601747632026672
0.66610783338546753 0.37660494446754456 0.24258986115455627
0.89047318696975708 0.46253979206085205 0.22005748748779297
0.97196394205093384 0.55471909046173096 0.23988530039787292
0.20200775563716888 0.3697693943977356 0.2580682635307312
0.22481684386730194 0.36980512738227844 0.25755658745765686
0.29742845892906189 0.37807199358940125 0.25568649172782898
0.47453063726425171 0.4139915406703949 0.24364149570465088
0.70206773281097412 0.4478890597820282 0.22694884240627289
0.88310402631759644 0.5300525426864624 0.20804311335086823
0.95940214395523071 0.59968298673629761 0.2337440550327301
0.15969109535217285 0.51810044050216675 0.24124948680400848
0.223462775349617 0.51092541217803955 0.24408209323883057
0.35311469435691833 0.5228198766708374 0.24001026153564453
0.55130410194396973 0.55431360006332397 0.22568514943122864
0.75520122051239014 0.5958017110824585 0.20196442306041718
0.87771850824356079 0.63136368989944458 0.19658301770687103
0.94220805168151855 0.65734845399856567 0.22625419497489929
0.31180059909820557 0.7040029764175415 0.24180696904659271
0.35692235827445984 0.6965709924697876 0.24405629932880402
0.46579104661941528 0.69826847314834595 0.24874889850616455
0.61973869800567627 0.71226507425308228 0.24553008377552032
0.7599341869354248 0.7240070104598999 0.23796041309833527
0.86027520895004272 0.73951947689056396 0.24169659614562988
0.91925173997879028 0.74760681390762329 0.28109902143478394
0.57728844881057739 0.81517487764358521 0.33639320731163025
0.58830422163009644 0.80946308374404907 0.33611476421356201
0.63053297996520996 0.80434024333953857 0.34315323829650879
0.70488631725311279 0.80955523252487183 0.35272562503814697
0.77554303407669067 0.81144148111343384 0.36320036649703979
0.85074186325073242 0.81956642866134644 0.36832955479621887
0.89755725860595703 0.82765084505081177 0.40028315782546997
0.78203970193862915 0.86268079280853271 0.47007608413696289
0.78275316953659058 0.86233401298522949 0.46946388483047485
0.79299288988113403 0.86079984903335571 0.47281578183174133
0.81716221570968628 0.86252909898757935 0.48168927431106567
0.84059721231460571 0.86209911108016968 0.48532786965370178
0.86529582738876343 0.8630061149597168 0.49125954508781433
0.89051014184951782 0.8657497763633728 0.50422686338424683
0.21379423141479492 0.32236146926879883 0.26421761512756348
0.22330199182033539 0.32157221436500549 0.26404568552970886
0.25164872407913208 0.32116255164146423 0.26372173428535461
0.38865554332733154 0.32121333479881287 0.26513862609863281
0.67823296785354614 0.34273216128349304 0.263723224401474
0.8954232931137085 0.43510892987251282 0.26229959726333618
0.97112917900085449 0.54935556650161743 0.29056268930435181
0.21479363739490509 0.33297052979469299 0.26553052663803101
0.22459957003593445 0.32732507586479187 0.26460754871368408
0.27053108811378479 0.33179160952568054 0.26559111475944519
0.42954975366592407 0.34254699945449829 0.26334568858146667
0.70155906677246094 0.38543087244033813 0.25831589102745056
0.8996051549911499 0.47699090838432312 0.25651299953460693
0.96808111667633057 0.57362228631973267 0.28814584016799927
0.21080291271209717 0.3763103187084198 0.26441872119903564
0.2345573902130127 0.37882602214813232 0.26457548141479492
0.31714275479316711 0.38847371935844421 0.26235264539718628
0.5064207911491394 0.41539701819419861 0.25617370009422302
0.72906327247619629 0.45784264802932739 0.24438102543354034
0.89210695028305054 0.54448336362838745 0.24467627704143524
0.95866960287094116 0.61481529474258423 0.28068917989730835
0.18870642781257629 0.52989447116851807 0.25546881556510925
0.25044757127761841 0.52349555492401123 0.25753939151763916
0.37852638959884644 0.53384393453598022 0.25842899084091187
0.57515078783035278 0.5635906457901001 0.25009077787399292
0.76161843538284302 0.60084110498428345 0.23677785694599152
0.88247811794281006 0.63348180055618286 0.23489318788051605
0.94048887491226196 0.66768640279769897 0.26926076412200928
0.35657992959022522 0.70821148157119751 0.2714630663394928
0.39813834428787231 0.70275199413299561 0.27145105600357056
0.49427768588066101 0.70179104804992676 0.28009435534477234
0.63505017757415771 0.71622925996780396 0.27929025888442993
0.76729631423950195 0.73035651445388794 0.27717787027359009
0.8616948127746582 0.74426740407943726 0.28398171067237854
0.91914355754852295 0.75195372104644775 0.31762561202049255
0.60126382112503052 0.81588006019592285 0.3595028817653656
0.61003142595291138 0.80797117948532104 0.35992100834846497
0.64882791042327881 0.80557721853256226 0.36727166175842285
0.71565806865692139 0.81004613637924194 0.37545168399810791
0.78589236736297607 0.81597864627838135 0.38678237795829773
0.85017228126525879 0.82300847768783569 0.39398097991943359
0.8966251015663147 0.82800024747848511 0.42140957713127136
0.78660684823989868 0.86225277185440063 0.47715955972671509
0.78995263576507568 0.86219614744186401 0.47696718573570251
0.80011981725692749 0.8621101975440979 0.47969856858253479
0.82167047262191772 0.86148405075073242 0.48621806502342224
0.8419385552406311 0.86171245574951172 0.49105706810951233
0.86721563339233398 0.8633420467376709 0.49888858199119568
0.89258664846420288 0.86633414030075073 0.50978022813796997
0.21621885895729065 0.32389706373214722 0.27553153038024902
0.2314424067735672 0.32404953241348267 0.27246806025505066
0.26106613874435425 0.32544398307800293 0.27454343438148499
0.39063557982444763 0.31981512904167175 0.28395524621009827
0.69510030746459961 0.30524182319641113 0.30010998249053955
0.91401255130767822 0.40206292271614075 0.32083949446678162
0.96281248331069946 0.59081357717514038 0.379902184009552
0.21651966869831085 0.3354111909866333 0.28136050701141357
0.23992989957332611 0.33638089895248413 0.27984380722045898
0.29079809784889221 0.33858558535575867 0.2806541919708252
0.44659489393234253 0.3416421115398407 0.28954121470451355
0.73276162147521973 0.36306053400039673 0.30522480607032776
0.91045743227005005 0.49424594640731812 0.33659356832504272
0.9546818733215332 0.62896758317947388 0.38490718603134155
0.21840085089206696 0.38540452718734741 0.28739732503890991
0.25365331768989563 0.38994210958480835 0.28982976078987122
0.35279923677444458 0.40013858675956726 0.29372259974479675
0.54592782258987427 0.42799198627471924 0.29979664087295532
0.767020583152771 0.49320611357688904 0.31281307339668274
0.89567834138870239 0.58060628175735474 0.33662316203117371
0.94482576847076416 0.65783178806304932 0.37802660465240479
0.28435277938842773 0.54375994205474854 0.30422362685203552
0.33739954233169556 0.54535031318664551 0.30517774820327759
0.44085189700126648 0.55235826969146729 0.3054959774017334
0.61021274328231812 0.57487243413925171 0.30442032217979431
0.77984774112701416 0.60614562034606934 0.30176427960395813
0.88291329145431519 0.64200079441070557 0.31346410512924194
0.93342071771621704 0.69242674112319946 0.35559779405593872
0.47667410969734192 0.72143512964248657 0.33976894617080688
0.48479074239730835 0.71441847085952759 0.33093670010566711
0.5544058084487915 0.71178275346755981 0.33829542994499207
0.66742074489593506 0.7212032675743103 0.34409418702125549
0.78668320178985596 0.73806750774383545 0.34755739569664001
0.86430329084396362 0.74702984094619751 0.35270318388938904
0.91760814189910889 0.75421714782714844 0.37255918979644775
0.64883530139923096 0.81665229797363281 0.40229731798171997
0.66013091802597046 0.81266361474990845 0.40248101949691772
0.69080263376235962 0.810649573802948 0.40781790018081665
0.73552960157394409 0.80864477157592773 0.41550865769386292
0.80013054609298706 0.8173632025718689 0.42102488875389099
0.85511666536331177 0.82428508996963501 0.42953503131866455
0.89799767732620239 0.82834488153457642 0.44803544878959656
0.79787307977676392 0.86210066080093384 0.48888769745826721
0.80112957954406738 0.86208289861679077 0.48870480060577393
0.81070435047149658 0.86029070615768433 0.49036714434623718
0.82679116725921631 0.85818648338317871 0.4966549277305603
0.8501695990562439 0.86135607957839966 0.50424206256866455
0.87154030799865723 0.86580222845077515 0.51077604293823242
0.89220148324966431 0.86676841974258423 0.51787376403808594
0.23165343701839447 0.32420822978019714 0.3149048388004303
0.27287131547927856 0.32593140006065369 0.31676965951919556
0.35733923316001892 0.33873075246810913 0.32279875874519348
0.48951518535614014 0.36518222093582153 0.3353094756603241
0.69407504796981812 0.35533320903778076 0.36884722113609314
0.90277338027954102 0.41166633367538452 0.40869447588920593
0.96404922008514404 0.55941599607467651 0.42855122685432434
0.23322640359401703 0.34238609671592712 0.33329546451568604
0.28036060929298401 0.34504717588424683 0.33197104930877686
0.39397436380386353 0.36568844318389893 0.34080979228019714
0.53332865238189697 0.40710616111755371 0.35166805982589722
0.72692090272903442 0.40601110458374023 0.37959206104278564
0.89930921792984009 0.4758913516998291 0.41206684708595276
0.95406502485275269 0.61573892831802368 0.44057181477546692
0.20874227583408356 0.41920438408851624 0.34915727376937866
0.26981896162033081 0.41998037695884705 0.3532484769821167
0.43282690644264221 0.44147995114326477 0.36499172449111938
0.60376816987991333 0.49096813797950745 0.37463909387588501
0.77065664529800415 0.50880342721939087 0.39683786034584045
0.89508497714996338 0.59690564870834351 0.42575603723526001
0.93066376447677612 0.69777673482894897 0.45859241485595703
0.29862716794013977 0.56193500757217407 0.37094563245773315
0.36205023527145386 0.55913811922073364 0.37001299858093262
0.49014326930046082 0.56989425420761108 0.37873315811157227
0.6631089448928833 0.60471224784851074 0.39537966251373291
0.80015772581100464 0.6457444429397583 0.41033250093460083
0.87840431928634644 0.69918513298034668 0.43119657039642334
0.91814589500427246 0.74908077716827393 0.45714962482452393
0.52265506982803345 0.72710704803466797 0.40773570537567139
0.55517429113388062 0.72230643033981323 0.40828195214271545
0.63328796625137329 0.72599762678146362 0.41504201292991638
0.7148737907409668 0.73437178134918213 0.41960611939430237
0.79406017065048218 0.7432141900062561 0.42267143726348877
0.86989808082580566 0.75401943922042847 0.42678645253181458
0.91280847787857056 0.76806640625 0.43747848272323608
0.70680773258209229 0.81909358501434326 0.45370024442672729
0.70913863182067871 0.81276077032089233 0.45171022415161133
0.72984844446182251 0.81167560815811157 0.45149633288383484
0.76927787065505981 0.81365686655044556 0.45945918560028076
0.81551748514175415 0.82039493322372437 0.46743988990783691
0.86108756065368652 0.82490617036819458 0.46753773093223572
0.89789533615112305 0.82863479852676392 0.4771750271320343
0.81203192472457886 0.86154758930206299 0.50367003679275513
0.81567955017089844 0.86236691474914551 0.5044286847114563
0.82588756084442139 0.86073535680770874 0.50766974687576294
0.83673977851867676 0.85930752754211426 0.50889080762863159
0.85653167963027954 0.86135232448577881 0.51336073875427246
0.87514984607696533 0.86477047204971313 0.52007925510406494
0.8939247727394104 0.86530846357345581 0.52469223737716675
0.33226612210273743 0.33525168895721436 0.43306872248649597
0.39567694067955017 0.33883818984031677 0.43588656187057495
0.53340733051300049 0.36147171258926392 0.44588688015937805
0.69541221857070923 0.45094886422157288 0.45702382922172546
0.80131781101226807 0.53485333919525146 0.46984484791755676
0.88082677125930786 0.53407806158065796 0.48039275407791138
0.944283127784729 0.60835325717926025 0.49099645018577576
0.32240140438079834 0.36799275875091553 0.4516303539276123
0.40069228410720825 0.37690955400466919 0.45261722803115845
0.55609822273254395 0.40705111622810364 0.4596925675868988
0.71178668737411499 0.50196439027786255 0.46626207232475281
0.81134426593780518 0.58296674489974976 0.47625210881233215
0.88062107563018799 0.58270138502120972 0.48431193828582764
0.93847531080245972 0.64692342281341553 0.49599984288215637
0.31205475330352783 0.47511255741119385 0.46393230557441711
0.39130976796150208 0.46948453783988953 0.46634107828140259
0.56314235925674438 0.4985203742980957 0.47339016199111938
0.73530644178390503 0.58342361450195312 0.4770653247833252
0.81423002481460571 0.65728473663330078 0.48026522994041443
0.87732070684432983 0.65609097480773926 0.4875146746635437
0.92494368553161621 0.70339047908782959 0.49906423687934875
0.33477005362510681 0.60472166538238525 0.46242240071296692
0.39582052826881409 0.6030128002166748 0.46249622106552124
0.53489047288894653 0.60756295919418335 0.4690706729888916
0.72631555795669556 0.65391892194747925 0.48168709874153137
0.81788909435272217 0.71451181173324585 0.48476189374923706
0.87261909246444702 0.72493141889572144 0.49392732977867126
0.91031438112258911 0.76370906829833984 0.50530064105987549
0.54307597875595093 0.73539435863494873 0.47415140271186829
0.56637066602706909 0.72628122568130493 0.47149282693862915
0.64481759071350098 0.73193955421447754 0.47542324662208557
0.73548358678817749 0.73914813995361328 0.48277172446250916
0.81317269802093506 0.76628726720809937 0.48777160048484802
0.86823076009750366 0.78098976612091064 0.4959503710269928
0.90125745534896851 0.8095390796661377 0.50689971446990967
0.70845520496368408 0.81831860542297363 0.48998332023620605
0.72298026084899902 0.81612539291381836 0.49106115102767944
0.75301849842071533 0.81771355867385864 0.49253055453300476
0.79372996091842651 0.81833416223526001 0.49612700939178467
0.8318098783493042 0.82343924045562744 0.50311577320098877
0.86732280254364014 0.83116501569747925 0.51352411508560181
0.89508700370788574 0.84262031316757202 0.5192757248878479
0.82170593738555908 0.86223036050796509 0.52132028341293335
0.82462996244430542 0.86157071590423584 0.52338325977325439
0.8347664475440979 0.86127841472625732 0.5226324200630188
0.8475266695022583 0.86137235164642334 0.52503234148025513
0.8643420934677124 0.86134868860244751 0.52737575769424438
0.88086122274398804 0.86366146802902222 0.5310865044593811
0.89564329385757446 0.86696207523345947 0.53369390964508057
0.54409092664718628 0.41004917025566101 0.55782788991928101
0.59921258687973022 0.42039516568183899 0.55755960941314697
0.70573282241821289 0.47351133823394775 0.55442672967910767
0.80914270877838135 0.58531290292739868 0.54732686281204224
0.85912394523620605 0.70719772577285767 0.53331631422042847
0.88633406162261963 0.7347603440284729 0.53290879726409912
0.90960490703582764 0.73509836196899414 0.53347063064575195
0.55197912454605103 0.46276348829269409 0.55927139520645142
0.6065557599067688 0.47665390372276306 0.55718529224395752
0.71138542890548706 0.52703088521957397 0.55292272567749023
0.80913811922073364 0.62456798553466797 0.54337334632873535
0.85853713750839233 0.72587937116622925 0.53461557626724243
0.88580679893493652 0.75263708829879761 0.53424370288848877
0.91018980741500854 0.75252079963684082 0.53263980150222778
0.54431521892547607 0.55264532566070557 0.5545235276222229
0.59316682815551758 0.55893480777740479 0.55314046144485474
0.7035757303237915 0.5976375937461853 0.54732686281204224
0.80731606483459473 0.67948400974273682 0.54170036315917969
0.85732418298721313 0.75475978851318359 0.53429943323135376
0.87991046905517578 0.77774125337600708 0.53282839059829712
0.89830940961837769 0.77157509326934814 0.53132361173629761
0.50025629997253418 0.6596798300743103 0.53929966688156128
0.55912101268768311 0.66011685132980347 0.53809612989425659
0.68095344305038452 0.67525100708007812 0.53993618488311768
0.78477448225021362 0.71755331754684448 0.53594768047332764
0.8488229513168335 0.7770683765411377 0.53285622596740723
0.88090693950653076 0.80256563425064087 0.53278112411499023
0.89694446325302124 0.80414754152297974 0.5322757363319397
0.58728986978530884 0.74679040908813477 0.5282052755355835
0.60563689470291138 0.74380093812942505 0.52832835912704468
0.66466760635375977 0.74190515279769897 0.53017592430114746
0.74916189908981323 0.75673419237136841 0.52972036600112915
0.83656603097915649 0.79166978597640991 0.53156059980392456
0.87737149000167847 0.8222162127494812 0.53393185138702393
0.90011894702911377 0.82287770509719849 0.53296273946762085
0.71725732088088989 0.82015037536621094 0.52547746896743774
0.72787714004516602 0.81850200891494751 0.52821445465087891
0.75978440046310425 0.81756424903869629 0.52619916200637817
0.8006974458694458 0.8193509578704834 0.53033822774887085
0.84406548738479614 0.82645630836486816 0.53159600496292114
0.87392771244049072 0.8373216986656189 0.53550976514816284
0.89748632907867432 0.85397994518280029 0.54047912359237671
0.82452642917633057 0.86376172304153442 0.53576862812042236
0.8251226544380188 0.86127448081970215 0.53530752658843994
0.83675408363342285 0.86249816417694092 0.53625285625457764
0.85311025381088257 0.86109775304794312 0.53804236650466919
0.86940193176269531 0.86161810159683228 0.53990727663040161
0.88931286334991455 0.86602872610092163 0.54297733306884766
0.89955538511276245 0.87030410766601562 0.54693722724914551
0.75948715209960938 0.63885939121246338 0.58646482229232788
0.77384871244430542 0.65072858333587646 0.58185309171676636
0.81470769643783569 0.68590384721755981 0.57701462507247925
0.85444152355194092 0.74392795562744141 0.56537067890167236
0.87937086820602417 0.79081481695175171 0.55797779560089111
0.89408230781555176 0.82835847139358521 0.55175280570983887
0.90196079015731812 0.82837170362472534 0.55061274766921997
0.76444143056869507 0.67000997066497803 0.58116191625595093
0.78392714262008667 0.68238598108291626 0.58013564348220825
0.81785476207733154 0.70989060401916504 0.57289940118789673
0.85424351692199707 0.7588571310043335 0.56366688013076782
0.87852424383163452 0.79885727167129517 0.55700600147247314
0.89365893602371216 0.83059662580490112 0.55121445655822754
0.90193921327590942 0.83529680967330933 0.55057543516159058
0.76569509506225586 0.70621907711029053 0.57693368196487427
0.78075873851776123 0.71687692403793335 0.57416778802871704
0.81497836112976074 0.73941618204116821 0.56869494915008545
0.85276508331298828 0.77715557813644409 0.56187564134597778
0.87609767913818359 0.80635648965835571 0.55524361133575439
0.8929932713508606 0.8338579535484314 0.55189764499664307
0.90081149339675903 0.84323525428771973 0.5505567193031311
0.75106096267700195 0.74698483943939209 0.57076245546340942
0.76566135883331299 0.74976372718811035 0.56898266077041626
0.79753684997558594 0.76383864879608154 0.56331270933151245
0.84176403284072876 0.78936874866485596 0.5588386058807373
0.87554037570953369 0.82373833656311035 0.55459767580032349
0.89400613307952881 0.84305399656295776 0.55005419254302979
0.899932861328125 0.84925782680511475 0.54831349849700928
0.70139819383621216 0.77741044759750366 0.56444209814071655
0.71434140205383301 0.77583539485931396 0.5632249116897583
0.75641274452209473 0.78403556346893311 0.56123781204223633
0.81906694173812866 0.80221825838088989 0.5572468638420105
0.86216473579406738 0.82650297880172729 0.55369502305984497
0.89043909311294556 0.84864151477813721 0.55125242471694946
0.90067589282989502 0.85797017812728882 0.5497201681137085
0.77781379222869873 0.83301633596420288 0.55399733781814575
0.77526611089706421 0.82866972684860229 0.55248391628265381
0.79573959112167358 0.83094269037246704 0.55390810966491699
0.82138621807098389 0.82943856716156006 0.55435276031494141
0.85264056921005249 0.83955907821655273 0.55239665508270264
0.87755864858627319 0.85171985626220703 0.55138009786605835
0.89963841438293457 0.86611700057983398 0.55159854888916016
0.84415847063064575 0.86649578809738159 0.55016934871673584
0.84138447046279907 0.86360794305801392 0.54924190044403076
0.84917533397674561 0.86602222919464111 0.54967230558395386
0.8620184063911438 0.86544382572174072 0.55125123262405396
0.87733334302902222 0.86626178026199341 0.55258429050445557
0.88813298940658569 0.86621981859207153 0.54932898283004761
0.90139240026473999 0.87347579002380371 0.55376279354095459
