luts/instant_consumer/polaroid_px-100uv+_cold_--.cube
# Created by: G'MIC (https://gmic.eu)
TITLE "polaroid_px-100uv+_cold_--"
# LUT size
LUT_3D_SIZE 5
# Data domain
DOMAIN_MIN 0.0 0.0 0.0
DOMAIN_MAX 1.0 1.0 1.0
# LUT data points
0.012445876374840736 0.016518730670213699 0.016060354188084602
0.13302169740200043 0.1517498642206192 0.1531117707490921
0.33550205826759338 0.35619387030601501 0.3568534255027771
0.47935354709625244 0.49953439831733704 0.48977431654930115
0.6151268482208252 0.63542270660400391 0.61007517576217651
0.17551016807556152 0.19643045961856842 0.19881336390972137
0.21985302865505219 0.23903393745422363 0.24184602499008179
0.36575025320053101 0.38592499494552612 0.38791349530220032
0.48398333787918091 0.50379210710525513 0.49613574147224426
0.61770093441009521 0.6379164457321167 0.61306321620941162
0.39002928137779236 0.40944865345954895 0.40978813171386719
0.39440223574638367 0.41200670599937439 0.41551971435546875
0.44248777627944946 0.46121832728385925 0.46125254034996033
0.52078735828399658 0.53804564476013184 0.52907365560531616
0.62939411401748657 0.64882498979568481 0.62313318252563477
0.52668124437332153 0.54696118831634521 0.53301382064819336
0.53580230474472046 0.55416280031204224 0.5412103533744812
0.54043829441070557 0.56111466884613037 0.54536694288253784
0.60161674022674561 0.61967301368713379 0.59820097684860229
0.71246063709259033 0.73026371002197266 0.69195151329040527
0.75879734754562378 0.77385956048965454 0.73175984621047974
0.75632327795028687 0.77135354280471802 0.72981524467468262
0.75953853130340576 0.77589994668960571 0.73260420560836792
0.80890709161758423 0.820121169090271 0.77598899602890015
0.88050675392150879 0.88482779264450073 0.83648467063903809
0.22365231812000275 0.24442268908023834 0.24703077971935272
0.29143539071083069 0.31409412622451782 0.31749704480171204
0.42147323489189148 0.43882167339324951 0.43913179636001587
0.53338277339935303 0.55219370126724243 0.53975409269332886
0.64158964157104492 0.66057306528091431 0.63184905052185059
0.29466933012008667 0.31686189770698547 0.32105922698974609
0.35840228199958801 0.37880361080169678 0.38156995177268982
0.4348413348197937 0.45360451936721802 0.45406985282897949
0.52914935350418091 0.54791367053985596 0.53749310970306396
0.64658761024475098 0.6654961109161377 0.63721650838851929
0.46101811528205872 0.47601550817489624 0.47578278183937073
0.46138879656791687 0.47967681288719177 0.47794973850250244
0.48535290360450745 0.50499051809310913 0.49966469407081604
0.55253034830093384 0.57173055410385132 0.55819284915924072
0.658092200756073 0.67676955461502075 0.647777259349823
0.57798504829406738 0.59522014856338501 0.57815557718276978
0.57459580898284912 0.59343934059143066 0.57485705614089966
0.57215070724487305 0.59333318471908569 0.57214879989624023
0.61838400363922119 0.63821566104888916 0.61255097389221191
0.73457658290863037 0.74995929002761841 0.71014344692230225
0.77410966157913208 0.78705006837844849 0.74479871988296509
0.78011620044708252 0.79343670606613159 0.74895250797271729
0.77843302488327026 0.79201364517211914 0.74681687355041504
0.8269040584564209 0.83610093593597412 0.789195716381073
0.88389962911605835 0.88806998729705811 0.83819770812988281
0.4493752121925354 0.468382328748703 0.46433433890342712
0.48209032416343689 0.50047427415847778 0.49511146545410156
0.50291222333908081 0.52030187845230103 0.51278406381607056
0.57395941019058228 0.59396266937255859 0.57500892877578735
0.70166409015655518 0.71742790937423706 0.68279874324798584
0.46854111552238464 0.48537471890449524 0.48374837636947632
0.49713760614395142 0.51473331451416016 0.5092054009437561
0.52153801918029785 0.54123461246490479 0.53040772676467896
0.58342748880386353 0.60270321369171143 0.58536678552627563
0.71566712856292725 0.7316431999206543 0.69444578886032104
0.51641309261322021 0.53186488151550293 0.52507156133651733
0.53267133235931396 0.55023562908172607 0.53898578882217407
0.56807571649551392 0.58859425783157349 0.57067811489105225
0.62848532199859619 0.64814931154251099 0.62361747026443481
0.74260610342025757 0.75660926103591919 0.71820878982543945
0.62732207775115967 0.64451271295547485 0.62091803550720215
0.63937312364578247 0.65829277038574219 0.63049435615539551
0.6537550687789917 0.67457884550094604 0.64149183034896851
0.67734217643737793 0.69722473621368408 0.66160541772842407
0.77525097131729126 0.78791141510009766 0.74417710304260254
0.8237801194190979 0.83289968967437744 0.78706097602844238
0.83543300628662109 0.8448677659034729 0.79657471179962158
0.83509689569473267 0.84496521949768066 0.79502338171005249
0.85554540157318115 0.86311286687850952 0.81395262479782104
0.91072374582290649 0.91197007894515991 0.86059874296188354
0.61029225587844849 0.63025087118148804 0.60605543851852417
0.62274408340454102 0.643230140209198 0.61853033304214478
0.65947359800338745 0.67824578285217285 0.64830273389816284
0.67353576421737671 0.69247186183929443 0.66030693054199219
0.76231139898300171 0.77585917711257935 0.735027015209198
0.63023680448532104 0.64822655916213989 0.62504231929779053
0.64259332418441772 0.66177201271057129 0.63378769159317017
0.67042726278305054 0.69133931398391724 0.6546856164932251
0.69679903984069824 0.71633768081665039 0.6787104606628418
0.77546900510787964 0.79084664583206177 0.745655357837677
0.64142888784408569 0.65904951095581055 0.63275611400604248
0.65294194221496582 0.6713595986366272 0.64107215404510498
0.69240587949752808 0.71147888898849487 0.67337828874588013
0.72097057104110718 0.73931872844696045 0.70085692405700684
0.82963407039642334 0.83746302127838135 0.79191184043884277
0.6767306923866272 0.695198655128479 0.66113460063934326
0.69127142429351807 0.71146166324615479 0.67408603429794312
0.72810989618301392 0.74567687511444092 0.70300793647766113
0.78873229026794434 0.80159181356430054 0.75595009326934814
0.87798875570297241 0.88080054521560669 0.83136516809463501
0.88352346420288086 0.88730716705322266 0.83726578950881958
0.8863753080368042 0.88963830471038818 0.84095650911331177
0.90061485767364502 0.90245336294174194 0.85140568017959595
0.91616696119308472 0.91627371311187744 0.8666379451751709
0.94291204214096069 0.94080102443695068 0.89038264751434326
0.86471003293991089 0.87193626165390015 0.82401961088180542
0.87015986442565918 0.87533700466156006 0.82697576284408569
0.88899332284927368 0.8918452262878418 0.84237468242645264
0.92196768522262573 0.92182421684265137 0.8717847466468811
0.93541944026947021 0.93596231937408447 0.88402843475341797
0.86599218845367432 0.87409418821334839 0.82639855146408081
0.86998695135116577 0.87684625387191772 0.82692360877990723
0.88693124055862427 0.89118629693984985 0.83893263339996338
0.91975414752960205 0.91908550262451172 0.86806094646453857
0.93634915351867676 0.93679732084274292 0.88258171081542969
0.87873715162277222 0.88502925634384155 0.83620244264602661
0.88013595342636108 0.88315033912658691 0.83435177803039551
0.90359866619110107 0.90373104810714722 0.85259884595870972
0.9311288595199585 0.92717152833938599 0.876129150390625
0.93701398372650146 0.93552535772323608 0.88300210237503052
0.89226841926574707 0.89387071132659912 0.84479731321334839
0.8951835036277771 0.89526426792144775 0.84590578079223633
0.90738898515701294 0.90635097026824951 0.85620415210723877
0.94399809837341309 0.93941158056259155 0.88757455348968506
0.96701443195343018 0.96223819255828857 0.91083663702011108
0.93871051073074341 0.93416851758956909 0.88348722457885742
0.93362975120544434 0.93364989757537842 0.88280218839645386
0.94832628965377808 0.94551724195480347 0.89476245641708374
0.9714546799659729 0.96541100740432739 0.91632956266403198
0.98167902231216431 0.97825586795806885 0.93073147535324097
