luts/instant_consumer/polaroid_time_zero_expired_+.cube
# Created by: G'MIC (https://gmic.eu)
TITLE "polaroid_time_zero_expired_+"
# LUT size
LUT_3D_SIZE 5
# Data domain
DOMAIN_MIN 0.0 0.0 0.0
DOMAIN_MAX 1.0 1.0 1.0
# LUT data points
0.80917549133300781 0.52487528324127197 0.25697079300880432
0.81322693824768066 0.52087140083312988 0.25382846593856812
0.82840168476104736 0.52584618330001831 0.26015040278434753
0.87210029363632202 0.53238469362258911 0.26019108295440674
0.93120819330215454 0.54546016454696655 0.26825979351997375
0.81176471710205078 0.54039674997329712 0.25121825933456421
0.81912910938262939 0.54112201929092407 0.24957393109798431
0.83843457698822021 0.54812872409820557 0.25754454731941223
0.87958747148513794 0.55684804916381836 0.26175698637962341
0.93345588445663452 0.57213681936264038 0.26835471391677856
0.81595605611801147 0.58458560705184937 0.24415327608585358
0.82589727640151978 0.5917123556137085 0.23446430265903473
0.84763485193252563 0.60083436965942383 0.24751830101013184
0.88538485765457153 0.61143791675567627 0.26711180806159973
0.93345588445663452 0.62980848550796509 0.25940287113189697
0.82952237129211426 0.68443626165390015 0.22432824969291687
0.8376535177230835 0.6873321533203125 0.20969393849372864
0.85658657550811768 0.69299232959747314 0.21666517853736877
0.89174729585647583 0.70573508739471436 0.27248641848564148
0.93475210666656494 0.72758865356445312 0.32600265741348267
0.8520084023475647 0.80959779024124146 0.24509856104850769
0.85846620798110962 0.81030851602554321 0.24073421955108643
0.87454074621200562 0.8098137378692627 0.23047080636024475
0.90994274616241455 0.81575542688369751 0.31436255574226379
0.95467668771743774 0.82627469301223755 0.43251168727874756
0.81116300821304321 0.51936078071594238 0.27114862203598022
0.81699347496032715 0.51605916023254395 0.27600970864295959
0.83406472206115723 0.5207628607749939 0.28605028986930847
0.87543845176696777 0.53124046325683594 0.29009315371513367
0.93345588445663452 0.55222803354263306 0.29794192314147949
0.81353646516799927 0.53871756792068481 0.27468463778495789
0.82158219814300537 0.53865236043930054 0.27720552682876587
0.84114176034927368 0.54533833265304565 0.28578424453735352
0.88004684448242188 0.55318260192871094 0.28925079107284546
0.9363371729850769 0.56883710622787476 0.29531759023666382
0.81566762924194336 0.58988481760025024 0.27475550770759583
0.82566434144973755 0.59297651052474976 0.26827943325042725
0.8480868935585022 0.60195130109786987 0.27317756414413452
0.88464057445526123 0.61127007007598877 0.27920791506767273
0.93345588445663452 0.62572503089904785 0.27578285336494446
0.82295054197311401 0.68443626165390015 0.26199078559875488
0.83326494693756104 0.68835437297821045 0.24976608157157898
0.85597103834152222 0.69671404361724854 0.24868710339069366
0.89137947559356689 0.71223539113998413 0.2936299741268158
0.93468946218490601 0.72990584373474121 0.34832465648651123
0.84113615751266479 0.80668681859970093 0.27950787544250488
0.85133087635040283 0.81145942211151123 0.27444577217102051
0.87423169612884521 0.81511479616165161 0.26109996438026428
0.90994268655776978 0.82345789670944214 0.33465969562530518
0.95359814167022705 0.83311468362808228 0.46578451991081238
0.82231605052947998 0.52604705095291138 0.33889606595039368
0.83088904619216919 0.52312463521957397 0.352579265832901
0.84463310241699219 0.53013420104980469 0.35984951257705688
0.87580716609954834 0.53673833608627319 0.36311876773834229
0.93345588445663452 0.55217570066452026 0.39485785365104675
0.82786655426025391 0.54904651641845703 0.35065722465515137
0.83639955520629883 0.54978519678115845 0.35646849870681763
0.85271036624908447 0.55810534954071045 0.36381503939628601
0.88407784700393677 0.56008625030517578 0.36809214949607849
0.9373774528503418 0.56726753711700439 0.39073994755744934
0.82698380947113037 0.59724527597427368 0.34615778923034668
0.83783018589019775 0.60299265384674072 0.34776222705841064
0.85847502946853638 0.61511284112930298 0.35248121619224548
0.88826674222946167 0.61679631471633911 0.35254782438278198
0.93456804752349854 0.61799049377441406 0.35384419560432434
0.8263128399848938 0.67912739515304565 0.33596652746200562
0.83601886034011841 0.68701517581939697 0.33751338720321655
0.85691660642623901 0.6989138126373291 0.3398115336894989
0.89531522989273071 0.71927571296691895 0.37930053472518921
0.93902206420898438 0.7266119122505188 0.38911235332489014
0.83956754207611084 0.81018978357315063 0.38826200366020203
0.84597325325012207 0.81172198057174683 0.37903103232383728
0.86789679527282715 0.81352323293685913 0.35257387161254883
0.9065779447555542 0.82648420333862305 0.38411897420883179
0.9537118673324585 0.83833807706832886 0.49983245134353638
0.85180360078811646 0.55377388000488281 0.50671905279159546
0.85805386304855347 0.5558096170425415 0.51002085208892822
0.86699593067169189 0.56884157657623291 0.51842039823532104
0.88740193843841553 0.5750088095664978 0.50772058963775635
0.93212449550628662 0.57298934459686279 0.51775556802749634
0.85861438512802124 0.58659493923187256 0.51041346788406372
0.86450308561325073 0.58861684799194336 0.51247137784957886
0.87347686290740967 0.60189652442932129 0.51770353317260742
0.89218991994857788 0.60575520992279053 0.51651668548583984
0.9314313530921936 0.59737730026245117 0.51387393474578857
0.85670191049575806 0.63654297590255737 0.49890381097793579
0.86389607191085815 0.63911586999893188 0.5029723048210144
0.87675231695175171 0.65488290786743164 0.51112526655197144
0.89642733335494995 0.66131848096847534 0.51689642667770386
0.93452543020248413 0.64190971851348877 0.52083545923233032
0.84586149454116821 0.69000226259231567 0.47486826777458191
0.85374331474304199 0.69733726978302002 0.48082670569419861
0.86736702919006348 0.71392965316772461 0.49407327175140381
0.89543706178665161 0.73240143060684204 0.5087398886680603
0.9371645450592041 0.7207149863243103 0.49713015556335449
0.84862738847732544 0.80037248134613037 0.5083884596824646
0.85342901945114136 0.80156475305557251 0.510719895362854
0.86684125661849976 0.80970627069473267 0.51578629016876221
0.89826714992523193 0.82460510730743408 0.50250434875488281
0.94957000017166138 0.83464884757995605 0.59613227844238281
0.88510721921920776 0.62809550762176514 0.69975435733795166
0.88768875598907471 0.62690895795822144 0.69930398464202881
0.89071643352508545 0.6399492621421814 0.70515364408493042
0.90212035179138184 0.65772038698196411 0.71043926477432251
0.92545032501220703 0.67305165529251099 0.69487833976745605
0.89248096942901611 0.66535180807113647 0.70531558990478516
0.89456206560134888 0.66277110576629639 0.70461583137512207
0.89552819728851318 0.67502516508102417 0.70583176612854004
0.90404605865478516 0.6954571008682251 0.72653895616531372
0.92475491762161255 0.69760090112686157 0.70162206888198853
0.89118510484695435 0.71502923965454102 0.70841389894485474
0.89368551969528198 0.7088092565536499 0.7107054591178894
0.89838367700576782 0.72081917524337769 0.7147904634475708
0.90950781106948853 0.73931246995925903 0.7236863374710083
0.92450124025344849 0.73804128170013428 0.70644587278366089
0.87670093774795532 0.74572330713272095 0.69804173707962036
0.88253390789031982 0.75078427791595459 0.7037472128868103
0.89037406444549561 0.76787048578262329 0.7113879919052124
0.9085279107093811 0.7880130410194397 0.71876806020736694
0.93278533220291138 0.78563159704208374 0.72818475961685181
0.8718266487121582 0.81959295272827148 0.70296090841293335
0.87571722269058228 0.82260960340499878 0.70704329013824463
0.88379466533660889 0.82988846302032471 0.71347212791442871
0.9025498628616333 0.84579825401306152 0.71965086460113525
0.94323849678039551 0.85995471477508545 0.74788558483123779
