luts/instant_consumer/polaroid_px-70_+++.cube
# Created by: G'MIC (https://gmic.eu)
TITLE "polaroid_px-70_+++"
# LUT size
LUT_3D_SIZE 13
# Data domain
DOMAIN_MIN 0.0 0.0 0.0
DOMAIN_MAX 1.0 1.0 1.0
# LUT data points
0.32791569828987122 0.38823530077934265 0.29411765933036804
0.3240874707698822 0.38823530077934265 0.29439571499824524
0.31943854689598083 0.38818162679672241 0.29531562328338623
0.31774991750717163 0.3871178925037384 0.29481759667396545
0.32489228248596191 0.38436195254325867 0.29411765933036804
0.34948179125785828 0.3850758969783783 0.29378160834312439
0.40196999907493591 0.38584735989570618 0.29065999388694763
0.48732534050941467 0.38729199767112732 0.28647258877754211
0.5942683219909668 0.39586576819419861 0.28076958656311035
0.70985329151153564 0.4148503839969635 0.27459046244621277
0.81751894950866699 0.44395613670349121 0.26929143071174622
0.89618068933486938 0.48032671213150024 0.26790741086006165
0.94734674692153931 0.52037930488586426 0.27052989602088928
0.32408767938613892 0.38518461585044861 0.29425534605979919
0.32198557257652283 0.38585177063941956 0.29766404628753662
0.31937745213508606 0.38650485873222351 0.29803922772407532
0.32018035650253296 0.38545319437980652 0.29802826046943665
0.33096715807914734 0.38431373238563538 0.2960362434387207
0.3599802553653717 0.38442358374595642 0.29411765933036804
0.41546252369880676 0.38574367761611938 0.29210162162780762
0.49931982159614563 0.38962772488594055 0.28776466846466064
0.60484844446182251 0.4012543261051178 0.28156110644340515
0.71985673904418945 0.42305177450180054 0.27445325255393982
0.82662087678909302 0.4544546902179718 0.26833835244178772
0.90396928787231445 0.491813063621521 0.2660101056098938
0.95255208015441895 0.53135377168655396 0.2686106264591217
0.32050842046737671 0.38510867953300476 0.29416197538375854
0.31962811946868896 0.38593003153800964 0.29700419306755066
0.32006928324699402 0.38796290755271912 0.29786613583564758
0.32572022080421448 0.38876020908355713 0.29735112190246582
0.34234976768493652 0.38859307765960693 0.29519042372703552
0.37733680009841919 0.38877466320991516 0.29411765933036804
0.43487471342086792 0.3906073272228241 0.29184743762016296
0.51705974340438843 0.39663535356521606 0.28761765360832214
0.6189388632774353 0.41129273176193237 0.2810325026512146
0.7302243709564209 0.43715569376945496 0.27318629622459412
0.83057904243469238 0.47131079435348511 0.26663950085639954
0.90411502122879028 0.50791102647781372 0.26433733105659485
0.9514235258102417 0.54806429147720337 0.26752001047134399
0.31793248653411865 0.39287623763084412 0.29409492015838623
0.31973206996917725 0.39432379603385925 0.29415097832679749
0.32400012016296387 0.39715671539306641 0.29424953460693359
0.33496052026748657 0.3991858959197998 0.29413619637489319
0.35819584131240845 0.40008682012557983 0.29352191090583801
0.39868691563606262 0.40221792459487915 0.29202809929847717
0.45904690027236938 0.40477532148361206 0.28942495584487915
0.53826802968978882 0.41209560632705688 0.28514164686203003
0.63548535108566284 0.42915195226669312 0.27823790907859802
0.74329239130020142 0.45855465531349182 0.26928776502609253
0.83759737014770508 0.49362745881080627 0.26251927018165588
0.90407806634902954 0.53047561645507812 0.26127824187278748
0.94745010137557983 0.56904417276382446 0.26598823070526123
0.32169243693351746 0.41381004452705383 0.29067394137382507
0.32449683547019958 0.41616725921630859 0.29135441780090332
0.33271652460098267 0.42041686177253723 0.2911173403263092
0.34927466511726379 0.42336872220039368 0.29002413153648376
0.37816536426544189 0.42585676908493042 0.28877916932106018
0.42452517151832581 0.42826202511787415 0.28696385025978088
0.48946857452392578 0.43416917324066162 0.28389143943786621
0.56818455457687378 0.44355064630508423 0.27931433916091919
0.65912723541259766 0.46084839105606079 0.27152979373931885
0.75964558124542236 0.49015510082244873 0.26190149784088135
0.84493440389633179 0.52255672216415405 0.25479528307914734
0.90292495489120483 0.55498158931732178 0.25426870584487915
0.94207960367202759 0.59015029668807983 0.26066026091575623
0.32885533571243286 0.45330026745796204 0.28502419590950012
0.33547753095626831 0.45582994818687439 0.28541606664657593
0.34928330779075623 0.46094509959220886 0.2850683331489563
0.37050193548202515 0.46441543102264404 0.28380569815635681
0.40340879559516907 0.46647948026657104 0.28219753503799438
0.45443239808082581 0.47018194198608398 0.27974918484687805
0.52683728933334351 0.48063263297080994 0.27571523189544678
0.61179190874099731 0.49586611986160278 0.26954385638237
0.69681638479232788 0.51366746425628662 0.26108011603355408
0.77922606468200684 0.53531056642532349 0.25187510251998901
0.84935230016708374 0.55841279029846191 0.24515727162361145
0.90000563859939575 0.58180087804794312 0.24494388699531555
0.93565040826797485 0.60808926820755005 0.25161492824554443
0.34811624884605408 0.50977331399917603 0.2783835232257843
0.358408123254776 0.51282358169555664 0.27833762764930725
0.37641271948814392 0.5184706449508667 0.27757161855697632
0.4017212986946106 0.52226549386978149 0.27600711584091187
0.43727385997772217 0.52431249618530273 0.27428558468818665
0.48883360624313354 0.52768552303314209 0.27187943458557129
0.56436777114868164 0.54051786661148071 0.26713892817497253
0.65232521295547485 0.55959194898605347 0.26010850071907043
0.73044359683990479 0.57666337490081787 0.25136595964431763
0.79779905080795288 0.59155964851379395 0.24327729642391205
0.85450780391693115 0.60484212636947632 0.23880620300769806
0.89729005098342896 0.61703383922576904 0.23965522646903992
0.92929559946060181 0.63304752111434937 0.24667881429195404
0.38905578851699829 0.58390307426452637 0.27097663283348083
0.39900374412536621 0.58454644680023193 0.27033624053001404
0.41726821660995483 0.58734369277954102 0.26979658007621765
0.44557440280914307 0.5920867919921875 0.26869016885757446
0.48352786898612976 0.59648996591567993 0.26775386929512024
0.53298866748809814 0.59975302219390869 0.26565772294998169
0.59923392534255981 0.60858321189880371 0.26156270503997803
0.6754840612411499 0.62332731485366821 0.25556915998458862
0.74794650077819824 0.63821393251419067 0.24837899208068848
0.80965936183929443 0.65066993236541748 0.24201416969299316
0.8589400053024292 0.65855348110198975 0.24086132645606995
0.89593970775604248 0.66391611099243164 0.24515590071678162
0.92482113838195801 0.67301458120346069 0.25508409738540649
0.45293149352073669 0.6646386981010437 0.26363512873649597
0.45827251672744751 0.6574251651763916 0.26590672135353088
0.47474932670593262 0.65611922740936279 0.26714369654655457
0.50433909893035889 0.66206061840057373 0.2677740752696991
0.54182291030883789 0.66947305202484131 0.2676880955696106
0.584064781665802 0.67196446657180786 0.26612654328346252
0.6365693211555481 0.67534333467483521 0.26338654756546021
0.69807988405227661 0.68364578485488892 0.25979310274124146
0.76107341051101685 0.69501799345016479 0.25563102960586548
0.81755697727203369 0.70562118291854858 0.25271850824356079
0.86218082904815674 0.71175527572631836 0.25525885820388794
0.89563018083572388 0.71577149629592896 0.26409518718719482
0.92241519689559937 0.72294133901596069 0.27733573317527771
0.54125785827636719 0.72452247142791748 0.27206474542617798
0.54345858097076416 0.71954518556594849 0.27424943447113037
0.55354446172714233 0.71702301502227783 0.27662938833236694
0.57696527242660522 0.72142183780670166 0.27926239371299744
0.60696852207183838 0.7270275354385376 0.27947303652763367
0.63989585638046265 0.72957909107208252 0.27821129560470581
0.67981445789337158 0.73139482736587524 0.27637273073196411
0.72838521003723145 0.73578333854675293 0.27545627951622009
0.77999979257583618 0.74266809225082397 0.27488934993743896
0.82706177234649658 0.75024539232254028 0.27616497874259949
0.86556315422058105 0.75560694932937622 0.2818162739276886
0.89588195085525513 0.76061588525772095 0.29290884733200073
0.92075479030609131 0.76767653226852417 0.30742928385734558
0.64181458950042725 0.76976215839385986 0.29798081517219543
0.64525711536407471 0.76983517408370972 0.29880723357200623
0.64835196733474731 0.76713407039642334 0.30021592974662781
0.66102910041809082 0.76791918277740479 0.30200296640396118
0.68057078123092651 0.76984304189682007 0.30251473188400269
0.70440411567687988 0.77133327722549438 0.30267477035522461
0.73360753059387207 0.77260738611221313 0.30231231451034546
0.76942950487136841 0.7749674916267395 0.30285859107971191
0.80765748023986816 0.77901506423950195 0.30460366606712341
0.84306830167770386 0.7837638258934021 0.3080902099609375
0.8734162449836731 0.7880702018737793 0.31496158242225647
0.89829164743423462 0.79230308532714844 0.32570996880531311
0.92065584659576416 0.79721826314926147 0.33872038125991821
0.74065905809402466 0.80069220066070557 0.33419117331504822
0.74401748180389404 0.80412924289703369 0.33418706059455872
0.7443697452545166 0.80326026678085327 0.33388510346412659
0.74908661842346191 0.80230873823165894 0.33417901396751404
0.75999361276626587 0.80158209800720215 0.33509749174118042
0.7759784460067749 0.80088245868682861 0.33647254109382629
0.79595237970352173 0.80069649219512939 0.33783844113349915
0.81921499967575073 0.80204939842224121 0.33918583393096924
0.84374493360519409 0.80457282066345215 0.34060171246528625
0.86704832315444946 0.80739837884902954 0.34419241547584534
0.88759094476699829 0.81008118391036987 0.3503757119178772
0.90564638376235962 0.81213992834091187 0.35952728986740112
0.92270225286483765 0.81427270174026489 0.37006363272666931
0.83612054586410522 0.82511693239212036 0.37279412150382996
0.8367311954498291 0.82888811826705933 0.37132993340492249
0.83384603261947632 0.82891619205474854 0.3689081072807312
0.83362209796905518 0.82693237066268921 0.36979705095291138
0.83861762285232544 0.82461273670196533 0.37215074896812439
0.8478085994720459 0.82238572835922241 0.37437653541564941
0.8601377010345459 0.82021266222000122 0.37650942802429199
0.87258827686309814 0.82074964046478271 0.37800368666648865
0.88490688800811768 0.82251721620559692 0.37841284275054932
0.89705193042755127 0.82417023181915283 0.38091191649436951
0.90874826908111572 0.82489484548568726 0.38572591543197632
0.91939747333526611 0.82510679960250854 0.39283585548400879
0.93124645948410034 0.82519567012786865 0.40111806988716125
0.3290037214756012 0.38826096057891846 0.29411765933036804
0.32720020413398743 0.39010393619537354 0.29411962628364563
0.32436439394950867 0.39005553722381592 0.29424348473548889
0.32175567746162415 0.38806283473968506 0.2941928505897522
0.32804608345031738 0.38433423638343811 0.29411765933036804
0.35423865914344788 0.38169980049133301 0.29361745715141296
0.40911376476287842 0.37995460629463196 0.29083424806594849
0.4944741427898407 0.38174265623092651 0.28812447190284729
0.60125327110290527 0.39138579368591309 0.28418034315109253
0.71678084135055542 0.41414368152618408 0.27971196174621582
0.82370907068252563 0.44836911559104919 0.27562704682350159
0.90166002511978149 0.48776885867118835 0.27458775043487549
0.95076602697372437 0.52927643060684204 0.27768456935882568
0.32499814033508301 0.38766077160835266 0.29411765933036804
0.32518625259399414 0.38830441236495972 0.29525730013847351
0.32427021861076355 0.38859102129936218 0.29690977931022644
0.32441365718841553 0.38805678486824036 0.29655176401138306
0.33442139625549316 0.38461315631866455 0.29470717906951904
0.36454164981842041 0.38354206085205078 0.29411765933036804
0.42179703712463379 0.38306868076324463 0.29297715425491333
0.50716251134872437 0.38703924417495728 0.28947365283966064
0.61263930797576904 0.39964747428894043 0.28506562113761902
0.72667402029037476 0.42463976144790649 0.27959036827087402
0.83211475610733032 0.45991158485412598 0.27434822916984558
0.90725749731063843 0.49727511405944824 0.27197831869125366
0.95323818922042847 0.53615516424179077 0.27412977814674377
0.3213883638381958 0.38768741488456726 0.29411765933036804
0.32197540998458862 0.38856774568557739 0.29552021622657776
0.32372596859931946 0.38951340317726135 0.29745638370513916
0.32930687069892883 0.38972175121307373 0.29673045873641968
0.3460976779460907 0.38911515474319458 0.29469302296638489
0.38216021656990051 0.38876676559448242 0.29411765933036804
0.4431951642036438 0.39082935452461243 0.29312828183174133
0.52796041965484619 0.39770489931106567 0.28925016522407532
0.63067007064819336 0.41331019997596741 0.2839844822883606
0.73967581987380981 0.44020473957061768 0.27740970253944397
0.83722519874572754 0.47435212135314941 0.27162158489227295
0.90713328123092651 0.50974243879318237 0.2690119743347168
0.95153069496154785 0.54672223329544067 0.2714894711971283
0.31894406676292419 0.39581182599067688 0.29411765933036804
0.32201370596885681 0.39664366841316223 0.29412513971328735
0.32702648639678955 0.39893719553947449 0.29420921206474304
0.33864188194274902 0.40030834078788757 0.29414519667625427
0.36257851123809814 0.4017280638217926 0.29401156306266785
0.40551158785820007 0.40345332026481628 0.29297807812690735
0.46995112299919128 0.40764659643173218 0.29056417942047119
0.55376565456390381 0.41649109125137329 0.28670954704284668
0.65182161331176758 0.43398067355155945 0.28025010228157043
0.75462323427200317 0.46131041646003723 0.2724672257900238
0.8434717059135437 0.49434247612953186 0.26639765501022339
0.90628218650817871 0.52895170450210571 0.26491507887840271
0.9474295973777771 0.56550318002700806 0.26924502849578857
0.32214835286140442 0.41763606667518616 0.29134181141853333
0.32660427689552307 0.41889610886573792 0.29213604331016541
0.33613917231559753 0.42218267917633057 0.2920038104057312
0.35366278886795044 0.42517906427383423 0.29118961095809937
0.38409435749053955 0.42721456289291382 0.28973311185836792
0.43285587430000305 0.43080472946166992 0.28818970918655396
0.50131797790527344 0.43768686056137085 0.28520837426185608
0.58487147092819214 0.44894412159919739 0.28034502267837524
0.67751401662826538 0.46662327647209167 0.27270263433456421
0.7707514762878418 0.49192109704017639 0.26413324475288391
0.84988462924957275 0.52101665735244751 0.25809881091117859
0.90535998344421387 0.55207878351211548 0.25811383128166199
0.94258314371109009 0.58714991807937622 0.26427456736564636
0.33085644245147705 0.45671948790550232 0.2865329384803772
0.33835706114768982 0.45870289206504822 0.28713932633399963
0.35276854038238525 0.4629882276058197 0.28635379672050476
0.37540709972381592 0.46663880348205566 0.28504690527915955
0.41041913628578186 0.46915528178215027 0.28348353505134583
0.46337234973907471 0.47368296980857849 0.28118345141410828
0.5359504222869873 0.48355424404144287 0.27726241946220398
0.6214144229888916 0.49854013323783875 0.27100738883018494
0.7082589864730835 0.51647144556045532 0.26264584064483643
0.78862124681472778 0.5363582968711853 0.25404444336891174
0.85490363836288452 0.55753356218338013 0.24872446060180664
0.90305477380752563 0.58042895793914795 0.24968495965003967
0.93703973293304443 0.60839724540710449 0.25710007548332214
0.35181471705436707 0.51322102546691895 0.28001943230628967
0.36198237538337708 0.51667946577072144 0.27985978126525879
0.37958860397338867 0.52140802145004272 0.27875268459320068
0.4059785008430481 0.5251317024230957 0.27732980251312256
0.44381225109100342 0.52768915891647339 0.275808185338974
0.49739056825637817 0.53209537267684937 0.27346855401992798
0.56994563341140747 0.54311203956604004 0.26920393109321594
0.65381908416748047 0.55979049205780029 0.26257994771003723
0.73511457443237305 0.57791233062744141 0.25432530045509338
0.80480670928955078 0.59307515621185303 0.24664749205112457
0.86019206047058105 0.60535258054733276 0.24290959537029266
0.90149742364883423 0.61848312616348267 0.24545674026012421
0.93164181709289551 0.63757956027984619 0.25442177057266235
0.39702004194259644 0.58859837055206299 0.27302676439285278
0.40666988492012024 0.5919373631477356 0.27228769659996033
0.42179739475250244 0.59247446060180664 0.27110397815704346
0.44955849647521973 0.59540146589279175 0.27051687240600586
0.48783197999000549 0.59834128618240356 0.26974642276763916
0.53769075870513916 0.60163295269012451 0.26830151677131653
0.60224944353103638 0.60968947410583496 0.26497974991798401
0.67541688680648804 0.62322866916656494 0.25959333777427673
0.75007438659667969 0.64025485515594482 0.25271427631378174
0.81478255987167358 0.65352809429168701 0.24704769253730774
0.86357265710830688 0.66082358360290527 0.24604032933712006
0.89971721172332764 0.66721928119659424 0.25154298543930054
0.92740720510482788 0.67849075794219971 0.26237452030181885
0.46398106217384338 0.66837447881698608 0.26690804958343506
0.46812456846237183 0.66595655679702759 0.26729646325111389
0.48008999228477478 0.66198492050170898 0.26814347505569458
0.50823831558227539 0.66555416584014893 0.26969155669212341
0.54343986511230469 0.66886508464813232 0.27045682072639465
0.58578550815582275 0.67112022638320923 0.26998817920684814
0.63840270042419434 0.67543309926986694 0.26828667521476746
0.69924211502075195 0.68447089195251465 0.26518794894218445
0.76339644193649292 0.6976051926612854 0.26125943660736084
0.82114344835281372 0.70897603034973145 0.25896888971328735
0.86520421504974365 0.71469676494598389 0.2612762451171875
0.89853936433792114 0.71873694658279419 0.26967599987983704
0.92418044805526733 0.72601038217544556 0.28245270252227783
0.55098980665206909 0.72998106479644775 0.27391153573989868
0.54785704612731934 0.72396206855773926 0.27481040358543396
0.55816984176635742 0.72199010848999023 0.27744045853614807
0.58164817094802856 0.72527092695236206 0.28048378229141235
0.60948032140731812 0.72748667001724243 0.2821291983127594
0.64262306690216064 0.72890686988830566 0.28283953666687012
0.68353557586669922 0.73162782192230225 0.28267344832420349
0.73180550336837769 0.73743647336959839 0.28187131881713867
0.7829357385635376 0.74614578485488892 0.28117549419403076
0.82980829477310181 0.75408214330673218 0.28193849325180054
0.86813604831695557 0.75920009613037109 0.2869754433631897
0.89777249097824097 0.76340013742446899 0.29709282517433167
0.92186784744262695 0.76870298385620117 0.31038478016853333
0.65132611989974976 0.77652245759963989 0.29867827892303467
0.65146744251251221 0.77514874935150146 0.29933652281761169
0.65369135141372681 0.77188938856124878 0.30110600590705872
0.66634595394134521 0.77164489030838013 0.30362069606781006
0.68510192632675171 0.77237284183502197 0.30603349208831787
0.70899277925491333 0.77300846576690674 0.30774068832397461
0.73866242170333862 0.77346658706665039 0.30867931246757507
0.77356690168380737 0.77713215351104736 0.30951541662216187
0.81063544750213623 0.78238040208816528 0.31068840622901917
0.84546506404876709 0.78783231973648071 0.31341031193733215
0.87538987398147583 0.79186558723449707 0.31930485367774963
0.90026938915252686 0.7952878475189209 0.3289448618888855
0.92168706655502319 0.79905921220779419 0.34097936749458313
0.75040596723556519 0.80810928344726562 0.33419117331504822
0.75158697366714478 0.81002300977706909 0.33419099450111389
0.75010848045349121 0.80799061059951782 0.33439883589744568
0.75462555885314941 0.80581033229827881 0.33579495549201965
0.76525819301605225 0.80410480499267578 0.33867207169532776
0.78141146898269653 0.80270153284072876 0.34165686368942261
0.80151134729385376 0.80250614881515503 0.34403565526008606
0.82371312379837036 0.80404448509216309 0.34502485394477844
0.84668183326721191 0.80761420726776123 0.34627565741539001
0.86896991729736328 0.81126469373703003 0.34874826669692993
0.88937538862228394 0.813945472240448 0.35413315892219543
0.9074360728263855 0.81574279069900513 0.36218416690826416
0.924183189868927 0.81765210628509521 0.37178003787994385
0.84236550331115723 0.83144611120223999 0.37120059132575989
0.84272241592407227 0.83424240350723267 0.37088921666145325
0.83954817056655884 0.83250290155410767 0.37080466747283936
0.83895885944366455 0.83024317026138306 0.37250131368637085
0.84391075372695923 0.82695871591567993 0.37519502639770508
0.85376238822937012 0.82344329357147217 0.37928327918052673
0.86630266904830933 0.82149404287338257 0.38273823261260986
0.87753391265869141 0.82233238220214844 0.38339897990226746
0.88800215721130371 0.82503414154052734 0.38316997885704041
0.89919966459274292 0.82725739479064941 0.38474738597869873
0.91036659479141235 0.8287585973739624 0.38860920071601868
0.92171263694763184 0.82909917831420898 0.39462092518806458
0.93354570865631104 0.8296399712562561 0.40197667479515076
0.32645133137702942 0.38833096623420715 0.29361531138420105
0.32817408442497253 0.39202851057052612 0.29343447089195251
0.32746431231498718 0.39201295375823975 0.29370692372322083
0.32533910870552063 0.38793644309043884 0.29370692372322083
0.33208060264587402 0.3831825852394104 0.29321354627609253
0.3600420355796814 0.37887966632843018 0.29212465882301331
0.41688072681427002 0.37570458650588989 0.29045170545578003
0.50369751453399658 0.37691587209701538 0.28993117809295654
0.61325633525848389 0.38820174336433411 0.28780689835548401
0.73083513975143433 0.41595128178596497 0.28582620620727539
0.83469909429550171 0.45738258957862854 0.28494107723236084
0.90648120641708374 0.50029206275939941 0.28525125980377197
0.95001751184463501 0.54469692707061768 0.28935080766677856
0.3242209255695343 0.38823530077934265 0.29411765933036804
0.32622158527374268 0.39023318886756897 0.29411765933036804
0.32775473594665527 0.39180615544319153 0.29412949085235596
0.32807356119155884 0.38840043544769287 0.29412290453910828
0.33849501609802246 0.38508889079093933 0.29411765933036804
0.37016046047210693 0.38237738609313965 0.29411765933036804
0.43006816506385803 0.3822706937789917 0.29365503787994385
0.51816779375076294 0.38666239380836487 0.29094293713569641
0.62609094381332397 0.40149560570716858 0.28902468085289001
0.74056088924407959 0.43192526698112488 0.28632593154907227
0.84157049655914307 0.47313410043716431 0.28384885191917419
0.91040337085723877 0.5108146071434021 0.28242132067680359
0.95032262802124023 0.54850554466247559 0.28446680307388306
0.32131555676460266 0.39051610231399536 0.29411765933036804
0.32357177138328552 0.39137217402458191 0.29411765933036804
0.3265036940574646 0.39232149720191956 0.29417192935943604
0.33302092552185059 0.391519695520401 0.29413726925849915
0.35064321756362915 0.39060911536216736 0.29411765933036804
0.38910761475563049 0.39072543382644653 0.29411765933036804
0.45375904440879822 0.39377886056900024 0.29407542943954468
0.54218101501464844 0.40182831883430481 0.29190745949745178
0.64595937728881836 0.41895842552185059 0.28830170631408691
0.7524603009223938 0.44876304268836975 0.28430372476577759
0.84454405307769775 0.48590925335884094 0.28086140751838684
0.90864688158035278 0.51980340480804443 0.27878311276435852
0.94686371088027954 0.55289703607559204 0.28032374382019043
0.32110422849655151 0.40075322985649109 0.29411765933036804
0.32465922832489014 0.4008382260799408 0.29411765933036804
0.3313826322555542 0.40213432908058167 0.29411765933036804
0.34401696920394897 0.40308856964111328 0.29411765933036804
0.3690473735332489 0.40396055579185486 0.29411765933036804
0.41456645727157593 0.407194584608078 0.29396075010299683
0.48409396409988403 0.4136100709438324 0.29277709126472473
0.57209295034408569 0.42434078454971313 0.28976389765739441
0.66970229148864746 0.44193536043167114 0.28456997871398926
0.76629459857940674 0.46896567940711975 0.27906548976898193
0.84813636541366577 0.50188928842544556 0.27522093057632446
0.90627360343933105 0.53510695695877075 0.27446475625038147
0.9434666633605957 0.57011628150939941 0.27839285135269165
0.32684797048568726 0.42421954870223999 0.29301053285598755
0.33296731114387512 0.42423906922340393 0.29354318976402283
0.34399145841598511 0.42633703351020813 0.29343819618225098
0.36239528656005859 0.4284079372882843 0.29275220632553101
0.39357715845108032 0.43081095814704895 0.29161405563354492
0.4442521333694458 0.435373455286026 0.29029044508934021
0.51636558771133423 0.4438815712928772 0.28817108273506165
0.60289472341537476 0.45627641677856445 0.28394493460655212
0.69401949644088745 0.47354939579963684 0.27732944488525391
