luts/instant_consumer/polaroid_px-70_cold_--.cube
# Created by: G'MIC (https://gmic.eu)
TITLE "polaroid_px-70_cold_--"
# LUT size
LUT_3D_SIZE 13
# Data domain
DOMAIN_MIN 0.0 0.0 0.0
DOMAIN_MAX 1.0 1.0 1.0
# LUT data points
0.0046514174900949001 0.028123190626502037 0.029590876772999763
0.022165695205330849 0.037972692400217056 0.030607201159000397
0.065139397978782654 0.046601433306932449 0.036554731428623199
0.14299213886260986 0.060951441526412964 0.047128789126873016
0.25032797455787659 0.072499260306358337 0.058769494295120239
0.38684350252151489 0.075732424855232239 0.073242858052253723
0.52684599161148071 0.086056262254714966 0.084790296852588654
0.65962296724319458 0.12678445875644684 0.093161486089229584
0.77126240730285645 0.20068156719207764 0.09841504693031311
0.86396968364715576 0.27790641784667969 0.10109008848667145
0.93543195724487305 0.36695724725723267 0.10553736984729767
0.98420703411102295 0.44135856628417969 0.12579324841499329
0.9968113899230957 0.49585258960723877 0.15784986317157745
0.0032094169873744249 0.070998847484588623 0.044110435992479324
0.01522426214069128 0.078511603176593781 0.043752018362283707
0.056348253041505814 0.085050083696842194 0.042863838374614716
0.1440405398607254 0.094945915043354034 0.046315900981426239
0.25749045610427856 0.10371192544698715 0.056829012930393219
0.3855891227722168 0.11339787393808365 0.06658896803855896
0.52794796228408813 0.12990941107273102 0.07773754745721817
0.65930652618408203 0.16780596971511841 0.084805630147457123
0.76668745279312134 0.22788725793361664 0.088596835732460022
0.85728615522384644 0.30337280035018921 0.091556653380393982
0.93785905838012695 0.37699922919273376 0.094240538775920868
0.98824000358581543 0.44656765460968018 0.11487922072410583
0.99617213010787964 0.49840709567070007 0.14675153791904449
0.0015497544081881642 0.14621719717979431 0.067202113568782806
0.0051687653176486492 0.14847724139690399 0.063981898128986359
0.024880936369299889 0.14653392136096954 0.057631071656942368
0.1297709196805954 0.15292643010616302 0.051093365997076035
0.25623396039009094 0.15976409614086151 0.0508284792304039
0.38936316967010498 0.16926644742488861 0.051941186189651489
0.52871912717819214 0.19344419240951538 0.062141582369804382
0.65798968076705933 0.22820374369621277 0.065049447119235992
0.76394450664520264 0.2769506573677063 0.061324924230575562
0.85134744644165039 0.34100666642189026 0.062267720699310303
0.93102234601974487 0.40760341286659241 0.063946440815925598
0.98604339361190796 0.47098919749259949 0.086964130401611328
0.9971005916595459 0.52138370275497437 0.12748736143112183
0.0020427480340003967 0.23919111490249634 0.09322560578584671
0.0040529286488890648 0.23897290229797363 0.090027227997779846
0.0057627358473837376 0.23591789603233337 0.083116181194782257
0.076592251658439636 0.23900644481182098 0.068871334195137024
0.24518090486526489 0.24737921357154846 0.05005919560790062
0.38917636871337891 0.25216799974441528 0.042735215276479721
0.52567338943481445 0.2622019350528717 0.035059940069913864
0.64941912889480591 0.28871193528175354 0.028169818222522736
0.75696521997451782 0.33352053165435791 0.026645615696907043
0.84814780950546265 0.38803771138191223 0.024664051830768585
0.92597562074661255 0.44567447900772095 0.030338212847709656
0.98211556673049927 0.50127971172332764 0.055039826780557632
0.99746376276016235 0.5498117208480835 0.10237517952919006
0.0022794236429035664 0.33549979329109192 0.11462195962667465
0.0039887074381113052 0.33524912595748901 0.11114402860403061
0.0071301031857728958 0.33609756827354431 0.10262144356966019
0.024065952748060226 0.3396306037902832 0.087009593844413757
0.18996098637580872 0.3490433394908905 0.061864007264375687
0.37926560640335083 0.3557649552822113 0.03279215469956398
0.52143073081970215 0.3593144416809082 0.018817288801074028
0.64210617542266846 0.37091755867004395 0.0090314531698822975
0.74637520313262939 0.40086650848388672 0.0072494056075811386
0.83980327844619751 0.4406755268573761 0.0058078989386558533
0.91438806056976318 0.4897921085357666 0.013465237803757191
0.97170174121856689 0.53616327047348022 0.020022986456751823
0.99775606393814087 0.5773460865020752 0.045683827251195908
0.0024178896564990282 0.43494328856468201 0.12895116209983826
0.0054858936928212643 0.43500515818595886 0.12452772259712219
0.0081554939970374107 0.43925097584724426 0.11624567210674286
0.0079193711280822754 0.44543808698654175 0.10492172092199326
0.12026099115610123 0.45351424813270569 0.08450634777545929
0.34477126598358154 0.45919188857078552 0.043892432004213333
0.51320558786392212 0.46590304374694824 0.014003783464431763
0.63578891754150391 0.47595405578613281 0.0085803763940930367
0.73569303750991821 0.48711001873016357 0.0068713915534317493
0.8269457221031189 0.50280213356018066 0.0040859747678041458
0.90205752849578857 0.53806257247924805 0.006876074243336916
0.96592730283737183 0.57409423589706421 0.0073601515032351017
0.99645638465881348 0.60663282871246338 0.0081807905808091164
0.0023284314665943384 0.53648805618286133 0.13946115970611572
0.007048498373478651 0.53655707836151123 0.13876435160636902
0.0084554189816117287 0.54070156812667847 0.13655516505241394
0.0094592822715640068 0.54697370529174805 0.12942489981651306
0.082362532615661621 0.55174511671066284 0.11182679980993271
0.31961607933044434 0.55626380443572998 0.069576427340507507
0.49432918429374695 0.5604393482208252 0.027923868969082832
0.62602317333221436 0.56811046600341797 0.011986915953457355
0.72870981693267822 0.57852911949157715 0.010616661980748177
0.81808674335479736 0.58737796545028687 0.007444464135915041
0.89230674505233765 0.60319501161575317 0.0061093796975910664
0.9603193998336792 0.62036144733428955 0.0040904623456299305
0.9975428581237793 0.63700640201568604 0.0040258970111608505
0.0025439094752073288 0.63243770599365234 0.15546335279941559
0.0067849853076040745 0.62957465648651123 0.16108284890651703
0.008716837503015995 0.63153088092803955 0.16366909444332123
0.007312355563044548 0.63672536611557007 0.16008491814136505
0.095654383301734924 0.64157724380493164 0.14653058350086212
0.32133969664573669 0.64211910963058472 0.11395297944545746
0.48794931173324585 0.6441459059715271 0.068686328828334808
0.62032324075698853 0.65076625347137451 0.028435710817575455
0.72530287504196167 0.65862256288528442 0.014380061998963356
0.81228506565093994 0.66632604598999023 0.010072311386466026
0.88781553506851196 0.67298585176467896 0.0079604052007198334
0.95538288354873657 0.67867887020111084 0.0052991979755461216
0.99438738822937012 0.68224906921386719 0.0033453397918492556
0.0039215688593685627 0.7092774510383606 0.18822236359119415
0.0058356341905891895 0.70933246612548828 0.19201603531837463
0.010535355657339096 0.71306633949279785 0.19312441349029541
0.017748290672898293 0.71984195709228516 0.19105516374111176
0.17170058190822601 0.72193598747253418 0.18697839975357056
0.36461055278778076 0.72170287370681763 0.1680058091878891
0.50403434038162231 0.72061789035797119 0.13673648238182068
0.62063175439834595 0.72214049100875854 0.099976740777492523
0.71982121467590332 0.72621732950210571 0.047742538154125214
0.80617624521255493 0.7295728325843811 0.018265159800648689
0.88348227739334106 0.73268455266952515 0.0096535626798868179
0.94983667135238647 0.73549056053161621 0.0061634588055312634
0.99015039205551147 0.73788446187973022 0.0042946310713887215
0.0053561790846288204 0.78371685743331909 0.22670605778694153
0.0088794482871890068 0.78630352020263672 0.2270817756652832
0.037540227174758911 0.78862732648849487 0.22618824243545532
0.14829385280609131 0.78960895538330078 0.22920450568199158
0.29386031627655029 0.78548842668533325 0.23368164896965027
0.41497701406478882 0.78359037637710571 0.22869358956813812
0.53033870458602905 0.78300970792770386 0.20963926613330841
0.63309216499328613 0.78349632024765015 0.18127225339412689
0.72034615278244019 0.78520512580871582 0.14969080686569214
0.80391734838485718 0.78706449270248413 0.094174839556217194
0.87919431924819946 0.78778582811355591 0.036912716925144196
0.94816857576370239 0.7907373309135437 0.01543350238353014
0.99175363779067993 0.7937018871307373 0.010791913606226444
0.13627085089683533 0.8464396595954895 0.27449521422386169
0.17574810981750488 0.84617310762405396 0.27599406242370605
0.24619480967521667 0.845084547996521 0.27983775734901428
0.32421478629112244 0.84290677309036255 0.28432199358940125
0.4072934091091156 0.84009820222854614 0.28803020715713501
0.48584285378456116 0.83646088838577271 0.28414797782897949
0.57062786817550659 0.83653920888900757 0.27591997385025024
0.65623879432678223 0.83691507577896118 0.25964269042015076
0.73579055070877075 0.83892250061035156 0.23727862536907196
0.80783796310424805 0.83924561738967896 0.20469638705253601
0.87618422508239746 0.83983826637268066 0.1670084148645401
0.94469988346099854 0.8431396484375 0.12115068733692169
0.99205946922302246 0.84670674800872803 0.092708289623260498
0.3829619288444519 0.89880728721618652 0.34814393520355225
0.39149525761604309 0.89626175165176392 0.34860318899154663
0.42381235957145691 0.89450562000274658 0.35065266489982605
0.46480616927146912 0.89392626285552979 0.35383996367454529
0.51159679889678955 0.89295768737792969 0.35644233226776123
0.5693352222442627 0.89001196622848511 0.35666516423225403
0.62538939714431763 0.88939106464385986 0.35626071691513062
0.68748325109481812 0.89109539985656738 0.34697222709655762
0.75300371646881104 0.89206558465957642 0.32965740561485291
0.81764942407608032 0.89279592037200928 0.30697321891784668
0.87687408924102783 0.89513033628463745 0.28662359714508057
0.93851387500762939 0.89647001028060913 0.2508583664894104
0.9862971305847168 0.8993261456489563 0.23052686452865601
0.54148894548416138 0.94885283708572388 0.42840030789375305
0.54360312223434448 0.94621485471725464 0.42738574743270874
0.55944979190826416 0.94412612915039062 0.42883586883544922
0.5854683518409729 0.94467240571975708 0.43331319093704224
0.61562824249267578 0.94306415319442749 0.43525180220603943
0.64854425191879272 0.9418867826461792 0.43815436959266663
0.68833017349243164 0.94227224588394165 0.44153118133544922
0.73367518186569214 0.94301825761795044 0.43576151132583618
0.77965682744979858 0.94428777694702148 0.4225345253944397
0.82920295000076294 0.9457700252532959 0.40905523300170898
0.87907558679580688 0.95024102926254272 0.39754199981689453
0.93274104595184326 0.95094692707061768 0.37165310978889465
0.98080700635910034 0.95391833782196045 0.36134806275367737
0.0022092333529144526 0.041133236140012741 0.083710812032222748
0.008911551907658577 0.047761071473360062 0.081064142286777496
0.048177037388086319 0.055166162550449371 0.088822156190872192
0.13808035850524902 0.06516323983669281 0.099523924291133881
0.25115552544593811 0.080384194850921631 0.11502018570899963
0.38758251070976257 0.10571857541799545 0.1356862485408783
0.53091424703598022 0.13250747323036194 0.15015701949596405
0.65978693962097168 0.1733803004026413 0.15938602387905121
0.76954072713851929 0.23843248188495636 0.16653077304363251
0.86113607883453369 0.3082793653011322 0.16896443068981171
0.93524539470672607 0.38424414396286011 0.17037218809127808
0.98588842153549194 0.45309513807296753 0.18556563556194305
0.99797487258911133 0.51009410619735718 0.20937995612621307
0.0023962880950421095 0.081939160823822021 0.097177095711231232
0.0082595674321055412 0.089336201548576355 0.097293645143508911
0.043680272996425629 0.093177527189254761 0.099123157560825348
0.14198166131973267 0.10257861763238907 0.10524079203605652
0.25755575299263 0.11871393024921417 0.11801934242248535
0.38936182856559753 0.14061252772808075 0.13253417611122131
0.5321928858757019 0.16526883840560913 0.14193138480186462
0.6601833701133728 0.20276479423046112 0.14982812106609344
0.76858395338058472 0.2575337290763855 0.15523806214332581
0.85844641923904419 0.32373741269111633 0.15920983254909515
0.93690520524978638 0.39301931858062744 0.16298808157444
0.9890751838684082 0.46013960242271423 0.1798008531332016
0.99876397848129272 0.51668298244476318 0.2041189968585968
0.002325903158634901 0.15011067688465118 0.11659765988588333
0.0069126952439546585 0.15457995235919952 0.11603865027427673
0.024572709575295448 0.15243788063526154 0.11256144195795059
0.13155163824558258 0.15984848141670227 0.10968629270792007
0.2611488401889801 0.16681183874607086 0.11044317483901978
0.39611425995826721 0.1866547018289566 0.11826020479202271
0.53393697738647461 0.21021838486194611 0.12684248387813568
0.65820086002349854 0.24165889620780945 0.13097922503948212
0.76609450578689575 0.29193606972694397 0.13484776020050049
0.85035425424575806 0.35381051898002625 0.13914577662944794
0.92645198106765747 0.42056256532669067 0.14530251920223236
0.98223352432250977 0.48216673731803894 0.16377495229244232
0.99738436937332153 0.53469198942184448 0.1930278092622757
0.0022586148697882891 0.23976509273052216 0.1396937221288681
0.0053893593139946461 0.24163180589675903 0.13622982800006866
0.0076930476352572441 0.24085170030593872 0.13003724813461304
0.088091276586055756 0.24401265382766724 0.12081018835306168
0.25300079584121704 0.25304040312767029 0.11010944098234177
0.39845654368400574 0.25749638676643372 0.10518939793109894
0.53140950202941895 0.27170562744140625 0.10154124349355698
0.65171802043914795 0.30300247669219971 0.099628612399101257
0.75884801149368286 0.34384268522262573 0.10321004688739777
0.84449702501296997 0.39877450466156006 0.10263549536466599
0.92023074626922607 0.4559207558631897 0.11393669247627258
0.97872358560562134 0.51040852069854736 0.13833963871002197
0.99623483419418335 0.5574880838394165 0.17677411437034607
0.0016413520788773894 0.33709919452667236 0.1539606899023056
0.0039571127854287624 0.33959308266639709 0.15024708211421967
0.0062646456062793732 0.34074494242668152 0.14516307413578033
0.029144346714019775 0.34416258335113525 0.13555942475795746
0.20774205029010773 0.35452470183372498 0.1189027801156044
0.38850945234298706 0.361777663230896 0.098257221281528473
0.52561378479003906 0.36760222911834717 0.082990206778049469
0.64477849006652832 0.37732082605361938 0.063708603382110596
0.74927753210067749 0.40477114915847778 0.050605446100234985
0.83901792764663696 0.44655251502990723 0.050313089042901993
0.91504693031311035 0.49517390131950378 0.062146235257387161
0.9746062159538269 0.54332107305526733 0.077974118292331696
0.99671322107315063 0.5836213231086731 0.12574809789657593
0.0013284421293064952 0.44304510951042175 0.1609407514333725
0.0048190997913479805 0.44390261173248291 0.1611032634973526
0.007412630133330822 0.44618350267410278 0.15933825075626373
0.0080220839008688927 0.44959539175033569 0.150923952460289
0.13992689549922943 0.4570973813533783 0.13441725075244904
0.34983000159263611 0.46451792120933533 0.10509486496448517
0.51632446050643921 0.47271442413330078 0.068683728575706482
0.63665825128555298 0.47858670353889465 0.045747119933366776
0.74016457796096802 0.49148336052894592 0.02427947148680687
0.82847696542739868 0.51076960563659668 0.016418352723121643
0.90611660480499268 0.54260200262069702 0.018321497365832329
0.96751648187637329 0.57831680774688721 0.026807956397533417
0.99598163366317749 0.61216521263122559 0.059419341385364532
0.0020474153570830822 0.54484343528747559 0.17080359160900116
0.0060051712207496166 0.54540097713470459 0.17422936856746674
0.007260431069880724 0.54569494724273682 0.17521326243877411
0.0066641415469348431 0.54870015382766724 0.16973789036273956
0.10377934575080872 0.55395472049713135 0.15560115873813629
0.3248448371887207 0.55926012992858887 0.12859232723712921
0.49770182371139526 0.56438601016998291 0.091674596071243286
0.63144373893737793 0.57368475198745728 0.043863154947757721
0.73626530170440674 0.58317941427230835 0.020151833072304726
0.82191449403762817 0.59258109331130981 0.014601464383304119
0.89739030599594116 0.60634011030197144 0.0096875056624412537
0.96050024032592773 0.62297320365905762 0.009154600091278553
0.9949641227722168 0.64447629451751709 0.014691924676299095
0.0030547946225851774 0.63461369276046753 0.1907075047492981
0.0047603980638086796 0.6352655291557312 0.19394035637378693
0.0065579731017351151 0.6368216872215271 0.19532150030136108
0.0070146000944077969 0.63976621627807617 0.19259923696517944
0.12218454480171204 0.64331895112991333 0.18267552554607391
0.33932459354400635 0.64633762836456299 0.16090548038482666
0.50135719776153564 0.64720886945724487 0.13084812462329865
0.62999606132507324 0.65547412633895874 0.078575983643531799
0.73507475852966309 0.66365748643875122 0.030417094007134438
0.82085680961608887 0.66924077272415161 0.014224512502551079
0.89219957590103149 0.67567121982574463 0.0087362853810191154
0.95478123426437378 0.68034905195236206 0.0078451866284012794
0.99379271268844604 0.68717682361602783 0.0076448027975857258
0.0039301253855228424 0.71240711212158203 0.21831350028514862
0.0044137844815850258 0.71367830038070679 0.2189999520778656
0.0071544572710990906 0.71831017732620239 0.21785897016525269
0.03223724290728569 0.7233702540397644 0.21609583497047424
0.20565585792064667 0.72225946187973022 0.21642604470252991
0.37759107351303101 0.72217702865600586 0.20309589803218842
0.5169641375541687 0.72357535362243652 0.17994967103004456
0.6274254322052002 0.72701448202133179 0.14364989101886749
0.72500920295715332 0.72924506664276123 0.094873316586017609
0.81292414665222168 0.73159784078598022 0.047975234687328339
0.88797324895858765 0.73581588268280029 0.020225435495376587
0.9512932300567627 0.73859673738479614 0.0093962578102946281
0.99291300773620605 0.74254149198532104 0.0068558040075004101
0.0067437863908708096 0.78657907247543335 0.24785496294498444
0.01547577790915966 0.78797233104705811 0.24706245958805084
0.059746235609054565 0.78999477624893188 0.2475045770406723
0.18563325703144073 0.7901909351348877 0.25196525454521179
0.31333193182945251 0.78592288494110107 0.256307452917099
0.43126440048217773 0.78343325853347778 0.25103682279586792
0.54262781143188477 0.78418481349945068 0.23883539438247681
0.63437837362289429 0.78444570302963257 0.21528895199298859
0.72231626510620117 0.78512442111968994 0.18403561413288116
0.80581337213516235 0.78658640384674072 0.14093384146690369
0.88158303499221802 0.7897222638130188 0.091044209897518158
0.94977045059204102 0.79233568906784058 0.05242525041103363
0.99169570207595825 0.79595768451690674 0.041481301188468933
0.16508857905864716 0.84759056568145752 0.29127559065818787
0.20316068828105927 0.84690868854522705 0.29480624198913574
0.26893848180770874 0.84627699851989746 0.29647102952003479
0.34107598662376404 0.84313017129898071 0.30304831266403198
0.4113101065158844 0.84034442901611328 0.30754008889198303
0.49317243695259094 0.83690905570983887 0.30388727784156799
0.57658392190933228 0.83644729852676392 0.29618194699287415
0.65758633613586426 0.83688902854919434 0.28276541829109192
0.73673802614212036 0.83796745538711548 0.26045900583267212
0.81043010950088501 0.83875930309295654 0.22823111712932587
0.87739145755767822 0.8404771089553833 0.20160524547100067
0.94589167833328247 0.84400695562362671 0.16454353928565979
0.99296480417251587 0.84754842519760132 0.14522403478622437
0.39662238955497742 0.89845329523086548 0.36108696460723877
0.40772873163223267 0.89727026224136353 0.36043539643287659
0.43571335077285767 0.89620661735534668 0.36139699816703796
0.47115197777748108 0.89463669061660767 0.36733630299568176
0.51991528272628784 0.89269554615020752 0.37309229373931885
0.57654833793640137 0.89066076278686523 0.37305387854576111
0.62950587272644043 0.88937568664550781 0.36954039335250854
0.68938100337982178 0.89084196090698242 0.35984987020492554
0.75488084554672241 0.89177560806274414 0.34413793683052063
0.81947422027587891 0.8927072286605835 0.32466256618499756
0.87804460525512695 0.89501065015792847 0.30699151754379272
0.93975424766540527 0.89748650789260864 0.27861878275871277
0.98775345087051392 0.90058130025863647 0.25621619820594788
0.5502089262008667 0.94757455587387085 0.43464285135269165
0.55366438627243042 0.9460071325302124 0.43566247820854187
0.56750637292861938 0.9450453519821167 0.43661817908287048
0.58862018585205078 0.9444119930267334 0.43991416692733765
0.621318519115448 0.94422280788421631 0.44415870308876038
0.65640687942504883 0.94374459981918335 0.44891047477722168
0.69391334056854248 0.94292569160461426 0.45064511895179749
0.73499035835266113 0.9438367486000061 0.44529980421066284
0.78340935707092285 0.94747376441955566 0.43537464737892151
0.83212733268737793 0.94722604751586914 0.42286354303359985
0.8809172511100769 0.94938069581985474 0.41007700562477112
0.93269997835159302 0.95162057876586914 0.39022693037986755
0.9802013635635376 0.95427399873733521 0.37515851855278015
0.0016370735829696059 0.060199335217475891 0.15027092397212982
0.0056024137884378433 0.07292550802230835 0.14825816452503204
0.028038578107953072 0.077644675970077515 0.14858222007751465
0.11441611498594284 0.083680592477321625 0.15634907782077789
0.24213017523288727 0.087652765214443207 0.17009110748767853
0.38787347078323364 0.088986143469810486 0.18584142625331879
0.53581029176712036 0.12158448249101639 0.20354451239109039
0.66528213024139404 0.19298012554645538 0.22357884049415588
0.77638274431228638 0.27109840512275696 0.23782111704349518
0.86534541845321655 0.339292973279953 0.24439680576324463
0.93522608280181885 0.41141480207443237 0.25020775198936462
0.98626857995986938 0.4759332537651062 0.26311901211738586
0.99785226583480835 0.53258949518203735 0.2832883894443512
0.0022986766416579485 0.1011340543627739 0.16266866028308868
0.0079220486804842949 0.10937338322401047 0.16389980912208557
0.029167309403419495 0.11232880502939224 0.16398239135742188
0.12479403614997864 0.12125294655561447 0.16719549894332886
0.25303494930267334 0.12865623831748962 0.17819844186306
0.3955649733543396 0.14196622371673584 0.19218133389949799
0.53918898105621338 0.18015669286251068 0.20750904083251953
0.66725116968154907 0.23631639778614044 0.22248828411102295
0.77420467138290405 0.2933022677898407 0.2318396270275116
0.86254137754440308 0.35629925131797791 0.23887082934379578
0.93376839160919189 0.4210788905620575 0.24544161558151245
0.98579496145248413 0.4818098247051239 0.25647822022438049
0.99845218658447266 0.53701496124267578 0.27641680836677551
0.0022837021388113499 0.16000193357467651 0.17426188290119171
0.0048558702692389488 0.16416552662849426 0.17597182095050812
0.020003195852041245 0.16481782495975494 0.17656691372394562
0.13080339133739471 0.17494472861289978 0.17542946338653564
0.26500502228736877 0.18547345697879791 0.18044231832027435
0.40546765923500061 0.20325951278209686 0.18991979956626892
0.54333531856536865 0.24290503561496735 0.20529119670391083
0.66355198621749878 0.27787768840789795 0.21192227303981781
0.76833528280258179 0.32483261823654175 0.21657989919185638
0.8535800576210022 0.38317760825157166 0.22347596287727356
0.92652779817581177 0.44322893023490906 0.23213846981525421
0.98137634992599487 0.50035852193832397 0.2441878616809845
0.99767154455184937 0.55096399784088135 0.26572230458259583
0.0015507268253713846 0.23851452767848969 0.18856388330459595
0.0046318052336573601 0.24399177730083466 0.19021716713905334
0.0082312487065792084 0.24806682765483856 0.18984179198741913
0.10671833902597427 0.25312674045562744 0.18454535305500031
0.26642784476280212 0.26116499304771423 0.17948804795742035
0.41055634617805481 0.27254077792167664 0.17875035107135773
0.54143702983856201 0.29752430319786072 0.18397660553455353
0.65675252676010132 0.33013692498207092 0.18743903934955597
0.76025760173797607 0.37058368325233459 0.19165171682834625
0.84604096412658691 0.42038112878799438 0.19659771025180817
0.92080378532409668 0.47299656271934509 0.20739744603633881
0.98145854473114014 0.52454853057861328 0.2252727597951889
0.99748241901397705 0.5699884295463562 0.25069889426231384
0.0017096126684919 0.34046885371208191 0.20123271644115448
0.0046148113906383514 0.34630045294761658 0.20441675186157227
0.0058522094041109085 0.35010814666748047 0.20402930676937103
