luts/instant_consumer/polaroid_time_zero_expired_---.cube
# Created by: G'MIC (https://gmic.eu)
TITLE "polaroid_time_zero_expired_---"
# LUT size
LUT_3D_SIZE 5
# Data domain
DOMAIN_MIN 0.0 0.0 0.0
DOMAIN_MAX 1.0 1.0 1.0
# LUT data points
0.11864567548036575 0.020398952066898346 0.026273809373378754
0.18948157131671906 0.012248649261891842 0.028005607426166534
0.46910974383354187 0.00031756231328472495 0.02412019670009613
0.74769759178161621 0.001220703125 0.036944728344678879
0.94834482669830322 0.043807908892631531 0.092484071850776672
0.15883603692054749 0.1703350692987442 0.0071039837785065174
0.27671113610267639 0.16997428238391876 0.0083744572475552559
0.5386236310005188 0.16238661110401154 0.0015663296217098832
0.77271628379821777 0.15011531114578247 0.0016975852195173502
0.95029592514038086 0.27987247705459595 0.069906897842884064
0.29120680689811707 0.47439450025558472 0
0.43781778216362 0.48052054643630981 0
0.65031802654266357 0.48181456327438354 0.0053484747186303139
0.81182980537414551 0.48272907733917236 0.0051274318248033524
0.94681316614151001 0.5171312689781189 0.0092772990465164185
0.51452600955963135 0.69457501173019409 7.0010914896556642e-06
0.5738639235496521 0.68928349018096924 0
0.72480428218841553 0.69614660739898682 0.0039215688593685627
0.85307610034942627 0.71006554365158081 0.04785296693444252
0.95706605911254883 0.73387175798416138 0.28958898782730103
0.70863384008407593 0.88602513074874878 0.00075999239925295115
0.73819553852081299 0.88751846551895142 2.8004365958622657e-05
0.8065793514251709 0.8884422779083252 0.0013234905200079083
0.90875542163848877 0.89424610137939453 0.17073468863964081
0.98637151718139648 0.90202987194061279 0.47824954986572266
0.16572000086307526 0.012876009568572044 0.12340403348207474
0.22245284914970398 0.0066802380606532097 0.1301051527261734
0.50363391637802124 2.6927275030175224e-05 0.17678314447402954
0.76322400569915771 0.0045059653930366039 0.18821537494659424
0.94522285461425781 0.17242579162120819 0.2213560938835144
0.1943676620721817 0.16406519711017609 0.1226809173822403
0.32723286747932434 0.19084665179252625 0.13651138544082642
0.5714910626411438 0.19435982406139374 0.14785556495189667
0.7835579514503479 0.21962739527225494 0.16489392518997192
0.94347357749938965 0.31702348589897156 0.21492695808410645
0.34273466467857361 0.47711619734764099 0.074666179716587067
0.4552377462387085 0.4868779182434082 0.047418046742677689
0.65892612934112549 0.49365699291229248 0.11512014269828796
0.80899292230606079 0.48958733677864075 0.1468798965215683
0.94161707162857056 0.52180439233779907 0.19361408054828644
0.541087806224823 0.68914681673049927 0.022478051483631134
0.5953369140625 0.69301307201385498 0.010686373338103294
0.71899795532226562 0.69850140810012817 0.0080570448189973831
0.85254472494125366 0.71574461460113525 0.23448799550533295
0.95410645008087158 0.73922795057296753 0.37188833951950073
0.71379119157791138 0.88395047187805176 0.14286904036998749
0.73839199542999268 0.88557493686676025 0.097293421626091003
0.80423790216445923 0.89039486646652222 0.011281167156994343
0.90403318405151367 0.89461082220077515 0.27976289391517639
0.98377245664596558 0.9034963846206665 0.5282522439956665
0.38777479529380798 0.02312195673584938 0.39785593748092651
0.44307595491409302 0.048212897032499313 0.40527629852294922
0.57614076137542725 0.081294387578964233 0.40872272849082947
0.77511417865753174 0.037926003336906433 0.42414119839668274
0.9352295994758606 0.27422535419464111 0.46342918276786804
0.50251466035842896 0.27215480804443359 0.4028494656085968
0.5515977144241333 0.30149289965629578 0.40597307682037354
0.63193809986114502 0.30711796879768372 0.40320238471031189
0.7909843921661377 0.27832013368606567 0.42175108194351196
0.93661856651306152 0.38935130834579468 0.45138716697692871
0.49473598599433899 0.47122371196746826 0.36138796806335449
0.57000362873077393 0.49080035090446472 0.37114137411117554
0.68457841873168945 0.51049208641052246 0.38250315189361572
0.81225520372390747 0.51062846183776855 0.3913956880569458
0.94397473335266113 0.5451776385307312 0.41659808158874512
0.58386856317520142 0.68375062942504883 0.34999969601631165
0.63115334510803223 0.69017124176025391 0.36639884114265442
0.72759586572647095 0.69754737615585327 0.35118976235389709
0.84895056486129761 0.71907240152359009 0.44927927851676941
0.94946420192718506 0.72864705324172974 0.48216745257377625
0.72018802165985107 0.87868702411651611 0.45462426543235779
0.74017089605331421 0.88227969408035278 0.4406338632106781
0.79706078767776489 0.8864823579788208 0.39380988478660583
0.8918033242225647 0.894359290599823 0.43340179324150085
0.97971731424331665 0.90509223937988281 0.62870681285858154
0.65114879608154297 0.27493828535079956 0.68089783191680908
0.67480844259262085 0.29679861664772034 0.68539261817932129
0.72864663600921631 0.35260188579559326 0.68962341547012329
0.8034130334854126 0.37761327624320984 0.67370545864105225
0.92086505889892578 0.39084973931312561 0.69089525938034058
0.70905542373657227 0.45057347416877747 0.67443042993545532
0.72351038455963135 0.45714473724365234 0.67981493473052979
0.76019686460494995 0.48449656367301941 0.68208181858062744
0.81613755226135254 0.48986205458641052 0.67484986782073975
0.92315429449081421 0.46804606914520264 0.69572526216506958
0.72428476810455322 0.56523609161376953 0.66155672073364258
0.75704240798950195 0.58968400955200195 0.66659778356552124
0.7939760684967041 0.61879611015319824 0.67280423641204834
0.83508050441741943 0.62486732006072998 0.67628544569015503
0.92792212963104248 0.58408999443054199 0.69349628686904907
0.69779008626937866 0.69870108366012573 0.62535017728805542
0.72364729642868042 0.70008212327957153 0.62743514776229858
0.78077977895736694 0.71416372060775757 0.63748186826705933
0.85095405578613281 0.73421037197113037 0.65907728672027588
0.9455837607383728 0.73083168268203735 0.66292446851730347
0.73600441217422485 0.8677678108215332 0.66776013374328613
0.74966245889663696 0.86922836303710938 0.66361433267593384
0.78374248743057251 0.8846239447593689 0.67176514863967896
0.86570507287979126 0.89541226625442505 0.65274971723556519
0.96766060590744019 0.90991950035095215 0.76070892810821533
0.80599337816238403 0.55596846342086792 0.88951855897903442
0.81321197748184204 0.5628734827041626 0.89009028673171997
0.8329814076423645 0.58673691749572754 0.8946305513381958
0.86461848020553589 0.61575710773468018 0.89815610647201538
0.91308003664016724 0.63273823261260986 0.89512741565704346
0.82409358024597168 0.62815982103347778 0.88486385345458984
0.82889163494110107 0.63118672370910645 0.88656163215637207
0.84684079885482788 0.64489072561264038 0.89026206731796265
0.87285298109054565 0.66447335481643677 0.89756518602371216
0.90963399410247803 0.67367011308670044 0.89784282445907593
0.84675133228302002 0.71333533525466919 0.88542377948760986
0.85525226593017578 0.72157728672027588 0.8894658088684082
0.86667507886886597 0.73027616739273071 0.88980871438980103
0.88935619592666626 0.74212956428527832 0.89850139617919922
0.9240918755531311 0.74446511268615723 0.89851301908493042
0.82663643360137939 0.7724921703338623 0.88696742057800293
0.8391798734664917 0.7798762321472168 0.88697254657745361
0.87596642971038818 0.79960674047470093 0.89163064956665039
0.90786665678024292 0.82234477996826172 0.8996770977973938
0.94016158580780029 0.8263012170791626 0.90667891502380371
0.80764269828796387 0.88740986585617065 0.88620072603225708
0.81899440288543701 0.88908946514129639 0.88803964853286743
0.84953421354293823 0.89745098352432251 0.89259696006774902
0.89386355876922607 0.90636730194091797 0.89730274677276611
0.96338218450546265 0.92249166965484619 0.90991854667663574
