luts/instant_consumer/polaroid_time_zero_expired_-.cube
# Created by: G'MIC (https://gmic.eu)
TITLE "polaroid_time_zero_expired_-"
# LUT size
LUT_3D_SIZE 5
# Data domain
DOMAIN_MIN 0.0 0.0 0.0
DOMAIN_MAX 1.0 1.0 1.0
# LUT data points
0.4067503809928894 0.18050065636634827 0.04956422746181488
0.45785892009735107 0.1775624006986618 0.043718196451663971
0.6148611307144165 0.16004030406475067 0.032467905431985855
0.77895456552505493 0.18690101802349091 0.02817109040915966
0.93636250495910645 0.26509219408035278 0.034388240426778793
0.44156688451766968 0.27830031514167786 0.0042433645576238632
0.51392883062362671 0.27441880106925964 0.0053826426155865192
0.65290391445159912 0.28531661629676819 0.0045186211355030537
0.79313760995864868 0.30183002352714539 0.0012812296627089381
0.93574780225753784 0.35338643193244934 0.0040801102295517921
0.54271066188812256 0.46291974186897278 0
0.59342992305755615 0.46326643228530884 0.00065777346026152372
0.71093332767486572 0.47812020778656006 0
0.82560408115386963 0.49277612566947937 0.0014001135714352131
0.93742632865905762 0.52552115917205811 1.4002182979311328e-05
0.6441841721534729 0.65363055467605591 0
0.67888790369033813 0.65456223487854004 7.234461372718215e-05
0.76897001266479492 0.66964906454086304 0.00024364695127587765
0.86494112014770508 0.69120901823043823 0.0039215688593685627
0.94704580307006836 0.71464896202087402 0.074667669832706451
0.76035201549530029 0.82032090425491333 0
0.7780911922454834 0.82164698839187622 0
0.8252178430557251 0.8202250599861145 0.0005772908334620297
0.90231102705001831 0.82953274250030518 0.015801195055246353
0.96021980047225952 0.83249425888061523 0.32318148016929626
0.44133096933364868 0.18094219267368317 0.10901558399200439
0.48303917050361633 0.18455658853054047 0.11217066645622253
0.63766717910766602 0.1891920417547226 0.13022373616695404
0.79407936334609985 0.23507426679134369 0.12912482023239136
0.94239914417266846 0.28852325677871704 0.13506767153739929
0.48544067144393921 0.28044798970222473 0.091438755393028259
0.54598098993301392 0.29183989763259888 0.094959065318107605
0.66640585660934448 0.29827839136123657 0.096697695553302765
0.80456662178039551 0.31578433513641357 0.099395036697387695
0.94643467664718628 0.37256267666816711 0.11239387840032578
0.56282514333724976 0.4666779637336731 0.023337660357356071
0.6115715503692627 0.47253003716468811 0.013136680237948895
0.72116231918334961 0.48129284381866455 0.029089145362377167
0.83086681365966797 0.49468091130256653 0.027804775163531303
0.94258618354797363 0.52416163682937622 0.028607850894331932
0.65679478645324707 0.65901058912277222 0.0039579202421009541
0.6878013014793396 0.65845996141433716 0.0045938529074192047
0.77030283212661743 0.67033356428146362 0.0016679652035236359
0.86753380298614502 0.69157522916793823 0.025516150519251823
0.94512414932250977 0.71474707126617432 0.18427574634552002
0.76260232925415039 0.82203608751296997 0.0019425934879109263
0.77871555089950562 0.82209432125091553 0.0013644349528476596
0.82778751850128174 0.82441705465316772 0.0037048789672553539
0.90159052610397339 0.8312305212020874 0.074452497065067291
0.95913290977478027 0.83446353673934937 0.37638694047927856
0.58006912469863892 0.2220587432384491 0.2783450186252594
0.60994982719421387 0.23250456154346466 0.2807064950466156
0.68331801891326904 0.25893706083297729 0.28495213389396667
0.81250202655792236 0.2596094012260437 0.29962283372879028
0.94062501192092896 0.33036190271377563 0.3322519063949585
0.63770222663879395 0.33621907234191895 0.27351486682891846
0.66266721487045288 0.34848383069038391 0.27595174312591553
0.71268433332443237 0.35710740089416504 0.27362704277038574
0.82081174850463867 0.34454217553138733 0.29275774955749512
0.94668030738830566 0.40718576312065125 0.3105643093585968
0.63255685567855835 0.46880567073822021 0.23236863315105438
0.67235177755355835 0.47339475154876709 0.23439544439315796
0.74486839771270752 0.4985613226890564 0.24088558554649353
0.84183406829833984 0.5051310658454895 0.24944703280925751
0.94817829132080078 0.53356289863586426 0.2641768753528595
0.66776305437088013 0.65852862596511841 0.18412357568740845
0.696827232837677 0.66389399766921997 0.19212156534194946
0.76667916774749756 0.67470836639404297 0.16449390351772308
0.86918598413467407 0.70155447721481323 0.26867526769638062
0.94518864154815674 0.71138399839401245 0.30526667833328247
0.7692989706993103 0.824371337890625 0.26697871088981628
0.78237831592559814 0.82391834259033203 0.24500767886638641
0.8238295316696167 0.82821768522262573 0.19841006398200989
0.89525496959686279 0.82934266328811646 0.26195496320724487
0.95562577247619629 0.83699494600296021 0.47275152802467346
0.74512463808059692 0.33388084173202515 0.52883881330490112
0.75991290807723999 0.35200673341751099 0.53018748760223389
0.79587066173553467 0.38181692361831665 0.54182535409927368
0.85195767879486084 0.41420096158981323 0.52909201383590698
0.93976086378097534 0.40987813472747803 0.53482413291931152
0.77902126312255859 0.45906972885131836 0.5285942554473877
0.7871202826499939 0.4636722207069397 0.52262580394744873
0.81541502475738525 0.48661702871322632 0.53393697738647461
0.8594096302986145 0.49758169054985046 0.52865093946456909
0.94220423698425293 0.46907329559326172 0.53583627939224243
0.78406447172164917 0.5532417893409729 0.50514376163482666
0.80330795049667358 0.57323241233825684 0.50294238328933716
0.83587837219238281 0.60724735260009766 0.51245784759521484
0.87028086185455322 0.61245739459991455 0.52169770002365112
0.94203448295593262 0.57122188806533813 0.53189289569854736
0.75738286972045898 0.6788211464881897 0.45962315797805786
0.77217334508895874 0.68043786287307739 0.45530039072036743
0.8178296685218811 0.69424360990524292 0.46552398800849915
0.87450575828552246 0.71358424425125122 0.48432788252830505
0.93910938501358032 0.71204113960266113 0.49108809232711792
0.79615932703018188 0.81675124168395996 0.48535266518592834
0.80428290367126465 0.8181949257850647 0.48844575881958008
0.83302181959152222 0.82401508092880249 0.49671313166618347
0.88621574640274048 0.83239597082138062 0.48688879609107971
0.94712954759597778 0.83715468645095825 0.60137224197387695
0.84663838148117065 0.55300331115722656 0.72932803630828857
0.85190987586975098 0.55947732925415039 0.72889143228530884
0.86471575498580933 0.58308666944503784 0.72919094562530518
0.88713830709457397 0.61801242828369141 0.73419493436813354
0.9184679388999939 0.63442277908325195 0.72756695747375488
0.85799050331115723 0.6256101131439209 0.72442805767059326
0.86365091800689697 0.63016873598098755 0.72322404384613037
0.87363904714584351 0.64006698131561279 0.7232353687286377
0.89209693670272827 0.66453373432159424 0.72954940795898438
0.92136639356613159 0.66913336515426636 0.72237092256546021
0.8744121789932251 0.70780062675476074 0.71865451335906982
0.87815707921981812 0.71113467216491699 0.71639335155487061
0.88701623678207397 0.72187429666519165 0.71995800733566284
0.89920902252197266 0.73283499479293823 0.72474288940429688
0.92255812883377075 0.73437798023223877 0.72653943300247192
0.86214059591293335 0.75806087255477905 0.71195822954177856
0.87024879455566406 0.76182800531387329 0.71079283952713013
0.8897741436958313 0.7725721001625061 0.71617215871810913
0.90958601236343384 0.79022705554962158 0.7270931601524353
0.93024319410324097 0.7953869104385376 0.73301142454147339
0.85657793283462524 0.83056342601776123 0.71556359529495239
0.86292821168899536 0.83023685216903687 0.71421629190444946
0.88011914491653442 0.83243381977081299 0.7198183536529541
0.90741550922393799 0.83906686305999756 0.73044037818908691
0.94411754608154297 0.84643012285232544 0.74958080053329468
