luts/instant_consumer/polaroid_px-70_cold_--.cube
# Created by: G'MIC (https://gmic.eu)
TITLE "polaroid_px-70_cold_--"
# LUT size
LUT_3D_SIZE 7
# Data domain
DOMAIN_MIN 0.0 0.0 0.0
DOMAIN_MAX 1.0 1.0 1.0
# LUT data points
0.0046514174900949001 0.028123190626502037 0.029590876772999763
0.065139397978782654 0.046601433306932449 0.036554731428623199
0.25032797455787659 0.072499260306358337 0.058769494295120239
0.52684599161148071 0.086056262254714966 0.084790296852588654
0.77126240730285645 0.20068156719207764 0.09841504693031311
0.93543195724487305 0.36695724725723267 0.10553736984729767
0.9968113899230957 0.49585258960723877 0.15784986317157745
0.0015497544081881642 0.14621719717979431 0.067202113568782806
0.024880936369299889 0.14653392136096954 0.057631071656942368
0.25623396039009094 0.15976409614086151 0.0508284792304039
0.52871912717819214 0.19344419240951538 0.062141582369804382
0.76394450664520264 0.2769506573677063 0.061324924230575562
0.93102234601974487 0.40760341286659241 0.063946440815925598
0.9971005916595459 0.52138370275497437 0.12748736143112183
0.0022794236429035664 0.33549979329109192 0.11462195962667465
0.0071301031857728958 0.33609756827354431 0.10262144356966019
0.18996098637580872 0.3490433394908905 0.061864007264375687
0.52143073081970215 0.3593144416809082 0.018817288801074028
0.74637520313262939 0.40086650848388672 0.0072494056075811386
0.91438806056976318 0.4897921085357666 0.013465237803757191
0.99775606393814087 0.5773460865020752 0.045683827251195908
0.0023284314665943384 0.53648805618286133 0.13946115970611572
0.0084554189816117287 0.54070156812667847 0.13655516505241394
0.082362532615661621 0.55174511671066284 0.11182679980993271
0.49432918429374695 0.5604393482208252 0.027923868969082832
0.72870981693267822 0.57852911949157715 0.010616661980748177
0.89230674505233765 0.60319501161575317 0.0061093796975910664
0.9975428581237793 0.63700640201568604 0.0040258970111608505
0.0039215688593685627 0.7092774510383606 0.18822236359119415
0.010535355657339096 0.71306633949279785 0.19312441349029541
0.17170058190822601 0.72193598747253418 0.18697839975357056
0.50403434038162231 0.72061789035797119 0.13673648238182068
0.71982121467590332 0.72621732950210571 0.047742538154125214
0.88348227739334106 0.73268455266952515 0.0096535626798868179
0.99015039205551147 0.73788446187973022 0.0042946310713887215
0.13627085089683533 0.8464396595954895 0.27449521422386169
0.24619480967521667 0.845084547996521 0.27983775734901428
0.4072934091091156 0.84009820222854614 0.28803020715713501
0.57062786817550659 0.83653920888900757 0.27591997385025024
0.73579055070877075 0.83892250061035156 0.23727862536907196
0.87618422508239746 0.83983826637268066 0.1670084148645401
0.99205946922302246 0.84670674800872803 0.092708289623260498
0.54148894548416138 0.94885283708572388 0.42840030789375305
0.55944979190826416 0.94412612915039062 0.42883586883544922
0.61562824249267578 0.94306415319442749 0.43525180220603943
0.68833017349243164 0.94227224588394165 0.44153118133544922
0.77965682744979858 0.94428777694702148 0.4225345253944397
0.87907558679580688 0.95024102926254272 0.39754199981689453
0.98080700635910034 0.95391833782196045 0.36134806275367737
0.0016370735829696059 0.060199335217475891 0.15027092397212982
0.028038578107953072 0.077644675970077515 0.14858222007751465
0.24213017523288727 0.087652765214443207 0.17009110748767853
0.53581029176712036 0.12158448249101639 0.20354451239109039
0.77638274431228638 0.27109840512275696 0.23782111704349518
0.93522608280181885 0.41141480207443237 0.25020775198936462
0.99785226583480835 0.53258949518203735 0.2832883894443512
0.0022837021388113499 0.16000193357467651 0.17426188290119171
0.020003195852041245 0.16481782495975494 0.17656691372394562
0.26500502228736877 0.18547345697879791 0.18044231832027435
0.54333531856536865 0.24290503561496735 0.20529119670391083
0.76833528280258179 0.32483261823654175 0.21657989919185638
0.92652779817581177 0.44322893023490906 0.23213846981525421
0.99767154455184937 0.55096399784088135 0.26572230458259583
0.0017096126684919 0.34046885371208191 0.20123271644115448
0.0058522094041109085 0.35010814666748047 0.20402930676937103
0.2312835156917572 0.36235994100570679 0.18601232767105103
0.53211206197738647 0.37611854076385498 0.16743132472038269
0.75015133619308472 0.42391848564147949 0.15568897128105164
0.91782301664352417 0.50860977172851562 0.16974519193172455
0.99610203504562378 0.59395557641983032 0.21813693642616272
0.0037398096174001694 0.55305498838424683 0.21872095763683319
0.0059295804239809513 0.55233144760131836 0.22687852382659912
0.15308427810668945 0.55840516090393066 0.21396209299564362
0.51085889339447021 0.57053607702255249 0.17602699995040894
0.73768669366836548 0.58659601211547852 0.10893116146326065
0.90101116895675659 0.607643723487854 0.07227681577205658
0.99606472253799438 0.64946657419204712 0.092374242842197418
0.0038783953059464693 0.71882528066635132 0.25816401839256287
0.0080473059788346291 0.72453373670578003 0.25552558898925781
0.2569061815738678 0.72334641218185425 0.25924220681190491
0.53223782777786255 0.72676116228103638 0.2376253604888916
0.72813445329666138 0.73131823539733887 0.16881388425827026
0.88885021209716797 0.73631703853607178 0.1130768284201622
0.99118077754974365 0.7429082989692688 0.062319796532392502
0.2149684727191925 0.84776937961578369 0.32042542099952698
0.30234289169311523 0.84502780437469482 0.32578620314598083
0.42853790521621704 0.83908820152282715 0.33587953448295593
0.5841825008392334 0.83659380674362183 0.32770270109176636
0.73596680164337158 0.83759188652038574 0.29424932599067688
0.87766903638839722 0.84013885259628296 0.24998392164707184
0.990589439868927 0.84675318002700806 0.20484243333339691
0.56253170967102051 0.94715875387191772 0.44784578680992126
0.57954269647598267 0.94558048248291016 0.45204868912696838
0.63189917802810669 0.94433867931365967 0.45822539925575256
0.69496214389801025 0.93888169527053833 0.46045544743537903
0.78586858510971069 0.94718408584594727 0.45256179571151733
0.88444626331329346 0.94727629423141479 0.4315638542175293
0.97954666614532471 0.95195275545120239 0.39149212837219238
0.0040840748697519302 0.11656077951192856 0.29848793148994446
0.078201428055763245 0.14480888843536377 0.29834824800491333
0.27274107933044434 0.20043835043907166 0.29612672328948975
0.50864279270172119 0.16042101383209229 0.3181644082069397
0.77149838209152222 0.20671634376049042 0.34000444412231445
0.94675111770629883 0.37597107887268066 0.37088000774383545
0.99806439876556396 0.56134939193725586 0.42635452747344971
0.0021234550513327122 0.20749872922897339 0.30952927470207214
0.062296401709318161 0.21806707978248596 0.31380608677864075
0.29412633180618286 0.26823922991752625 0.31254673004150391
0.53758656978607178 0.26523521542549133 0.33043855428695679
0.78188765048980713 0.32936149835586548 0.35198470950126648
0.93853610754013062 0.48052740097045898 0.38852497935295105
0.9980999231338501 0.60418975353240967 0.42595872282981873
0.00091518327826634049 0.36674267053604126 0.31840169429779053
0.013345860876142979 0.37475427985191345 0.32416912913322449
0.31600424647331238 0.39314082264900208 0.32751646637916565
0.56258636713027954 0.42627713084220886 0.33369937539100647
0.77312731742858887 0.48869913816452026 0.34987714886665344
0.92270267009735107 0.56642860174179077 0.36412444710731506
0.9977717399597168 0.63374525308609009 0.39791661500930786
0.0064705344848334789 0.56399810314178467 0.34320440888404846
0.09827316552400589 0.56948471069335938 0.34376925230026245
0.32405757904052734 0.57247656583786011 0.34380877017974854
0.55879247188568115 0.581470787525177 0.33022317290306091
0.75547546148300171 0.59408491849899292 0.31000217795372009
0.9044758677482605 0.62495380640029907 0.29813903570175171
0.99582821130752563 0.67169380187988281 0.32937851548194885
0.16435469686985016 0.73260617256164551 0.37074294686317444
0.22962024807929993 0.73289364576339722 0.3639167845249176
0.39230388402938843 0.72965878248214722 0.3624415397644043
0.56651842594146729 0.7279970645904541 0.35743910074234009
0.73960274457931519 0.73221349716186523 0.33351808786392212
0.89447593688964844 0.73649173974990845 0.30298569798469543
0.99197220802307129 0.73860663175582886 0.27400118112564087
0.34610697627067566 0.84503042697906494 0.39866262674331665
0.4016476571559906 0.84318333864212036 0.40343981981277466
0.50259995460510254 0.84401094913482666 0.41379392147064209
0.61691856384277344 0.84066319465637207 0.41155308485031128
0.75453037023544312 0.84096819162368774 0.39743107557296753
0.88150650262832642 0.84200453758239746 0.36231166124343872
0.9865831732749939 0.8428962230682373 0.33559510111808777
0.59030640125274658 0.94266176223754883 0.49256211519241333
0.61353439092636108 0.94508278369903564 0.4967840313911438
0.65960574150085449 0.94200795888900757 0.50209659337997437
0.72114402055740356 0.94344627857208252 0.50678867101669312
0.79916477203369141 0.94526857137680054 0.5045086145401001
0.89095783233642578 0.9483599066734314 0.48560845851898193
0.98195832967758179 0.95423412322998047 0.45462393760681152
0.038496099412441254 0.19604238867759705 0.44690462946891785
0.2335183173418045 0.23392392694950104 0.44588112831115723
0.44693496823310852 0.31810280680656433 0.44737324118614197
0.58825761079788208 0.37854486703872681 0.44454556703567505
0.74373936653137207 0.33885401487350464 0.45902928709983826
0.92654180526733398 0.37997427582740784 0.48258012533187866
0.99869781732559204 0.5060352087020874 0.49832791090011597
0.019239522516727448 0.27481263875961304 0.45015844702720642
0.21731013059616089 0.30065003037452698 0.45262375473976135
0.45038095116615295 0.37291362881660461 0.45293647050857544
0.59622633457183838 0.43554344773292542 0.450196772813797
0.75441980361938477 0.40315046906471252 0.4640025794506073
0.92651045322418213 0.45669016242027283 0.48447504639625549
0.99820113182067871 0.56354826688766479 0.50630360841751099
0.0050597847439348698 0.41761419177055359 0.44527238607406616
0.062757529318332672 0.42134255170822144 0.44746798276901245
0.41569754481315613 0.45905670523643494 0.45843398571014404
0.60853403806686401 0.51891165971755981 0.46132281422615051
0.76924037933349609 0.51522183418273926 0.47344094514846802
0.92617052793502808 0.57400083541870117 0.495584636926651
0.99943524599075317 0.66821122169494629 0.53059595823287964
0.005170769989490509 0.57806563377380371 0.44669285416603088
0.1232113242149353 0.58015322685241699 0.44616800546646118
0.40456467866897583 0.59123885631561279 0.45975840091705322
0.60710757970809937 0.60840326547622681 0.46138814091682434
0.77952218055725098 0.63321447372436523 0.46886336803436279
0.91097581386566162 0.67768150568008423 0.48328128457069397
0.99738878011703491 0.72321212291717529 0.50729978084564209
0.27016836404800415 0.72917163372039795 0.46704605221748352
0.36729380488395691 0.73067557811737061 0.47066843509674072
0.50622844696044922 0.73570221662521362 0.47667962312698364
0.63209420442581177 0.73212963342666626 0.47233676910400391
0.76516813039779663 0.7371477484703064 0.46550074219703674
0.90109050273895264 0.73959696292877197 0.44308379292488098
0.99357724189758301 0.74480026960372925 0.43208882212638855
0.51159751415252686 0.84361523389816284 0.50675302743911743
0.54400557279586792 0.8427010178565979 0.50606667995452881
0.5917961597442627 0.84409946203231812 0.49825289845466614
0.66680294275283813 0.84225499629974365 0.49759289622306824
0.76951003074645996 0.84502023458480835 0.50116360187530518
0.89242374897003174 0.8443986177444458 0.47322151064872742
0.98619818687438965 0.84637665748596191 0.46089261770248413
0.66189169883728027 0.94356507062911987 0.56542414426803589
0.66576510667800903 0.94244492053985596 0.55780112743377686
0.69528329372406006 0.9435921311378479 0.55765736103057861
0.74310171604156494 0.94065862894058228 0.56304466724395752
0.81931990385055542 0.94556272029876709 0.57873916625976562
0.90441346168518066 0.94394326210021973 0.55791717767715454
0.98538494110107422 0.95596742630004883 0.53637588024139404
0.33456325531005859 0.31625869870185852 0.57689166069030762
0.44051370024681091 0.34448727965354919 0.57668507099151611
0.60169029235839844 0.41592681407928467 0.57689207792282104
0.7290809154510498 0.53029060363769531 0.57443392276763916
0.81308764219284058 0.58031159639358521 0.57419103384017944
0.89594548940658569 0.53482174873352051 0.57688647508621216
0.99244588613510132 0.55891424417495728 0.59357947111129761
0.30368930101394653 0.38118520379066467 0.57659316062927246
0.42294350266456604 0.40572887659072876 0.57490813732147217
0.58788764476776123 0.4667174220085144 0.57589179277420044
0.73059600591659546 0.56279325485229492 0.57673799991607666
0.81389069557189941 0.60939937829971313 0.57737153768539429
0.9021916389465332 0.57221311330795288 0.57807314395904541
0.9949721097946167 0.59898936748504639 0.59861373901367188
0.2001969963312149 0.49487915635108948 0.56640881299972534
0.35112100839614868 0.50111067295074463 0.57077574729919434
0.55100291967391968 0.53353613615036011 0.57620728015899658
0.72367346286773682 0.61376416683197021 0.57902967929840088
0.81534016132354736 0.66064935922622681 0.58064848184585571
0.90061104297637939 0.6347772479057312 0.58608764410018921
0.99288594722747803 0.65732288360595703 0.60181117057800293
0.014468638226389885 0.61735016107559204 0.55178934335708618
0.19970792531967163 0.61548596620559692 0.55305564403533936
0.43993702530860901 0.62116026878356934 0.56015300750732422
0.67720967531204224 0.65849298238754272 0.57581150531768799
0.81397885084152222 0.71376949548721313 0.58848440647125244
0.90719509124755859 0.70704907178878784 0.59424346685409546
0.99182796478271484 0.74006468057632446 0.62330323457717896
0.27999252080917358 0.73723071813583374 0.55570012331008911
0.37504339218139648 0.73632985353469849 0.55679881572723389
0.49898698925971985 0.73833256959915161 0.56728720664978027
0.6516343355178833 0.738869309425354 0.57464993000030518
0.79960912466049194 0.76332837343215942 0.58323341608047485
0.9157099723815918 0.77038490772247314 0.58833318948745728
0.98959493637084961 0.79836094379425049 0.6150391697883606
0.48727914690971375 0.84414499998092651 0.58179420232772827
0.53804570436477661 0.84289038181304932 0.58232510089874268
0.621104896068573 0.84176874160766602 0.59293776750564575
0.7204020619392395 0.84186398983001709 0.59799098968505859
0.81128746271133423 0.84687989950180054 0.59576529264450073
0.90564638376235962 0.84845155477523804 0.59120661020278931
0.99373012781143188 0.84901785850524902 0.57785075902938843
0.68291795253753662 0.94359815120697021 0.64642810821533203
0.70429056882858276 0.94444853067398071 0.64735925197601318
0.74701142311096191 0.94465267658233643 0.65766793489456177
0.79209846258163452 0.94502812623977661 0.65356534719467163
0.84498220682144165 0.94672828912734985 0.65852826833724976
0.91656661033630371 0.94632166624069214 0.66148781776428223
0.98812210559844971 0.95683550834655762 0.64782881736755371
0.55824702978134155 0.4855511486530304 0.70655727386474609
0.62103176116943359 0.51047229766845703 0.70974385738372803
0.71634870767593384 0.56387078762054443 0.70867645740509033
0.81461542844772339 0.6354672908782959 0.70749473571777344
0.88396352529525757 0.72766387462615967 0.70381313562393188
0.9359477162361145 0.72277450561523438 0.69919317960739136
0.9822695255279541 0.69739365577697754 0.69447261095046997
0.55080240964889526 0.51974266767501831 0.70205819606781006
0.61522054672241211 0.54531586170196533 0.70444595813751221
0.7072872519493103 0.58643186092376709 0.70576751232147217
0.81567925214767456 0.66105872392654419 0.70668202638626099
0.88176542520523071 0.73098301887512207 0.70777148008346558
0.93376904726028442 0.74012869596481323 0.70293265581130981
0.98601877689361572 0.72317981719970703 0.70722073316574097
0.50382488965988159 0.59306412935256958 0.69962906837463379
0.56849068403244019 0.60447061061859131 0.70108044147491455
0.68537479639053345 0.63760232925415039 0.70147573947906494
0.7967071533203125 0.69219458103179932 0.70787745714187622
0.88443458080291748 0.76016366481781006 0.71283447742462158
0.93524742126464844 0.77226483821868896 0.71328717470169067
0.98406064510345459 0.75255811214447021 0.71530508995056152
0.3297516405582428 0.67550671100616455 0.67781186103820801
0.43842869997024536 0.67688727378845215 0.68053340911865234
0.60221767425537109 0.68766921758651733 0.69085013866424561
0.75756049156188965 0.72148919105529785 0.70531326532363892
0.87138360738754272 0.77848631143569946 0.71789610385894775
0.93522173166275024 0.80229645967483521 0.72268480062484741
0.98567807674407959 0.79135245084762573 0.7266993522644043
0.32186472415924072 0.76220321655273438 0.66808974742889404
0.3953399658203125 0.76074230670928955 0.67182004451751709
0.50521767139434814 0.75648897886276245 0.67680919170379639
0.65376096963882446 0.75795525312423706 0.68181800842285156
0.82610654830932617 0.78869521617889404 0.70901679992675781
0.93544298410415649 0.83024019002914429 0.7327466607093811
0.99434322118759155 0.82558101415634155 0.74122399091720581
0.48043802380561829 0.84988164901733398 0.68364381790161133
0.52241796255111694 0.84944301843643188 0.68861991167068481
0.6032530665397644 0.84336954355239868 0.68798923492431641
0.70436686277389526 0.844005286693573 0.69753861427307129
0.81330585479736328 0.85060262680053711 0.71733838319778442
0.92544090747833252 0.86453592777252197 0.73265594244003296
0.99851495027542114 0.88206714391708374 0.75944429636001587
0.65172559022903442 0.94557005167007446 0.73701238632202148
0.67555588483810425 0.9453740119934082 0.74159735441207886
0.71973079442977905 0.94256198406219482 0.74708175659179688
0.78653013706207275 0.94589167833328247 0.75239068269729614
0.86854833364486694 0.94919806718826294 0.77489984035491943
0.9302603006362915 0.95225518941879272 0.78510540723800659
0.99059873819351196 0.95829528570175171 0.77610272169113159
0.73200476169586182 0.67905354499816895 0.85070222616195679
0.76360327005386353 0.6930239200592041 0.85019147396087646
0.81260949373245239 0.71490693092346191 0.84327644109725952
0.87366873025894165 0.75509816408157349 0.84141421318054199
0.92780119180679321 0.79524689912796021 0.83170187473297119
0.97565257549285889 0.83531701564788818 0.83522731065750122
0.99697303771972656 0.83999526500701904 0.83158344030380249
0.73156189918518066 0.69557249546051025 0.85189086198806763
0.76037299633026123 0.70865762233734131 0.85302400588989258
0.81060791015625 0.73111414909362793 0.85208821296691895
0.87313240766525269 0.76080071926116943 0.84428417682647705
0.93303102254867554 0.80277734994888306 0.84128260612487793
0.97524970769882202 0.84020489454269409 0.83612936735153198
0.99767154455184937 0.84762924909591675 0.83757668733596802
0.7099536657333374 0.72403550148010254 0.85377264022827148
0.73935353755950928 0.73342156410217285 0.85254567861557007
0.79463422298431396 0.75037544965744019 0.84861892461776733
0.86271530389785767 0.77583247423171997 0.84810948371887207
0.93050253391265869 0.81350040435791016 0.84700363874435425
0.97637027502059937 0.85211360454559326 0.84391921758651733
0.99706679582595825 0.86288797855377197 0.84232497215270996
0.65176546573638916 0.76206916570663452 0.85044044256210327
0.68886852264404297 0.76442652940750122 0.84944134950637817
0.75135141611099243 0.7727891206741333 0.85037869215011597
0.84100103378295898 0.79461109638214111 0.85371631383895874
0.92203044891357422 0.8277895450592041 0.85360234975814819
0.97343224287033081 0.86605501174926758 0.85079926252365112
0.99648904800415039 0.88353890180587769 0.85201793909072876
0.49003610014915466 0.80554723739624023 0.84341537952423096
0.53305691480636597 0.80495667457580566 0.84422904253005981
0.62563341856002808 0.80475521087646484 0.84651470184326172
0.76627147197723389 0.8147890567779541 0.85289561748504639
0.88676851987838745 0.83978825807571411 0.85797619819641113
0.96950334310531616 0.88548654317855835 0.86936378479003906
0.99839878082275391 0.9081270694732666 0.86962771415710449
0.55967402458190918 0.87556445598602295 0.85595142841339111
0.58225452899932861 0.87394636869430542 0.85602831840515137
0.6379162073135376 0.87241929769515991 0.85611909627914429
0.71161073446273804 0.86835819482803345 0.85931116342544556
0.8106919527053833 0.8684801459312439 0.86548376083374023
0.94248300790786743 0.90062344074249268 0.88040804862976074
0.99711722135543823 0.93948924541473389 0.89225578308105469
0.65317869186401367 0.96073174476623535 0.87582480907440186
0.66980409622192383 0.95814985036849976 0.86954379081726074
0.71481835842132568 0.95898419618606567 0.87664163112640381
0.76983106136322021 0.95947885513305664 0.88125395774841309
0.84528231620788574 0.95973211526870728 0.88439494371414185
0.92501199245452881 0.96168136596679688 0.89697033166885376
0.99197489023208618 0.97945719957351685 0.91022646427154541
