luts/instant_consumer/polaroid_time_zero_expired_---.cube
# Created by: G'MIC (https://gmic.eu)
TITLE "polaroid_time_zero_expired_---"
# LUT size
LUT_3D_SIZE 7
# Data domain
DOMAIN_MIN 0.0 0.0 0.0
DOMAIN_MAX 1.0 1.0 1.0
# LUT data points
0.11864567548036575 0.020398952066898346 0.026273809373378754
0.14236238598823547 0.018238769844174385 0.027007756754755974
0.26475709676742554 0.0040720175020396709 0.027531672269105911
0.46910974383354187 0.00031756231328472495 0.02412019670009613
0.66835647821426392 0.00088958739070221782 0.026559866964817047
0.82373756170272827 0.0010678160469979048 0.0477321557700634
0.94834482669830322 0.043807908892631531 0.092484071850776672
0.1351260244846344 0.081906534731388092 0.017023228108882904
0.17630200088024139 0.081417575478553772 0.019994817674160004
0.30895745754241943 0.082382798194885254 0.010462458245456219
0.5076371431350708 0.036678135395050049 0.0063521889969706535
0.68877708911895752 0.016884747892618179 0.0066240499727427959
0.83314067125320435 0.039139498025178909 0.021088737994432449
0.95102179050445557 0.19693635404109955 0.083932630717754364
0.18678788840770721 0.28073984384536743 0.0025350982323288918
0.2688620388507843 0.28249102830886841 0.0038690604269504547
0.41576921939849854 0.28889274597167969 0.00099218031391501427
0.57619941234588623 0.28263530135154724 0.0036450254265218973
0.71826267242431641 0.26869270205497742 0.0037873960100114346
0.84098720550537109 0.29769545793533325 0.0040040556341409683
0.94938695430755615 0.35880169272422791 0.043791558593511581
0.29120680689811707 0.47439450025558472 0
0.37127840518951416 0.48088961839675903 0
0.50726133584976196 0.47537586092948914 0.00035250795190222561
0.65031802654266357 0.48181456327438354 0.0053484747186303139
0.7592352032661438 0.48139241337776184 0.0043936185538768768
0.85980522632598877 0.48977512121200562 0.0046314913779497147
0.94681316614151001 0.5171312689781189 0.0092772990465164185
0.44209513068199158 0.62459075450897217 0
0.48196280002593994 0.6232905387878418 0
0.5814288854598999 0.62338799238204956 0
0.70215612649917603 0.62845307588577271 0.0039215688593685627
0.79755169153213501 0.64176809787750244 0.0041321101598441601
0.87986034154891968 0.65427142381668091 0.14586935937404633
0.95189905166625977 0.66605085134506226 0.16867257654666901
0.58223652839660645 0.76079761981964111 0.00087322160834446549
0.60607409477233887 0.75800073146820068 0
0.66084867715835571 0.75531947612762451 0
0.7444341778755188 0.76013624668121338 0.0034283655695617199
0.82832938432693481 0.76498222351074219 0.0041855010204017162
0.90174919366836548 0.77492326498031616 0.19398556649684906
0.96168971061706543 0.79473572969436646 0.38822996616363525
0.70863384008407593 0.88602513074874878 0.00075999239925295115
0.72370761632919312 0.88566857576370239 0
0.75488102436065674 0.88488304615020752 0
0.8065793514251709 0.8884422779083252 0.0013234905200079083
0.87469577789306641 0.89292639493942261 0.024618979543447495
0.93832147121429443 0.89689779281616211 0.29966205358505249
0.98637151718139648 0.90202987194061279 0.47824954986572266
0.13341616094112396 0.019333424046635628 0.063842833042144775
0.15706731379032135 0.015345226041972637 0.067722231149673462
0.28378632664680481 0.0029076519422233105 0.090136662125587463
0.49182352423667908 0.00048238717135973275 0.10583778470754623
0.67994862794876099 0.0034587187692523003 0.11833413690328598
0.82715022563934326 0.0017901252722367644 0.1347355842590332
0.94705003499984741 0.11193252354860306 0.16647499799728394
0.14525958895683289 0.076342970132827759 0.066681578755378723
0.19976937770843506 0.088263250887393951 0.073681987822055817
0.34162262082099915 0.080165207386016846 0.082498274743556976
0.53468602895736694 0.044823501259088516 0.086374573409557343
0.7008708119392395 0.034458715468645096 0.098505698144435883
0.8370516300201416 0.08878432959318161 0.11841665208339691
0.9458003044128418 0.22787688672542572 0.16314323246479034
0.18492880463600159 0.27743315696716309 0.033744212239980698
0.27483078837394714 0.29066780209541321 0.025921287015080452
0.43233370780944824 0.29498034715652466 0.044887363910675049
0.58984470367431641 0.29488137364387512 0.057192858308553696
0.72225451469421387 0.28802227973937988 0.047085333615541458
0.84097307920455933 0.31342208385467529 0.083823457360267639
0.94379061460494995 0.37148022651672363 0.14616063237190247
0.31592223048210144 0.47599849104881287 0.0033410913310945034
0.38666427135467529 0.48059895634651184 0.0052883373573422432
0.51557809114456177 0.48287731409072876 0.0043306238949298859
0.65560567378997803 0.4905400276184082 0.025463568046689034
0.7627568244934082 0.49149668216705322 0.078835509717464447
0.85305136442184448 0.49007758498191833 0.049183070659637451
0.94353288412094116 0.51915234327316284 0.10969977080821991
0.45916146039962769 0.62273561954498291 0.0032383487559854984
0.50374722480773926 0.62462323904037476 0.0044798008166253567
0.58837664127349854 0.6271902322769165 0.0033063401933759451
0.70235329866409302 0.63563913106918335 0.0043346332386136055
0.7990105152130127 0.64416682720184326 0.07448260486125946
0.87884914875030518 0.65362799167633057 0.22103238105773926
0.95030158758163452 0.66824084520339966 0.23346111178398132
0.59061366319656372 0.75318986177444458 0.0036966660991311073
0.61581861972808838 0.75583773851394653 0.0029612970538437366
0.66646319627761841 0.7550233006477356 0.0035418043844401836
0.74434274435043335 0.75993573665618896 0.0023692711256444454
0.82833456993103027 0.76612693071365356 0.037403449416160583
0.90094077587127686 0.77699464559555054 0.26767751574516296
0.95941942930221558 0.79471701383590698 0.42440441250801086
0.71266311407089233 0.8859562873840332 0.025920119136571884
0.72477859258651733 0.88585495948791504 0.016507437452673912
0.75578016042709351 0.88760697841644287 0.0020772598218172789
0.80483973026275635 0.88788962364196777 0.0016618765657767653
0.87342661619186401 0.89269614219665527 0.090959645807743073
0.93592756986618042 0.89564520120620728 0.33799296617507935
0.98402774333953857 0.90163904428482056 0.4996311366558075
0.21555037796497345 0.0066056642681360245 0.2044096440076828
0.24722000956535339 0.0087967067956924438 0.2120792418718338
0.32775717973709106 0.0051311715506017208 0.21538904309272766
0.51551097631454468 0.0020971710328012705 0.24293015897274017
0.68999284505844116 0.003742277855053544 0.26219242811203003
0.83149760961532593 0.078128010034561157 0.27063649892807007
0.93986451625823975 0.24359481036663055 0.29509410262107849
0.26049527525901794 0.10369493067264557 0.20979888737201691
0.31316521763801575 0.12726698815822601 0.21674926578998566
0.39037087559700012 0.12907719612121582 0.21855132281780243
0.55557972192764282 0.085944205522537231 0.24294784665107727
0.71075254678726196 0.12851156294345856 0.25092071294784546
0.83951288461685181 0.21029680967330933 0.26207610964775085
0.94333541393280029 0.29381167888641357 0.28365129232406616
0.28634375333786011 0.27717605233192444 0.19800259172916412
0.35908016562461853 0.2919171154499054 0.20712277293205261
0.47215414047241211 0.31052121520042419 0.21218311786651611
0.60548454523086548 0.30957671999931335 0.22071896493434906
0.73340499401092529 0.31636160612106323 0.22442959249019623
0.84853720664978027 0.34200182557106018 0.23716239631175995
0.94439935684204102 0.40007781982421875 0.27521762251853943
0.3680325448513031 0.46999141573905945 0.17338873445987701
0.4290318489074707 0.48156821727752686 0.18297968804836273
0.53933858871459961 0.48934206366539001 0.168995201587677
0.66343331336975098 0.49535530805587769 0.21318800747394562
0.76271039247512817 0.49276721477508545 0.23153452575206757
0.85558515787124634 0.49915483593940735 0.22261938452720642
0.94238042831420898 0.52994042634963989 0.26788875460624695
0.50592350959777832 0.6254957914352417 0.17045806348323822
0.53637892007827759 0.62772184610366821 0.15763077139854431
0.60172432661056519 0.63185578584671021 0.12599846720695496
0.69841498136520386 0.63699895143508911 0.14184561371803284
0.79913371801376343 0.64993155002593994 0.2575954794883728
0.87622541189193726 0.65570122003555298 0.32900500297546387
0.94914436340332031 0.66946548223495483 0.32511794567108154
0.6120145320892334 0.75278365612030029 0.16727659106254578
0.63018101453781128 0.75242358446121216 0.15192677080631256
0.67159593105316162 0.75485861301422119 0.11341924965381622
0.74139225482940674 0.75941556692123413 0.066399715840816498
0.82772976160049438 0.76761740446090698 0.22485904395580292
0.89905357360839844 0.78090137243270874 0.38121470808982849
0.95674425363540649 0.79813098907470703 0.48419368267059326
0.7163928747177124 0.88289743661880493 0.2620387077331543
0.72734004259109497 0.88214683532714844 0.24659323692321777
0.75640219449996948 0.88575470447540283 0.21591141819953918
0.80168968439102173 0.89025938510894775 0.13595655560493469
0.8679044246673584 0.89235752820968628 0.23784443736076355
0.93209445476531982 0.89620602130889893 0.41126590967178345
0.98259449005126953 0.90333861112594604 0.55860656499862671
0.38777479529380798 0.02312195673584938 0.39785593748092651
0.41752445697784424 0.035556267946958542 0.40262529253959656
0.4786069393157959 0.065072633326053619 0.41144838929176331
0.57614076137542725 0.081294387578964233 0.40872272849082947
0.70651865005493164 0.040548242628574371 0.40004327893257141
0.83183783292770386 0.098957329988479614 0.43953987956047058
0.9352295994758606 0.27422535419464111 0.46342918276786804
0.46349787712097168 0.19583569467067719 0.40180802345275879
0.49032190442085266 0.20898893475532532 0.40236243605613708
0.54134321212768555 0.2292332649230957 0.4110761284828186
0.60946089029312134 0.22725991904735565 0.40580666065216064
0.72280222177505493 0.19361987709999084 0.40695330500602722
0.83776116371154785 0.23407426476478577 0.43296322226524353
0.9359055757522583 0.34075874090194702 0.45888349413871765
0.5003315806388855 0.32361048460006714 0.39512214064598083
0.54809695482254028 0.35172906517982483 0.39981207251548767
0.6025269627571106 0.37804731726646423 0.40268164873123169
0.65192955732345581 0.38233095407485962 0.40081566572189331
0.74580234289169312 0.35422834753990173 0.40546691417694092
0.84781050682067871 0.37651905417442322 0.4154755175113678
0.93904119729995728 0.4437595009803772 0.44044926762580872
0.49473598599433899 0.47122371196746826 0.36138796806335449
0.53716236352920532 0.48533269762992859 0.36732897162437439
0.60718828439712524 0.49948209524154663 0.37673154473304749
0.68457841873168945 0.51049208641052246 0.38250315189361572
0.76991182565689087 0.50694471597671509 0.38532039523124695
0.85656774044036865 0.51796132326126099 0.39668762683868408
0.94397473335266113 0.5451776385307312 0.41659808158874512
0.553985595703125 0.61276525259017944 0.34155550599098206
0.57655590772628784 0.61943984031677246 0.34920907020568848
0.63734418153762817 0.63024711608886719 0.36271128058433533
0.71111154556274414 0.63838636875152588 0.36040881276130676
0.80018579959869385 0.65285152196884155 0.41389685869216919
0.87382841110229492 0.65378016233444214 0.43242326378822327
0.94537937641143799 0.6638801097869873 0.42207098007202148
0.62867623567581177 0.74891084432601929 0.3769683837890625
0.64923584461212158 0.75011914968490601 0.38195332884788513
0.68999314308166504 0.75274211168289185 0.37760704755783081
0.74622815847396851 0.75780481100082397 0.35410982370376587
0.81902998685836792 0.76639425754547119 0.38301438093185425
0.89740675687789917 0.78427243232727051 0.49528202414512634
0.95414817333221436 0.79520004987716675 0.56073111295700073
0.72018802165985107 0.87868702411651611 0.45462426543235779
0.73055154085159302 0.88023382425308228 0.4473758339881897
0.75429528951644897 0.88319796323776245 0.42857366800308228
0.79706078767776489 0.8864823579788208 0.39380988478660583
0.85629522800445557 0.89296406507492065 0.37174192070960999
0.926483154296875 0.89859271049499512 0.50095486640930176
0.97971731424331665 0.90509223937988281 0.62870681285858154
0.57584542036056519 0.17492368817329407 0.59314835071563721
0.59461992979049683 0.19176869094371796 0.59595483541488647
0.63432222604751587 0.23027549684047699 0.60450702905654907
0.68384718894958496 0.27021539211273193 0.60728520154953003
0.74760472774505615 0.28166371583938599 0.59176069498062134
0.83008641004562378 0.27234432101249695 0.57472765445709229
0.92901521921157837 0.31528434157371521 0.63406842947006226
0.62589544057846069 0.31756079196929932 0.59192085266113281
0.6402285099029541 0.32523703575134277 0.59255367517471313
0.66455990076065063 0.33723288774490356 0.59748667478561401
0.70720815658569336 0.36771696805953979 0.60333389043807983
0.7591126561164856 0.36711779236793518 0.58923143148422241
0.83866029977798462 0.34936702251434326 0.5815727710723877
0.92890548706054688 0.36840876936912537 0.63277268409729004
0.67434251308441162 0.44620636105537415 0.58730620145797729
0.68776065111160278 0.45839539170265198 0.58565402030944824
0.71162128448486328 0.4725462794303894 0.58887159824371338
0.74027979373931885 0.48532277345657349 0.59324723482131958
0.77926534414291382 0.48312056064605713 0.58954864740371704
0.84202086925506592 0.44844523072242737 0.57688993215560913
0.93001723289489746 0.46154528856277466 0.62493836879730225
0.64949250221252441 0.51871418952941895 0.56483519077301025
0.67600369453430176 0.53175544738769531 0.57128584384918213
0.71826249361038208 0.55674958229064941 0.57374626398086548
0.75793588161468506 0.58037126064300537 0.58054590225219727
0.79395627975463867 0.58076071739196777 0.57991170883178711
0.85561192035675049 0.55058634281158447 0.5817875862121582
0.93289625644683838 0.56667661666870117 0.60159206390380859
0.64300906658172607 0.63077372312545776 0.53167879581451416
0.66420274972915649 0.63332551717758179 0.53603440523147583
0.70533871650695801 0.64034521579742432 0.54230523109436035
0.75256234407424927 0.6507837176322937 0.54887926578521729
0.80764245986938477 0.66682416200637817 0.5672231912612915
0.86758321523666382 0.65923351049423218 0.56744974851608276
0.94398587942123413 0.67052209377288818 0.57712328433990479
0.68071877956390381 0.73643815517425537 0.52994328737258911
0.68693989515304565 0.7443082332611084 0.53886240720748901
0.71371835470199585 0.74747538566589355 0.54034662246704102
0.75833696126937866 0.75685161352157593 0.55304831266403198
0.81614607572555542 0.76800680160522461 0.54679292440414429
0.8892894983291626 0.78695732355117798 0.61600536108016968
0.95329946279525757 0.79610240459442139 0.640036940574646
0.71369481086730957 0.87416261434555054 0.59033834934234619
0.72194540500640869 0.87735694646835327 0.59112191200256348
0.7462581992149353 0.87979567050933838 0.59478479623794556
0.79017376899719238 0.88588011264801025 0.59396350383758545
0.84229898452758789 0.89376801252365112 0.56537324190139771
0.91050410270690918 0.90143364667892456 0.60496467351913452
0.97159087657928467 0.90825563669204712 0.71295750141143799
0.71170616149902344 0.37015849351882935 0.76028537750244141
0.71895605325698853 0.37656724452972412 0.75966024398803711
0.73730874061584473 0.40193420648574829 0.76402020454406738
0.76767432689666748 0.43341654539108276 0.76958346366882324
0.80033963918685913 0.4650954008102417 0.77219599485397339
0.84802448749542236 0.47880154848098755 0.75740504264831543
0.90909421443939209 0.46835824847221375 0.74339741468429565
0.73809176683425903 0.45835861563682556 0.75671899318695068
0.74216872453689575 0.46161383390426636 0.75834733247756958
0.75761401653289795 0.47850388288497925 0.75856864452362061
0.78128457069396973 0.49690118432044983 0.7676694393157959
0.81173539161682129 0.51889830827713013 0.77349656820297241
0.85118573904037476 0.51892590522766113 0.75937998294830322
0.90948021411895752 0.50440973043441772 0.74595350027084351
0.76862961053848267 0.56067204475402832 0.75253748893737793
0.772258460521698 0.56149744987487793 0.75123673677444458
0.78410965204238892 0.56910413503646851 0.75259989500045776
0.80364972352981567 0.58454185724258423 0.76205563545227051
0.82790839672088623 0.59591042995452881 0.76956677436828613
0.85832709074020386 0.58970075845718384 0.75864428281784058
0.91539019346237183 0.56758594512939453 0.75393021106719971
0.77678948640823364 0.61685824394226074 0.74770438671112061
0.78982853889465332 0.62934416532516479 0.75118261575698853
0.80573081970214844 0.64605879783630371 0.7519991397857666
0.82191640138626099 0.65830999612808228 0.75665456056594849
0.84330981969833374 0.66901713609695435 0.76498371362686157
0.86861187219619751 0.66610527038574219 0.76550948619842529
0.92093193531036377 0.63061106204986572 0.75853115320205688
0.74884533882141113 0.67643719911575317 0.73719924688339233
0.76275825500488281 0.68271726369857788 0.73991185426712036
0.78747779130935669 0.69017863273620605 0.74116677045822144
0.82550132274627686 0.71129125356674194 0.75123000144958496
0.85479199886322021 0.73170250654220581 0.76103997230529785
0.88123512268066406 0.73267751932144165 0.76483684778213501
0.93248289823532104 0.6981804370880127 0.76493149995803833
0.73999816179275513 0.76451653242111206 0.72162044048309326
0.75325256586074829 0.76384818553924561 0.71856820583343506
0.77196431159973145 0.76448804140090942 0.71931445598602295
0.80445688962936401 0.77584576606750488 0.72854453325271606
0.84005409479141235 0.78429394960403442 0.73767858743667603
0.88628023862838745 0.79598581790924072 0.75146818161010742
0.94750404357910156 0.79378038644790649 0.75453269481658936
0.76215243339538574 0.86260664463043213 0.73976010084152222
0.76643162965774536 0.86764967441558838 0.74685424566268921
0.78089112043380737 0.86908739805221558 0.74594151973724365
0.80062961578369141 0.87844371795654297 0.74705380201339722
0.83330512046813965 0.89131945371627808 0.75104165077209473
0.89496713876724243 0.90146148204803467 0.74041199684143066
0.96365904808044434 0.91296541690826416 0.80951827764511108
0.80599337816238403 0.55596846342086792 0.88951855897903442
0.80915331840515137 0.55776822566986084 0.88890522718429565
0.81938433647155762 0.57041853666305542 0.89206230640411377
0.8329814076423645 0.58673691749572754 0.8946305513381958
0.85201168060302734 0.60530155897140503 0.89581066370010376
0.87734365463256836 0.62694233655929565 0.90061873197555542
0.91308003664016724 0.63273823261260986 0.89512741565704346
0.81688046455383301 0.59953534603118896 0.88861799240112305
0.81852370500564575 0.59996390342712402 0.88886117935180664
0.82781374454498291 0.60941183567047119 0.88980591297149658
0.84141945838928223 0.61996710300445557 0.89281654357910156
0.85797327756881714 0.63374918699264526 0.8959929347038269
0.88010996580123901 0.65031415224075317 0.90013915300369263
0.909504234790802 0.6551283597946167 0.89591521024703979
0.83315730094909668 0.65824717283248901 0.88549709320068359
0.83575809001922607 0.66136431694030762 0.88709151744842529
0.8427354097366333 0.66593480110168457 0.88616740703582764
0.85202562808990479 0.67101681232452393 0.88832825422286987
0.86791861057281494 0.68387919664382935 0.8946378231048584
0.88836950063705444 0.69496423006057739 0.90109431743621826
0.91804158687591553 0.69318336248397827 0.89682155847549438
0.84675133228302002 0.71333533525466919 0.88542377948760986
0.85085892677307129 0.71721571683883667 0.88634508848190308
0.85904186964035034 0.72455418109893799 0.88899165391921997
0.86667507886886597 0.73027616739273071 0.88980871438980103
0.88060516119003296 0.73724240064620972 0.89486241340637207
0.89841157197952271 0.74646186828613281 0.90088194608688354
0.9240918755531311 0.74446511268615723 0.89851301908493042
0.84140056371688843 0.74728071689605713 0.88833564519882202
0.85121208429336548 0.75401490926742554 0.88885462284088135
0.86114197969436646 0.76300287246704102 0.88936370611190796
0.87834548950195312 0.78072923421859741 0.89168256521224976
0.89566129446029663 0.79334276914596558 0.89615410566329956
0.91064578294754028 0.80104553699493408 0.90370321273803711
0.93264913558959961 0.7975725531578064 0.90319740772247314
0.81573027372360229 0.80880236625671387 0.88484698534011841
0.82231599092483521 0.80989176034927368 0.88604736328125
0.8354792594909668 0.81133097410202026 0.88799506425857544
0.86346590518951416 0.82309544086456299 0.89045608043670654
0.89580726623535156 0.83713144063949585 0.89925539493560791
0.92441701889038086 0.8555908203125 0.9052545428276062
0.94869953393936157 0.85874921083450317 0.91107058525085449
0.80764269828796387 0.88740986585617065 0.88620072603225708
0.81301504373550415 0.88803344964981079 0.88803303241729736
0.82797855138778687 0.8937343955039978 0.89211475849151611
0.84953421354293823 0.89745098352432251 0.89259696006774902
0.87667787075042725 0.90361934900283813 0.89628118276596069
0.91516894102096558 0.91275191307067871 0.90142631530761719
0.96338218450546265 0.92249166965484619 0.90991854667663574
