luts/instant_consumer/polaroid_px-100uv+_cold_+++.cube
# Created by: G'MIC (https://gmic.eu)
TITLE "polaroid_px-100uv+_cold_+++"
# LUT size
LUT_3D_SIZE 13
# Data domain
DOMAIN_MIN 0.0 0.0 0.0
DOMAIN_MAX 1.0 1.0 1.0
# LUT data points
0.37850886583328247 0.41004070639610291 0.40802299976348877
0.37409490346908569 0.40565961599349976 0.40707206726074219
0.37254902720451355 0.40377238392829895 0.40635907649993896
0.37316662073135376 0.40391820669174194 0.40783879160881042
0.37833622097969055 0.40758928656578064 0.41200226545333862
0.38728618621826172 0.41542816162109375 0.41900628805160522
0.40028661489486694 0.42701399326324463 0.42879852652549744
0.41715848445892334 0.44240555167198181 0.44143933057785034
0.43854841589927673 0.4621766209602356 0.45729741454124451
0.46634173393249512 0.48798450827598572 0.4771055281162262
0.50363147258758545 0.52292156219482422 0.50288927555084229
0.55023646354675293 0.56664544343948364 0.53433579206466675
0.6004372239112854 0.61358678340911865 0.56739062070846558
0.37972083687782288 0.41130593419075012 0.41006401181221008
0.37620005011558533 0.40766596794128418 0.40818792581558228
0.37453573942184448 0.4056725800037384 0.40807238221168518
0.37611326575279236 0.40656965970993042 0.4099237322807312
0.38142096996307373 0.41090250015258789 0.41422957181930542
0.39047127962112427 0.41891717910766602 0.42130863666534424
0.40336921811103821 0.4305889904499054 0.43109181523323059
0.41985929012298584 0.44580316543579102 0.4437490701675415
0.44094884395599365 0.46551910042762756 0.45945978164672852
0.46904900670051575 0.4916979968547821 0.4796052873134613
0.50661551952362061 0.52674514055252075 0.50553715229034424
0.55358666181564331 0.57036250829696655 0.53682202100753784
0.60491520166397095 0.61754542589187622 0.56975424289703369
0.38273200392723083 0.41393908858299255 0.41272264719009399
0.37966305017471313 0.41090470552444458 0.41142392158508301
0.37857580184936523 0.40952843427658081 0.41135141253471375
0.3806508481502533 0.41086903214454651 0.41314440965652466
0.38583162426948547 0.4154706597328186 0.4173714816570282
0.3946932852268219 0.42341345548629761 0.42440122365951538
0.4070284366607666 0.43483144044876099 0.43401122093200684
0.42309024930000305 0.44984143972396851 0.44637924432754517
0.4440065324306488 0.46946296095848083 0.46206843852996826
0.47228297591209412 0.49577823281288147 0.48231494426727295
0.51033180952072144 0.53099155426025391 0.50826090574264526
0.55801540613174438 0.57453060150146484 0.53930962085723877
0.61038744449615479 0.62213021516799927 0.57247269153594971
0.38809749484062195 0.41859999299049377 0.41731590032577515
0.38530817627906799 0.4159131646156311 0.41588613390922546
0.38453701138496399 0.41505900025367737 0.41574183106422424
0.3865320086479187 0.41680708527565002 0.41759395599365234
0.39174044132232666 0.42131012678146362 0.42170530557632446
0.40018945932388306 0.42909935116767883 0.42836284637451172
0.41175118088722229 0.43982312083244324 0.43747809529304504
0.42695844173431396 0.45410138368606567 0.44938391447067261
0.44736668467521667 0.47330090403556824 0.46476075053215027
0.47530597448348999 0.49946275353431702 0.48470225930213928
0.51340818405151367 0.5343097448348999 0.51021593809127808
0.56163543462753296 0.57796233892440796 0.54119884967803955
0.61585551500320435 0.62639915943145752 0.57468175888061523
0.39599835872650146 0.42558234930038452 0.4239368736743927
0.39307162165641785 0.42301526665687561 0.42237389087677002
0.39237424731254578 0.42238423228263855 0.42222261428833008
0.39447218179702759 0.42420870065689087 0.4238094687461853
0.39977464079856873 0.42901083827018738 0.42766061425209045
0.40787270665168762 0.43651831150054932 0.4337623119354248
0.41858232021331787 0.44658058881759644 0.44233959913253784
0.43255764245986938 0.45993474125862122 0.45355716347694397
0.45178210735321045 0.47821429371833801 0.46821552515029907
0.47878596186637878 0.50317907333374023 0.4872492253780365
0.51532328128814697 0.53645282983779907 0.51160544157028198
0.56231915950775146 0.57877182960510254 0.54141652584075928
0.61685049533843994 0.62721282243728638 0.57474976778030396
0.40626901388168335 0.43494009971618652 0.43294152617454529
0.40295496582984924 0.43213659524917603 0.4311680793762207
0.40216520428657532 0.4315611720085144 0.43090537190437317
0.4045165479183197 0.43363809585571289 0.43213239312171936
0.41034582257270813 0.4391096830368042 0.43587926030158997
0.41885635256767273 0.44706523418426514 0.44181272387504578
0.42895898222923279 0.45663806796073914 0.44975757598876953
0.44213616847991943 0.46903517842292786 0.46033552289009094
0.46036240458488464 0.48626899719238281 0.47426781058311462
0.48535916209220886 0.50952422618865967 0.49189653992652893
0.51866841316223145 0.53998887538909912 0.51404047012329102
0.56176400184631348 0.57878392934799194 0.54145282506942749
0.61405432224273682 0.62530714273452759 0.57323634624481201
0.42021706700325012 0.44760364294052124 0.44481167197227478
0.41600841283798218 0.44416439533233643 0.44266057014465332
0.41488969326019287 0.44359290599822998 0.44200530648231506
0.41734781861305237 0.44597184658050537 0.44327577948570251
0.42362958192825317 0.45177331566810608 0.44684270024299622
0.43310222029685974 0.46049255132675171 0.45278868079185486
0.44383886456489563 0.47055506706237793 0.46070036292076111
0.45751491189002991 0.48339435458183289 0.47118878364562988
0.47581616044044495 0.50135236978530884 0.48464339971542358
0.49997001886367798 0.52274525165557861 0.50117933750152588
0.53045982122421265 0.55074924230575562 0.52142989635467529
0.56920343637466431 0.58577823638916016 0.54595232009887695
0.6192966103553772 0.63019323348999023 0.57627677917480469
0.44001412391662598 0.46559968590736389 0.46068671345710754
0.43466043472290039 0.46164551377296448 0.45826491713523865
0.43316665291786194 0.46090167760848999 0.45756393671035767
0.43503382802009583 0.46285766363143921 0.45818045735359192
0.44083455204963684 0.46826142072677612 0.4612375795841217
0.45085641741752625 0.47741183638572693 0.46714204549789429
0.46418756246566772 0.48952236771583557 0.47571799159049988
0.48083734512329102 0.50471699237823486 0.48718351125717163
0.50135523080825806 0.5234607458114624 0.50084692239761353
0.52626895904541016 0.54623091220855713 0.51671850681304932
0.5565527081489563 0.57381457090377808 0.53640007972717285
0.59431713819503784 0.60762417316436768 0.56032258272171021
0.6411052942276001 0.64918118715286255 0.5883679986000061
0.46922031044960022 0.49208366870880127 0.48184019327163696
0.46350470185279846 0.48808276653289795 0.4793548583984375
0.46134194731712341 0.48693922162055969 0.47835123538970947
0.46171420812606812 0.48804816603660583 0.47841230034828186
0.46619617938995361 0.49211922287940979 0.48065045475959778
0.47677645087242126 0.50157886743545532 0.48650574684143066
0.49355244636535645 0.51669329404830933 0.49632716178894043
0.51429617404937744 0.53487265110015869 0.50873494148254395
0.5375174880027771 0.55581545829772949 0.52305930852890015
0.56387674808502197 0.57949459552764893 0.5395580530166626
0.59484577178955078 0.60733473300933838 0.55886662006378174
0.6323932409286499 0.64066660404205322 0.58170253038406372
0.67550897598266602 0.67890250682830811 0.60727506875991821
0.51248157024383545 0.53112488985061646 0.51013088226318359
0.50713664293289185 0.5279051661491394 0.50806069374084473
0.50449216365814209 0.52661395072937012 0.50705021619796753
0.50308841466903687 0.52617049217224121 0.5064617395401001
0.50500375032424927 0.52795344591140747 0.50721931457519531
0.51580262184143066 0.53745013475418091 0.51280701160430908
0.53589791059494019 0.55499792098999023 0.52356815338134766
0.55934041738510132 0.57538866996765137 0.53660815954208374
0.58384501934051514 0.59699422121047974 0.55083918571472168
0.60993319749832153 0.62018126249313354 0.56633013486862183
0.63945943117141724 0.64639890193939209 0.58416599035263062
0.67397564649581909 0.6772085428237915 0.60468655824661255
0.71249794960021973 0.71122133731842041 0.62765026092529297
0.57508724927902222 0.58782637119293213 0.54792201519012451
0.56942307949066162 0.58429110050201416 0.54591858386993408
0.56610053777694702 0.58236253261566162 0.54482388496398926
0.56380158662796021 0.58142191171646118 0.54388177394866943
0.56423622369766235 0.58175849914550781 0.54385805130004883
0.57429045438766479 0.59001845121383667 0.54849785566329956
0.59389710426330566 0.60663795471191406 0.5584905743598938
0.61652255058288574 0.62632828950881958 0.57033061981201172
0.6387743353843689 0.64572644233703613 0.58269250392913818
0.66126465797424316 0.6655089259147644 0.59545964002609253
0.68553370237350464 0.68726944923400879 0.60970902442932129
0.71322113275527954 0.71151793003082275 0.62537539005279541
0.74378317594528198 0.73881417512893677 0.64359229803085327
0.65322178602218628 0.6582300066947937 0.59272170066833496
0.64671599864959717 0.65372484922409058 0.59062290191650391
0.64291143417358398 0.65138232707977295 0.58936625719070435
0.64155972003936768 0.65077775716781616 0.58899968862533569
0.64343458414077759 0.6524350643157959 0.58962410688400269
0.65087902545928955 0.65844440460205078 0.59278029203414917
0.66494238376617432 0.67004770040512085 0.59937816858291626
0.68243205547332764 0.68486237525939941 0.6079825758934021
0.69956785440444946 0.69949454069137573 0.61693507432937622
0.71500462293624878 0.71318632364273071 0.62557512521743774
0.7312314510345459 0.72775530815124512 0.63440680503845215
0.74998575448989868 0.74405616521835327 0.64497500658035278
0.77086901664733887 0.76319384574890137 0.65694421529769897
0.73528695106506348 0.73164093494415283 0.63838964700698853
0.72886836528778076 0.72730261087417603 0.6365322470664978
0.72511768341064453 0.72475016117095947 0.63538891077041626
0.72538024187088013 0.72540336847305298 0.63603085279464722
0.72828638553619385 0.72786033153533936 0.63718700408935547
0.7317623496055603 0.7302442193031311 0.63816243410110474
0.73912805318832397 0.73601990938186646 0.64093208312988281
0.75030022859573364 0.74495679140090942 0.64558374881744385
0.76098436117172241 0.75360560417175293 0.65065377950668335
0.76849913597106934 0.76041340827941895 0.65452677011489868
0.77591300010681152 0.7674405574798584 0.65825927257537842
0.78578156232833862 0.77656096220016479 0.66361135244369507
0.79853940010070801 0.78832107782363892 0.67034363746643066
0.37781068682670593 0.40993490815162659 0.410127192735672
0.3740689754486084 0.40624448657035828 0.40818282961845398
0.37275046110153198 0.40413662791252136 0.40844050049781799
0.37523111701011658 0.40567174553871155 0.41079443693161011
0.3817196786403656 0.41098502278327942 0.41562634706497192
0.39243528246879578 0.4203498363494873 0.4236854612827301
0.40745335817337036 0.43373981118202209 0.43459019064903259
0.42604392766952515 0.45086356997489929 0.44832387566566467
0.44875255227088928 0.47209200263023376 0.46492061018943787
0.47737079858779907 0.49898993968963623 0.48547431826591492
0.51443082094192505 0.53374409675598145 0.51155287027359009
0.56002241373062134 0.57640326023101807 0.54177385568618774
0.60924786329269409 0.62191373109817505 0.57364368438720703
0.38004851341247559 0.41213923692703247 0.41204109787940979
0.37696567177772522 0.40884292125701904 0.4109140932559967
0.37636610865592957 0.40776920318603516 0.4109228253364563
0.3788224458694458 0.4093376100063324 0.41317921876907349
0.38545796275138855 0.41490304470062256 0.4182593822479248
0.3964545726776123 0.42467397451400757 0.42633464932441711
0.41142663359642029 0.43829825520515442 0.43744349479675293
0.42970424890518188 0.45510584115982056 0.45105662941932678
0.45118808746337891 0.47556307911872864 0.46726900339126587
0.47878855466842651 0.50154983997344971 0.48729652166366577
0.51550722122192383 0.53609102964401245 0.51255875825881958
0.56192260980606079 0.57877105474472046 0.54338425397872925
0.61300981044769287 0.62543094158172607 0.57595819234848022
0.38459888100624084 0.41620615124702454 0.41546428203582764
0.3820827305316925 0.41339755058288574 0.41420873999595642
0.38159734010696411 0.41259056329727173 0.41438275575637817
0.38404619693756104 0.41447791457176208 0.41679370403289795
0.39042916893959045 0.41997459530830383 0.4216187596321106
0.40097594261169434 0.42952218651771545 0.42948341369628906
0.4152466356754303 0.44261717796325684 0.44033569097518921
0.432525634765625 0.45892328023910522 0.45360076427459717
0.45357891917228699 0.47874456644058228 0.46938702464103699
0.48081097006797791 0.50440365076065063 0.48907968401908875
0.51762813329696655 0.53852009773254395 0.51432538032531738
0.56490468978881836 0.58176583051681519 0.54495930671691895
0.61744260787963867 0.62921208143234253 0.57792013883590698
0.39197665452957153 0.42260885238647461 0.42083275318145752
0.38968458771705627 0.42025023698806763 0.41963112354278564
0.38909301161766052 0.41951072216033936 0.4196089506149292
0.3912208080291748 0.42122000455856323 0.42172491550445557
0.3968920111656189 0.42622676491737366 0.426168292760849
0.40612572431564331 0.43463894724845886 0.43340030312538147
0.41889461874961853 0.44660890102386475 0.44329014420509338
0.43499946594238281 0.46177056431770325 0.45575663447380066
0.45542964339256287 0.48119035363197327 0.47122097015380859
0.4829404354095459 0.50697261095046997 0.49078771471977234
0.52040672302246094 0.54142749309539795 0.51588433980941772
0.56826287508010864 0.58454972505569458 0.54637676477432251
0.6217542290687561 0.63249063491821289 0.57949763536453247
0.40198123455047607 0.43159100413322449 0.42848235368728638
0.39982765913009644 0.42945626378059387 0.42716577649116516
0.39893969893455505 0.4284777045249939 0.42696157097816467
0.40037912130355835 0.42970287799835205 0.42844223976135254
0.40521520376205444 0.43414148688316345 0.43230503797531128
0.41346395015716553 0.44174617528915405 0.43865752220153809
0.42437940835952759 0.45205485820770264 0.44746795296669006
0.43878293037414551 0.46581128239631653 0.45883339643478394
0.45841583609580994 0.48434311151504517 0.47356802225112915
0.48567256331443787 0.50958657264709473 0.492654949426651
0.52258670330047607 0.54323107004165649 0.51691740751266479
0.5695183277130127 0.58558517694473267 0.54680490493774414
0.62283575534820557 0.63305109739303589 0.57937943935394287
0.41426536440849304 0.44249501824378967 0.43853104114532471
0.41173142194747925 0.44038510322570801 0.43702074885368347
0.41063359379768372 0.43938741087913513 0.43659058213233948
0.41180771589279175 0.44055679440498352 0.43766048550605774
0.4165479838848114 0.44478091597557068 0.4408879280090332
0.42403659224510193 0.45193207263946533 0.44663026928901672
0.43389713764190674 0.46120738983154297 0.45443257689476013
0.44712129235267639 0.47385087609291077 0.46490940451622009
0.46572169661521912 0.49123299121856689 0.47875151038169861
0.4919317364692688 0.51521807909011841 0.49655547738075256
0.52643013000488281 0.54682236909866333 0.51918262243270874
0.57068949937820435 0.58655071258544922 0.5469127893447876
0.6225629448890686 0.63264924287796021 0.57845425605773926
0.42944750189781189 0.45651012659072876 0.45137006044387817
0.42620855569839478 0.45377406477928162 0.44949108362197876
0.42472982406616211 0.4526611864566803 0.44901430606842041
0.42630431056022644 0.45420160889625549 0.44974821805953979
0.43111494183540344 0.45864409208297729 0.45267957448959351
0.43904268741607666 0.46594491600990295 0.45814952254295349
0.44908562302589417 0.47537225484848022 0.46539518237113953
0.46256828308105469 0.48787057399749756 0.47544842958450317
0.48114916682243347 0.50497394800186157 0.4886937141418457
0.50609672069549561 0.52786421775817871 0.50544822216033936
0.53831964731216431 0.55721157789230347 0.52617031335830688
0.57945483922958374 0.59418666362762451 0.55170929431915283
0.62901443243026733 0.63819599151611328 0.58173853158950806
0.45054829120635986 0.47586861252784729 0.46812236309051514
0.44594466686248779 0.47224462032318115 0.46578758955001831
0.44428768754005432 0.4712584912776947 0.46504631638526917
0.44579115509986877 0.47273823618888855 0.46556520462036133
0.4505646824836731 0.47713682055473328 0.46824854612350464
0.45928284525871277 0.48476293683052063 0.47337085008621216
0.47130334377288818 0.49574470520019531 0.48107412457466125
0.48682647943496704 0.5099257230758667 0.49159732460975647
0.50679957866668701 0.52813637256622314 0.50466716289520264
0.53189986944198608 0.55078756809234619 0.52112746238708496
0.56330251693725586 0.57914292812347412 0.54083412885665894
0.602344810962677 0.61404812335968018 0.56481069326400757
0.648914635181427 0.6552504301071167 0.5926361083984375
0.48105040192604065 0.50384187698364258 0.49024200439453125
0.47519955039024353 0.49952572584152222 0.48774918913841248
0.47328129410743713 0.49829137325286865 0.4865647554397583
0.47399237751960754 0.4992426335811615 0.48681366443634033
0.47842857241630554 0.50336122512817383 0.48881262540817261
0.48811489343643188 0.51161247491836548 0.49398341774940491
0.50295281410217285 0.52453261613845825 0.50244593620300293
0.52143251895904541 0.54115116596221924 0.51364946365356445
0.54331398010253906 0.56064748764038086 0.52708703279495239
0.56907981634140015 0.58370494842529297 0.54294437170028687
0.60008102655410767 0.61131960153579712 0.56196916103363037
0.63709110021591187 0.64441853761672974 0.58445316553115845
0.67929542064666748 0.68173247575759888 0.6095690131187439
0.52523201704025269 0.54411935806274414 0.51948940753936768
0.51860547065734863 0.53936827182769775 0.51660066843032837
0.51579940319061279 0.53775900602340698 0.51509392261505127
0.51583826541900635 0.53792363405227661 0.51482558250427246
0.51967644691467285 0.54108226299285889 0.51625311374664307
0.5298956036567688 0.54960489273071289 0.52122026681900024
0.54662930965423584 0.56401896476745605 0.53011041879653931
0.56717592477798462 0.58188652992248535 0.54156970977783203
0.58966517448425293 0.60171061754226685 0.55444598197937012
0.61441254615783691 0.6236836314201355 0.56915402412414551
0.64302158355712891 0.64915770292282104 0.58641582727432251
0.67651939392089844 0.67881476879119873 0.60615366697311401
0.7133171558380127 0.71151900291442871 0.62854832410812378
0.5863766074180603 0.59924304485321045 0.55636388063430786
0.57929277420043945 0.59420895576477051 0.55358529090881348
0.57560938596725464 0.59196978807449341 0.55177408456802368
0.57501894235610962 0.59160184860229492 0.55133748054504395
0.57824170589447021 0.59391433000564575 0.55208092927932739
0.5877525806427002 0.60171794891357422 0.55633914470672607
0.60370516777038574 0.61526715755462646 0.56435149908065796
0.62314885854721069 0.63183528184890747 0.57452899217605591
0.64362198114395142 0.64950066804885864 0.5855526328086853
0.66469383239746094 0.66808629035949707 0.5977247953414917
0.68801820278167725 0.68872147798538208 0.61149340867996216
0.7148481011390686 0.7127918004989624 0.62734150886535645
0.74413084983825684 0.73871320486068726 0.64423757791519165
0.6605757474899292 0.66589838266372681 0.59912753105163574
0.65375667810440063 0.66094648838043213 0.59646278619766235
0.64989787340164185 0.65814727544784546 0.59476238489151001
0.64936548471450806 0.65784615278244019 0.59430557489395142
0.65219593048095703 0.65993374586105347 0.59490764141082764
0.65933847427368164 0.66552090644836426 0.59769517183303833
0.67169052362442017 0.67546802759170532 0.6032785177230835
0.68670988082885742 0.68805426359176636 0.61061835289001465
0.70207709074020386 0.70123958587646484 0.61855942010879517
0.71691656112670898 0.71439570188522339 0.62675774097442627
0.73272150754928589 0.72834664583206177 0.63577759265899658
0.75088620185852051 0.74504619836807251 0.64629578590393066
0.77210754156112671 0.76389378309249878 0.65832269191741943
0.7385595440864563 0.73531651496887207 0.64236271381378174
0.73285573720932007 0.73121684789657593 0.64050376415252686
0.72920209169387817 0.72860920429229736 0.63900047540664673
0.72891461849212646 0.72852587699890137 0.63853949308395386
0.73110485076904297 0.72989535331726074 0.63882291316986084
0.73535984754562378 0.73276031017303467 0.63964641094207764
0.74224567413330078 0.73807191848754883 0.64282119274139404
0.75147366523742676 0.74532824754714966 0.64660650491714478
0.76054030656814575 0.75303870439529419 0.65078037977218628
0.7685314416885376 0.76000142097473145 0.65488255023956299
0.776763916015625 0.76779437065124512 0.65918087959289551
0.78698742389678955 0.77714496850967407 0.66486746072769165
0.80066889524459839 0.78957194089889526 0.67234337329864502
0.37867939472198486 0.4112345278263092 0.41283193230628967
0.3758862316608429 0.40790989995002747 0.41180628538131714
0.37561440467834473 0.40714213252067566 0.4124700129032135
0.37926879525184631 0.40959331393241882 0.41518986225128174
0.38706651329994202 0.41604238748550415 0.42078208923339844
0.39960810542106628 0.42696464061737061 0.42959204316139221
0.41683143377304077 0.44261392951011658 0.44175872206687927
0.43813124299049377 0.46214881539344788 0.45696344971656799
0.46297663450241089 0.48548796772956848 0.47512122988700867
0.49309453368186951 0.51399856805801392 0.4966142475605011
0.5304563045501709 0.54976075887680054 0.52239948511123657
0.57491129636764526 0.59029775857925415 0.55176424980163574
0.62231332063674927 0.63378608226776123 0.58199501037597656
0.38172423839569092 0.4141240119934082 0.41515329480171204
0.37910708785057068 0.41107940673828125 0.41406461596488953
0.37936010956764221 0.4105963408946991 0.41467392444610596
0.38305771350860596 0.41363251209259033 0.4177435040473938
0.39128932356834412 0.42043781280517578 0.42361661791801453
0.40446957945823669 0.43220868706703186 0.43300223350524902
0.42258736491203308 0.44857797026634216 0.44575494527816772
0.4434991180896759 0.46813994646072388 0.46099928021430969
0.46649026870727539 0.48985180258750916 0.47781923413276672
0.49421823024749756 0.51629018783569336 0.49803125858306885
0.53028345108032227 0.5499420166015625 0.52276813983917236
0.57584166526794434 0.59184020757675171 0.55267012119293213
0.62528091669082642 0.63693380355834961 0.58394956588745117
0.38781628012657166 0.41941964626312256 0.419197678565979
0.38556468486785889 0.41703078150749207 0.41813409328460693
0.38578614592552185 0.41662541031837463 0.41886028647422791
0.38914236426353455 0.41933298110961914 0.42165321111679077
0.39692971110343933 0.42602503299713135 0.42743897438049316
0.40956032276153564 0.4374142587184906 0.43649211525917053
0.42672964930534363 0.45331516861915588 0.44896745681762695
0.44695624709129333 0.47213980555534363 0.46369078755378723
0.46850946545600891 0.49271047115325928 0.47995880246162415
0.49521401524543762 0.51828551292419434 0.49943026900291443
0.53090554475784302 0.55140000581741333 0.52373814582824707
0.57734614610671997 0.59377110004425049 0.55364596843719482
0.62887036800384521 0.63998055458068848 0.58556264638900757
0.39717710018157959 0.4276793897151947 0.42547020316123962
0.39535871148109436 0.42574062943458557 0.42453846335411072
0.39510592818260193 0.42508864402770996 0.42489418387413025
0.39759102463722229 0.42719018459320068 0.42723265290260315
0.40389382839202881 0.43271508812904358 0.43229246139526367
0.41465869545936584 0.44257268309593201 0.44048961997032166
0.42936500906944275 0.45631563663482666 0.45153129100799561
0.44712856411933899 0.47336533665657043 0.46495196223258972
0.46895837783813477 0.49374371767044067 0.48105910420417786
0.49705326557159424 0.52004927396774292 0.50070011615753174
0.53423500061035156 0.55416697263717651 0.52536755800247192
0.58085119724273682 0.59644854068756104 0.55498111248016357
0.63233643770217896 0.64253836870193481 0.58655780553817749
0.40988829731941223 0.43908393383026123 0.43434929847717285
0.40853017568588257 0.4375709593296051 0.4335612952709198
0.40733078122138977 0.43622395396232605 0.43336409330368042
0.40838199853897095 0.43713283538818359 0.43498194217681885
0.41308924555778503 0.44148889183998108 0.43901526927947998
0.42138433456420898 0.44940641522407532 0.44584125280380249
0.43363901972770691 0.46080669760704041 0.45530989766120911
0.44949284195899963 0.47558525204658508 0.46724420785903931
0.47055616974830627 0.49535465240478516 0.48248559236526489
