luts/instant_consumer/polaroid_px-680_warm_++.cube
# Created by: G'MIC (https://gmic.eu)
TITLE "polaroid_px-680_warm_++"
# LUT size
LUT_3D_SIZE 5
# Data domain
DOMAIN_MIN 0.0 0.0 0.0
DOMAIN_MAX 1.0 1.0 1.0
# LUT data points
0.36008948087692261 0.27410176396369934 0.13167446851730347
0.37741094827651978 0.27450981736183167 0.13306534290313721
0.51071923971176147 0.27874055504798889 0.12426802515983582
0.82642668485641479 0.32102075219154358 0.095557257533073425
0.97442203760147095 0.43738898634910583 0.14704045653343201
0.35963419079780579 0.29493829607963562 0.13123300671577454
0.38674291968345642 0.30106234550476074 0.12811349332332611
0.55759346485137939 0.32957422733306885 0.10580234974622726
0.83501046895980835 0.39102399349212646 0.065249018371105194
0.96471375226974487 0.48342016339302063 0.14056490361690521
0.32939472794532776 0.43470543622970581 0.10492096096277237
0.37898564338684082 0.44337660074234009 0.10551706701517105
0.57120215892791748 0.50074011087417603 0.058428235352039337
0.81458503007888794 0.54822033643722534 0.0081648286432027817
0.9437517523765564 0.57429426908493042 0.10933438688516617
0.30358293652534485 0.62809813022613525 0.09390384703874588
0.36621773242950439 0.62874865531921387 0.10874253511428833
0.53743916749954224 0.65793108940124512 0.14099740982055664
0.75585871934890747 0.70235729217529297 0.20016433298587799
0.90701931715011597 0.75921499729156494 0.30194824934005737
0.55460816621780396 0.82495170831680298 0.36303165555000305
0.58232313394546509 0.82225334644317627 0.36936712265014648
0.67112439870834351 0.83349007368087769 0.4190523624420166
0.78538358211517334 0.85424017906188965 0.47299864888191223
0.88361334800720215 0.87657147645950317 0.54668182134628296
0.36334690451622009 0.27576279640197754 0.14548219740390778
0.3785921037197113 0.27567043900489807 0.14678376913070679
0.5397188663482666 0.26050695776939392 0.1696307361125946
0.84954923391342163 0.33436170220375061 0.21818402409553528
0.96393978595733643 0.51385039091110229 0.32364955544471741
0.36312088370323181 0.30106502771377563 0.15997260808944702
0.40644758939743042 0.31208246946334839 0.16754764318466187
0.60653376579284668 0.33953097462654114 0.18276159465312958
0.84285974502563477 0.42705181241035461 0.22404977679252625
0.95890861749649048 0.54761350154876709 0.3170892596244812
0.3660920262336731 0.45927625894546509 0.17869073152542114
0.40965622663497925 0.47042134404182434 0.17381972074508667
0.60710370540618896 0.51924705505371094 0.18322935700416565
0.82087957859039307 0.54860490560531616 0.19417431950569153
0.94204258918762207 0.60580790042877197 0.2764485776424408
0.36992806196212769 0.6476096510887146 0.19858247041702271
0.41823023557662964 0.6444782018661499 0.20343297719955444
0.57248580455780029 0.6687692403793335 0.24892839789390564
0.77151548862457275 0.71368968486785889 0.31395035982131958
0.90669345855712891 0.76108825206756592 0.37897655367851257
0.56463509798049927 0.8233027458190918 0.3919796347618103
0.59830790758132935 0.82560187578201294 0.40505418181419373
0.67871308326721191 0.83526414632797241 0.44869691133499146
0.79265564680099487 0.85773241519927979 0.50456744432449341
0.88554280996322632 0.87793236970901489 0.56953734159469604
0.38272580504417419 0.28034582734107971 0.27979391813278198
0.45456495881080627 0.287433922290802 0.29839867353439331
0.61444705724716187 0.34304839372634888 0.34145048260688782
0.82945233583450317 0.34572684764862061 0.39166030287742615
0.95428895950317383 0.51640897989273071 0.46167844533920288
0.36833521723747253 0.34256795048713684 0.32249236106872559
0.4647352397441864 0.35221147537231445 0.34487849473953247
0.6580008864402771 0.4390881359577179 0.37996542453765869
0.8310239315032959 0.45763924717903137 0.41715401411056519
0.94662225246429443 0.59162551164627075 0.48883786797523499
0.38151299953460693 0.48452469706535339 0.32935312390327454
0.46388867497444153 0.49924880266189575 0.34717431664466858
0.67649251222610474 0.56303626298904419 0.40833437442779541
0.82503688335418701 0.61659526824951172 0.45235034823417664
0.92608654499053955 0.69075000286102295 0.50714379549026489
0.47024846076965332 0.64592558145523071 0.35854613780975342
0.54088473320007324 0.65724658966064453 0.37818732857704163
0.64976722002029419 0.68052464723587036 0.41021224856376648
0.79408997297286987 0.72759604454040527 0.46258106827735901
0.90968161821365356 0.7628815770149231 0.49114257097244263
0.6081199049949646 0.82567888498306274 0.47729605436325073
0.62319403886795044 0.82514083385467529 0.47223004698753357
0.68529623746871948 0.83616358041763306 0.49576389789581299
0.79014015197753906 0.85849696397781372 0.55919921398162842
0.88843154907226562 0.88291501998901367 0.62339550256729126
0.48043519258499146 0.33238625526428223 0.55767261981964111
0.58011239767074585 0.36301970481872559 0.56427818536758423
0.75319045782089233 0.50573623180389404 0.57753282785415649
0.84231603145599365 0.61942249536514282 0.60020112991333008
0.91868990659713745 0.61081570386886597 0.61061257123947144
0.47835555672645569 0.40799370408058167 0.56056350469589233
0.5831151008605957 0.4427521824836731 0.56584787368774414
0.75803714990615845 0.56283831596374512 0.5870664119720459
0.83846026659011841 0.65791028738021851 0.60580235719680786
0.91727244853973389 0.65503197908401489 0.62639230489730835
0.40380823612213135 0.5296100378036499 0.52903205156326294
0.51480495929718018 0.54589438438415527 0.54514509439468384
0.72319996356964111 0.61603647470474243 0.58091193437576294
0.8349042534828186 0.71242892742156982 0.62084460258483887
0.91234374046325684 0.71315884590148926 0.63785362243652344
0.46726241707801819 0.65968441963195801 0.50664746761322021
0.52836400270462036 0.66302406787872314 0.51148873567581177
0.67534273862838745 0.69125622510910034 0.54850822687149048
0.81778579950332642 0.75941336154937744 0.61212772130966187
0.90700459480285645 0.80542093515396118 0.66114068031311035
0.54444968700408936 0.81302779912948608 0.54503250122070312
0.58525592088699341 0.81611448526382446 0.55280643701553345
0.68555808067321777 0.83509796857833862 0.58611559867858887
0.79127871990203857 0.86075246334075928 0.63332486152648926
0.8943326473236084 0.88667267560958862 0.7026057243347168
0.72835725545883179 0.5922664999961853 0.7647097110748291
0.76231878995895386 0.61396044492721558 0.75856786966323853
0.83169972896575928 0.68233352899551392 0.75469660758972168
0.88299548625946045 0.77516478300094604 0.75578176975250244
0.90672945976257324 0.80955034494400024 0.76056653261184692
0.71769338846206665 0.62654215097427368 0.76043790578842163
0.75556659698486328 0.6469961404800415 0.75771909952163696
0.82855290174484253 0.7038419246673584 0.75611847639083862
0.88065749406814575 0.79014158248901367 0.75985908508300781
0.90320891141891479 0.82502061128616333 0.76268398761749268
0.66125082969665527 0.67912721633911133 0.75153112411499023
0.70120918750762939 0.6797371506690979 0.75100189447402954
0.79844307899475098 0.72663581371307373 0.75750023126602173
0.8707420825958252 0.80538302659988403 0.76289182901382446
0.90396618843078613 0.84472388029098511 0.76957213878631592
0.5367700457572937 0.75272315740585327 0.73075872659683228
0.57053029537200928 0.74989879131317139 0.73022234439849854
0.67986035346984863 0.75884950160980225 0.74150323867797852
0.83971112966537476 0.81189829111099243 0.76417213678359985
0.90230423212051392 0.87348967790603638 0.78321331739425659
0.56996572017669678 0.86593079566955566 0.73360580205917358
0.59198200702667236 0.86163610219955444 0.73300951719284058
0.66186505556106567 0.86732679605484009 0.74245870113372803
0.77426689863204956 0.8751523494720459 0.75484949350357056
0.9069783091545105 0.89886772632598877 0.79850786924362183
