luts/instant_consumer/polaroid_px-70_warm_--.cube
# Created by: G'MIC (https://gmic.eu)
TITLE "polaroid_px-70_warm_--"
# LUT size
LUT_3D_SIZE 5
# Data domain
DOMAIN_MIN 0.0 0.0 0.0
DOMAIN_MAX 1.0 1.0 1.0
# LUT data points
0.011867747642099857 0.021036185324192047 0.027700401842594147
0.15841555595397949 0.037964135408401489 0.048744633793830872
0.5393751859664917 0.0082933614030480385 0.083489000797271729
0.90757900476455688 0.24961163103580475 0.071996100246906281
0.99938589334487915 0.52171027660369873 0.15036693215370178
0.0039215688593685627 0.18900144100189209 0.09539998322725296
0.16770970821380615 0.2064659595489502 0.086943529546260834
0.57722306251525879 0.2334764152765274 0.047544889152050018
0.89719527959823608 0.3934611976146698 0.0094371866434812546
0.99999356269836426 0.58007824420928955 0.11651367694139481
0.00011668485967675224 0.55628448724746704 0.087094448506832123
0.11999978125095367 0.56529039144515991 0.089365012943744659
0.61717504262924194 0.58807110786437988 0.0079792849719524384
0.88023972511291504 0.62251245975494385 0.0037755181547254324
0.998748779296875 0.67647236585617065 0.017858976498246193
0.4092082679271698 0.81286638975143433 0.24996337294578552
0.50096040964126587 0.80749291181564331 0.26082339882850647
0.67759698629379272 0.8084251880645752 0.25620955228805542
0.8588416576385498 0.8198317289352417 0.21669046580791473
0.99031752347946167 0.83160078525543213 0.24178102612495422
0.74373334646224976 0.95206910371780396 0.52609550952911377
0.76658612489700317 0.95197176933288574 0.53616106510162354
0.81857597827911377 0.95207881927490234 0.54724502563476562
0.89787739515304565 0.9591519832611084 0.55367588996887207
0.98971295356750488 0.9666818380355835 0.55987203121185303
0.012934247031807899 0.057209659367799759 0.16646759212017059
0.16053706407546997 0.091010406613349915 0.16990691423416138
0.55621612071990967 0.011137045919895172 0.21157011389732361
0.91333037614822388 0.31731650233268738 0.26646208763122559
0.99933922290802002 0.59266692399978638 0.34926202893257141
0.0047720368020236492 0.20668141543865204 0.19764016568660736
0.22928833961486816 0.23268008232116699 0.20884478092193604
0.62259727716445923 0.29538550972938538 0.22555524110794067
0.90010929107666016 0.46994477510452271 0.2511618435382843
0.99772763252258301 0.63063448667526245 0.32870650291442871
0.13184484839439392 0.57956761121749878 0.24308301508426666
0.32969498634338379 0.58079731464385986 0.2447098046541214
0.64820569753646851 0.59971463680267334 0.21437565982341766
0.8841363787651062 0.62714064121246338 0.19376479089260101
0.99584418535232544 0.70071810483932495 0.26704010367393494
0.49480050802230835 0.81157517433166504 0.33978673815727234
0.57114171981811523 0.81101006269454956 0.35555854439735413
0.7033267617225647 0.81228238344192505 0.3585306704044342
0.86602550745010376 0.81884711980819702 0.32885390520095825
0.99122262001037598 0.83293634653091431 0.34316042065620422
0.75799012184143066 0.95135068893432617 0.55703955888748169
0.77822977304458618 0.95167815685272217 0.56582510471343994
0.82555109262466431 0.95500034093856812 0.58197689056396484
0.8968433141708374 0.95583879947662354 0.58464163541793823
0.98979449272155762 0.96617096662521362 0.59739881753921509
0.14761996269226074 0.13378863036632538 0.38096028566360474
0.393617182970047 0.19114296138286591 0.38636118173599243
0.646820068359375 0.33036729693412781 0.3946496844291687
0.89163243770599365 0.34293553233146667 0.43653669953346252
0.99865543842315674 0.57774311304092407 0.48371347784996033
0.10624510794878006 0.30137351155281067 0.40012514591217041
0.40925359725952148 0.33834269642829895 0.41139119863510132
0.68217426538467407 0.46635565161705017 0.41710871458053589
0.89289015531539917 0.49989768862724304 0.45320999622344971
0.99952930212020874 0.66654616594314575 0.51059442758560181
0.25668570399284363 0.59394282102584839 0.4174807071685791
0.46077942848205566 0.60176628828048706 0.42579597234725952
0.70987731218338013 0.63239890336990356 0.44389742612838745
0.88496887683868408 0.69372981786727905 0.47286945581436157
0.99114507436752319 0.76728576421737671 0.52442514896392822
0.62224465608596802 0.81360816955566406 0.49132299423217773
0.67543834447860718 0.81493878364562988 0.49766784906387329
0.75847035646438599 0.81576001644134521 0.50180333852767944
0.87138861417770386 0.82331091165542603 0.496848464012146
0.99242144823074341 0.83404541015625 0.49695169925689697
0.78986787796020508 0.95358020067214966 0.6311955451965332
0.79798656702041626 0.95390629768371582 0.62567794322967529
0.83988332748413086 0.95339006185531616 0.64366096258163452
0.9036858081817627 0.95734089612960815 0.65811961889266968
0.98975783586502075 0.9676051139831543 0.66472417116165161
0.50855666399002075 0.33024516701698303 0.61252701282501221
0.65074878931045532 0.4013194739818573 0.61348527669906616
0.81481820344924927 0.58006614446640015 0.61251312494277954
0.89808332920074463 0.68643397092819214 0.62181943655014038
0.9853859543800354 0.6817551851272583 0.63626426458358765
0.49826714396476746 0.46626216173171997 0.61036795377731323
0.63741391897201538 0.51532089710235596 0.61677193641662598
0.80625790357589722 0.64112120866775513 0.62201273441314697
0.89678877592086792 0.72942101955413818 0.63054817914962769
0.98588693141937256 0.72395312786102295 0.64932525157928467
0.40554535388946533 0.65461212396621704 0.59448039531707764
0.54765063524246216 0.65748006105422974 0.60203641653060913
0.77379816770553589 0.71624535322189331 0.62602347135543823
0.89438790082931519 0.78832250833511353 0.64926749467849731
0.98648583889007568 0.78674149513244629 0.67300039529800415
0.60330796241760254 0.81491082906723022 0.62749296426773071
0.66007256507873535 0.81431221961975098 0.62081426382064819
0.76993602514266968 0.81958609819412231 0.6319393515586853
0.88605642318725586 0.83829152584075928 0.65779656171798706
0.99355340003967285 0.87451016902923584 0.70988905429840088
0.7832915186882019 0.95504504442214966 0.73033261299133301
0.80526864528656006 0.95477378368377686 0.73691463470458984
0.85598057508468628 0.95688611268997192 0.75076067447662354
0.91587638854980469 0.96011251211166382 0.7680811882019043
0.99295711517333984 0.97059673070907593 0.77923750877380371
0.76985365152359009 0.67782384157180786 0.83799082040786743
0.80913335084915161 0.7018885612487793 0.83667773008346558
0.88191407918930054 0.76577460765838623 0.8338051438331604
0.94545555114746094 0.83671361207962036 0.83433383703231812
0.98319149017333984 0.86679565906524658 0.83412420749664307
0.75781822204589844 0.71399581432342529 0.83860862255096436
0.8003084659576416 0.7379564642906189 0.83820104598999023
0.87643659114837646 0.78771275281906128 0.83957904577255249
0.94434630870819092 0.84925925731658936 0.8359491229057312
0.98916143178939819 0.88052678108215332 0.8486936092376709
0.71450251340866089 0.77513110637664795 0.83729255199432373
0.76009637117385864 0.78244590759277344 0.84182244539260864
0.85205388069152832 0.81655323505401611 0.84898108243942261
0.9413306713104248 0.87055784463882446 0.8537871241569519
0.98455238342285156 0.90644097328186035 0.86450469493865967
0.64855051040649414 0.85963481664657593 0.84038734436035156
0.67740797996520996 0.85736304521560669 0.84198582172393799
0.75937986373901367 0.85666805505752563 0.84758365154266357
0.9134710431098938 0.89048129320144653 0.86824160814285278
0.99297893047332764 0.94190806150436401 0.89741486310958862
0.7611844539642334 0.96677708625793457 0.88791334629058838
0.78289741277694702 0.96894586086273193 0.89156287908554077
0.83312368392944336 0.96992558240890503 0.89703947305679321
0.90404218435287476 0.96853655576705933 0.90986776351928711
0.99123567342758179 0.98430764675140381 0.93324339389801025
