luts/instant_consumer/polaroid_time_zero_expired_cold_--.cube
# Created by: G'MIC (https://gmic.eu)
TITLE "polaroid_time_zero_expired_cold_--"
# LUT size
LUT_3D_SIZE 5
# Data domain
DOMAIN_MIN 0.0 0.0 0.0
DOMAIN_MAX 1.0 1.0 1.0
# LUT data points
0.25525668263435364 0.097429148852825165 0.035721767693758011
0.28648006916046143 0.083724990487098694 0.033671464771032333
0.44594407081604004 0.044115986675024033 0.028007641434669495
0.71645748615264893 0.0039215688593685627 0.014062335714697838
0.9398190975189209 0.053255043923854828 0.025733962655067444
0.27427834272384644 0.18458987772464752 0.010483715683221817
0.33339875936508179 0.18266388773918152 0.011402204632759094
0.50245612859725952 0.18863488733768463 0.0063706939108669758
0.74254792928695679 0.18958057463169098 0.0028894911520183086
0.94093209505081177 0.27137959003448486 0.0043090074323117733
0.36951723694801331 0.42879131436347961 0
0.45896580815315247 0.43491250276565552 0.00072489719605073333
0.63167357444763184 0.45713284611701965 0.00077857222640886903
0.79385501146316528 0.48111942410469055 0.0014590843347832561
0.93556362390518188 0.51377099752426147 0.00019369686197023839
0.53028255701065063 0.69193917512893677 0.00032438390189781785
0.58374130725860596 0.68707907199859619 2.5850184101727791e-05
0.71146738529205322 0.69282644987106323 0.0013539183419197798
0.84212404489517212 0.71583110094070435 0.014479947276413441
0.9327472448348999 0.73507142066955566 0.29219904541969299
0.70199006795883179 0.85680240392684937 0.017419852316379547
0.72484278678894043 0.85539102554321289 0.00099764054175466299
0.78759187459945679 0.85250931978225708 0.00260136928409338
0.88254183530807495 0.85990488529205322 0.26719829440116882
0.94643759727478027 0.86316442489624023 0.53857767581939697
0.27478858828544617 0.085769966244697571 0.090311788022518158
0.30652540922164917 0.089031055569648743 0.095419012010097504
0.47995716333389282 0.059665843844413757 0.12941677868366241
0.73678630590438843 0.0061751720495522022 0.14371748268604279
0.94647926092147827 0.09174066036939621 0.17136944830417633
0.30549848079681396 0.18575678765773773 0.088296420872211456
0.36381089687347412 0.19829846918582916 0.090358912944793701
0.53745824098587036 0.19491507112979889 0.10445133596658707
0.7676999568939209 0.19434864819049835 0.11151044070720673
0.9441719651222229 0.28406256437301636 0.16098332405090332
0.3737531304359436 0.4385409951210022 0.02444375678896904
0.45868596434593201 0.44769692420959473 0.015533896163105965
0.64392995834350586 0.46525919437408447 0.050000883638858795
0.80306440591812134 0.47826924920082092 0.06170223280787468
0.93895268440246582 0.51720702648162842 0.11995420604944229
0.53690612316131592 0.69245964288711548 0.0029326644726097584
0.58695149421691895 0.69233107566833496 0.0048373355530202389
0.71336168050765991 0.69843512773513794 0.0035766302607953548
0.84107029438018799 0.71848607063293457 0.20383703708648682
0.9289507269859314 0.7377970814704895 0.378700852394104
0.70596021413803101 0.85731035470962524 0.17608702182769775
0.72707778215408325 0.85870885848999023 0.14472316205501556
0.78701847791671753 0.86068415641784668 0.061900973320007324
0.88075089454650879 0.85921895503997803 0.35253500938415527
0.94687110185623169 0.86429452896118164 0.57891374826431274
0.41754719614982605 0.098132982850074768 0.34909516572952271
0.45715036988258362 0.11194954812526703 0.35793232917785645
0.55998188257217407 0.12159479409456253 0.36877897381782532
0.76061195135116577 0.021201444789767265 0.40354469418525696
0.93368858098983765 0.21047689020633698 0.45765289664268494
0.48176920413970947 0.24074065685272217 0.35996332764625549
0.52695107460021973 0.26604533195495605 0.36485329270362854
0.6120794415473938 0.27373871207237244 0.37636005878448486
0.78590899705886841 0.24047766625881195 0.40495109558105469
0.93559914827346802 0.35564759373664856 0.43782272934913635
0.47807332873344421 0.44342026114463806 0.32566314935684204
0.54731231927871704 0.46010926365852356 0.3364378809928894
0.67102348804473877 0.48854506015777588 0.35731622576713562
0.81244748830795288 0.49832409620285034 0.37564364075660706
0.93296164274215698 0.54277920722961426 0.40912401676177979
0.56322097778320312 0.69159907102584839 0.33187833428382874
0.61595207452774048 0.69413226842880249 0.3452487587928772
0.71395808458328247 0.70383954048156738 0.32696259021759033
0.8338436484336853 0.7255285382270813 0.44344606995582581
0.92043662071228027 0.7289770245552063 0.49066841602325439
0.72393167018890381 0.85144722461700439 0.47858482599258423
0.74075907468795776 0.85128498077392578 0.46854022145271301
0.78947144746780396 0.85502594709396362 0.43537417054176331
0.87092620134353638 0.86114579439163208 0.4798358678817749
0.94140374660491943 0.86616593599319458 0.65213161706924438
0.638175368309021 0.22703875601291656 0.67136728763580322
0.66033971309661865 0.25188407301902771 0.67475074529647827
0.71809881925582886 0.30466866493225098 0.68625277280807495
0.79797649383544922 0.35381317138671875 0.67626547813415527
0.91566711664199829 0.35846599936485291 0.68357545137405396
0.69057160615921021 0.41442158818244934 0.66346651315689087
0.70971101522445679 0.42374855279922485 0.66958153247833252
0.7512250542640686 0.45904055237770081 0.67851066589355469
0.81146496534347534 0.48103588819503784 0.67289656400680542
0.91256380081176758 0.45460525155067444 0.68314075469970703
0.71995490789413452 0.56065022945404053 0.65598839521408081
0.74844443798065186 0.58604663610458374 0.65717428922653198
0.78510117530822754 0.62190538644790649 0.66052979230880737
0.82639420032501221 0.63193273544311523 0.6680721640586853
0.91113805770874023 0.59079140424728394 0.68166035413742065
0.70212209224700928 0.70370841026306152 0.61867386102676392
0.71539527177810669 0.7095455527305603 0.62280541658401489
0.77273738384246826 0.72058755159378052 0.63106954097747803
0.8345789909362793 0.73581337928771973 0.64615130424499512
0.91232490539550781 0.73787516355514526 0.6544685959815979
0.75075441598892212 0.84535801410675049 0.66305756568908691
0.76090925931930542 0.84949970245361328 0.66564744710922241
0.79346293210983276 0.85148155689239502 0.66703194379806519
0.85493570566177368 0.85763466358184814 0.65776437520980835
0.93246424198150635 0.86733287572860718 0.74595040082931519
0.78872191905975342 0.5555608868598938 0.83900338411331177
0.7967260479927063 0.56708765029907227 0.84341734647750854
0.81786078214645386 0.5899701714515686 0.84572654962539673
0.8466152548789978 0.62967467308044434 0.8504595160484314
0.88217538595199585 0.64961236715316772 0.84593135118484497
0.81143498420715332 0.6378064751625061 0.84172427654266357
0.81717783212661743 0.6401326060295105 0.84235334396362305
0.83033150434494019 0.65842115879058838 0.84240299463272095
0.85266202688217163 0.67959320545196533 0.84676456451416016
0.88970905542373657 0.69059258699417114 0.84400159120559692
0.83298695087432861 0.72234785556793213 0.83799260854721069
0.83857554197311401 0.73031389713287354 0.83822017908096313
0.84913867712020874 0.73543453216552734 0.83914303779602051
0.86733788251876831 0.74861657619476318 0.84456360340118408
0.89273107051849365 0.75299632549285889 0.84958702325820923
0.82391858100891113 0.77874898910522461 0.83303189277648926
0.83287531137466431 0.78124183416366577 0.83578765392303467
0.8569490909576416 0.79593384265899658 0.8388059139251709
0.88479495048522949 0.811573326587677 0.8463624119758606
0.91000300645828247 0.81620043516159058 0.85478264093399048
0.81721955537796021 0.85923922061920166 0.83789026737213135
0.82790917158126831 0.85736370086669922 0.83908259868621826
0.84790277481079102 0.86156433820724487 0.84191077947616577
0.88239139318466187 0.8654862642288208 0.84905368089675903
0.93301600217819214 0.87949162721633911 0.86551392078399658
