luts/instant_consumer/polaroid_px-680_cold_++_alt.cube
# Created by: G'MIC (https://gmic.eu)
TITLE "polaroid_px-680_cold_++_alt"
# LUT size
LUT_3D_SIZE 7
# Data domain
DOMAIN_MIN 0.0 0.0 0.0
DOMAIN_MAX 1.0 1.0 1.0
# LUT data points
0.1609659343957901 0.28203263878822327 0.31136378645896912
0.17514477670192719 0.28411546349525452 0.31372550129890442
0.2147178053855896 0.28423815965652466 0.31330135464668274
0.33868473768234253 0.29014706611633301 0.31371867656707764
0.53411602973937988 0.31705942749977112 0.32195171713829041
0.72807419300079346 0.36135438084602356 0.33105760812759399
0.87287479639053345 0.44625219702720642 0.35791367292404175
0.1592746376991272 0.29882380366325378 0.31372550129890442
0.17991633713245392 0.29498806595802307 0.31372550129890442
0.24045699834823608 0.29953882098197937 0.31480991840362549
0.36940768361091614 0.31246384978294373 0.31536188721656799
0.55262088775634766 0.33808785676956177 0.31991946697235107
0.73688185214996338 0.39042589068412781 0.33167773485183716
0.86839449405670166 0.46335840225219727 0.35589277744293213
0.15203510224819183 0.33100959658622742 0.31854954361915588
0.17711131274700165 0.33267366886138916 0.31716099381446838
0.26017487049102783 0.34755310416221619 0.3214648962020874
0.40216740965843201 0.3714849054813385 0.32115614414215088
0.56171882152557373 0.38577812910079956 0.32353305816650391
0.73330020904541016 0.43592715263366699 0.33386942744255066
0.86256247758865356 0.50833559036254883 0.35920247435569763
0.14676250517368317 0.40577793121337891 0.32911136746406555
0.17951585352420807 0.40601477026939392 0.33044907450675964
0.25838378071784973 0.41740942001342773 0.33161261677742004
0.40257525444030762 0.44842678308486938 0.33304139971733093
0.59096753597259521 0.49788668751716614 0.33798649907112122
0.73120540380477905 0.51983100175857544 0.34037497639656067
0.84834951162338257 0.56395286321640015 0.35560458898544312
0.14477919042110443 0.50239241123199463 0.34289669990539551
0.18162582814693451 0.50334089994430542 0.34315088391304016
0.26761385798454285 0.51544249057769775 0.34827616810798645
0.39908427000045776 0.54341989755630493 0.35448327660560608
0.56836986541748047 0.58627384901046753 0.36149969696998596
0.73592770099639893 0.64680272340774536 0.37458065152168274
0.8420332670211792 0.67777228355407715 0.39305254817008972
0.18962055444717407 0.63183701038360596 0.36678767204284668
0.22990402579307556 0.62967228889465332 0.367929607629776
0.31181561946868896 0.63844090700149536 0.37605273723602295
0.43709161877632141 0.66313058137893677 0.39063739776611328
0.58521777391433716 0.7012251615524292 0.40779149532318115
0.71773594617843628 0.73668938875198364 0.43285563588142395
0.83847332000732422 0.79490464925765991 0.47503253817558289
0.41204068064689636 0.80429178476333618 0.45329707860946655
0.43331187963485718 0.80373966693878174 0.45434507727622986
0.48869785666465759 0.80815941095352173 0.46545895934104919
0.57331579923629761 0.8199608325958252 0.48870563507080078
0.67346423864364624 0.83841180801391602 0.51799499988555908
0.76703596115112305 0.85989373922348022 0.55390578508377075
0.84510374069213867 0.88206833600997925 0.59590804576873779
0.16422300040721893 0.28436321020126343 0.31763771176338196
0.17430464923381805 0.28482294082641602 0.3175635039806366
0.2194998562335968 0.28594970703125 0.31968739628791809
0.35503813624382019 0.28971642255783081 0.32726255059242249
0.55738610029220581 0.32247403264045715 0.3474787175655365
0.74159228801727295 0.38314658403396606 0.36716571450233459
0.87406355142593384 0.45822528004646301 0.38930854201316833
0.16617372632026672 0.29683646559715271 0.3214104175567627
0.18460997939109802 0.29728490114212036 0.32119548320770264
0.24967658519744873 0.30575433373451233 0.32686460018157959
0.38923439383506775 0.32062608003616333 0.33250564336776733
0.57559078931808472 0.34780851006507874 0.34613394737243652
0.7420581579208374 0.40547376871109009 0.36596319079399109
0.87372905015945435 0.47958287596702576 0.38928711414337158
0.17006175220012665 0.34088844060897827 0.33291557431221008
0.19255691766738892 0.34153288602828979 0.3305792510509491
0.27522087097167969 0.35410791635513306 0.33545398712158203
0.42085728049278259 0.36979138851165771 0.33777502179145813
0.58032882213592529 0.40070322155952454 0.34695893526077271
0.73620319366455078 0.44774261116981506 0.36359500885009766
0.86482852697372437 0.51996243000030518 0.38906180858612061
0.17413701117038727 0.4142700731754303 0.34149801731109619
0.20469623804092407 0.41671857237815857 0.34349289536476135
0.27845111489295959 0.42853271961212158 0.34729400277137756
0.42334243655204773 0.46061041951179504 0.35154366493225098
0.59823596477508545 0.49941104650497437 0.3566727340221405
0.73399215936660767 0.51871979236602783 0.36412009596824646
0.85253047943115234 0.57000768184661865 0.38147145509719849
0.17869448661804199 0.51361262798309326 0.35754108428955078
0.21540865302085876 0.51647913455963135 0.35893860459327698
0.28818848729133606 0.5255202054977417 0.36307266354560852
0.42180821299552917 0.55546128749847412 0.3728492259979248
0.5818558931350708 0.59853237867355347 0.38146358728408813
0.74025160074234009 0.64847588539123535 0.39951986074447632
0.84850573539733887 0.68090283870697021 0.41827920079231262
0.21546837687492371 0.6381489634513855 0.37933510541915894
0.2547934353351593 0.63938182592391968 0.38156247138977051
0.33653563261032104 0.6490362286567688 0.39175865054130554
0.45414236187934875 0.67115557193756104 0.40607491135597229
0.59374505281448364 0.70853596925735474 0.42453077435493469
0.72601699829101562 0.7445710301399231 0.45050188899040222
0.83783119916915894 0.79441231489181519 0.48959338665008545
0.41915854811668396 0.80578029155731201 0.46191063523292542
0.43774294853210449 0.8051716685295105 0.46310964226722717
0.49788033962249756 0.813454270362854 0.47691705822944641
0.57791042327880859 0.82322710752487183 0.499744713306427
0.6782606840133667 0.8404269814491272 0.52852720022201538
0.76992630958557129 0.86244124174118042 0.56293672323226929
0.84501343965530396 0.88320422172546387 0.60466933250427246
0.16564686596393585 0.28761422634124756 0.33199948072433472
0.18896734714508057 0.28817638754844666 0.33466491103172302
0.23852454125881195 0.29382038116455078 0.34179040789604187
0.35839524865150452 0.29975610971450806 0.35596948862075806
0.56234496831893921 0.30673602223396301 0.37701618671417236
0.75539958477020264 0.36043438315391541 0.40415608882904053
0.879630446434021 0.48316165804862976 0.4538324773311615
0.16328927874565125 0.30482542514801025 0.34338575601577759
0.19756351411342621 0.30727192759513855 0.34624028205871582
0.26691284775733948 0.31532567739486694 0.35390257835388184
0.39655768871307373 0.3263600766658783 0.36726164817810059
0.59144687652587891 0.3455950915813446 0.38877475261688232
0.76280808448791504 0.42025080323219299 0.42186838388442993
0.87826192378997803 0.51668250560760498 0.45837068557739258
0.17949825525283813 0.34808516502380371 0.357107013463974
0.21586206555366516 0.35302421450614929 0.36172047257423401
0.31248429417610168 0.3689456582069397 0.37282833456993103
0.44468694925308228 0.38863292336463928 0.38505306839942932
0.61228972673416138 0.42437750101089478 0.40288156270980835
0.75809019804000854 0.4801134467124939 0.42457622289657593
0.87018859386444092 0.55259501934051514 0.45359930396080017
0.22574737668037415 0.42700523138046265 0.3754124641418457
0.26327389478683472 0.43352285027503967 0.37988245487213135
0.32552683353424072 0.44603815674781799 0.38505971431732178
0.45784446597099304 0.47209569811820984 0.39390274882316589
0.61609882116317749 0.50153619050979614 0.40136107802391052
0.75067460536956787 0.53303372859954834 0.41142439842224121
0.86016178131103516 0.59770596027374268 0.44245243072509766
0.26768380403518677 0.53473544120788574 0.39649245142936707
0.28207692503929138 0.53210234642028809 0.39386370778083801
0.33637988567352295 0.54104101657867432 0.39656940102577209
0.4535057544708252 0.56567239761352539 0.41004243493080139
0.60798811912536621 0.60805326700210571 0.42383196949958801
0.74984061717987061 0.64994949102401733 0.44095322489738464
0.85237407684326172 0.68216770887374878 0.4544517993927002
0.27758675813674927 0.64845997095108032 0.41008007526397705
0.29491135478019714 0.65126669406890869 0.40910950303077698
0.36647367477416992 0.65886539220809937 0.41684648394584656
0.47208088636398315 0.67831158638000488 0.4353887140750885
0.60852932929992676 0.71225243806838989 0.45548239350318909
0.73780804872512817 0.7518012523651123 0.48558193445205688
0.84402471780776978 0.79896050691604614 0.5231819748878479
0.42427325248718262 0.80853909254074097 0.47658184170722961
0.4466337263584137 0.80927062034606934 0.47996175289154053
0.5019189715385437 0.8137887716293335 0.49038469791412354
0.58287066221237183 0.82487273216247559 0.51458615064620972
0.67705363035202026 0.83911573886871338 0.54526567459106445
0.77375513315200806 0.86585533618927002 0.58115941286087036
0.84857010841369629 0.88480103015899658 0.62263607978820801
0.18285776674747467 0.29197579622268677 0.37852317094802856
0.22165568172931671 0.29662996530532837 0.38436609506607056
0.30831250548362732 0.31507503986358643 0.39383614063262939
0.41705325245857239 0.34913694858551025 0.41393834352493286
0.55499100685119629 0.34247711300849915 0.43461698293685913
0.74084663391113281 0.36380770802497864 0.46665385365486145
0.88269233703613281 0.44606494903564453 0.49847066402435303
0.18513427674770355 0.31225001811981201 0.39597946405410767
0.23164771497249603 0.32503074407577515 0.40274590253829956
0.3356720507144928 0.34373283386230469 0.41188445687294006
0.44487291574478149 0.37910190224647522 0.42667251825332642
0.58210831880569458 0.3774871826171875 0.4471839964389801
0.75479245185852051 0.40685150027275085 0.47566267848014832
0.88569706678390503 0.49209773540496826 0.50874030590057373
0.17707666754722595 0.36381226778030396 0.40802252292633057
0.23196908831596375 0.37156444787979126 0.4150841236114502
0.34765598177909851 0.39560124278068542 0.4292793869972229
0.48486423492431641 0.43264323472976685 0.44525822997093201
0.61506509780883789 0.43728312849998474 0.46359989047050476
0.77046620845794678 0.48676514625549316 0.49142986536026001
0.88062566518783569 0.57632088661193848 0.52947968244552612
0.22277191281318665 0.43274059891700745 0.41487377882003784
0.26178774237632751 0.43631261587142944 0.42054775357246399
0.35781779885292053 0.45716223120689392 0.43518435955047607
0.50844460725784302 0.49716028571128845 0.4602547287940979
0.64361011981964111 0.52802556753158569 0.47662103176116943
0.77064794301986694 0.58336913585662842 0.50208938121795654
0.86961305141448975 0.65108495950698853 0.53524744510650635
0.28340297937393188 0.52840566635131836 0.43096467852592468
0.31926721334457397 0.5341796875 0.43573126196861267
0.40357744693756104 0.55522686243057251 0.44925945997238159
0.50203752517700195 0.58307063579559326 0.46387895941734314
0.64190030097961426 0.62655520439147949 0.48566320538520813
0.76471662521362305 0.65448522567749023 0.49847966432571411
0.86200511455535889 0.69175159931182861 0.51193141937255859
0.35768964886665344 0.65429913997650146 0.46249476075172424
0.38607126474380493 0.65889352560043335 0.46497327089309692
0.43318498134613037 0.67101186513900757 0.46858912706375122
0.50698220729827881 0.69019126892089844 0.47643557190895081
0.6281362771987915 0.72199767827987671 0.50329726934432983
0.75544607639312744 0.76523470878601074 0.53347563743591309
0.85314357280731201 0.79986238479614258 0.56423169374465942
0.46808004379272461 0.81015455722808838 0.51755118370056152
0.47909358143806458 0.80952984094619751 0.5169791579246521
0.51099109649658203 0.81414484977722168 0.51863837242126465
0.58865785598754883 0.82871395349502563 0.53683090209960938
0.68105566501617432 0.84329277276992798 0.56872677803039551
0.77859795093536377 0.8667406439781189 0.61196738481521606
0.85448318719863892 0.8895263671875 0.65003949403762817
0.24038711190223694 0.30920416116714478 0.47238472104072571
0.29795771837234497 0.31931659579277039 0.47705155611038208
0.40814664959907532 0.34453371167182922 0.48966091871261597
0.54090476036071777 0.40458813309669495 0.50909018516540527
0.64822530746459961 0.4631100594997406 0.52649962902069092
0.73833185434341431 0.45315232872962952 0.54008418321609497
0.86482363939285278 0.48773971199989319 0.57085233926773071
0.24583479762077332 0.33859887719154358 0.488239586353302
0.30900529026985168 0.34938684105873108 0.49424031376838684
0.41982182860374451 0.37511056661605835 0.50262165069580078
0.56125402450561523 0.44118779897689819 0.52126258611679077
0.65820503234863281 0.49353384971618652 0.53540986776351929
0.74777621030807495 0.48559150099754333 0.54798775911331177
0.86786609888076782 0.52054804563522339 0.57893615961074829
0.23828671872615814 0.39749634265899658 0.49631518125534058
0.2878258228302002 0.39729771018028259 0.49843844771385193
0.41875728964805603 0.42255455255508423 0.5109437108039856
0.57383233308792114 0.48889094591140747 0.53152042627334595
0.67287111282348633 0.54688054323196411 0.54787600040435791
0.75719499588012695 0.54142671823501587 0.55975848436355591
0.86966180801391602 0.57849639654159546 0.58780354261398315
0.21645182371139526 0.46581205725669861 0.49047631025314331
0.26433441042900085 0.4663790762424469 0.4909835159778595
0.37285390496253967 0.48124155402183533 0.50471895933151245
0.55351561307907104 0.53269070386886597 0.5353512167930603
0.68257910013198853 0.59778004884719849 0.55916303396224976
0.77264571189880371 0.60606497526168823 0.57361268997192383
0.87236106395721436 0.66063356399536133 0.60273736715316772
0.28538453578948975 0.5487818717956543 0.49266171455383301
0.3185640275478363 0.55070173740386963 0.49328833818435669
0.40081271529197693 0.5648423433303833 0.5043608546257019
0.52478832006454468 0.5933607816696167 0.52433234453201294
0.67555910348892212 0.65212148427963257 0.56155127286911011
0.78512424230575562 0.69101077318191528 0.58344900608062744
0.86746478080749512 0.74347209930419922 0.61334341764450073
0.3041500449180603 0.63480722904205322 0.49185475707054138
0.34114560484886169 0.64236944913864136 0.49740651249885559
0.42208656668663025 0.65979009866714478 0.50809782743453979
0.54661518335342407 0.69239234924316406 0.53446817398071289
0.66568088531494141 0.73611283302307129 0.56599009037017822
0.77652132511138916 0.77718210220336914 0.59743493795394897
0.86206763982772827 0.80085355043411255 0.61644226312637329
0.43500170111656189 0.79975223541259766 0.5524362325668335
0.46122553944587708 0.80271971225738525 0.55389982461929321
0.52051287889480591 0.8129042387008667 0.56334453821182251
0.60014331340789795 0.82846391201019287 0.57982158660888672
0.68699079751968384 0.84729105234146118 0.60410922765731812
0.78200608491897583 0.87125808000564575 0.64430403709411621
0.86044734716415405 0.89703816175460815 0.69030708074569702
0.38257396221160889 0.35992035269737244 0.60113441944122314
0.435548335313797 0.37029170989990234 0.6064002513885498
0.53743624687194824 0.40044665336608887 0.61330986022949219
0.65699660778045654 0.47465193271636963 0.62253564596176147
0.75169700384140015 0.59394234418869019 0.63664895296096802
0.80367475748062134 0.63197845220565796 0.64583414793014526
0.85305625200271606 0.61319321393966675 0.64987802505493164
0.38071462512016296 0.38839921355247498 0.61004137992858887
0.43438464403152466 0.39989829063415527 0.61211895942687988
0.53884357213973999 0.43241691589355469 0.61705309152603149
0.65990972518920898 0.50519376993179321 0.62798118591308594
0.75386160612106323 0.6144639253616333 0.64263069629669189
0.80731022357940674 0.65500926971435547 0.65326505899429321
0.85986614227294922 0.64173227548599243 0.65983504056930542
0.34557056427001953 0.44119498133659363 0.60904288291931152
0.40008631348609924 0.44660347700119019 0.61288249492645264
0.51907384395599365 0.47667050361633301 0.6194537878036499
0.65874820947647095 0.54700952768325806 0.63113999366760254
0.75541907548904419 0.65034329891204834 0.64915996789932251
0.80585616827011108 0.68549650907516479 0.65684419870376587
0.85491728782653809 0.67068058252334595 0.66101181507110596
0.25364553928375244 0.51606583595275879 0.59130370616912842
0.31903719902038574 0.51787370443344116 0.5958017110824585
0.45585030317306519 0.53040844202041626 0.60862785577774048
0.62097632884979248 0.57719355821609497 0.62968254089355469
0.74720484018325806 0.67750829458236694 0.65491926670074463
0.80657994747161865 0.72361350059509277 0.66596353054046631
0.85891175270080566 0.71902191638946533 0.67412096261978149
0.23993149399757385 0.59175312519073486 0.58095246553421021
0.28744557499885559 0.5929829478263855 0.58466309309005737
0.37929108738899231 0.59748417139053345 0.5894281268119812
0.52471017837524414 0.62024444341659546 0.60800695419311523
0.71000272035598755 0.69030851125717163 0.64732611179351807
0.8087158203125 0.76483833789825439 0.67526876926422119
0.86877155303955078 0.77505826950073242 0.68877488374710083
0.30855083465576172 0.67207431793212891 0.5750080943107605
0.34268280863761902 0.67354470491409302 0.576976478099823
0.41986867785453796 0.6823081374168396 0.58425575494766235
0.53488248586654663 0.70414096117019653 0.60051566362380981
0.66385781764984131 0.73824667930603027 0.62769573926925659
0.79478257894515991 0.80202406644821167 0.67573267221450806
0.87148177623748779 0.82897257804870605 0.7007870078086853
0.30265527963638306 0.79204988479614258 0.58950763940811157
0.33612078428268433 0.7925182580947876 0.58930069208145142
0.41591456532478333 0.79913163185119629 0.59707236289978027
0.54053783416748047 0.81714081764221191 0.61706221103668213
0.68047124147415161 0.84443235397338867 0.65108227729797363
0.78912830352783203 0.87294703722000122 0.69359898567199707
0.87034511566162109 0.90057253837585449 0.74009329080581665
0.59318733215332031 0.50299513339996338 0.74352335929870605
0.62125879526138306 0.50947242975234985 0.74197685718536377
0.687389075756073 0.54745090007781982 0.7410660982131958
0.76042652130126953 0.61461150646209717 0.7408638596534729
0.81805235147476196 0.69798165559768677 0.74366587400436401
0.85417658090591431 0.77682828903198242 0.74718660116195679
0.87031751871109009 0.78565877676010132 0.74662917852401733
0.58827275037765503 0.52679383754730225 0.74473589658737183
0.6204720139503479 0.53875768184661865 0.74433445930480957
0.68295550346374512 0.57034462690353394 0.74299865961074829
0.7586790919303894 0.635567307472229 0.74352765083312988
0.81910872459411621 0.71457409858703613 0.74705320596694946
0.8541942834854126 0.78646105527877808 0.75028306245803833
0.87937343120574951 0.79832679033279419 0.75543224811553955
0.55501043796539307 0.56305080652236938 0.74429959058761597
0.58895814418792725 0.56853771209716797 0.74199098348617554
0.66384267807006836 0.59867745637893677 0.74268990755081177
0.74797737598419189 0.65931671857833862 0.74426358938217163
0.81385833024978638 0.73388123512268066 0.7486150860786438
0.85445433855056763 0.80009293556213379 0.75513386726379395
0.87543904781341553 0.81377273797988892 0.75871217250823975
0.48160830140113831 0.61833393573760986 0.73491871356964111
0.51679962873458862 0.61461246013641357 0.73496717214584351
0.59799045324325562 0.62453335523605347 0.73848104476928711
0.71460181474685669 0.67658931016921997 0.74492472410202026
0.79921936988830566 0.7471851110458374 0.7512856125831604
0.85038453340530396 0.81412434577941895 0.75995838642120361
0.87608140707015991 0.83502054214477539 0.76812571287155151
0.27870064973831177 0.68190348148345947 0.71625584363937378
0.32775324583053589 0.67889285087585449 0.71753674745559692
0.44794046878814697 0.68017381429672241 0.72235584259033203
0.61671626567840576 0.69702053070068359 0.73550701141357422
0.76787376403808594 0.75839155912399292 0.75308632850646973
0.84687316417694092 0.83163005113601685 0.76772797107696533
0.87849718332290649 0.86308741569519043 0.77702951431274414
0.33294183015823364 0.76762104034423828 0.71388727426528931
0.35924908518791199 0.76643413305282593 0.71375668048858643
0.42880070209503174 0.76467359066009521 0.7149662971496582
0.53124958276748657 0.76770275831222534 0.72520077228546143
0.66717416048049927 0.78132277727127075 0.74045276641845703
0.81854438781738281 0.83773362636566162 0.76916724443435669
0.88200157880783081 0.88637101650238037 0.79223674535751343
0.42984846234321594 0.85850632190704346 0.72766768932342529
0.44794741272926331 0.85698509216308594 0.72596853971481323
0.49328640103340149 0.85717856884002686 0.7292138934135437
0.57142525911331177 0.86268943548202515 0.73593693971633911
0.67055517435073853 0.87001883983612061 0.74848765134811401
0.77701395750045776 0.88501030206680298 0.76979011297225952
0.88154655694961548 0.91998779773712158 0.8115541934967041
