luts/instant_consumer/polaroid_px-680_warm_--.cube
# Created by: G'MIC (https://gmic.eu)
TITLE "polaroid_px-680_warm_--"
# LUT size
LUT_3D_SIZE 7
# Data domain
DOMAIN_MIN 0.0 0.0 0.0
DOMAIN_MAX 1.0 1.0 1.0
# LUT data points
0.0016139161307364702 0.023060698062181473 0.0022094128653407097
0.091037541627883911 0.031582087278366089 0.0025701185222715139
0.28701606392860413 0.052795335650444031 0.0015781477559357882
0.54127109050750732 0.07209479808807373 0.00023821662762202322
0.77053308486938477 0.17080341279506683 0.00083694455679506063
0.91615426540374756 0.3077448308467865 0.0035717682912945747
0.99746274948120117 0.43418934941291809 0.072202779352664948
0.0045219720341265202 0.11012996733188629 0.00059940112987533212
0.10925910621881485 0.12562558054924011 0.0021844152361154556
0.31885957717895508 0.14932093024253845 0
0.56501108407974243 0.18103881180286407 0.00079024070873856544
0.76872134208679199 0.25249919295310974 0.0030512791126966476
0.91276454925537109 0.35080134868621826 0.0036617801524698734
0.99597460031509399 0.4630398154258728 0.070794649422168732
0.0054116193205118179 0.28512170910835266 0
0.056852318346500397 0.29737704992294312 0
0.33081609010696411 0.33311104774475098 9.2091278929729015e-05
0.58514523506164551 0.3558400571346283 0
0.76152521371841431 0.37518826127052307 0.00052591960411518812
0.89511382579803467 0.43351376056671143 0.0045394450426101685
0.99280834197998047 0.51697713136672974 0.046250168234109879
0.005272973794490099 0.46183809638023376 0
0.039248179644346237 0.45714625716209412 6.2112245359458029e-05
0.29739588499069214 0.47372084856033325 0.0015843410510569811
0.55002743005752563 0.51081883907318115 0.0025070041883736849
0.75607585906982422 0.54331684112548828 0.00014989516057539731
0.88026225566864014 0.54608005285263062 0.0027230207342654467
0.98403030633926392 0.58446663618087769 0.012330058962106705
0.02159392461180687 0.58436614274978638 0.00047580493264831603
0.14287929236888885 0.58610624074935913 0.002695809118449688
0.31997624039649963 0.59613752365112305 0.012364825233817101
0.51285934448242188 0.61981338262557983 0.019723031669855118
0.70608717203140259 0.65505576133728027 0.040831651538610458
0.86497980356216431 0.69663470983505249 0.081154391169548035
0.96712332963943481 0.71616560220718384 0.14732705056667328
0.25055399537086487 0.71346306800842285 0.12982667982578278
0.30524817109107971 0.71385729312896729 0.13999159634113312
0.4053376317024231 0.72229874134063721 0.17168709635734558
0.53904891014099121 0.7361944317817688 0.20703059434890747
0.69025176763534546 0.76195573806762695 0.24276795983314514
0.82725554704666138 0.79283779859542847 0.28251826763153076
0.94880849123001099 0.83515900373458862 0.34276095032691956
0.49688169360160828 0.87260466814041138 0.36894598603248596
0.51660287380218506 0.87087398767471313 0.37188675999641418
0.57029420137405396 0.87623500823974609 0.38997495174407959
0.65103477239608765 0.88456398248672485 0.42145666480064392
0.74418485164642334 0.89958912134170532 0.44801923632621765
0.84225636720657349 0.92121392488479614 0.48322063684463501
0.93385106325149536 0.93859165906906128 0.51773667335510254
0.023772714659571648 0.037900723516941071 0.033960692584514618
0.10748178511857986 0.04914010688662529 0.030887110158801079
0.30144211649894714 0.041841335594654083 0.042590048164129257
0.56847202777862549 0.09248015284538269 0.050807923078536987
0.78284114599227905 0.24777476489543915 0.090238548815250397
0.9156983494758606 0.36687424778938293 0.15287622809410095
0.99419301748275757 0.47648578882217407 0.24322512745857239
0.044430136680603027 0.13950689136981964 0.041936792433261871
0.15525965392589569 0.15020307898521423 0.043532636016607285
0.35539159178733826 0.17042934894561768 0.040912926197052002
0.59402859210968018 0.22657985985279083 0.050938967615365982
0.78482532501220703 0.30653846263885498 0.076222404837608337
0.91385328769683838 0.40297403931617737 0.14299418032169342
0.99437177181243896 0.50024032592773438 0.23844030499458313
0.098863564431667328 0.30805793404579163 0.035993210971355438
0.17973516881465912 0.31791609525680542 0.031003614887595177
0.38017970323562622 0.34760871529579163 0.029294811189174652
0.61070626974105835 0.36643502116203308 0.018562212586402893
0.77683871984481812 0.39466550946235657 0.030903611332178116
0.90502125024795532 0.45949885249137878 0.1039002537727356
0.98790848255157471 0.54243099689483643 0.21521882712841034
0.080790936946868896 0.46983176469802856 0.032673165202140808
0.186662957072258 0.47113367915153503 0.037986651062965393
0.35421484708786011 0.48675259947776794 0.05098293349146843
0.57699704170227051 0.52242416143417358 0.047714665532112122
0.76327824592590332 0.5474739670753479 0.040617983788251877
0.88768619298934937 0.55185472965240479 0.058153264224529266
0.98287838697433472 0.60172301530838013 0.1690678596496582
0.16191607713699341 0.59166234731674194 0.075462430715560913
0.24499793350696564 0.59334683418273926 0.088611945509910583
0.36999574303627014 0.60192263126373291 0.12842167913913727
0.53617149591445923 0.62627661228179932 0.14459934830665588
0.71985328197479248 0.66020697355270386 0.16931037604808807
0.86810678243637085 0.70021772384643555 0.20766086876392365
0.96511024236679077 0.71244972944259644 0.24099147319793701
0.29641565680503845 0.71343851089477539 0.19390127062797546
0.34543463587760925 0.71571320295333862 0.20450450479984283
0.43241789937019348 0.72414743900299072 0.23352253437042236
0.55262380838394165 0.73800957202911377 0.26408249139785767
0.70094591379165649 0.7637631893157959 0.29300585389137268
0.83147412538528442 0.79573065042495728 0.33281707763671875
0.94933640956878662 0.8371085524559021 0.38449162244796753
0.50081419944763184 0.87262701988220215 0.38495159149169922
0.52531057596206665 0.87306022644042969 0.39160606265068054
0.57824957370758057 0.87698286771774292 0.40987330675125122
0.65368562936782837 0.884510338306427 0.43885484337806702
0.74422645568847656 0.89703774452209473 0.46407276391983032
0.83865523338317871 0.91505372524261475 0.49705201387405396
0.93367582559585571 0.93832767009735107 0.53540664911270142
0.10553912073373795 0.073226645588874817 0.14391244947910309
0.21570895612239838 0.11067704111337662 0.15018385648727417
0.34936219453811646 0.16491501033306122 0.157976895570755
0.55984938144683838 0.14670361578464508 0.2004244476556778
0.77721726894378662 0.21318086981773376 0.24325606226921082
0.91883432865142822 0.36744827032089233 0.31342184543609619
0.9901166558265686 0.53097164630889893 0.40945050120353699
0.10448627918958664 0.18032626807689667 0.17340351641178131
0.23748479783535004 0.20022790133953094 0.18651807308197021
0.40087351202964783 0.25382861495018005 0.19493792951107025
0.59937411546707153 0.25667780637741089 0.23069092631340027
0.7878488302230835 0.33027240633964539 0.27603358030319214
0.9145205020904541 0.45714500546455383 0.35041168332099915
0.98699271678924561 0.5684083104133606 0.42227867245674133
0.14751224219799042 0.32733964920043945 0.18253588676452637
0.26308718323707581 0.34180498123168945 0.20297406613826752
0.45740914344787598 0.3770538866519928 0.23933427035808563
0.63769370317459106 0.40776437520980835 0.26384547352790833
0.78939276933670044 0.4646790623664856 0.30126720666885376
0.90269285440444946 0.52964705228805542 0.34053948521614075
0.98282217979431152 0.60006988048553467 0.39993873238563538
0.27309888601303101 0.47568884491920471 0.22288660705089569
0.35085740685462952 0.48744702339172363 0.23730596899986267
0.45547211170196533 0.50401777029037476 0.25086352229118347
0.61998081207275391 0.53525048494338989 0.27110883593559265
0.77472710609436035 0.55170649290084839 0.27530744671821594
0.88828349113464355 0.58195978403091431 0.29445365071296692
0.97904103994369507 0.64034157991409302 0.36011424660682678
0.36952298879623413 0.6019517183303833 0.27035364508628845
0.38495627045631409 0.60470908880233765 0.26110953092575073
0.45428076386451721 0.61323702335357666 0.26882347464561462
0.58074909448623657 0.63230162858963013 0.3008553683757782
0.73752391338348389 0.66910088062286377 0.32614520192146301
0.87015813589096069 0.70138716697692871 0.34600245952606201
0.96887868642807007 0.71596473455429077 0.35826566815376282
0.38840675354003906 0.71981602907180786 0.2987312376499176
0.41020676493644714 0.72094064950942993 0.2990206778049469
0.4778951108455658 0.72700232267379761 0.31529420614242554
0.58552539348602295 0.74104785919189453 0.35136696696281433
0.71188229322433472 0.76776045560836792 0.38109892606735229
0.83653688430786133 0.80074208974838257 0.4134458601474762
0.95436614751815796 0.83965116739273071 0.44840440154075623
0.50987148284912109 0.87254399061203003 0.4193645715713501
0.5295100212097168 0.87176257371902466 0.42305746674537659
0.58323067426681519 0.87666749954223633 0.44094297289848328
0.66025960445404053 0.88545817136764526 0.47105121612548828
0.74748128652572632 0.90159875154495239 0.50317502021789551
0.84120327234268188 0.92078739404678345 0.53227877616882324
0.93956530094146729 0.93950802087783813 0.57078182697296143
0.21254417300224304 0.15453812479972839 0.33789840340614319
0.32629746198654175 0.18575519323348999 0.34045594930648804
0.49411985278129578 0.26952478289604187 0.35955378413200378
0.62910211086273193 0.34761598706245422 0.37907293438911438
0.75605881214141846 0.32850784063339233 0.40308687090873718
0.89487874507904053 0.3836129903793335 0.44129467010498047
0.98482978343963623 0.49802544713020325 0.4817347526550293
0.23107381165027618 0.24136655032634735 0.35975000262260437
0.34384354948997498 0.2692008912563324 0.36474302411079407
0.51904678344726562 0.34097805619239807 0.38399294018745422
0.6469719409942627 0.40725043416023254 0.40138131380081177
0.76945698261260986 0.3949161171913147 0.41876178979873657
0.89805775880813599 0.44307485222816467 0.45038676261901855
0.9878852367401123 0.54796969890594482 0.49866864085197449
0.20640690624713898 0.37171515822410583 0.36206901073455811
0.31627219915390015 0.38373738527297974 0.37545505166053772
0.51733922958374023 0.42214387655258179 0.40326043963432312
0.66311848163604736 0.48705431818962097 0.42605870962142944
0.78093022108078003 0.48778840899467468 0.44565483927726746
0.90096354484558105 0.54662632942199707 0.48141816258430481
0.98570865392684937 0.63004761934280396 0.52978897094726562
0.28980728983879089 0.48729732632637024 0.35361641645431519
0.36114886403083801 0.49257099628448486 0.36140316724777222
0.50132095813751221 0.51608514785766602 0.39110270142555237
0.66209250688552856 0.56075114011764526 0.43289560079574585
0.78820973634719849 0.59278929233551025 0.45964542031288147
0.88979935646057129 0.63962125778198242 0.48942956328392029
0.97403192520141602 0.6912834644317627 0.52286833524703979
0.37705069780349731 0.59186035394668579 0.36288529634475708
0.43083146214485168 0.59888678789138794 0.37326028943061829
0.53523731231689453 0.62130069732666016 0.40346899628639221
0.63788437843322754 0.64930993318557739 0.43247920274734497
0.76912170648574829 0.68322229385375977 0.4576815664768219
0.87568658590316772 0.70115572214126587 0.46789374947547913
0.97089701890945435 0.72722744941711426 0.47796833515167236
0.46753731369972229 0.71826756000518799 0.41281187534332275
0.49786743521690369 0.72114855051040649 0.4168601930141449
0.54988628625869751 0.7297675609588623 0.42166352272033691
0.61951112747192383 0.74563664197921753 0.43520140647888184
0.73104965686798096 0.77264237403869629 0.46908125281333923
0.84937888383865356 0.80843102931976318 0.50521624088287354
0.96140998601913452 0.8417167067527771 0.52996480464935303
0.55719125270843506 0.86793702840805054 0.49110454320907593
0.56648105382919312 0.87184512615203857 0.49098455905914307
0.59385663270950317 0.87506413459777832 0.48857459425926208
0.66233289241790771 0.88535374402999878 0.51219546794891357
0.74772852659225464 0.89847975969314575 0.54621714353561401
0.84408235549926758 0.92269605398178101 0.58458924293518066
0.941883385181427 0.942069411277771 0.61967927217483521
0.37098735570907593 0.26463070511817932 0.51369315385818481
0.45553126931190491 0.2875940203666687 0.5173986554145813
0.60108882188796997 0.35897833108901978 0.52925384044647217
0.72663217782974243 0.4781489372253418 0.54451131820678711
0.80383872985839844 0.53178560733795166 0.55225378274917603
0.87114357948303223 0.50753605365753174 0.55701702833175659
0.97219091653823853 0.54392510652542114 0.59088009595870972
0.38646131753921509 0.33280652761459351 0.52590429782867432
0.46721473336219788 0.35851800441741943 0.52684468030929565
0.6108015775680542 0.41482946276664734 0.53539431095123291
0.73094964027404785 0.51294296979904175 0.55062985420227051
0.80748772621154785 0.56418818235397339 0.56185746192932129
0.87657803297042847 0.55013477802276611 0.57041388750076294
0.97333031892776489 0.58219116926193237 0.6006016731262207
0.37913757562637329 0.4320831298828125 0.51782774925231934
0.45286169648170471 0.43894043564796448 0.52662450075149536
0.59315431118011475 0.47839853167533875 0.53670132160186768
0.73015129566192627 0.56053823232650757 0.55777460336685181
0.81008303165435791 0.61469793319702148 0.57362252473831177
0.88077521324157715 0.60343736410140991 0.58227747678756714
0.97320139408111572 0.64024955034255981 0.61637544631958008
0.32702308893203735 0.51734238862991333 0.4912683367729187
0.40319967269897461 0.52762579917907715 0.50026679039001465
0.52352029085159302 0.54315012693405151 0.51822614669799805
0.7022627592086792 0.60271304845809937 0.55473101139068604
0.80762952566146851 0.66285097599029541 0.5837206244468689
0.88550686836242676 0.6657336950302124 0.59823650121688843
0.97671526670455933 0.70842260122299194 0.63251698017120361
0.39448273181915283 0.60738497972488403 0.47678577899932861
0.43475383520126343 0.613106369972229 0.48111164569854736
0.52543306350708008 0.62570315599441528 0.49649268388748169
0.65797704458236694 0.65509200096130371 0.53077274560928345
0.79102784395217896 0.70912677049636841 0.57692962884902954
0.88759589195251465 0.73738539218902588 0.60309386253356934
0.97307485342025757 0.78362059593200684 0.64294159412384033
0.39848202466964722 0.69446152448654175 0.46426445245742798
0.44354504346847534 0.70110809803009033 0.47268563508987427
0.53281980752944946 0.7155577540397644 0.49125245213508606
0.65268945693969727 0.74183499813079834 0.52609699964523315
0.76241999864578247 0.77911496162414551 0.56735777854919434
0.86306273937225342 0.81605660915374756 0.60443592071533203
0.96988779306411743 0.83778268098831177 0.62132352590560913
0.52578878402709961 0.86348468065261841 0.55432617664337158
0.55111175775527954 0.86506205797195435 0.55462795495986938
0.60959267616271973 0.87246066331863403 0.57102441787719727
0.67769557237625122 0.88567644357681274 0.58029508590698242
0.75082361698150635 0.90264219045639038 0.60541313886642456
0.84703820943832397 0.92565113306045532 0.65013802051544189
0.95085775852203369 0.94887799024581909 0.69697928428649902
0.55271279811859131 0.40439713001251221 0.66586124897003174
0.60806834697723389 0.43554022908210754 0.66862303018569946
0.69496673345565796 0.47964254021644592 0.67236447334289551
0.78924787044525146 0.56932193040847778 0.68428236246109009
0.85905522108078003 0.67025077342987061 0.69589126110076904
0.90351694822311401 0.69077438116073608 0.7015191912651062
0.94988554716110229 0.66443383693695068 0.69991850852966309
0.55751782655715942 0.45850721001625061 0.67283928394317627
0.61130905151367188 0.47084158658981323 0.66988247632980347
0.70130366086959839 0.51701253652572632 0.67763251066207886
0.79238212108612061 0.59101873636245728 0.68669253587722778
0.85851788520812988 0.683116614818573 0.70039087533950806
0.90343135595321655 0.70629191398620605 0.7064054012298584
0.9504578709602356 0.68615114688873291 0.70931321382522583
0.5396573543548584 0.51720768213272095 0.66276556253433228
0.58324861526489258 0.52134424448013306 0.66513770818710327
0.67724704742431641 0.56207478046417236 0.67138063907623291
0.77885913848876953 0.62137019634246826 0.68580043315887451
0.85818326473236084 0.7033689022064209 0.70376265048980713
0.90323299169540405 0.73091036081314087 0.71437805891036987
0.95639222860336304 0.72460323572158813 0.72604000568389893
0.4361499547958374 0.57747596502304077 0.63665479421615601
0.5009152889251709 0.58450603485107422 0.64127904176712036
0.62076753377914429 0.60366630554199219 0.65697622299194336
0.74670052528381348 0.64708715677261353 0.6813194751739502
0.84942471981048584 0.73185276985168457 0.71339583396911621
0.90030723810195923 0.77208900451660156 0.72795647382736206
0.95589876174926758 0.76240712404251099 0.73655349016189575
0.41047558188438416 0.65262985229492188 0.61548227071762085
0.44397929310798645 0.653098464012146 0.61478626728057861
0.52894061803817749 0.65715426206588745 0.625194251537323
0.65351754426956177 0.67698323726654053 0.64606004953384399
0.81142175197601318 0.74188554286956787 0.69992470741271973
0.90329831838607788 0.81233537197113037 0.74566102027893066
0.9631352424621582 0.80803155899047852 0.75713706016540527
0.42036908864974976 0.72717136144638062 0.58940201997756958
0.45076385140419006 0.72950762510299683 0.59418874979019165
0.5263972282409668 0.73336738348007202 0.60091441869735718
0.6324540376663208 0.74973458051681519 0.62157219648361206
0.75593703985214233 0.78078120946884155 0.66216033697128296
0.88332748413085938 0.84817427396774292 0.73711675405502319
0.97513473033905029 0.87387323379516602 0.77638500928878784
0.3835945725440979 0.85343420505523682 0.61092936992645264
0.41800311207771301 0.85384488105773926 0.61263531446456909
0.49995872378349304 0.8590012788772583 0.62249243259429932
0.60909521579742432 0.87169426679611206 0.64181756973266602
0.73844712972640991 0.89708864688873291 0.6841198205947876
0.85143923759460449 0.92745256423950195 0.73924559354782104
0.96038162708282471 0.95296365022659302 0.80279934406280518
0.71645736694335938 0.5998682975769043 0.84001004695892334
0.74436295032501221 0.6101340651512146 0.83707833290100098
0.7918890118598938 0.63560861349105835 0.8332250714302063
0.84987443685531616 0.68866235017776489 0.83418339490890503
0.89753890037536621 0.75375443696975708 0.84028273820877075
0.93895637989044189 0.81595408916473389 0.845969557762146
0.96661120653152466 0.81909382343292236 0.84876680374145508
0.71631157398223877 0.62017220258712769 0.84243518114089966
0.74350118637084961 0.63117498159408569 0.84090274572372437
0.79051077365875244 0.6590614914894104 0.84102338552474976
0.84402203559875488 0.69926077127456665 0.83503729104995728
0.89805829524993896 0.76534807682037354 0.84778165817260742
0.93840420246124268 0.8210979700088501 0.84995204210281372
0.96584272384643555 0.82936149835586548 0.85448634624481201
0.69167554378509521 0.64580410718917847 0.84144848585128784
0.71640509366989136 0.65451502799987793 0.83902150392532349
0.76982444524765015 0.67914235591888428 0.84121966361999512
0.83383357524871826 0.72407984733581543 0.84820204973220825
0.89235252141952515 0.77640163898468018 0.84870266914367676
0.93919521570205688 0.83537864685058594 0.85825461149215698
0.9714432954788208 0.84986788034439087 0.86726838350296021
0.63819026947021484 0.68938720226287842 0.83568894863128662
0.66488862037658691 0.69128787517547607 0.83654004335403442
0.72670984268188477 0.70209348201751709 0.84140181541442871
0.8054841160774231 0.73924803733825684 0.84936350584030151
0.88083064556121826 0.7971348762512207 0.86060237884521484
0.93570083379745483 0.85204809904098511 0.86818993091583252
0.97243773937225342 0.87181830406188965 0.87938207387924194
0.48943173885345459 0.7426723837852478 0.81932491064071655
0.51939696073532104 0.74080872535705566 0.82090801000595093
0.60953205823898315 0.74297696352005005 0.82880377769470215
0.72606098651885986 0.75767403841018677 0.84196007251739502
0.84286576509475708 0.80448156595230103 0.86366325616836548
0.93064779043197632 0.87123090028762817 0.88697117567062378
0.96536928415298462 0.89907532930374146 0.89458322525024414
0.47579225897789001 0.82244729995727539 0.81947094202041626
0.49578046798706055 0.82061994075775146 0.81913810968399048
0.55092835426330566 0.81756210327148438 0.81970810890197754
0.63315421342849731 0.82040935754776001 0.83371603488922119
0.74499279260635376 0.82878684997558594 0.85188060998916626
0.89506208896636963 0.8820728063583374 0.89357656240463257
0.97502392530441284 0.93510490655899048 0.92201155424118042
0.4619482159614563 0.91585129499435425 0.83454436063766479
0.48272645473480225 0.91616755723953247 0.83401757478713989
0.53315150737762451 0.91641968488693237 0.83710783720016479
0.60372275114059448 0.91778957843780518 0.84105712175369263
0.69908422231674194 0.92458337545394897 0.85568952560424805
0.81983000040054321 0.93957102298736572 0.88114702701568604
0.97077476978302002 0.97404384613037109 0.9404178261756897
