luts/instant_consumer/polaroid_px-680_cold_++_alt.cube
# Created by: G'MIC (https://gmic.eu)
TITLE "polaroid_px-680_cold_++_alt"
# LUT size
LUT_3D_SIZE 13
# Data domain
DOMAIN_MIN 0.0 0.0 0.0
DOMAIN_MAX 1.0 1.0 1.0
# LUT data points
0.1609659343957901 0.28203263878822327 0.31136378645896912
0.1676192432641983 0.2832486629486084 0.31329861283302307
0.17514477670192719 0.28411546349525452 0.31372550129890442
0.1853145956993103 0.28465431928634644 0.31372550129890442
0.2147178053855896 0.28423815965652466 0.31330135464668274
0.26625722646713257 0.28553909063339233 0.31235340237617493
0.33868473768234253 0.29014706611633301 0.31371867656707764
0.42954638600349426 0.30006515979766846 0.31744787096977234
0.53411602973937988 0.31705942749977112 0.32195171713829041
0.6356126070022583 0.33323889970779419 0.32542687654495239
0.72807419300079346 0.36135438084602356 0.33105760812759399
0.80843627452850342 0.40192475914955139 0.34157970547676086
0.87287479639053345 0.44625219702720642 0.35791367292404175
0.16096262633800507 0.28908678889274597 0.31346040964126587
0.16764278709888458 0.28788122534751892 0.31372255086898804
0.1774173229932785 0.28866612911224365 0.31372550129890442
0.19403788447380066 0.29045501351356506 0.31374326348304749
0.2276647686958313 0.29083845019340515 0.31368127465248108
0.28021994233131409 0.29226082563400269 0.31315791606903076
0.35342016816139221 0.29771304130554199 0.31515544652938843
0.44192618131637573 0.30898991227149963 0.3182925283908844
0.54202896356582642 0.32390978932380676 0.3206096887588501
0.63976401090621948 0.34150701761245728 0.32382640242576599
0.72947216033935547 0.37077400088310242 0.33032554388046265
0.8069148063659668 0.40618723630905151 0.34017729759216309
0.87172836065292358 0.45176392793655396 0.35701635479927063
0.1592746376991272 0.29882380366325378 0.31372550129890442
0.16725970804691315 0.29510009288787842 0.31372550129890442
0.17991633713245392 0.29498806595802307 0.31372550129890442
0.19958654046058655 0.29651424288749695 0.31414645910263062
0.24045699834823608 0.29953882098197937 0.31480991840362549
0.29499223828315735 0.30386579036712646 0.31419587135314941
0.36940768361091614 0.31246384978294373 0.31536188721656799
0.46053552627563477 0.32645764946937561 0.31849786639213562
0.55262088775634766 0.33808785676956177 0.31991946697235107
0.64565110206604004 0.35622206330299377 0.32378393411636353
0.73688185214996338 0.39042589068412781 0.33167773485183716
0.80919373035430908 0.42504212260246277 0.34174901247024536
0.86839449405670166 0.46335840225219727 0.35589277744293213
0.15584821999073029 0.31080642342567444 0.31613302230834961
0.16340591013431549 0.30925986170768738 0.31398466229438782
0.17871348559856415 0.30881690979003906 0.31412854790687561
0.20348113775253296 0.31009000539779663 0.3159431517124176
0.25278171896934509 0.31721603870391846 0.31684887409210205
0.31500214338302612 0.32503622770309448 0.31573742628097534
0.38633430004119873 0.33260846138000488 0.31559345126152039
0.47286927700042725 0.34590226411819458 0.31875798106193542
0.55914300680160522 0.36022523045539856 0.32185161113739014
0.64893245697021484 0.37950074672698975 0.32592529058456421
0.73745548725128174 0.40926891565322876 0.33239030838012695
0.8059653639793396 0.44579821825027466 0.34409239888191223
0.86682313680648804 0.48552632331848145 0.35917225480079651
0.15203510224819183 0.33100959658622742 0.31854954361915588
0.15967068076133728 0.33126476407051086 0.31716954708099365
0.17711131274700165 0.33267366886138916 0.31716099381446838
0.21086092293262482 0.33902838826179504 0.31998547911643982
0.26017487049102783 0.34755310416221619 0.3214648962020874
0.32568269968032837 0.35754695534706116 0.32070448994636536
0.40216740965843201 0.3714849054813385 0.32115614414215088
0.48396366834640503 0.37815633416175842 0.32202380895614624
0.56171882152557373 0.38577812910079956 0.32353305816650391
0.64577025175094604 0.40788161754608154 0.32803997397422791
0.73330020904541016 0.43592715263366699 0.33386942744255066
0.80014914274215698 0.46907106041908264 0.34471783041954041
0.86256247758865356 0.50833559036254883 0.35920247435569763
0.15027160942554474 0.36756369471549988 0.32366159558296204
0.16023777425289154 0.36609154939651489 0.32305499911308289
0.17855532467365265 0.3669528067111969 0.32351145148277283
0.21316547691822052 0.37313723564147949 0.32523751258850098
0.26171258091926575 0.38111686706542969 0.32623299956321716
0.32891213893890381 0.3942682147026062 0.32672953605651855
0.40991714596748352 0.41360580921173096 0.32756945490837097
0.50281167030334473 0.43150788545608521 0.32881918549537659
0.57624608278274536 0.43804267048835754 0.32966440916061401
0.64865559339523315 0.44809702038764954 0.33061885833740234
0.72330009937286377 0.46443602442741394 0.33310887217521667
0.79321342706680298 0.49826008081436157 0.34277346730232239
0.85442060232162476 0.53333336114883423 0.3565518856048584
0.14676250517368317 0.40577793121337891 0.32911136746406555
0.16222216188907623 0.40570378303527832 0.32985019683837891
0.17951585352420807 0.40601477026939392 0.33044907450675964
0.20903894305229187 0.40976083278656006 0.331033855676651
0.25838378071784973 0.41740942001342773 0.33161261677742004
0.32546940445899963 0.43082931637763977 0.3327547013759613
0.40257525444030762 0.44842678308486938 0.33304139971733093
0.50727611780166626 0.47998404502868652 0.33527931571006775
0.59096753597259521 0.49788668751716614 0.33798649907112122
0.66082435846328735 0.5072367787361145 0.33915308117866516
0.73120540380477905 0.51983100175857544 0.34037497639656067
0.794788658618927 0.53783631324768066 0.34472069144248962
0.84834951162338257 0.56395286321640015 0.35560458898544312
0.14372473955154419 0.44839885830879211 0.33539101481437683
0.16142119467258453 0.45193278789520264 0.33637410402297974
0.18006955087184906 0.45361557602882385 0.33684560656547546
0.21146197617053986 0.45619955658912659 0.33788692951202393
0.26265355944633484 0.46462127566337585 0.33947339653968811
0.32634559273719788 0.47724950313568115 0.34183487296104431
0.39808374643325806 0.49305766820907593 0.34295928478240967
0.49001637101173401 0.51845747232437134 0.34527415037155151
0.58760440349578857 0.5467039942741394 0.34729865193367004
0.66789484024047852 0.56775897741317749 0.35097911953926086
0.73490709066390991 0.58427590131759644 0.35427898168563843
0.79117792844772339 0.59682947397232056 0.36063238978385925
0.84554111957550049 0.6151009202003479 0.36754897236824036
0.14477919042110443 0.50239241123199463 0.34289669990539551
0.16038870811462402 0.50324416160583496 0.34264293313026428
0.18162582814693451 0.50334089994430542 0.34315088391304016
0.21474571526050568 0.50579416751861572 0.34517025947570801
0.26761385798454285 0.51544249057769775 0.34827616810798645
0.32996729016304016 0.52812284231185913 0.35138294100761414
0.39908427000045776 0.54341989755630493 0.35448327660560608
0.48334008455276489 0.56561267375946045 0.35848811268806458
0.56836986541748047 0.58627384901046753 0.36149969696998596
0.65842080116271973 0.61650162935256958 0.36640998721122742
0.73592770099639893 0.64680272340774536 0.37458065152168274
0.79020649194717407 0.661266028881073 0.38535031676292419
0.8420332670211792 0.67777228355407715 0.39305254817008972
0.15649349987506866 0.56634259223937988 0.35337173938751221
0.17112024128437042 0.56156450510025024 0.35255914926528931
0.19480825960636139 0.55942332744598389 0.35310500860214233
0.22926732897758484 0.56223130226135254 0.35557955503463745
0.27793446183204651 0.56978243589401245 0.35907754302024841
0.34108838438987732 0.58273923397064209 0.36385175585746765
0.41165420413017273 0.59979021549224854 0.37028294801712036
0.49238437414169312 0.62169462442398071 0.377034991979599
0.57268673181533813 0.64150345325469971 0.38278982043266296
0.64902430772781372 0.66247457265853882 0.38948950171470642
0.72276532649993896 0.69050890207290649 0.39847445487976074
0.79329156875610352 0.72495335340499878 0.41585192084312439
0.83973968029022217 0.73976147174835205 0.42917510867118835
0.18962055444717407 0.63183701038360596 0.36678767204284668
0.20361006259918213 0.62979096174240112 0.36655747890472412
0.22990402579307556 0.62967228889465332 0.367929607629776
0.26586014032363892 0.63264566659927368 0.37066546082496643
0.31181561946868896 0.63844090700149536 0.37605273723602295
0.3686581552028656 0.64832150936126709 0.38318407535552979
0.43709161877632141 0.66313058137893677 0.39063739776611328
0.51223528385162354 0.68286621570587158 0.39831706881523132
0.58521777391433716 0.7012251615524292 0.40779149532318115
0.65404969453811646 0.71846687793731689 0.41826847195625305
0.71773594617843628 0.73668938875198364 0.43285563588142395
0.78369486331939697 0.76687717437744141 0.45310965180397034
0.83847332000732422 0.79490464925765991 0.47503253817558289
0.26851028203964233 0.71165674924850464 0.3936636745929718
0.27963718771934509 0.71107298135757446 0.39363217353820801
0.30444836616516113 0.7126043438911438 0.39652782678604126
0.33610177040100098 0.71495205163955688 0.39966592192649841
0.37653079628944397 0.72100979089736938 0.40600216388702393
0.42484197020530701 0.72661244869232178 0.41476655006408691
0.48354989290237427 0.73601096868515015 0.42407158017158508
0.54854756593704224 0.75162738561630249 0.43361461162567139
0.61473566293716431 0.76671081781387329 0.44771569967269897
0.67516523599624634 0.78066563606262207 0.46565473079681396
0.73139536380767822 0.79652130603790283 0.48270240426063538
0.78614687919616699 0.81501388549804688 0.50045770406723022
0.83354419469833374 0.83260655403137207 0.5192599892616272
0.41204068064689636 0.80429178476333618 0.45329707860946655
0.41787678003311157 0.80341178178787231 0.45318698883056641
0.43331187963485718 0.80373966693878174 0.45434507727622986
0.45702186226844788 0.80479639768600464 0.45828929543495178
0.48869785666465759 0.80815941095352173 0.46545895934104919
0.52786439657211304 0.81339091062545776 0.47642973065376282
0.57331579923629761 0.8199608325958252 0.48870563507080078
0.62332910299301147 0.82980000972747803 0.50157856941223145
0.67346423864364624 0.83841180801391602 0.51799499988555908
0.72377842664718628 0.84952974319458008 0.53599739074707031
0.76703596115112305 0.85989373922348022 0.55390578508377075
0.80917030572891235 0.87165623903274536 0.57508540153503418
0.84510374069213867 0.88206833600997925 0.59590804576873779
0.16198128461837769 0.28341028094291687 0.31434816122055054
0.16746522486209869 0.2840648889541626 0.31378519535064697
0.17515450716018677 0.28467342257499695 0.3139398992061615
0.18717482686042786 0.28506630659103394 0.31553018093109131
0.21954585611820221 0.28585419058799744 0.31699070334434509
0.27471759915351868 0.28677591681480408 0.31778055429458618
0.34989553689956665 0.2908879816532135 0.32048827409744263
0.44337695837020874 0.30154699087142944 0.32731443643569946
0.54476439952850342 0.32167068123817444 0.33456307649612427
0.64433282613754272 0.34236139059066772 0.33996862173080444
0.73535853624343872 0.37277442216873169 0.34559920430183411
0.81466728448867798 0.40758714079856873 0.35398018360137939
0.8728792667388916 0.44937810301780701 0.36964896321296692
0.16406702995300293 0.28808331489562988 0.31439951062202454
0.16765496134757996 0.28826084733009338 0.31379377841949463
0.1776457279920578 0.28896483778953552 0.31401437520980835
0.19722986221313477 0.29100719094276428 0.31681069731712341
0.23406417667865753 0.29271534085273743 0.31836408376693726
0.29053214192390442 0.29364204406738281 0.31955158710479736
0.36322081089019775 0.29936540126800537 0.32167047262191772
0.45593234896659851 0.31280392408370972 0.32659560441970825
0.5538979172706604 0.32900822162628174 0.33088043332099915
0.64888578653335571 0.34984144568443298 0.33628430962562561
0.73721814155578613 0.38184875249862671 0.3444671630859375
0.81433725357055664 0.4172920286655426 0.35496082901954651
0.87366509437561035 0.4596160352230072 0.37132945656776428
0.1638602614402771 0.295511394739151 0.31484758853912354
0.16704772412776947 0.2932184636592865 0.31400343775749207
0.18119856715202332 0.29468759894371033 0.31483188271522522
0.20678381621837616 0.29886332154273987 0.31841951608657837
0.24666579067707062 0.30370408296585083 0.32042151689529419
0.30566632747650146 0.30944854021072388 0.32145324349403381
0.38164761662483215 0.31739622354507446 0.32359856367111206
0.47228303551673889 0.33054527640342712 0.32641518115997314
0.56468045711517334 0.34311199188232422 0.32894361019134521
0.65215659141540527 0.36288753151893616 0.33489924669265747
0.73836201429367065 0.39804774522781372 0.3464653491973877
0.81299817562103271 0.43364551663398743 0.35650891065597534
0.87263572216033936 0.47337275743484497 0.37087744474411011
0.15987174212932587 0.30969613790512085 0.31844201683998108
0.16617473959922791 0.30906537175178528 0.31700524687767029
0.18337243795394897 0.31082859635353088 0.31759259104728699
0.2119051069021225 0.31634196639060974 0.32104608416557312
0.25721046328544617 0.32379952073097229 0.3230835497379303
0.32165974378585815 0.33139488101005554 0.32363265752792358
0.39928525686264038 0.33898705244064331 0.32525455951690674
0.48446980118751526 0.35124605894088745 0.32776305079460144
0.57032406330108643 0.36735260486602783 0.33146810531616211
0.65529084205627441 0.38866749405860901 0.33846771717071533
0.73927474021911621 0.41687855124473572 0.34832587838172913
0.80816614627838135 0.45110398530960083 0.3569292426109314
0.86729890108108521 0.48770320415496826 0.36776477098464966
0.15816138684749603 0.33299592137336731 0.32263955473899841
0.16626754403114319 0.33529266715049744 0.32228219509124756
0.18370044231414795 0.3367442786693573 0.32238271832466125
0.21567437052726746 0.34175747632980347 0.32406735420227051
0.26522192358970642 0.34998959302902222 0.32595977187156677
0.33401548862457275 0.36051881313323975 0.32703912258148193
0.41227692365646362 0.3705601692199707 0.32863038778305054
0.49284535646438599 0.37980800867080688 0.33022472262382507
0.57120972871780396 0.39455270767211914 0.33438074588775635
0.65263330936431885 0.41524702310562134 0.33897405862808228
0.73393267393112183 0.44102737307548523 0.34655478596687317
0.80165064334869385 0.4748651385307312 0.35710203647613525
0.86356419324874878 0.5132022500038147 0.36992084980010986
0.15757815539836884 0.36939427256584167 0.3273053765296936
0.16786287724971771 0.36973288655281067 0.32848688960075378
0.18647517263889313 0.37110650539398193 0.32873815298080444
0.21807512640953064 0.37649834156036377 0.32964742183685303
0.26745811104774475 0.38460484147071838 0.33126398921012878
0.33570346236228943 0.39809313416481018 0.3329441249370575
0.41842931509017944 0.41544440388679504 0.33460113406181335
0.50699698925018311 0.43213051557540894 0.33583235740661621
0.58079653978347778 0.44121354818344116 0.33828285336494446
0.65495270490646362 0.45024889707565308 0.3391907811164856
0.73016613721847534 0.46863973140716553 0.34295234084129333
0.79635828733444214 0.50261193513870239 0.35493475198745728
0.85863584280014038 0.5406603217124939 0.36972510814666748
0.15538156032562256 0.40817323327064514 0.33215701580047607
0.17199967801570892 0.40976047515869141 0.33464199304580688
0.19060017168521881 0.4113461971282959 0.33519014716148376
0.21586534380912781 0.41530722379684448 0.33591741323471069
0.26623433828353882 0.42287033796310425 0.33705100417137146
0.33230727910995483 0.43616047501564026 0.3389677107334137
0.4134061336517334 0.45624551177024841 0.3408016562461853
0.51489478349685669 0.48408132791519165 0.34255805611610413
0.59462380409240723 0.50033718347549438 0.34529057145118713
0.66533392667770386 0.50692367553710938 0.34689116477966309
0.73186707496643066 0.51790940761566162 0.34965935349464417
0.79557251930236816 0.53941875696182251 0.35489493608474731
0.85361158847808838 0.57214784622192383 0.36760032176971436
0.15700079500675201 0.45480459928512573 0.34074640274047852
0.1722734272480011 0.45777404308319092 0.34133857488632202
0.19194731116294861 0.45973792672157288 0.34203448891639709
0.22165143489837646 0.46278512477874756 0.34323450922966003
0.27188003063201904 0.47052761912345886 0.34539017081260681
0.33545035123825073 0.48342382907867432 0.34803315997123718
0.40778881311416626 0.50041490793228149 0.35102340579032898
0.49892228841781616 0.52507901191711426 0.35337537527084351
0.59239405393600464 0.55092042684555054 0.35500362515449524
0.67169195413589478 0.56904637813568115 0.35880601406097412
0.73522156476974487 0.5821954607963562 0.3648260235786438
0.79418009519577026 0.59739887714385986 0.37066388130187988
0.848155677318573 0.61703598499298096 0.37698695063591003
0.1619836688041687 0.5097774863243103 0.34995085000991821
0.17348641157150269 0.5098537802696228 0.3490447998046875
0.19395233690738678 0.51094514131546021 0.34938162565231323
0.22806684672832489 0.513560950756073 0.35103246569633484
0.27620711922645569 0.52103573083877563 0.35405626893043518
0.34008824825286865 0.53450304269790649 0.35788017511367798
0.41156309843063354 0.55118387937545776 0.36261603236198425
0.48950374126434326 0.57098227739334106 0.36602398753166199
0.57544487714767456 0.59312814474105835 0.36973410844802856
0.66379499435424805 0.62123095989227295 0.37471991777420044
0.73673290014266968 0.64557415246963501 0.38500869274139404
0.79446405172348022 0.66268467903137207 0.39580383896827698
0.84463882446289062 0.67947280406951904 0.40509355068206787
0.17125228047370911 0.5703614354133606 0.35898783802986145
0.18539199233055115 0.56781190633773804 0.35861355066299438
0.20829783380031586 0.56604468822479248 0.35918107628822327
0.24423418939113617 0.56910085678100586 0.36154958605766296
0.28981375694274902 0.57585608959197998 0.36510053277015686
0.35179179906845093 0.58828026056289673 0.36960354447364807
0.4195161759853363 0.60436797142028809 0.37467238306999207
0.49680405855178833 0.6259772777557373 0.38279968500137329
0.57693850994110107 0.64750880002975464 0.38971754908561707
0.65113496780395508 0.66659528017044067 0.39702281355857849
0.72473275661468506 0.69344168901443481 0.40780654549598694
0.79189091920852661 0.72247409820556641 0.4243105947971344
0.84337842464447021 0.74348998069763184 0.43879866600036621
0.20307976007461548 0.63659149408340454 0.37243407964706421
0.21732898056507111 0.6348731517791748 0.37270700931549072
0.2427726536989212 0.63442516326904297 0.37423759698867798
0.2807643711566925 0.63833284378051758 0.37794137001037598
0.32448881864547729 0.64385366439819336 0.38299015164375305
0.37905386090278625 0.65366631746292114 0.38889843225479126
0.44493553042411804 0.6667134165763855 0.39639869332313538
0.51617717742919922 0.68626201152801514 0.40468552708625793
0.58877044916152954 0.70661813020706177 0.41371423006057739
0.65590518712997437 0.72207999229431152 0.42626026272773743
0.71990680694580078 0.74044811725616455 0.44015657901763916
0.78230869770050049 0.76599979400634766 0.45706528425216675
0.83769083023071289 0.79242402315139771 0.47757801413536072
0.2815488874912262 0.71735388040542603 0.40038344264030457
0.29075950384140015 0.71651381254196167 0.3995145857334137
0.31527882814407349 0.71690112352371216 0.40320092439651489
0.346485435962677 0.71964722871780396 0.40667837858200073
0.38893875479698181 0.72549909353256226 0.41465520858764648
0.43327069282531738 0.73133999109268188 0.42192858457565308
0.49209704995155334 0.74117934703826904 0.43180650472640991
0.5554620623588562 0.75586873292922974 0.44165036082267761
0.61895096302032471 0.77141821384429932 0.45452713966369629
0.67911058664321899 0.78440397977828979 0.47213694453239441
0.73428380489349365 0.79960978031158447 0.48945474624633789
0.78701579570770264 0.816852867603302 0.50534176826477051
0.8352358341217041 0.83430218696594238 0.52369433641433716
0.41610753536224365 0.80630415678024292 0.45637771487236023
0.4227159321308136 0.80592149496078491 0.45623651146888733
0.43483704328536987 0.80500936508178711 0.45721843838691711
0.46059605479240417 0.80676156282424927 0.46258386969566345
0.49187299609184265 0.81042617559432983 0.46966814994812012
0.532143235206604 0.81593197584152222 0.48124077916145325
0.57467091083526611 0.82119512557983398 0.49339908361434937
0.6233399510383606 0.82988631725311279 0.50502622127532959
0.6764100193977356 0.84124112129211426 0.52039134502410889
0.72179275751113892 0.84833395481109619 0.53612679243087769
0.76699697971343994 0.85973799228668213 0.55671727657318115
0.80963468551635742 0.87198621034622192 0.57639062404632568
0.84591448307037354 0.88381552696228027 0.6012502908706665
0.16422300040721893 0.28436321020126343 0.31763771176338196
0.1671593189239502 0.28464052081108093 0.31753537058830261
0.17430464923381805 0.28482294082641602 0.3175635039806366
0.18562628328800201 0.28498098254203796 0.31785067915916443
0.2194998562335968 0.28594970703125 0.31968739628791809
0.27697837352752686 0.28658011555671692 0.32271489500999451
0.35503813624382019 0.28971642255783081 0.32726255059242249
0.4526531994342804 0.29948684573173523 0.33576378226280212
0.55738610029220581 0.32247403264045715 0.3474787175655365
0.65641462802886963 0.35141903162002563 0.35748356580734253
0.74159228801727295 0.38314658403396606 0.36716571450233459
0.81489640474319458 0.41667813062667847 0.37609702348709106
0.87406355142593384 0.45822528004646301 0.38930854201316833
0.16475130617618561 0.28926482796669006 0.31865707039833069
0.16843368113040924 0.28926482796669006 0.3180578351020813
0.17776305973529816 0.28999954462051392 0.31849795579910278
0.19861303269863129 0.29169023036956787 0.32021009922027588
0.23578986525535583 0.29329153895378113 0.32332891225814819
0.2956746518611908 0.29388049244880676 0.3256458044052124
0.37054595351219177 0.29970097541809082 0.32899388670921326
0.46692389249801636 0.31494969129562378 0.33708548545837402
0.56809896230697632 0.33477598428726196 0.34686613082885742
0.65889215469360352 0.35975334048271179 0.35633185505867004
0.7423098087310791 0.39221879839897156 0.36690211296081543
0.81554335355758667 0.42807745933532715 0.37750843167304993
0.87506520748138428 0.46909534931182861 0.39106932282447815
0.16617372632026672 0.29683646559715271 0.3214104175567627
0.17011016607284546 0.29585495591163635 0.32030811905860901
0.18460997939109802 0.29728490114212036 0.32119548320770264
0.21235208213329315 0.30102759599685669 0.3240382969379425
0.24967658519744873 0.30575433373451233 0.32686460018157959
0.31179732084274292 0.31219616532325745 0.32913234829902649
0.38923439383506775 0.32062608003616333 0.33250564336776733
0.48166120052337646 0.33201140165328979 0.33864319324493408
0.57559078931808472 0.34780851006507874 0.34613394737243652
0.66038542985916138 0.37312495708465576 0.35578683018684387
0.7420581579208374 0.40547376871109009 0.36596319079399109
0.8171684741973877 0.44216245412826538 0.37710827589035034
0.87372905015945435 0.47958287596702576 0.38928711414337158
0.16501699388027191 0.3133493959903717 0.32700479030609131
0.17208476364612579 0.31267616152763367 0.32540148496627808
0.1894543319940567 0.31458091735839844 0.32529148459434509
0.21976427733898163 0.32114666700363159 0.32805445790290833
0.26418200135231018 0.32819005846977234 0.33097845315933228
0.33028504252433777 0.33578115701675415 0.33333578705787659
0.40754944086074829 0.34347674250602722 0.33521547913551331
0.49417349696159363 0.3548305332660675 0.34015756845474243
0.58070319890975952 0.37362337112426758 0.34792640805244446
0.66183364391326904 0.39564061164855957 0.35572206974029541
0.74266952276229858 0.42259946465492249 0.36521843075752258
0.81543302536010742 0.45982617139816284 0.3763364851474762
0.86941498517990112 0.49673157930374146 0.38943403959274292
0.17006175220012665 0.34088844060897827 0.33291557431221008
0.17435401678085327 0.34052944183349609 0.33058330416679382
0.19255691766738892 0.34153288602828979 0.3305792510509491
0.22524048388004303 0.34633582830429077 0.33275699615478516
0.27522087097167969 0.35410791635513306 0.33545398712158203
0.34523141384124756 0.36282956600189209 0.33756065368652344
0.42085728049278259 0.36979138851165771 0.33777502179145813
0.49940294027328491 0.38086923956871033 0.33992424607276917
0.58032882213592529 0.40070322155952454 0.34695893526077271
