luts/instant_consumer/polaroid_px-100uv+_cold_+.cube
# Created by: G'MIC (https://gmic.eu)
TITLE "polaroid_px-100uv+_cold_+"
# LUT size
LUT_3D_SIZE 13
# Data domain
DOMAIN_MIN 0.0 0.0 0.0
DOMAIN_MAX 1.0 1.0 1.0
# LUT data points
0.23458562791347504 0.30042597651481628 0.31274396181106567
0.23626567423343658 0.30131238698959351 0.31481489539146423
0.24257610738277435 0.30629843473434448 0.32044562697410583
0.25484320521354675 0.31621807813644409 0.33028611540794373
0.27339464426040649 0.33149111270904541 0.34506005048751831
0.29909181594848633 0.35285580158233643 0.36511531472206116
0.33106893301010132 0.37978276610374451 0.39016065001487732
0.36781886219978333 0.41069620847702026 0.41868725419044495
0.40718880295753479 0.44443628191947937 0.44939768314361572
0.44910719990730286 0.48071286082267761 0.48179930448532104
0.4941859245300293 0.52110284566879272 0.51678544282913208
0.54353994131088257 0.56635761260986328 0.55492544174194336
0.59537649154663086 0.61491101980209351 0.5951201319694519
0.23784947395324707 0.30276021361351013 0.31551674008369446
0.24016071856021881 0.30413848161697388 0.31789886951446533
0.2470962256193161 0.30962470173835754 0.32398059964179993
0.25951480865478516 0.31958797574043274 0.33403283357620239
0.27785119414329529 0.33477142453193665 0.3486807644367218
0.30281981825828552 0.35571163892745972 0.36820021271705627
0.33403447270393372 0.38186222314834595 0.39256706833839417
0.36988455057144165 0.41179287433624268 0.42035427689552307
0.40789633989334106 0.44430655241012573 0.44995573163032532
0.44861185550689697 0.47940599918365479 0.48117652535438538
0.49289035797119141 0.51883310079574585 0.51515257358551025
0.54219228029251099 0.5641176700592041 0.55346894264221191
0.59499704837799072 0.61361521482467651 0.59432780742645264
0.24777723848819733 0.31084272265434265 0.32339891791343689
0.25058257579803467 0.31244432926177979 0.32602640986442566
0.258148193359375 0.31812408566474915 0.33242747187614441
0.27015459537506104 0.32806140184402466 0.34235218167304993
0.2873898446559906 0.34238609671592712 0.35617777705192566
0.31045371294021606 0.36178413033485413 0.37427157163619995
0.33969950675964355 0.3862265944480896 0.39722755551338196
0.37414747476577759 0.41496053338050842 0.42377614974975586
0.4110875129699707 0.44598519802093506 0.45214861631393433
0.4501596987247467 0.4798540472984314 0.48225432634353638
0.49377810955047607 0.5189969539642334 0.51584744453430176
0.54342997074127197 0.56465983390808105 0.55409729480743408
0.59681922197341919 0.61478275060653687 0.59523874521255493
0.2670339047908783 0.3261171281337738 0.33820119500160217
0.26976370811462402 0.32767364382743835 0.34096202254295349
0.27685025334358215 0.33299693465232849 0.34694010019302368
0.2880060076713562 0.3418782651424408 0.35594621300697327
0.30380943417549133 0.35510769486427307 0.36861920356750488
0.32426661252975464 0.37254565954208374 0.38506141304969788
0.35064226388931274 0.39495545625686646 0.40575891733169556
0.38294780254364014 0.42172309756278992 0.43064221739768982
0.41712778806686401 0.45067873597145081 0.45698440074920654
0.45392939448356628 0.48279806971549988 0.48532462120056152
0.49672648310661316 0.5212472677230835 0.51812052726745605
0.54695838689804077 0.56776827573776245 0.55660134553909302
0.60148268938064575 0.61893749237060547 0.59842592477798462
0.29554873704910278 0.34883105754852295 0.36052402853965759
0.29756835103034973 0.34987789392471313 0.36246243119239807
0.30331498384475708 0.35396376252174377 0.36721628904342651
0.31272000074386597 0.3613116443157196 0.37474805116653442
0.32642284035682678 0.37293443083763123 0.38597509264945984
0.34538149833679199 0.38917234539985657 0.40107223391532898
0.37016451358795166 0.41024091839790344 0.42035168409347534
0.39890912175178528 0.43457797169685364 0.44287008047103882
0.42874899506568909 0.45999166369438171 0.46577125787734985
0.4610101580619812 0.48867887258529663 0.49084955453872681
0.50119483470916748 0.52508831024169922 0.52161300182342529
0.55207473039627075 0.57238703966140747 0.56054222583770752
0.60853308439254761 0.62551635503768921 0.60344058275222778
0.33113494515419006 0.37755230069160461 0.38831824064254761
0.33202442526817322 0.37755066156387329 0.3890610933303833
0.33585292100906372 0.37984484434127808 0.39220815896987915
0.34293666481971741 0.38541939854621887 0.39785909652709961
0.35460847616195679 0.39527794718742371 0.40729513764381409
0.37227225303649902 0.41054317355155945 0.42134705185890198
0.39571502804756165 0.43075752258300781 0.43973866105079651
0.42221912741661072 0.45370310544967651 0.46038904786109924
0.44729644060134888 0.47564825415611267 0.47998833656311035
0.47350230813026428 0.49926865100860596 0.50044918060302734
0.50929266214370728 0.53211569786071777 0.52804863452911377
0.55951118469238281 0.57937824726104736 0.56622934341430664
0.6163942813873291 0.63291698694229126 0.60936957597732544
0.37044227123260498 0.40965366363525391 0.41885131597518921
0.37042590975761414 0.40869140625 0.41884136199951172
0.3724287748336792 0.40943524241447449 0.42018413543701172
0.37691196799278259 0.41295692324638367 0.42386680841445923
0.3861948549747467 0.42110803723335266 0.4313264787197113
0.40195444226264954 0.43471422791481018 0.44368258118629456
0.42390400171279907 0.4541875422000885 0.46094119548797607
0.44910368323326111 0.47667050361633301 0.48072898387908936
0.47131407260894775 0.4967159628868103 0.49855145812034607
0.49448829889297485 0.51821994781494141 0.51665109395980835
0.52698647975921631 0.54889446496963501 0.54171288013458252
0.57312017679214478 0.59222245216369629 0.57683044672012329
0.62576287984848022 0.64177209138870239 0.61661916971206665
0.41283801198005676 0.44476854801177979 0.45155718922615051
0.41227853298187256 0.44341737031936646 0.45091846585273743
0.41248935461044312 0.44312551617622375 0.45095467567443848
0.4143165647983551 0.44447499513626099 0.45258980989456177
0.42097917199134827 0.45028719305992126 0.45759302377700806
0.43382376432418823 0.46185600757598877 0.46788409352302551
0.45346102118492126 0.47987037897109985 0.48343411087989807
0.47656160593032837 0.50115770101547241 0.50161492824554443
0.49900111556053162 0.52213537693023682 0.51962548494338989
0.52305328845977783 0.54489231109619141 0.53848272562026978
0.55425292253494263 0.57433342933654785 0.5626416802406311
0.59457021951675415 0.61256188154220581 0.59326928853988647
0.6406291127204895 0.65602201223373413 0.62825161218643188
0.45921441912651062 0.48490962386131287 0.48806217312812805
0.4584135115146637 0.48358753323554993 0.4867490828037262
0.45778784155845642 0.48251420259475708 0.48590409755706787
0.45763173699378967 0.48226109147071838 0.48561972379684448
0.46043074131011963 0.48502025008201599 0.48784705996513367
0.47058027982711792 0.49453189969062805 0.49588647484779358
0.48819842934608459 0.51148301362991333 0.51000922918319702
0.50991356372833252 0.53224223852157593 0.52747434377670288
0.53299444913864136 0.55436724424362183 0.54588216543197632
0.55784589052200317 0.57809746265411377 0.56538957357406616
0.58730858564376831 0.60588347911834717 0.58807015419006348
0.62241929769515991 0.63908743858337402 0.61467105150222778
0.66210699081420898 0.67654776573181152 0.64470463991165161
0.51295268535614014 0.53384220600128174 0.52964222431182861
0.51260524988174438 0.53294563293457031 0.52887570858001709
0.51183480024337769 0.53205984830856323 0.5277133584022522
0.50947082042694092 0.5299675464630127 0.52575552463531494
0.50911849737167358 0.52972930669784546 0.52542150020599365
0.51638150215148926 0.53721600770950317 0.53117954730987549
0.53278404474258423 0.55344080924987793 0.54448074102401733
0.55332893133163452 0.57376182079315186 0.56083458662033081
0.57581192255020142 0.59556931257247925 0.57956647872924805
0.59943342208862305 0.61824482679367065 0.59740626811981201
0.6256898045539856 0.64305651187896729 0.61766421794891357
0.65563768148422241 0.67116224765777588 0.64031726121902466
0.68905359506607056 0.7024417519569397 0.6652793288230896
0.57800096273422241 0.59547656774520874 0.57960611581802368
0.57778549194335938 0.59462219476699829 0.57901060581207275
0.57649803161621094 0.59339743852615356 0.57772272825241089
0.57385134696960449 0.59078919887542725 0.57534337043762207
0.57184350490570068 0.5892568826675415 0.57379436492919922
0.57677865028381348 0.59466791152954102 0.57789236307144165
0.58995288610458374 0.60868924856185913 0.58890140056610107
0.60787111520767212 0.6273922324180603 0.60346454381942749
0.62736588716506958 0.64590948820114136 0.6193346381187439
0.6478162407875061 0.66507858037948608 0.63485360145568848
0.66943198442459106 0.68544536828994751 0.65158170461654663
0.69344401359558105 0.70779722929000854 0.66935265064239502
0.72062134742736816 0.7328871488571167 0.68935388326644897
0.65107959508895874 0.66715657711029053 0.6357843279838562
0.65084165334701538 0.66594910621643066 0.63523280620574951
0.64981663227081299 0.66413480043411255 0.63428062200546265
0.64754140377044678 0.66211742162704468 0.6324230432510376
0.64601922035217285 0.66090035438537598 0.63122254610061646
0.64816409349441528 0.6640058159828186 0.63359826803207397
0.6568482518196106 0.67361330986022949 0.64114612340927124
0.67035728693008423 0.68767082691192627 0.65245902538299561
0.68570882081985474 0.70285212993621826 0.66473674774169922
0.70087218284606934 0.71737194061279297 0.67637473344802856
0.71696358919143677 0.73156815767288208 0.68807196617126465
0.73478424549102783 0.74720150232315063 0.70091962814331055
0.75547313690185547 0.76635277271270752 0.71602064371109009
0.72561299800872803 0.7407829761505127 0.69301116466522217
0.72552669048309326 0.73927849531173706 0.692707359790802
0.72464203834533691 0.73753875494003296 0.6918063759803772
0.72384661436080933 0.73632335662841797 0.69103366136550903
0.72225683927536011 0.73509675264358521 0.69054347276687622
0.72205197811126709 0.73589712381362915 0.6908576488494873
0.72674137353897095 0.74176764488220215 0.69551151990890503
0.73593991994857788 0.75171512365341187 0.70364826917648315
0.7465139627456665 0.76249289512634277 0.71210777759552002
0.75629943609237671 0.77122312784194946 0.71916705369949341
0.76641571521759033 0.77973932027816772 0.72610414028167725
0.77841979265213013 0.78980714082717896 0.73418742418289185
0.79322332143783569 0.80295181274414062 0.74475812911987305
0.24528379738330841 0.30959150195121765 0.32157209515571594
0.24788208305835724 0.31072819232940674 0.32377332448959351
0.2547600269317627 0.3160337507724762 0.32956346869468689
0.26729997992515564 0.32622608542442322 0.33963286876678467
0.28638294339179993 0.34175792336463928 0.35456332564353943
0.31335484981536865 0.36417663097381592 0.37554651498794556
0.34746986627578735 0.39286571741104126 0.40209564566612244
0.38596916198730469 0.42516365647315979 0.4321196973323822
0.42579758167266846 0.4589882493019104 0.46303436160087585
0.46555414795875549 0.49422025680541992 0.49449211359024048
0.5089002251625061 0.53278124332427979 0.52778834104537964
0.55655914545059204 0.57675683498382568 0.56461507081985474
0.60739719867706299 0.62472641468048096 0.6040421724319458
0.24747607111930847 0.31134194135665894 0.32325345277786255
0.25076907873153687 0.31318160891532898 0.32614770531654358
0.25911357998847961 0.31945261359214783 0.33298531174659729
0.27256494760513306 0.33009865880012512 0.34363570809364319
0.29227906465530396 0.34630706906318665 0.3590664267539978
0.31935933232307434 0.36894005537033081 0.38005161285400391
0.35365226864814758 0.39728686213493347 0.40640673041343689
0.3909156322479248 0.42861729860305786 0.43546837568283081
0.4280032217502594 0.46003827452659607 0.46459329128265381
0.4651128351688385 0.49303725361824036 0.49391186237335205
0.50727272033691406 0.52973467111587524 0.52575874328613281
0.55450922250747681 0.57379531860351562 0.56266212463378906
0.60689431428909302 0.62336570024490356 0.60305380821228027
0.2567572295665741 0.31879094243049622 0.33035966753959656
0.26118019223213196 0.32172077894210815 0.33413335680961609
0.27046814560890198 0.32865530252456665 0.34186604619026184
0.28434157371520996 0.33951616287231445 0.35270380973815918
0.30327931046485901 0.35520681738853455 0.36761507391929626
0.32907703518867493 0.37648028135299683 0.38752716779708862
0.36100682616233826 0.40320172905921936 0.41220983862876892
0.3960844874382019 0.43239465355873108 0.43939000368118286
0.43112018704414368 0.46205884218215942 0.46664559841156006
0.46796044707298279 0.49381709098815918 0.49509331583976746
0.50837498903274536 0.53079020977020264 0.52666032314300537
0.55610102415084839 0.57506716251373291 0.56354838609695435
0.60853093862533569 0.62473291158676147 0.6040794849395752
0.2768414318561554 0.33545035123825073 0.34592244029045105
0.28149744868278503 0.33821243047714233 0.34979152679443359
0.29054918885231018 0.34461531043052673 0.35705858469009399
0.30324831604957581 0.35456392168998718 0.36710378527641296
0.31934913992881775 0.36851850152015686 0.38057652115821838
0.34303873777389526 0.38744053244590759 0.39819121360778809
0.37107932567596436 0.41115516424179077 0.42013633251190186
0.40279385447502136 0.43760192394256592 0.44475150108337402
0.43549948930740356 0.46547490358352661 0.47011366486549377
0.47030609846115112 0.49621671438217163 0.49740868806838989
0.51127511262893677 0.53333455324172974 0.5290331244468689
0.55948716402053833 0.57838219404220581 0.56627011299133301
0.61238878965377808 0.62835508584976196 0.60686367750167847
0.30813467502593994 0.36084607243537903 0.37038692831993103
0.31230583786964417 0.36289858818054199 0.37348461151123047
0.31885069608688354 0.36756831407546997 0.37886059284210205
0.32872331142425537 0.37521159648895264 0.38679236173629761
0.3431241512298584 0.38677877187728882 0.39792385697364807
0.36240333318710327 0.40303319692611694 0.4133504331111908
0.38694393634796143 0.42384010553359985 0.4325297474861145
0.41493770480155945 0.44756853580474854 0.4542635977268219
0.44389516115188599 0.47248807549476624 0.4769938588142395
0.47570142149925232 0.50087833404541016 0.50177758932113647
0.51502758264541626 0.53696846961975098 0.53221976757049561
0.56352663040161133 0.58246874809265137 0.56942117214202881
0.61743831634521484 0.633381187915802 0.61067098379135132
0.34797787666320801 0.39276179671287537 0.40082558989524841
0.34978547692298889 0.39355182647705078 0.40259316563606262
0.35355368256568909 0.39561644196510315 0.40544512867927551
0.35980892181396484 0.40024694800376892 0.41054725646972656
0.37054765224456787 0.4090762734413147 0.41910958290100098
0.38702291250228882 0.42287468910217285 0.43204715847969055
0.40880903601646423 0.44151860475540161 0.4488585889339447
0.4335971474647522 0.46296378970146179 0.46858078241348267
0.45853695273399353 0.4850565493106842 0.4882851243019104
0.48602628707885742 0.51011574268341064 0.50994795560836792
0.52230942249298096 0.54377484321594238 0.53809285163879395
0.56978517770767212 0.5883716344833374 0.57445043325424194
0.62347674369812012 0.63926804065704346 0.61531007289886475
0.38929891586303711 0.42673909664154053 0.4331701397895813
0.38986504077911377 0.42637738585472107 0.43360382318496704
0.39127790927886963 0.42636197805404663 0.43426284193992615
0.39396923780441284 0.42829045653343201 0.43682605028152466
0.40147733688354492 0.43441703915596008 0.44262894988059998
0.41478210687637329 0.44597119092941284 0.45310238003730774
0.43415972590446472 0.46295127272605896 0.46837344765663147
0.45664277672767639 0.48307782411575317 0.48620855808258057
0.47898045182228088 0.50342512130737305 0.50401681661605835
0.50385904312133789 0.52627408504486084 0.52372336387634277
0.53718805313110352 0.55777257680892944 0.54963833093643188
0.5815587043762207 0.59966802597045898 0.58364951610565186
0.63220810890197754 0.6476370096206665 0.62212622165679932
0.43087735772132874 0.4617551863193512 0.46554577350616455
0.43092048168182373 0.46067294478416443 0.46541592478752136
0.43047201633453369 0.4593447744846344 0.46491330862045288
0.4305376410484314 0.45954874157905579 0.4651399552822113
0.43524244427680969 0.46309924125671387 0.46839496493339539
0.44534286856651306 0.47228866815567017 0.47639182209968567
0.46208903193473816 0.48760053515434265 0.48977452516555786
0.48286586999893188 0.50674980878829956 0.50644057989120483
0.5048401951789856 0.5272984504699707 0.52395308017730713
0.52940839529037476 0.55061179399490356 0.54356873035430908
0.56092530488967896 0.58040612936019897 0.56791752576828003
0.60092151165008545 0.6183621883392334 0.59866029024124146
0.64626282453536987 0.6612669825553894 0.63302356004714966
0.47490528225898743 0.5002518892288208 0.49970671534538269
0.47481295466423035 0.49871310591697693 0.4995112419128418
0.47405478358268738 0.49756020307540894 0.49850019812583923
0.47266373038291931 0.49664187431335449 0.49723738431930542
0.47379520535469055 0.49738755822181702 0.49791589379310608
0.48088222742080688 0.50420600175857544 0.50361883640289307
0.49546179175376892 0.51828962564468384 0.51534628868103027
0.51543992757797241 0.53721016645431519 0.53145623207092285
0.53788638114929199 0.55873632431030273 0.54933542013168335
0.56264382600784302 0.58243274688720703 0.56910431385040283
0.59228402376174927 0.61040771007537842 0.59210097789764404
0.62728166580200195 0.64381533861160278 0.61888504028320312
0.66662544012069702 0.68113243579864502 0.6487734317779541
0.52569645643234253 0.54628944396972656 0.53951847553253174
0.52593576908111572 0.54606598615646362 0.53944343328475952
0.52527594566345215 0.54518944025039673 0.53824824094772339
0.52302432060241699 0.54283040761947632 0.53604638576507568
0.52144110202789307 0.54148006439208984 0.53455007076263428
0.52590036392211914 0.54625356197357178 0.53821772336959839
0.53890055418014526 0.55931222438812256 0.54881179332733154
0.55790543556213379 0.57792657613754272 0.56436425447463989
0.57976436614990234 0.59918487071990967 0.58180832862854004
0.60349518060684204 0.62195956707000732 0.60065668821334839
0.62982910871505737 0.64691317081451416 0.62096124887466431
0.65983670949935913 0.67506700754165649 0.64372009038925171
0.69310754537582397 0.7063714861869812 0.66885089874267578
0.58717048168182373 0.60460889339447021 0.58724546432495117
0.5880126953125 0.60473597049713135 0.58728444576263428
0.58718681335449219 0.60385268926620483 0.5860779881477356
0.58438485860824585 0.60116010904312134 0.58341842889785767
0.58187955617904663 0.59886878728866577 0.58123809099197388
0.58422613143920898 0.60211294889450073 0.58355355262756348
0.59480822086334229 0.61306273937225342 0.59227985143661499
0.61126714944839478 0.62957179546356201 0.60582166910171509
0.63052874803543091 0.64864975214004517 0.62141501903533936
0.65116721391677856 0.66826915740966797 0.63749974966049194
0.67306220531463623 0.6887403130531311 0.65413457155227661
0.69724571704864502 0.71116888523101807 0.67241364717483521
0.72425848245620728 0.73614531755447388 0.69252008199691772
0.65705198049545288 0.67305898666381836 0.64093291759490967
0.65797883272171021 0.6726534366607666 0.64102435111999512
0.65721529722213745 0.6714521050453186 0.64000624418258667
0.65498936176300049 0.66912561655044556 0.63806521892547607
0.6523507833480835 0.66722661256790161 0.63598650693893433
0.65323173999786377 0.66899144649505615 0.63721567392349243
0.66041857004165649 0.67696171998977661 0.6434134840965271
0.67304772138595581 0.68991035223007202 0.65400749444961548
0.68817651271820068 0.70486915111541748 0.66615992784500122
0.70394217967987061 0.7196805477142334 0.67832809686660767
0.72015488147735596 0.73457968235015869 0.69039112329483032
0.73806542158126831 0.75078606605529785 0.70356523990631104
0.7590140700340271 0.76955783367156982 0.71878314018249512
0.72865647077560425 0.74301719665527344 0.6954953670501709
0.72963649034500122 0.74295264482498169 0.69592803716659546
0.72935348749160767 0.74196815490722656 0.69554746150970459
0.72799307107925415 0.74039953947067261 0.6945996880531311
0.72577756643295288 0.73846685886383057 0.69278687238693237
0.72519975900650024 0.73889374732971191 0.69297802448272705
0.72923743724822998 0.74387365579605103 0.69688510894775391
0.73757779598236084 0.75277352333068848 0.70417064428329468
0.74797862768173218 0.76298177242279053 0.71269971132278442
0.75845164060592651 0.77259981632232666 0.72029566764831543
0.76908737421035767 0.78190171718597412 0.72790312767028809
0.78126817941665649 0.79223048686981201 0.73648566007614136
0.79651021957397461 0.80567425489425659 0.7471688985824585
0.26316377520561218 0.32475996017456055 0.33651959896087646
0.26636350154876709 0.32583326101303101 0.33824941515922546
0.27352538704872131 0.33133718371391296 0.34417256712913513
0.28551271557807922 0.34086284041404724 0.35353091359138489
0.30349323153495789 0.35557055473327637 0.36746698617935181
0.33006259799003601 0.37781795859336853 0.38796839118003845
0.36613282561302185 0.40789052844047546 0.41594448685646057
0.40699979662895203 0.442403644323349 0.4478815495967865
0.4473855197429657 0.47724899649620056 0.47975841164588928
0.48755761981010437 0.51192903518676758 0.51098811626434326
0.52890574932098389 0.55003184080123901 0.54316812753677368
0.57470864057540894 0.59275418519973755 0.57824015617370605
0.62364381551742554 0.63913345336914062 0.61615002155303955
0.26447880268096924 0.32553431391716003 0.33685117959976196
0.26892530918121338 0.32813754677772522 0.34013709425926208
0.27800202369689941 0.33487340807914734 0.3475797176361084
0.2915726900100708 0.34565442800521851 0.35807487368583679
0.31104055047035217 0.36169755458831787 0.37303146719932556
0.3390735387802124 0.38477048277854919 0.39437580108642578
0.3761591911315918 0.41558066010475159 0.42285847663879395
0.41558259725570679 0.44884863495826721 0.45364165306091309
0.45201012492179871 0.4800570011138916 0.48252332210540771
0.48849251866340637 0.51229715347290039 0.51145452260971069
0.52766847610473633 0.5477561354637146 0.54168993234634399
0.57307308912277222 0.59035468101501465 0.57666885852813721
0.62333041429519653 0.63829278945922852 0.61593341827392578
0.27224510908126831 0.33237460255622864 0.34261655807495117
0.27885341644287109 0.33659321069717407 0.34786659479141235
0.28980043530464172 0.34462857246398926 0.35658654570579529
0.30449089407920837 0.35610130429267883 0.36771005392074585
0.32404789328575134 0.37190195918083191 0.38284873962402344
0.35125303268432617 0.39434096217155457 0.40350538492202759
0.38580366969108582 0.42320048809051514 0.43001845479011536
0.42185857892036438 0.45349547266960144 0.4580959677696228
0.45517784357070923 0.48239469528198242 0.4846491813659668
0.48969760537147522 0.51309126615524292 0.51173216104507446
0.52893275022506714 0.54926913976669312 0.54256725311279297
0.57474172115325928 0.5919615626335144 0.57755571603775024
0.62476378679275513 0.63963907957077026 0.61661946773529053
0.29224506020545959 0.34896627068519592 0.35792979598045349
0.29980453848838806 0.35387489199638367 0.36381301283836365
0.31077948212623596 0.36192834377288818 0.3722403347492218
0.32430216670036316 0.37197139859199524 0.38290506601333618
0.34191969037055969 0.38619339466094971 0.39641833305358887
0.36524137854576111 0.4059966504573822 0.41457590460777283
0.39438599348068237 0.43004539608955383 0.43704038858413696
0.42584922909736633 0.45664221048355103 0.46165502071380615
0.4575192928314209 0.48434248566627502 0.48659825325012207
0.49157437682151794 0.51493531465530396 0.51346796751022339
0.53111714124679565 0.55123823881149292 0.54415702819824219
0.57712453603744507 0.59478992223739624 0.58013308048248291
0.62748807668685913 0.64260601997375488 0.61860913038253784
0.32730275392532349 0.37765228748321533 0.38492676615715027
0.33305889368057251 0.38100427389144897 0.38942253589630127
0.34068131446838379 0.38630422949790955 0.39543595910072327
0.35065421462059021 0.39379423856735229 0.40316274762153625
0.36440488696098328 0.40483725070953369 0.41394254565238953
0.38346830010414124 0.42009878158569336 0.42865917086601257
0.40712738037109375 0.44068247079849243 0.44719204306602478
0.43398746848106384 0.46368560194969177 0.46831592917442322
0.4628719687461853 0.48901933431625366 0.49115234613418579
