luts/instant_consumer/polaroid_px-70_warm_+.cube
# Created by: G'MIC (https://gmic.eu)
TITLE "polaroid_px-70_warm_+"
# LUT size
LUT_3D_SIZE 7
# Data domain
DOMAIN_MIN 0.0 0.0 0.0
DOMAIN_MAX 1.0 1.0 1.0
# LUT data points
0.23978510499000549 0.15894129872322083 0.15686275064945221
0.25211217999458313 0.1577732264995575 0.15663714706897736
0.28376948833465576 0.15691044926643372 0.15662062168121338
0.41072189807891846 0.15649215877056122 0.15640942752361298
0.67008531093597412 0.17326664924621582 0.1461959034204483
0.93090569972991943 0.34157440066337585 0.095930136740207672
1 0.51018458604812622 0.10467679053544998
0.23950521647930145 0.16577687859535217 0.15499986708164215
0.25572514533996582 0.17228040099143982 0.15686275064945221
0.30916616320610046 0.17889495193958282 0.15486668050289154
0.44057729840278625 0.19094614684581757 0.15138940513134003
0.69836950302124023 0.23921890556812286 0.13375009596347809
0.93455237150192261 0.40178591012954712 0.071927718818187714
1 0.5498197078704834 0.10043542832136154
0.24186719954013824 0.24403579533100128 0.15720741450786591
0.26296523213386536 0.2521871030330658 0.15671093761920929
0.33737438917160034 0.2615295946598053 0.15112258493900299
0.50435549020767212 0.29776838421821594 0.13618689775466919
0.73215639591217041 0.36159610748291016 0.096486017107963562
0.93160748481750488 0.50252878665924072 0.013801006600260735
0.99915879964828491 0.60767781734466553 0.080368980765342712
0.21098297834396362 0.45565688610076904 0.13845168054103851
0.26278743147850037 0.45706009864807129 0.14136365056037903
0.37394365668296814 0.46690753102302551 0.13322046399116516
0.57231920957565308 0.51102226972579956 0.099374212324619293
0.78199565410614014 0.57575255632400513 0.013165178708732128
0.92257231473922729 0.63454329967498779 0.0032414605375379324
0.9968915581703186 0.67873579263687134 0.05568898469209671
0.29568639397621155 0.70596235990524292 0.13984636962413788
0.35100939869880676 0.69363230466842651 0.14555574953556061
0.47094565629959106 0.70170456171035767 0.15470944344997406
0.64067882299423218 0.72041666507720947 0.14548766613006592
0.79838144779205322 0.73961979150772095 0.12618845701217651
0.91281402111053467 0.76415473222732544 0.1367671936750412
0.98541665077209473 0.77980154752731323 0.21413427591323853
0.56983369588851929 0.84751969575881958 0.31460535526275635
0.58573329448699951 0.84140497446060181 0.31127333641052246
0.64111363887786865 0.84116446971893311 0.32622495293617249
0.72899550199508667 0.84602344036102295 0.34493902325630188
0.81901460886001587 0.85043162107467651 0.35150280594825745
0.90127760171890259 0.86280560493469238 0.36498957872390747
0.96421211957931519 0.87367761135101318 0.4084831178188324
0.80660152435302734 0.923847496509552 0.50372225046157837
0.81286764144897461 0.9240688681602478 0.50499987602233887
0.8274456262588501 0.92262154817581177 0.5095708966255188
0.85574507713317871 0.92418313026428223 0.52036827802658081
0.88952362537384033 0.92742007970809937 0.52671736478805542
0.92374598979949951 0.93155747652053833 0.53493887186050415
0.95568138360977173 0.93534660339355469 0.54688423871994019
0.23921568691730499 0.1526191234588623 0.16118298470973969
0.24982182681560516 0.15334382653236389 0.16060620546340942
0.28429928421974182 0.15511597692966461 0.16325834393501282
0.42895859479904175 0.14744694530963898 0.17003367841243744
0.70350587368011475 0.17951570451259613 0.17487110197544098
0.94401967525482178 0.36137807369232178 0.17314402759075165
1 0.53377693891525269 0.21197237074375153
0.24155895411968231 0.16693639755249023 0.16292186081409454
0.2588895857334137 0.17106913030147552 0.16544415056705475
0.31353947520256042 0.18076524138450623 0.16725832223892212
0.46411263942718506 0.19073796272277832 0.1714273989200592
0.72966676950454712 0.25212547183036804 0.168531134724617
0.94943898916244507 0.42565801739692688 0.16113674640655518
1 0.57008475065231323 0.21345803141593933
0.25488030910491943 0.25442874431610107 0.17398795485496521
0.2812507152557373 0.26588961482048035 0.17597320675849915
0.3556983470916748 0.27570518851280212 0.17315934598445892
0.52989548444747925 0.31315332651138306 0.16580408811569214
0.76219433546066284 0.38553068041801453 0.1424136608839035
0.9422607421875 0.52056318521499634 0.13233281672000885
0.99863559007644653 0.62138205766677856 0.20101350545883179
0.23311446607112885 0.48121097683906555 0.16963979601860046
0.28671786189079285 0.4728986918926239 0.17264972627162933
0.40440025925636292 0.48580247163772583 0.1759607195854187
0.591819167137146 0.52319145202636719 0.14876246452331543
0.79137080907821655 0.58262819051742554 0.11152436584234238
0.92545062303543091 0.63231247663497925 0.09528706967830658
0.99512869119644165 0.68770068883895874 0.18212379515171051
0.33924350142478943 0.71319580078125 0.19845028221607208
0.38914713263511658 0.70538938045501709 0.20137274265289307
0.50084173679351807 0.70878016948699951 0.2163839191198349
0.65040522813796997 0.72217220067977905 0.21313659846782684
0.80195337533950806 0.74528169631958008 0.20594744384288788
0.91557073593139648 0.76691102981567383 0.21972651779651642
0.98389714956283569 0.77973681688308716 0.26964974403381348
0.59525179862976074 0.85014981031417847 0.35052779316902161
0.60538417100906372 0.84200018644332886 0.34719863533973694
0.6633145809173584 0.84134554862976074 0.3621228039264679
0.74673247337341309 0.84626555442810059 0.38231393694877625
0.82907873392105103 0.85545188188552856 0.3916911780834198
0.90396606922149658 0.86786508560180664 0.40152910351753235
0.96431124210357666 0.87552309036254883 0.43464860320091248
0.81282693147659302 0.923248291015625 0.51115202903747559
0.81845283508300781 0.92335206270217896 0.51186490058898926
0.83303391933441162 0.92245936393737793 0.51609975099563599
0.86419504880905151 0.92258673906326294 0.52443176507949829
0.89404267072677612 0.92533808946609497 0.53165966272354126
0.92524594068527222 0.93005150556564331 0.53810673952102661
0.95753198862075806 0.93622702360153198 0.55451363325119019
0.24351854622364044 0.15697799623012543 0.18518385291099548
0.26132029294967651 0.15843532979488373 0.18453221023082733
0.29499706625938416 0.16753491759300232 0.18446189165115356
0.42422065138816833 0.1539827287197113 0.20808212459087372
0.72202062606811523 0.089448191225528717 0.2378205806016922
0.96736234426498413 0.2880045473575592 0.27846714854240417
0.99992674589157104 0.57643473148345947 0.36861118674278259
0.24915395677089691 0.18340010941028595 0.19672532379627228
0.27344399690628052 0.18509571254253387 0.19925670325756073
0.32513841986656189 0.1929972767829895 0.20280897617340088
0.47994455695152283 0.19394560158252716 0.22179853916168213
0.76486712694168091 0.21984663605690002 0.24996763467788696
0.96574556827545166 0.44053122401237488 0.30239912867546082
0.99983662366867065 0.62106531858444214 0.37905260920524597
0.26428025960922241 0.27193561196327209 0.21883992850780487
0.29629293084144592 0.2767968475818634 0.22191514074802399
0.39106041193008423 0.29401537775993347 0.23161105811595917
0.56832695007324219 0.32720917463302612 0.2388349175453186
0.79967868328094482 0.43322449922561646 0.2653718888759613
0.94663506746292114 0.55764055252075195 0.30176833271980286
0.99858522415161133 0.6681363582611084 0.37183275818824768
0.31034833192825317 0.49648594856262207 0.25452068448066711
0.36105024814605713 0.49927151203155518 0.25546556711196899
0.45370495319366455 0.50759106874465942 0.25609874725341797
0.62354952096939087 0.54171657562255859 0.25272995233535767
0.80873787403106689 0.58866488933563232 0.25002923607826233
0.93019992113113403 0.64557486772537231 0.26892828941345215
0.99546283483505249 0.71100199222564697 0.34282466769218445
0.46260479092597961 0.72930467128753662 0.31816551089286804
0.47200858592987061 0.72279131412506104 0.30313780903816223
0.55308187007904053 0.72046917676925659 0.31255829334259033
0.68191903829574585 0.73184007406234741 0.32570692896842957
0.81133592128753662 0.74860936403274536 0.3240208625793457
0.91603899002075195 0.76805305480957031 0.33175742626190186
0.98408263921737671 0.78179293870925903 0.36368149518966675
0.64426559209823608 0.85072219371795654 0.41416060924530029
0.65667629241943359 0.84905683994293213 0.41325032711029053
0.69680100679397583 0.84531670808792114 0.42197695374488831
0.76534140110015869 0.85073947906494141 0.43746203184127808
0.83733689785003662 0.85821086168289185 0.44064253568649292
0.90843057632446289 0.86744803190231323 0.45028457045555115
0.96411526203155518 0.8789985179901123 0.47750520706176758
0.82688558101654053 0.92211729288101196 0.52779781818389893
0.83045822381973267 0.92249381542205811 0.52786147594451904
0.84378206729888916 0.92208516597747803 0.53081142902374268
0.86788147687911987 0.9220084547996521 0.5353119969367981
0.89744991064071655 0.92441409826278687 0.53981524705886841
0.92904365062713623 0.93144583702087402 0.55187958478927612
0.95882189273834229 0.93550139665603638 0.56324726343154907
0.26916974782943726 0.16524817049503326 0.26425936818122864
0.3003256618976593 0.16847221553325653 0.26061958074569702
0.38435757160186768 0.19089758396148682 0.27203899621963501
0.51126039028167725 0.23644645512104034 0.2932838499546051
0.71877223253250122 0.2124951183795929 0.34456074237823486
0.95325052738189697 0.29562559723854065 0.41573026776313782
0.99706947803497314 0.52231866121292114 0.45155790448188782
0.26921418309211731 0.19658249616622925 0.28367877006530762
0.31314235925674438 0.20542770624160767 0.29005113244056702
0.42246237397193909 0.23719114065170288 0.29921755194664001
0.55866986513137817 0.30111810564994812 0.31735017895698547
0.75365626811981201 0.2958608865737915 0.36428084969520569
0.95771616697311401 0.40444222092628479 0.42465448379516602
0.99993234872817993 0.59123808145523071 0.46267256140708923
0.25780969858169556 0.31898015737533569 0.31676647067070007
0.31370753049850464 0.32278400659561157 0.32295194268226624
0.45742467045783997 0.35129043459892273 0.34084197878837585
0.62533968687057495 0.42728310823440552 0.35877865552902222
0.80309063196182251 0.4546130895614624 0.39579573273658752
0.95069295167922974 0.57465404272079468 0.44270509481430054
0.99826085567474365 0.70154720544815063 0.48883399367332458
0.31023877859115601 0.52173244953155518 0.35634684562683105
0.37224560976028442 0.51831269264221191 0.35684725642204285
0.50360757112503052 0.5338437557220459 0.37082341313362122
0.67619806528091431 0.57699716091156006 0.39390265941619873
0.82863229513168335 0.63162553310394287 0.41771185398101807
0.93295168876647949 0.71146762371063232 0.45519915223121643
0.98852807283401489 0.76801925897598267 0.48831555247306824
0.51021534204483032 0.73911327123641968 0.42089718580245972
0.54483956098556519 0.73190486431121826 0.42078271508216858
0.63450640439987183 0.73614895343780518 0.428538978099823
0.73053115606307983 0.73924142122268677 0.43652966618537903
0.83378958702087402 0.75223791599273682 0.44356811046600342
0.92208069562911987 0.7729804515838623 0.44371211528778076
0.98027652502059937 0.79840397834777832 0.46506157517433167
0.7133173942565918 0.85528159141540527 0.48816356062889099
0.72018098831176758 0.85061848163604736 0.48376357555389404
0.75010114908218384 0.85153841972351074 0.48413214087486267
0.79803985357284546 0.85518908500671387 0.49368098378181458
0.85474711656570435 0.85891509056091309 0.50096052885055542
0.90981698036193848 0.86800730228424072 0.50590735673904419
0.96404629945755005 0.87639772891998291 0.51165831089019775
0.8413427472114563 0.9190557599067688 0.54692310094833374
0.84814900159835815 0.92035102844238281 0.54685503244400024
0.85660362243652344 0.92141193151473999 0.546927809715271
0.88621872663497925 0.92554390430450439 0.55823147296905518
0.90967178344726562 0.92535120248794556 0.5640106201171875
0.93083977699279785 0.92796468734741211 0.5646975040435791
0.96085792779922485 0.93762433528900146 0.57471829652786255
0.34757959842681885 0.18575073778629303 0.42799085378646851
0.41085818409919739 0.19108717143535614 0.43604370951652527
0.55286908149719238 0.22717553377151489 0.45263928174972534
0.71922928094863892 0.36847153306007385 0.47424477338790894
0.83491766452789307 0.49061727523803711 0.49975064396858215
0.92705869674682617 0.49239233136177063 0.51582616567611694
0.9966200590133667 0.58669525384902954 0.53817945718765259
0.34241640567779541 0.23763765394687653 0.46072757244110107
0.42041155695915222 0.24895432591438293 0.46163457632064819
0.57606929540634155 0.29734796285629272 0.47567415237426758
0.74313509464263916 0.4411761462688446 0.4910513162612915
0.8446279764175415 0.55663704872131348 0.508899986743927
0.93103229999542236 0.55525326728820801 0.52217084169387817
0.99520212411880493 0.63691812753677368 0.54145902395248413
0.33164671063423157 0.40169546008110046 0.48414072394371033
0.40000137686729431 0.39101454615592957 0.48699796199798584
0.57818228006362915 0.43164774775505066 0.49730542302131653
0.76166409254074097 0.55509442090988159 0.50836366415023804
0.85085046291351318 0.64822643995285034 0.51626360416412354
0.92829495668411255 0.64880484342575073 0.52837586402893066
0.99299579858779907 0.70293712615966797 0.54345226287841797
0.31794336438179016 0.5892823338508606 0.4903927743434906
0.3800322413444519 0.58095079660415649 0.48841851949691772
0.52924215793609619 0.58747881650924683 0.49679219722747803
0.74236994981765747 0.64570939540863037 0.51523977518081665
0.85414141416549683 0.72362643480300903 0.52633827924728394
0.92617088556289673 0.73329734802246094 0.53749901056289673
0.98408818244934082 0.78533852100372314 0.55252552032470703
0.52036046981811523 0.75069063901901245 0.50782263278961182
0.55511724948883057 0.74665910005569458 0.50776451826095581
0.64041852951049805 0.74321544170379639 0.51170748472213745
0.75251811742782593 0.75230485200881958 0.52233976125717163
0.8603472113609314 0.78619366884231567 0.53199172019958496
0.92605942487716675 0.80776458978652954 0.53826385736465454
0.97246593236923218 0.83346140384674072 0.54623961448669434
0.71439892053604126 0.85568630695343018 0.53428769111633301
0.72354340553283691 0.85134780406951904 0.53238070011138916
0.76901185512542725 0.85246461629867554 0.53472059965133667
0.82968336343765259 0.85960310697555542 0.54618805646896362
0.87592661380767822 0.86593127250671387 0.55061858892440796
0.9237855076789856 0.86945134401321411 0.55407136678695679
0.96617382764816284 0.88211315870285034 0.55670046806335449
0.85583752393722534 0.92281526327133179 0.57131010293960571
0.85925281047821045 0.92206144332885742 0.57075703144073486
0.8774712085723877 0.92338186502456665 0.57290679216384888
0.89785957336425781 0.9255824089050293 0.57779908180236816
0.92005008459091187 0.92748355865478516 0.5830417275428772
0.94021755456924438 0.93118202686309814 0.59007203578948975
0.96351528167724609 0.93866443634033203 0.59896755218505859
0.57518762350082397 0.28766587376594543 0.61133062839508057
0.63368481397628784 0.31467074155807495 0.60569959878921509
0.74973642826080322 0.39617496728897095 0.60606998205184937
0.85505348443984985 0.55102264881134033 0.59979158639907837
0.90884119272232056 0.71235555410385132 0.58533233404159546
0.94323039054870605 0.74880409240722656 0.58592629432678223
0.98157966136932373 0.73995351791381836 0.58670669794082642
0.57076418399810791 0.37575477361679077 0.61128968000411987
0.6313515305519104 0.39775967597961426 0.60728329420089722
0.74765217304229736 0.46637365221977234 0.60568153858184814
0.85133963823318481 0.60744774341583252 0.5965268611907959
0.90848571062088013 0.74183845520019531 0.58759838342666626
0.94385576248168945 0.77392017841339111 0.58511126041412354
0.97697407007217407 0.76187849044799805 0.58718031644821167
0.54449248313903809 0.51610910892486572 0.60740602016448975
0.60299277305603027 0.51784282922744751 0.60533660650253296
0.72927004098892212 0.57118117809295654 0.60106551647186279
0.84694230556488037 0.6759035587310791 0.59319508075714111
0.9079289436340332 0.77523750066757202 0.58731061220169067
0.94169658422470093 0.80248677730560303 0.58644324541091919
0.97292852401733398 0.79202187061309814 0.58509296178817749
0.47133058309555054 0.66474992036819458 0.58938050270080566
0.54227453470230103 0.66427123546600342 0.58840417861938477
0.68842893838882446 0.6790158748626709 0.59031540155410767
0.82238101959228516 0.72859114408493042 0.59033715724945068
0.9029650092124939 0.80194759368896484 0.58700525760650635
0.94074147939682007 0.83455115556716919 0.58538573980331421
0.97531956434249878 0.83650273084640503 0.58906596899032593
0.5664021372795105 0.77375322580337524 0.57788300514221191
0.5909881591796875 0.76980310678482056 0.57791602611541748
0.65946495532989502 0.76614433526992798 0.57764220237731934
0.7689746618270874 0.77788382768630981 0.57962620258331299
0.87947762012481689 0.82352590560913086 0.58408737182617188
0.94062179327011108 0.86227166652679443 0.58933007717132568
0.97057098150253296 0.87631368637084961 0.59539794921875
0.72207826375961304 0.86240231990814209 0.57722568511962891
0.73784935474395752 0.86108899116516113 0.57663923501968384
0.77603495121002197 0.86091387271881104 0.57815957069396973
0.83389437198638916 0.86387121677398682 0.583762526512146
0.88496607542037964 0.86948877573013306 0.5880662202835083
0.93678927421569824 0.89093285799026489 0.59440141916275024
0.96704167127609253 0.90500569343566895 0.59552675485610962
0.85718250274658203 0.92671662569046021 0.59357649087905884
0.85984891653060913 0.9261784553527832 0.59338545799255371
0.87571626901626587 0.92667287588119507 0.5952644944190979
0.89925301074981689 0.92850285768508911 0.60084682703018188
0.92790192365646362 0.92949759960174561 0.60882085561752319
0.94358664751052856 0.93286049365997314 0.61436945199966431
0.96678227186203003 0.9405021071434021 0.61961287260055542
0.79616254568099976 0.62415510416030884 0.65880316495895386
0.81705313920974731 0.63800984621047974 0.65508759021759033
0.86307084560394287 0.6892096996307373 0.64714407920837402
0.91102892160415649 0.75256538391113281 0.63895422220230103
0.93958044052124023 0.81330746412277222 0.62833505868911743
0.96013134717941284 0.86772751808166504 0.62310570478439331
0.96894097328186035 0.88062351942062378 0.62294638156890869
0.79665035009384155 0.66553044319152832 0.65542340278625488
0.81930696964263916 0.67812645435333252 0.6517099142074585
0.86312872171401978 0.71943497657775879 0.64518529176712036
0.906635582447052 0.77297741174697876 0.63728040456771851
0.94019675254821777 0.83216124773025513 0.62875103950500488
0.96088314056396484 0.87922477722167969 0.62347167730331421
0.9687044620513916 0.88236480951309204 0.62229162454605103
0.79111504554748535 0.71416854858398438 0.64989787340164185
0.80893111228942871 0.72483187913894653 0.64721387624740601
0.85920095443725586 0.7557375431060791 0.64242619276046753
0.90418744087219238 0.79836219549179077 0.63562345504760742
0.93925994634628296 0.84640544652938843 0.62951046228408813
0.95993810892105103 0.88720190525054932 0.6249350905418396
0.97019475698471069 0.89302980899810791 0.62372410297393799
0.76754069328308105 0.76930862665176392 0.64237600564956665
0.78528976440429688 0.7717474102973938 0.64033180475234985
0.83282178640365601 0.78618252277374268 0.63831466436386108
0.88852477073669434 0.81991839408874512 0.63253945112228394
0.93389260768890381 0.86393606662750244 0.62891489267349243
0.9563823938369751 0.89675188064575195 0.62678706645965576
0.97020769119262695 0.90807503461837769 0.62922090291976929
0.70150929689407349 0.81461113691329956 0.63243985176086426
0.71667218208312988 0.81211531162261963 0.63073462247848511
0.7721441388130188 0.81586229801177979 0.63064193725585938
0.84137076139450073 0.8362080454826355 0.62727415561676025
0.91321533918380737 0.86903542280197144 0.62757354974746704
0.95424348115921021 0.90577906370162964 0.62996578216552734
0.96482580900192261 0.91368782520294189 0.63062930107116699
0.78899616003036499 0.88217383623123169 0.62677818536758423
0.80266088247299194 0.88320064544677734 0.62651169300079346
0.82102805376052856 0.88239842653274536 0.62603986263275146
0.84959584474563599 0.87965875864028931 0.62641972303390503
0.89568310976028442 0.8868556022644043 0.62742561101913452
0.94447034597396851 0.91292446851730347 0.63172310590744019
0.96260672807693481 0.92346292734146118 0.63179945945739746
0.87906914949417114 0.93525964021682739 0.63344353437423706
0.88020366430282593 0.9353487491607666 0.63277357816696167
0.88930028676986694 0.93440604209899902 0.63363450765609741
0.9081539511680603 0.93447405099868774 0.63223838806152344
0.9284178614616394 0.93747931718826294 0.63762909173965454
0.94824451208114624 0.93997567892074585 0.64229780435562134
0.9664539098739624 0.94915330410003662 0.6498790979385376
