luts/instant_consumer/polaroid_px-100uv+_warm_++.cube
# Created by: G'MIC (https://gmic.eu)
TITLE "polaroid_px-100uv+_warm_++"
# LUT size
LUT_3D_SIZE 5
# Data domain
DOMAIN_MIN 0.0 0.0 0.0
DOMAIN_MAX 1.0 1.0 1.0
# LUT data points
0.42352941632270813 0.38428571820259094 0.38823530077934265
0.42449298501014709 0.38475030660629272 0.38869288563728333
0.44570595026016235 0.40629422664642334 0.41071715950965881
0.52589863538742065 0.49332970380783081 0.49488988518714905
0.62982690334320068 0.60542738437652588 0.59926921129226685
0.42567402124404907 0.38647770881652832 0.39072194695472717
0.43014433979988098 0.3914375901222229 0.39545035362243652
0.45480877161026001 0.41730508208274841 0.42258107662200928
0.52653759717941284 0.4936661422252655 0.49789473414421082
0.63207954168319702 0.60748827457427979 0.60202294588088989
0.46847060322761536 0.43134784698486328 0.43625599145889282
0.47143435478210449 0.43515512347221375 0.43938592076301575
0.49063518643379211 0.45576366782188416 0.46050357818603516
0.54746335744857788 0.51534861326217651 0.52025407552719116
0.64569282531738281 0.62111800909042358 0.61540877819061279
0.56837499141693115 0.53794056177139282 0.53812354803085327
0.56957298517227173 0.53934955596923828 0.53974682092666626
0.58369648456573486 0.55440914630889893 0.55454760789871216
0.62727195024490356 0.59990191459655762 0.59764093160629272
0.69201946258544922 0.66992217302322388 0.66016370058059692
0.71397608518600464 0.69276827573776245 0.67973035573959351
0.70766282081604004 0.68596696853637695 0.67407894134521484
0.7170644998550415 0.69549655914306641 0.68306553363800049
0.73982042074203491 0.7198832631111145 0.70546770095825195
0.76745718717575073 0.75034111738204956 0.73292559385299683
0.42647090554237366 0.38602906465530396 0.39332413673400879
0.43589645624160767 0.39670968055725098 0.40242040157318115
0.47193101048469543 0.43688055872917175 0.44143825769424438
0.56431549787521362 0.53711318969726562 0.53794574737548828
0.66053825616836548 0.64022505283355713 0.63314354419708252
0.4359138011932373 0.39798709750175476 0.40278947353363037
0.45401686429977417 0.41809433698654175 0.42203986644744873
0.49148562550544739 0.45833736658096313 0.46271809935569763
0.57135903835296631 0.54296869039535522 0.54493123292922974
0.66194278001785278 0.64003860950469971 0.63398522138595581
0.51016968488693237 0.47681114077568054 0.48101910948753357
0.51151347160339355 0.47861841320991516 0.48197770118713379
0.52795779705047607 0.49627694487571716 0.49952524900436401
0.58679497241973877 0.55810970067977905 0.55935710668563843
0.66986000537872314 0.64693719148635864 0.63997370004653931
0.60239559412002563 0.57485049962997437 0.57541465759277344
0.60357296466827393 0.57568925619125366 0.57557821273803711
0.60296326875686646 0.57558333873748779 0.57526201009750366
0.64169251918792725 0.61653167009353638 0.61276209354400635
0.70320618152618408 0.68182921409606934 0.6713985800743103
0.72168564796447754 0.70109128952026367 0.68881678581237793
0.7218058705329895 0.7003445029258728 0.68839699029922485
0.71960842609405518 0.69811439514160156 0.68631583452224731
0.73493123054504395 0.71468871831893921 0.70133334398269653
0.76639223098754883 0.74829906225204468 0.7313724160194397
0.49750024080276489 0.46156319975852966 0.46701514720916748
0.51775246858596802 0.48585894703865051 0.48797258734703064
0.54688519239425659 0.51905727386474609 0.51916229724884033
0.60316246747970581 0.57820641994476318 0.5757870078086853
0.69229328632354736 0.67508566379547119 0.66509026288986206
0.51236790418624878 0.48152688145637512 0.48363235592842102
0.53304743766784668 0.50396078824996948 0.50480681657791138
0.55968266725540161 0.53107863664627075 0.53177064657211304
0.62161874771118164 0.59552526473999023 0.59342879056930542
0.69176214933395386 0.67153358459472656 0.66273921728134155
0.54571521282196045 0.51844120025634766 0.52170521020889282
0.57238101959228516 0.54485714435577393 0.54563635587692261
0.5981096625328064 0.57042032480239868 0.5690925121307373
0.64443302154541016 0.61853742599487305 0.61385965347290039
0.70713776350021362 0.68541330099105835 0.67375725507736206
0.63647568225860596 0.61219257116317749 0.60979610681533813
0.64613962173461914 0.62112164497375488 0.61736667156219482
0.65333592891693115 0.62845444679260254 0.62289249897003174
0.67948740720748901 0.65620052814483643 0.64757364988327026
0.73058664798736572 0.70987379550933838 0.69517475366592407
0.74265784025192261 0.72290915250778198 0.70777779817581177
0.75018399953842163 0.72958505153656006 0.71334618330001831
0.74059432744979858 0.71973323822021484 0.70484429597854614
0.74645388126373291 0.72617501020431519 0.71089929342269897
0.77370136976242065 0.75521421432495117 0.7368425726890564
0.63576585054397583 0.61081612110137939 0.60484164953231812
0.64949488639831543 0.62680274248123169 0.61918348073959351
0.66583561897277832 0.64475077390670776 0.6345139741897583
0.68027621507644653 0.65835261344909668 0.64702689647674561
0.71987348794937134 0.70287907123565674 0.68896287679672241
0.65356111526489258 0.63141298294067383 0.62410342693328857
0.65833044052124023 0.63619333505630493 0.62853944301605225
0.66939848661422729 0.64689522981643677 0.63739949464797974
0.68622618913650513 0.66390198469161987 0.65368574857711792
0.72095251083374023 0.70216012001037598 0.68954145908355713
0.65481418371200562 0.6326143741607666 0.62621098756790161
0.66088324785232544 0.6382136344909668 0.63153886795043945
0.68764299154281616 0.66384303569793701 0.65341019630432129
0.71316850185394287 0.69064080715179443 0.6771920919418335
0.75149422883987427 0.73189282417297363 0.7138899564743042
0.68482857942581177 0.66322547197341919 0.65493899583816528
0.68650853633880615 0.66427421569824219 0.65564334392547607
0.71214312314987183 0.68980824947357178 0.67745280265808105
0.73644930124282837 0.71521162986755371 0.69940465688705444
0.76861274242401123 0.74912822246551514 0.72927272319793701
0.75973409414291382 0.74101948738098145 0.72297120094299316
0.76623493432998657 0.7467004656791687 0.72780770063400269
0.76725310087203979 0.74755793809890747 0.72902363538742065
0.77166861295700073 0.75215983390808105 0.73344701528549194
0.78850382566452026 0.77024286985397339 0.74967533349990845
0.76777297258377075 0.75121623277664185 0.73308950662612915
0.77176833152770996 0.7560545802116394 0.73722982406616211
0.77739423513412476 0.7623552680015564 0.74182826280593872
0.78529411554336548 0.77137893438339233 0.74864953756332397
0.79419052600860596 0.78176462650299072 0.75891488790512085
0.77649235725402832 0.75937443971633911 0.74105376005172729
0.77675771713256836 0.76086175441741943 0.74178856611251831
0.77926725149154663 0.76292473077774048 0.7426220178604126
0.7813725471496582 0.76508402824401855 0.74448531866073608
0.7905082106590271 0.77621781826019287 0.75469851493835449
0.77245092391967773 0.75305294990539551 0.73629224300384521
0.76972407102584839 0.75101268291473389 0.73371702432632446
0.77795261144638062 0.75986713171005249 0.74018442630767822
0.78727906942367554 0.77044904232025146 0.7486565113067627
0.80184632539749146 0.78672629594802856 0.7629886269569397
0.76492536067962646 0.74595671892166138 0.72908490896224976
0.76742178201675415 0.74848055839538574 0.73089569807052612
0.78137636184692383 0.76341396570205688 0.74322712421417236
0.79566282033920288 0.77921861410140991 0.75661993026733398
0.80703496932983398 0.79091733694076538 0.76714521646499634
0.79147529602050781 0.7749333381652832 0.7529606819152832
0.79817467927932739 0.7807011604309082 0.75843501091003418
0.80472159385681152 0.78780174255371094 0.76487356424331665
0.80658590793609619 0.79004371166229248 0.76714950799942017
0.81038415431976318 0.79393088817596436 0.77123421430587769
