luts/instant_consumer/polaroid_px-100uv+_cold_-.cube
# Created by: G'MIC (https://gmic.eu)
TITLE "polaroid_px-100uv+_cold_-"
# LUT size
LUT_3D_SIZE 13
# Data domain
DOMAIN_MIN 0.0 0.0 0.0
DOMAIN_MAX 1.0 1.0 1.0
# LUT data points
0.091577000916004181 0.10621699690818787 0.11041919142007828
0.098054088652133942 0.11427416652441025 0.11858876794576645
0.11398562043905258 0.13151569664478302 0.13567627966403961
0.14448137581348419 0.16326795518398285 0.16735385358333588
0.19170664250850677 0.21211506426334381 0.21600629389286041
0.24756550788879395 0.2686617374420166 0.27258580923080444
0.30270585417747498 0.32277694344520569 0.32616236805915833
0.35474866628646851 0.37338939309120178 0.37579590082168579
0.40387547016143799 0.42177185416221619 0.42193600535392761
0.45101922750473022 0.46869620680809021 0.465730220079422
0.49769169092178345 0.51579374074935913 0.50887268781661987
0.54517233371734619 0.56450974941253662 0.55244642496109009
0.59446805715560913 0.61420488357543945 0.59644252061843872
0.10110825300216675 0.11816226691007614 0.12228608876466751
0.1099054217338562 0.12793703377246857 0.13257913291454315
0.12559531629085541 0.14475703239440918 0.14888085424900055
0.15277312695980072 0.17252786457538605 0.17661376297473907
0.19480782747268677 0.21546874940395355 0.21921801567077637
0.24926264584064484 0.27040717005729675 0.27397358417510986
0.30484116077423096 0.32500830292701721 0.32808142900466919
0.35694488883018494 0.37562936544418335 0.37779241800308228
0.4057428240776062 0.42333546280860901 0.42342332005500793
0.45253449678421021 0.46996378898620605 0.46664991974830627
0.4991239607334137 0.51712977886199951 0.50974345207214355
0.54658430814743042 0.56541019678115845 0.55271488428115845
0.59540325403213501 0.6150439977645874 0.59646821022033691
0.12933860719203949 0.14826202392578125 0.15242940187454224
0.13861711323261261 0.15850390493869781 0.16311371326446533
0.15276174247264862 0.17283423244953156 0.17721223831176758
0.1735130250453949 0.19404099881649017 0.19792911410331726
0.20771969854831696 0.228449746966362 0.23186393082141876
0.257438063621521 0.27822530269622803 0.28127279877662659
0.31113103032112122 0.33079573512077332 0.33362182974815369
0.36156430840492249 0.37948834896087646 0.38128548860549927
0.40867194533348083 0.42558509111404419 0.42536535859107971
0.45485803484916687 0.47181883454322815 0.46809020638465881
0.50141787528991699 0.51911920309066772 0.51067793369293213
0.54903262853622437 0.56773769855499268 0.55387908220291138
0.59783589839935303 0.61739695072174072 0.59722429513931274
0.18100503087043762 0.20112277567386627 0.20526371896266937
0.187006875872612 0.20773023366928101 0.21235911548137665
0.19529281556606293 0.21632805466651917 0.22076906263828278
0.21045421063899994 0.23171471059322357 0.23569247126579285
0.23882907629013062 0.2598932683467865 0.26305368542671204
0.28048866987228394 0.30156207084655762 0.30418774485588074
0.32774415612220764 0.34702187776565552 0.34980791807174683
0.3720647394657135 0.38933491706848145 0.39118611812591553
0.415029376745224 0.43103691935539246 0.43086183071136475
0.45936834812164307 0.47554028034210205 0.47159591317176819
0.50540703535079956 0.52266776561737061 0.5135384202003479
0.55325722694396973 0.57159113883972168 0.55632984638214111
0.60225337743759155 0.62153017520904541 0.59970968961715698
0.24574533104896545 0.26561129093170166 0.26995527744293213
0.24667207896709442 0.26742121577262878 0.27207323908805847
0.24826236069202423 0.26970717310905457 0.27418243885040283
0.25725486874580383 0.27966099977493286 0.28332313895225525
0.28027808666229248 0.30265718698501587 0.30572125315666199
0.31617450714111328 0.33763378858566284 0.34075513482093811
0.35608255863189697 0.37546038627624512 0.37836304306983948
0.39110478758811951 0.40806478261947632 0.41011041402816772
0.42691478133201599 0.44262203574180603 0.44236451387405396
0.46731027960777283 0.48348432779312134 0.47920215129852295
0.51152980327606201 0.52882325649261475 0.51890498399734497
0.5588524341583252 0.57739877700805664 0.56089097261428833
0.60821747779846191 0.62747979164123535 0.6040416955947876
0.30990123748779297 0.32964795827865601 0.33361524343490601
0.30788204073905945 0.3285919725894928 0.33298864960670471
0.30441078543663025 0.32573714852333069 0.32987970113754272
0.30771076679229736 0.33051595091819763 0.33405491709709167
0.32530662417411804 0.34827223420143127 0.35136634111404419
0.35535448789596558 0.37694492936134338 0.38019588589668274
0.38788792490959167 0.40772053599357605 0.41067618131637573
0.41522869467735291 0.43300357460975647 0.43465104699134827
0.44429925084114075 0.46098920702934265 0.46013504266738892
0.47957342863082886 0.49654290080070496 0.49141356348991394
0.5204472541809082 0.5384325385093689 0.52752107381820679
0.56607508659362793 0.58497542142868042 0.56744730472564697
0.61498159170150757 0.63464504480361938 0.60973238945007324
0.36837577819824219 0.38806489109992981 0.39057311415672302
0.36464926600456238 0.38532206416130066 0.38815253973007202
0.35823839902877808 0.38041597604751587 0.38288605213165283
0.35799989104270935 0.38121905922889709 0.38344851136207581
0.36975517868995667 0.39283519983291626 0.39499416947364807
0.39112478494644165 0.41335102915763855 0.41555944085121155
0.4157659113407135 0.43662780523300171 0.43833571672439575
0.43923741579055786 0.45846414566040039 0.45879107713699341
0.46457105875015259 0.48291999101638794 0.48045355081558228
0.49528300762176514 0.51357412338256836 0.50715768337249756
0.53242337703704834 0.55138164758682251 0.53937947750091553
0.57579588890075684 0.59541499614715576 0.57672959566116333
0.62349927425384521 0.64355224370956421 0.617564857006073
0.41821160912513733 0.43882593512535095 0.43804523348808289
0.41388824582099915 0.43514493107795715 0.43511998653411865
0.40796339511871338 0.43055832386016846 0.43045169115066528
0.4064464271068573 0.42984655499458313 0.42960557341575623
0.41294723749160767 0.43642333149909973 0.43632045388221741
0.42697280645370483 0.44984897971153259 0.44960668683052063
0.44506758451461792 0.4670444130897522 0.46628352999687195
0.46524381637573242 0.48609733581542969 0.48371446132659912
0.48819786310195923 0.50814312696456909 0.50313335657119751
0.51563459634780884 0.53529876470565796 0.52651673555374146
0.54943287372589111 0.56932467222213745 0.55544102191925049
0.59027194976806641 0.61049622297286987 0.59021401405334473
0.63699322938919067 0.65742188692092896 0.62969326972961426
0.46497088670730591 0.48658528923988342 0.48131400346755981
0.46012380719184875 0.48260653018951416 0.47788622975349426
0.4560052752494812 0.47899481654167175 0.47453954815864563
0.45448487997055054 0.47808006405830383 0.47388488054275513
0.45797720551490784 0.48152706027030945 0.47762593626976013
0.46679499745368958 0.4901522696018219 0.48615184426307678
0.48056533932685852 0.50329864025115967 0.49846482276916504
0.49857285618782043 0.51969945430755615 0.51345241069793701
0.51891487836837769 0.53981196880340576 0.53103899955749512
0.54361981153488159 0.56390523910522461 0.55146998167037964
0.57383280992507935 0.59419769048690796 0.57707476615905762
0.61254912614822388 0.63293653726577759 0.6094825267791748
0.65824687480926514 0.67876172065734863 0.64801281690597534
0.51520639657974243 0.53750455379486084 0.52637916803359985
0.51078027486801147 0.53343302011489868 0.52262371778488159
0.50845998525619507 0.53143030405044556 0.52049010992050171
0.50764912366867065 0.53071260452270508 0.52014803886413574
0.50890219211578369 0.53208780288696289 0.52219110727310181
0.51430606842041016 0.53739148378372192 0.52767878770828247
0.5255281925201416 0.54805475473403931 0.5375097393989563
0.54175519943237305 0.56383103132247925 0.55130797624588013
0.56143122911453247 0.58278697729110718 0.56765460968017578
0.58359259366989136 0.6036754846572876 0.5853990912437439
0.6096264123916626 0.62951374053955078 0.60735398530960083
0.64469236135482788 0.66458207368850708 0.63687002658843994
0.68859362602233887 0.70810508728027344 0.67341846227645874
0.57516884803771973 0.59707397222518921 0.57846236228942871
0.57224863767623901 0.59398335218429565 0.575511634349823
0.57164847850799561 0.59309637546539307 0.57414907217025757
0.57127135992050171 0.59296238422393799 0.57411080598831177
0.57081574201583862 0.59253984689712524 0.57460182905197144
0.57294166088104248 0.59490430355072021 0.57735216617584229
0.58279663324356079 0.60438239574432373 0.58606761693954468
0.59983700513839722 0.62071132659912109 0.60003799200057983
0.61925685405731201 0.63938695192337036 0.61575126647949219
0.63940495252609253 0.65817320346832275 0.63186413049697876
0.66119599342346191 0.67948859930038452 0.6500365138053894
0.68974411487579346 0.70786166191101074 0.67388445138931274
0.72785693407058716 0.74544000625610352 0.7054021954536438
0.65103781223297119 0.67029088735580444 0.64252585172653198
0.64953207969665527 0.66875076293945312 0.64035844802856445
0.64986598491668701 0.66867059469223022 0.63968110084533691
0.64938199520111084 0.66811513900756836 0.63909876346588135
0.64662009477615356 0.66573977470397949 0.6375575065612793
0.64562481641769409 0.66526526212692261 0.63775503635406494
0.65482425689697266 0.67399823665618896 0.64563417434692383
0.67308801412582397 0.69037038087844849 0.66015559434890747
0.69324040412902832 0.70911639928817749 0.67588388919830322
0.71045100688934326 0.72669452428817749 0.69030570983886719
0.72801804542541504 0.74340033531188965 0.70463764667510986
0.74921989440917969 0.76402676105499268 0.72206240892410278
0.77853506803512573 0.79289907217025757 0.74647849798202515
0.74264043569564819 0.75710070133209229 0.71807175874710083
0.73984032869338989 0.75450742244720459 0.71485841274261475
0.73913615942001343 0.75361067056655884 0.71300762891769409
0.73815262317657471 0.75255495309829712 0.71187722682952881
0.73437726497650146 0.74940973520278931 0.70935463905334473
0.73273664712905884 0.74816226959228516 0.70864373445510864
0.74053293466567993 0.75587868690490723 0.71539407968521118
0.75768202543258667 0.77223336696624756 0.72894161939620972
0.77680855989456177 0.78985780477523804 0.74404466152191162
0.79175561666488647 0.80386626720428467 0.75645190477371216
0.80580449104309082 0.8167458176612854 0.76801681518554688
0.82233911752700806 0.83260244131088257 0.78161418437957764
0.84483164548873901 0.85405725240707397 0.79968619346618652
0.10794378817081451 0.12539099156856537 0.12965930998325348
0.11949951946735382 0.13837186992168427 0.14273445308208466
0.13696616888046265 0.15640862286090851 0.16049885749816895
0.16757328808307648 0.18776102364063263 0.19160169363021851
0.22043938934803009 0.24230745434761047 0.24618604779243469
0.27982082962989807 0.30220270156860352 0.30618417263031006
0.33314111828804016 0.35379385948181152 0.35738152265548706
0.3823627233505249 0.40113106369972229 0.40351501107215881
0.42777565121650696 0.44548594951629639 0.44522273540496826
0.47062030434608459 0.48782971501350403 0.48400905728340149
0.51211309432983398 0.5307239294052124 0.52271372079849243
0.55512040853500366 0.57412540912628174 0.56105870008468628
0.60083568096160889 0.62060821056365967 0.60190880298614502
0.12015762180089951 0.1390460878610611 0.14346610009670258
0.13403293490409851 0.15418921411037445 0.15853829681873322
0.15313547849655151 0.17400535941123962 0.17813865840435028
0.18223217129707336 0.20361857116222382 0.20728985965251923
0.22836726903915405 0.2508884072303772 0.25461569428443909
0.28334283828735352 0.3059404194355011 0.30934101343154907
0.33543533086776733 0.35632514953613281 0.35914677381515503
0.38385686278343201 0.40262919664382935 0.40428110957145691
0.42852503061294556 0.44640278816223145 0.44553324580192566
0.47145235538482666 0.4887273907661438 0.48401740193367004
0.51331168413162231 0.53164678812026978 0.5230860710144043
0.55671983957290649 0.57577794790267944 0.56200492382049561
0.60279363393783569 0.62258815765380859 0.60287994146347046
0.15356491506099701 0.17310884594917297 0.17721770703792572
0.16639262437820435 0.18739710748195648 0.19162555038928986
0.18232583999633789 0.20423910021781921 0.20823593437671661
0.20542775094509125 0.22765344381332397 0.23093149065971375
0.24132168292999268 0.26367449760437012 0.26703426241874695
0.28842341899871826 0.31064751744270325 0.3128473162651062
0.33797043561935425 0.35867911577224731 0.36043021082878113
0.38499298691749573 0.40328711271286011 0.40415999293327332
0.42884671688079834 0.44597247242927551 0.44504514336585999
0.47191742062568665 0.48897793889045715 0.48403805494308472
0.51531022787094116 0.53295129537582397 0.52362358570098877
0.55990809202194214 0.57864391803741455 0.56374239921569824
0.60661560297012329 0.62634050846099854 0.60503089427947998
0.21387800574302673 0.23387391865253448 0.23791974782943726
0.2184477299451828 0.23952473700046539 0.24371623992919922
0.22538875043392181 0.24725624918937683 0.250937819480896
0.23959600925445557 0.26187404990196228 0.26456615328788757
0.26504409313201904 0.28810951113700867 0.28985357284545898
0.30267125368118286 0.32552668452262878 0.32636067271232605
0.34729725122451782 0.36778098344802856 0.36860531568527222
0.38968461751937866 0.40716424584388733 0.40764832496643066
0.43082696199417114 0.44698697328567505 0.44556704163551331
0.47355931997299194 0.4899103045463562 0.48464253544807434
0.51769757270812988 0.53508573770523071 0.5246880054473877
0.56344133615493774 0.58216816186904907 0.56586146354675293
0.61107784509658813 0.63068687915802002 0.60781687498092651
0.27839091420173645 0.29834556579589844 0.30196920037269592
0.27769148349761963 0.298675537109375 0.30245748162269592
0.27595233917236328 0.29819586873054504 0.30121436715126038
0.28110623359680176 0.30417102575302124 0.30651456117630005
0.29957777261734009 0.32323804497718811 0.32468625903129578
0.33075255155563354 0.35348987579345703 0.35433697700500488
0.36775165796279907 0.38757526874542236 0.38846626877784729
0.40169274806976318 0.41892164945602417 0.41934239864349365
0.43776592612266541 0.45342791080474854 0.45180100202560425
0.47847217321395874 0.49470987915992737 0.48906496167182922
0.52188336849212646 0.53935331106185913 0.52836036682128906
0.56774389743804932 0.58654308319091797 0.56909209489822388
0.61570709943771362 0.63541388511657715 0.61109179258346558
0.33847418427467346 0.3580797016620636 0.36057150363922119
0.33542487025260925 0.35637125372886658 0.35881054401397705
0.32802805304527283 0.35052847862243652 0.35255628824234009
0.32632359862327576 0.35002100467681885 0.35142755508422852
0.34001782536506653 0.3636203408241272 0.36450847983360291
0.36555847525596619 0.38802650570869446 0.38890382647514343
0.39457932114601135 0.41485637426376343 0.4157249927520752
0.42233148217201233 0.4402192234992981 0.44021889567375183
0.45237454771995544 0.46912339329719543 0.46678921580314636
0.48829039931297302 0.50538092851638794 0.49896895885467529
0.52874499559402466 0.54686939716339111 0.53501695394515991
0.57318246364593506 0.59254759550094604 0.57433658838272095
0.62097775936126709 0.64107537269592285 0.61583495140075684
0.39285781979560852 0.41303333640098572 0.41291150450706482
0.38835209608078003 0.4094163179397583 0.40997517108917236
0.3793642520904541 0.401854008436203 0.40220129489898682
0.37483921647071838 0.39842954277992249 0.39852869510650635
0.38265126943588257 0.40633484721183777 0.40639856457710266
0.40047654509544373 0.42324826121330261 0.42335623502731323
0.42258372902870178 0.44373145699501038 0.44356629252433777
0.44548672437667847 0.46511325240135193 0.46371656656265259
0.47156846523284912 0.48989778757095337 0.48616346716880798
0.50241923332214355 0.5211300253868103 0.51334553956985474
0.53938370943069458 0.55856454372406006 0.54567044973373413
0.58175206184387207 0.60170596837997437 0.58237820863723755
0.62874585390090942 0.64928412437438965 0.62296324968338013
0.43971976637840271 0.46049302816390991 0.45750385522842407
0.43457484245300293 0.45607885718345642 0.45356488227844238
0.42670091986656189 0.44937655329704285 0.44700473546981812
0.42214947938919067 0.445619136095047 0.44336488842964172
0.42548128962516785 0.44912233948707581 0.44698241353034973
0.43651267886161804 0.45961874723434448 0.45755225419998169
0.45250177383422852 0.47453552484512329 0.47211721539497375
0.47164842486381531 0.49247795343399048 0.48880860209465027
0.49408286809921265 0.51424753665924072 0.5080755352973938
0.52174746990203857 0.54182225465774536 0.53183752298355103
0.55549806356430054 0.57567048072814941 0.56086528301239014
0.5961870551109314 0.61675238609313965 0.59568685293197632
0.64263236522674561 0.66323351860046387 0.63524854183197021
0.48316836357116699 0.50459396839141846 0.49712356925010681
0.47763621807098389 0.49968037009239197 0.49293810129165649
0.47181016206741333 0.49471026659011841 0.48794889450073242
0.46834811568260193 0.49164265394210815 0.48549190163612366
0.4693630039691925 0.49285763502120972 0.48709362745285034
0.47566008567810059 0.49899676442146301 0.49334090948104858
0.4873623251914978 0.51002472639083862 0.50401586294174194
0.50370752811431885 0.52553325891494751 0.51807129383087158
0.52421462535858154 0.54530215263366699 0.53516656160354614
0.54906022548675537 0.57005602121353149 0.55635577440261841
0.58022350072860718 0.60106170177459717 0.58273822069168091
0.61948120594024658 0.64028114080429077 0.61583751440048218
0.66582798957824707 0.68610930442810059 0.654865562915802
0.53040993213653564 0.55194658041000366 0.53902542591094971
0.52457654476165771 0.54652601480484009 0.53380483388900757
0.52087759971618652 0.54327285289764404 0.5306161642074585
0.51907932758331299 0.54188829660415649 0.52954548597335815
0.51893901824951172 0.54184061288833618 0.5304533839225769
0.52211505174636841 0.54511970281600952 0.53423762321472168
0.53135615587234497 0.55401736497879028 0.54242777824401855
0.54648327827453613 0.56829869747161865 0.55514800548553467
0.56579124927520752 0.58668559789657593 0.5710790753364563
0.58857220411300659 0.60906410217285156 0.58991390466690063
0.61684083938598633 0.63690769672393799 0.6135370135307312
0.65394842624664307 0.67367714643478394 0.64447373151779175
0.6994096040725708 0.71896505355834961 0.68260210752487183
0.58827930688858032 0.60906732082366943 0.58861827850341797
0.58278310298919678 0.6034775972366333 0.58309084177017212
0.58124524354934692 0.60209172964096069 0.5817984938621521
0.58117437362670898 0.60223078727722168 0.58180493116378784
0.5798267126083374 0.60109388828277588 0.5818982720375061
0.58059155941009521 0.60206776857376099 0.58352500200271606
0.5882408618927002 0.60962206125259399 0.59052014350891113
0.60321295261383057 0.6237635612487793 0.60294198989868164
0.62232941389083862 0.64185249805450439 0.61840879917144775
0.64331811666488647 0.6620451807975769 0.63557898998260498
0.66759252548217773 0.6859021782875061 0.65537083148956299
0.69902348518371582 0.71705979108810425 0.68152451515197754
0.74076849222183228 0.75819408893585205 0.71612703800201416
0.66226494312286377 0.68024337291717529 0.65086156129837036
0.65846163034439087 0.67654711008071899 0.64654046297073364
0.65834826231002808 0.67636734247207642 0.64575034379959106
0.65859740972518921 0.67647802829742432 0.64605671167373657
0.65566009283065796 0.67409664392471313 0.64452058076858521
0.65388083457946777 0.67269468307495117 0.64430159330368042
0.66026151180267334 0.679035484790802 0.65007668733596802
0.67520427703857422 0.69353312253952026 0.6622353196144104
0.69362688064575195 0.71054893732070923 0.67737716436386108
0.71313303709030151 0.728984534740448 0.69285702705383301
0.73373121023178101 0.74819475412368774 0.70933264493942261
0.75710809230804443 0.77111977338790894 0.7284243106842041
0.78751951456069946 0.80103319883346558 0.75354385375976562
0.74926185607910156 0.76274681091308594 0.72282713651657104
0.74703019857406616 0.76073402166366577 0.71995770931243896
0.7473989725112915 0.76100689172744751 0.71925777196884155
0.74775213003158569 0.76122820377349854 0.71919816732406616
0.74319368600845337 0.75734299421310425 0.71615421772003174
0.73982840776443481 0.75462591648101807 0.71444410085678101
0.74493765830993652 0.75958406925201416 0.71905362606048584
0.7587432861328125 0.77262657880783081 0.73022747039794922
0.77638918161392212 0.78904956579208374 0.74427914619445801
0.79385519027709961 0.80506438016891479 0.75826561450958252
0.81150829792022705 0.82096600532531738 0.77260327339172363
0.830474853515625 0.838836669921875 0.78797429800033569
0.85122460126876831 0.85901319980621338 0.80473804473876953
0.14419651031494141 0.16473759710788727 0.16893202066421509
0.16155862808227539 0.18348728120326996 0.18760222196578979
0.17911159992218018 0.20071959495544434 0.2046993225812912
0.19996228814125061 0.22086147964000702 0.22496695816516876
0.24730755388736725 0.26872736215591431 0.27339023351669312
0.30604094266891479 0.32753095030784607 0.33214238286018372
0.36200591921806335 0.38148045539855957 0.38540437817573547
0.41100302338600159 0.42889347672462463 0.4309961199760437
0.45303145051002502 0.47024586796760559 0.4692804217338562
0.49167618155479431 0.5090746283531189 0.5041511058807373
0.53014707565307617 0.54798787832260132 0.53836733102798462
0.56888711452484131 0.58797210454940796 0.57288545370101929
0.61117982864379883 0.6309693455696106 0.61022031307220459
0.15735617280006409 0.17890715599060059 0.1829603910446167
0.17731446027755737 0.19961319863796234 0.20411542057991028
0.19739194214344025 0.21996933221817017 0.22409139573574066
0.22118498384952545 0.24275599420070648 0.24699169397354126
0.2625579833984375 0.28419995307922363 0.2886199951171875
0.31523877382278442 0.33683666586875916 0.34082043170928955
0.36626812815666199 0.38641688227653503 0.38921248912811279
0.4127676784992218 0.43133994936943054 0.43198102712631226
0.45416092872619629 0.47158661484718323 0.46967294812202454
0.49267393350601196 0.51068216562271118 0.50454044342041016
0.53078258037567139 0.54976385831832886 0.53923743963241577
0.57092958688735962 0.59002441167831421 0.57448500394821167
0.61447733640670776 0.63434964418411255 0.61257445812225342
0.18618927896022797 0.20667280256748199 0.21102240681648254
0.20596334338188171 0.22759823501110077 0.23200066387653351
0.22434361279010773 0.24663646519184113 0.250754714012146
0.24696332216262817 0.2687736451625824 0.27248871326446533
0.28276476263999939 0.30415043234825134 0.30750373005867004
0.32653558254241943 0.34808629751205444 0.35036656260490417
0.37048032879829407 0.3909110426902771 0.39195674657821655
0.41375339031219482 0.43239843845367432 0.43212571740150452
0.45403316617012024 0.47143688797950745 0.46837574243545532
0.49318420886993408 0.5105406641960144 0.50392550230026245
0.53370827436447144 0.55118662118911743 0.54000526666641235
0.57479345798492432 0.59404343366622925 0.57697153091430664
0.61951833963394165 0.63961553573608398 0.61617904901504517
0.2445545494556427 0.2643236517906189 0.26831504702568054
0.25337141752243042 0.27440449595451355 0.2786291241645813
0.26439255475997925 0.28602159023284912 0.2896369993686676
0.27943679690361023 0.30169469118118286 0.30407282710075378
0.30345779657363892 0.32609602808952332 0.32736143469810486
0.33635064959526062 0.35899326205253601 0.35908502340316772
0.37610357999801636 0.39682921767234802 0.39630258083343506
0.41575422883033752 0.43405774235725403 0.43267384171485901
0.45428645610809326 0.47124177217483521 0.46737751364707947
0.49388271570205688 0.51057320833206177 0.50348740816116333
0.53487443923950195 0.55285346508026123 0.54132300615310669
0.57820999622344971 0.59743726253509521 0.57892698049545288
0.62383866310119629 0.64396494626998901 0.61907267570495605
0.30702689290046692 0.32661610841751099 0.32967346906661987
0.30988436937332153 0.3304787278175354 0.33350840210914612
0.31271758675575256 0.33431068062782288 0.33663719892501831
0.31739592552185059 0.34006351232528687 0.34117233753204346
0.33164393901824951 0.35490453243255615 0.35483109951019287
0.35698792338371277 0.37971207499504089 0.37892308831214905
0.38952803611755371 0.41010195016860962 0.40905174612998962
0.42317479848861694 0.44119545817375183 0.43935337662696838
0.45812025666236877 0.47483950853347778 0.47089290618896484
