luts/instant_consumer/polaroid_px-70_warm.cube
# Created by: G'MIC (https://gmic.eu)
TITLE "polaroid_px-70_warm"
# LUT size
LUT_3D_SIZE 7
# Data domain
DOMAIN_MIN 0.0 0.0 0.0
DOMAIN_MAX 1.0 1.0 1.0
# LUT data points
0.11377934366464615 0.12563955783843994 0.14509804546833038
0.13346156477928162 0.12204877287149429 0.14528216421604156
0.22954255342483521 0.12408698350191116 0.15298148989677429
0.41572606563568115 0.12864589691162109 0.16286459565162659
0.70505404472351074 0.15919741988182068 0.16734541952610016
0.93152934312820435 0.34194621443748474 0.15636877715587616
0.99916321039199829 0.50454229116439819 0.19044393301010132
0.11797776818275452 0.14884699881076813 0.15074008703231812
0.15897177159786224 0.15574474632740021 0.15376333892345428
0.26793989539146423 0.15862943232059479 0.15404427051544189
0.45937135815620422 0.17720471322536469 0.16062164306640625
0.72622060775756836 0.23962022364139557 0.15735261142253876
0.93229740858078003 0.40160134434700012 0.14707827568054199
0.99887555837631226 0.54958194494247437 0.19318117201328278
0.14309348165988922 0.26100766658782959 0.16936488449573517
0.19115495681762695 0.26588001847267151 0.16966560482978821
0.32127425074577332 0.28528335690498352 0.16514033079147339
0.53511601686477661 0.31921747326850891 0.15593619644641876
0.75573849678039551 0.37559467554092407 0.13875353336334229
0.92678683996200562 0.50342637300491333 0.12963095307350159
0.99569517374038696 0.60296952724456787 0.18795949220657349
0.16765215992927551 0.48725241422653198 0.17734482884407043
0.23912240564823151 0.47701442241668701 0.18122513592243195
0.39153549075126648 0.4990609884262085 0.1760808527469635
0.59661048650741577 0.5326077938079834 0.15737165510654449
0.78949630260467529 0.5796048641204834 0.1305769681930542
0.91082775592803955 0.62121391296386719 0.12686853110790253
0.9835619330406189 0.6645967960357666 0.17774072289466858
0.36668345332145691 0.70461410284042358 0.2151002436876297
0.40635189414024353 0.6957094669342041 0.21472074091434479
0.51211357116699219 0.69869434833526611 0.22524668276309967
0.657340407371521 0.71194303035736084 0.22067555785179138
0.79495859146118164 0.72995489835739136 0.21155698597431183
0.89548718929290771 0.74635159969329834 0.22240719199180603
0.96551418304443359 0.76610571146011353 0.26895967125892639
0.60654646158218384 0.82865560054779053 0.33850160241127014
0.61972123384475708 0.82429337501525879 0.33643558621406555
0.66705501079559326 0.82280987501144409 0.3471677303314209
0.73644876480102539 0.82654958963394165 0.35429826378822327
0.82053208351135254 0.83177638053894043 0.36825269460678101
0.89034187793731689 0.84202134609222412 0.37062346935272217
0.94950854778289795 0.85928928852081299 0.41466403007507324
0.80020487308502197 0.90967285633087158 0.49612864851951599
0.8030504584312439 0.90917754173278809 0.49363455176353455
0.81654256582260132 0.90623366832733154 0.49699434638023376
0.84233152866363525 0.9087364673614502 0.50543415546417236
0.87853139638900757 0.91361188888549805 0.51618462800979614
0.91054117679595947 0.91942703723907471 0.52320778369903564
0.94552457332611084 0.92853707075119019 0.53723263740539551
0.11403060704469681 0.12744325399398804 0.16354161500930786
0.13749904930591583 0.12639406323432922 0.15974675118923187
0.23268920183181763 0.12788334488868713 0.16712132096290588
0.44208294153213501 0.1280350387096405 0.18669688701629639
0.73341304063796997 0.20038861036300659 0.20880241692066193
0.93639141321182251 0.3766167163848877 0.2227608859539032
0.99941623210906982 0.54047226905822754 0.2666570246219635
0.12903326749801636 0.15501029789447784 0.17155267298221588
0.17124171555042267 0.162711501121521 0.17496570944786072
0.28451567888259888 0.17182885110378265 0.18209870159626007
0.48926940560340881 0.19192689657211304 0.19451725482940674
0.75350284576416016 0.27197703719139099 0.20507897436618805
0.93801420927047729 0.43350082635879517 0.22037474811077118
0.99849164485931396 0.57150673866271973 0.26717665791511536
0.1889740377664566 0.27549219131469727 0.19883313775062561
0.22518740594387054 0.28005227446556091 0.1981288343667984
0.34771078824996948 0.29845890402793884 0.19796772301197052
0.55726569890975952 0.33050987124443054 0.19211994111537933
0.77442574501037598 0.40014415979385376 0.18972091376781464
0.92920786142349243 0.52163827419281006 0.20619149506092072
0.99407202005386353 0.62175053358078003 0.26302534341812134
0.22268202900886536 0.49939858913421631 0.21138961613178253
0.28659027814865112 0.49413862824440002 0.21516816318035126
0.41697698831558228 0.50777465105056763 0.21485887467861176
0.61667662858963013 0.54420691728591919 0.20244474709033966
0.80051285028457642 0.58808439970016479 0.19324789941310883
0.91440057754516602 0.62460249662399292 0.19385525584220886
0.98351174592971802 0.67760694026947021 0.24558083713054657
0.41063886880874634 0.71110767126083374 0.25458750128746033
0.44902715086936951 0.70050889253616333 0.25783821940422058
0.5379301905632019 0.70230835676193237 0.26721736788749695
0.67468595504760742 0.71839445829391479 0.26886361837387085
0.80453330278396606 0.73410594463348389 0.26330780982971191
0.89863854646682739 0.75274217128753662 0.27165761590003967
0.9663766622543335 0.76845842599868774 0.3077319860458374
0.62895888090133667 0.8316417932510376 0.36644351482391357
0.64052587747573853 0.82574069499969482 0.36299702525138855
0.68782669305801392 0.82208192348480225 0.37605378031730652
0.74884426593780518 0.82876628637313843 0.38387408852577209
0.81797420978546143 0.83495771884918213 0.3937564492225647
0.89450764656066895 0.84491944313049316 0.398529052734375
0.95006042718887329 0.86005318164825439 0.43426570296287537
0.80581140518188477 0.90948021411895752 0.50327062606811523
0.80664962530136108 0.90685570240020752 0.50061887502670288
0.82473969459533691 0.90502595901489258 0.50736802816390991
0.84879481792449951 0.90906262397766113 0.5154566764831543
0.8790012001991272 0.91587382555007935 0.52239573001861572
0.91430991888046265 0.91933399438858032 0.5285789966583252
0.94698113203048706 0.92730975151062012 0.54018843173980713
0.11642459034919739 0.1366666704416275 0.20730312168598175
0.17462854087352753 0.14057880640029907 0.20607618987560272
0.25543117523193359 0.15725100040435791 0.20925332605838776
0.43999812006950378 0.14429539442062378 0.23753121495246887
0.74510151147842407 0.12601640820503235 0.2720828652381897
0.95642298460006714 0.34266221523284912 0.31360286474227905
0.99741441011428833 0.58007222414016724 0.38142716884613037
0.15345422923564911 0.17566518485546112 0.22734509408473969
0.20954927802085876 0.17859958112239838 0.22860226035118103
0.30817991495132446 0.19908976554870605 0.23435142636299133
0.50490391254425049 0.20586523413658142 0.25713285803794861
0.78039741516113281 0.26237484812736511 0.28609973192214966
0.94865983724594116 0.46788036823272705 0.33360984921455383
0.9966881275177002 0.62617665529251099 0.39030355215072632
0.2022845596075058 0.29299098253250122 0.25114017724990845
0.2630932629108429 0.30012369155883789 0.25600346922874451
0.3932950496673584 0.31820982694625854 0.2641235888004303
0.59997636079788208 0.36578813195228577 0.28034564852714539
0.8054049015045166 0.45455887913703918 0.30074232816696167
0.93041837215423584 0.5737839937210083 0.33641922473907471
0.9909558892250061 0.66419702768325806 0.38385495543479919
0.33324950933456421 0.52016115188598633 0.2899625301361084
0.38981050252914429 0.52270328998565674 0.29183650016784668
0.48652702569961548 0.52830904722213745 0.29194414615631104
0.64926862716674805 0.55935889482498169 0.2924143373966217
0.81217896938323975 0.59768998622894287 0.29253444075584412
0.917228102684021 0.64413678646087646 0.30793437361717224
0.98215049505233765 0.70382118225097656 0.36185958981513977
0.51685947179794312 0.72162348031997681 0.3417104184627533
0.52719438076019287 0.71461188793182373 0.33223116397857666
0.59301704168319702 0.71340769529342651 0.33761918544769287
0.70231622457504272 0.72605061531066895 0.34433591365814209
0.81277871131896973 0.74189472198486328 0.34679192304611206
0.90292048454284668 0.75670164823532104 0.35354182124137878
0.96790230274200439 0.7700461745262146 0.37373319268226624
0.67115622758865356 0.83392947912216187 0.41508015990257263
0.6785513162612915 0.83058589696884155 0.41276150941848755
0.71414750814437866 0.82601475715637207 0.42090943455696106
0.76939940452575684 0.83087062835693359 0.43076038360595703
0.83228844404220581 0.83978277444839478 0.43937110900878906
0.89813107252120972 0.84858435392379761 0.44536319375038147
0.95164769887924194 0.86195743083953857 0.46465453505516052
0.81413275003433228 0.91133111715316772 0.5157395601272583
0.8199501633644104 0.90869182348251343 0.51790952682495117
0.83135628700256348 0.90637749433517456 0.51965475082397461
0.85341227054595947 0.90881156921386719 0.52661645412445068
0.88405412435531616 0.9148179292678833 0.53539210557937622
0.92053663730621338 0.92016619443893433 0.54248106479644775
0.94980412721633911 0.92697817087173462 0.55007809400558472
0.17275653779506683 0.15361948311328888 0.29209697246551514
0.25238341093063354 0.1621018648147583 0.29722088575363159
0.38731470704078674 0.19876915216445923 0.30809414386749268
0.53636819124221802 0.25848639011383057 0.32682961225509644
0.74067014455795288 0.2511008083820343 0.36593794822692871
0.93974113464355469 0.35102355480194092 0.41747114062309265
0.99587589502334595 0.53967702388763428 0.44448012113571167
0.21275103092193604 0.20578674972057343 0.32161742448806763
0.28563261032104492 0.2127494215965271 0.32294508814811707
0.43294063210487366 0.25668898224830627 0.33100894093513489
0.58558171987533569 0.33120822906494141 0.34924069046974182
0.76740419864654541 0.33526179194450378 0.38234233856201172
0.94032007455825806 0.44394436478614807 0.42572948336601257
0.99754881858825684 0.60108774900436401 0.45969057083129883
0.22554762661457062 0.34354758262634277 0.34621220827102661
0.29990389943122864 0.34595978260040283 0.35159829258918762
0.48061862587928772 0.37439700961112976 0.36552694439888
0.65318948030471802 0.45650097727775574 0.37902370095252991
0.8060193657875061 0.48266306519508362 0.40603506565093994
0.93308520317077637 0.58367013931274414 0.43949216604232788
0.98421317338943481 0.69750595092773438 0.48291200399398804
0.35731574892997742 0.54430192708969116 0.37892630696296692
0.40986210107803345 0.53553140163421631 0.37478512525558472
0.54121071100234985 0.55402004718780518 0.38940244913101196
0.69541317224502563 0.58665221929550171 0.40122559666633606
0.83151805400848389 0.63861608505249023 0.42311102151870728
0.9178280234336853 0.7050178050994873 0.45390403270721436
0.97250604629516602 0.75801676511764526 0.48527917265892029
0.56100428104400635 0.72796082496643066 0.42372500896453857
0.58816289901733398 0.72233903408050537 0.42302849888801575
0.66247820854187012 0.7244991660118103 0.42847204208374023
0.74407529830932617 0.7339598536491394 0.43667250871658325
0.83087015151977539 0.7491869330406189 0.43756723403930664
0.90737617015838623 0.76232421398162842 0.44363850355148315
0.96620970964431763 0.78527802228927612 0.45899316668510437
0.72770100831985474 0.83811265230178833 0.47927874326705933
0.73405396938323975 0.83376795053482056 0.47714072465896606
0.76169902086257935 0.83442050218582153 0.48101350665092468
0.79818856716156006 0.83894950151443481 0.48504608869552612
0.8477780818939209 0.84544438123703003 0.48618441820144653
0.90195971727371216 0.85211676359176636 0.49350908398628235
0.95347434282302856 0.86542278528213501 0.50720036029815674
0.83516806364059448 0.91285276412963867 0.53934472799301147
0.83478599786758423 0.90931922197341919 0.53670215606689453
0.84725266695022583 0.91154754161834717 0.54299747943878174
0.86723786592483521 0.91365349292755127 0.5469164252281189
0.8948865532875061 0.91778689622879028 0.55540317296981812
0.92394900321960449 0.92110252380371094 0.55653917789459229
0.95469075441360474 0.93045604228973389 0.56720685958862305
0.32359936833381653 0.19339913129806519 0.4433283805847168
0.41005763411521912 0.20596067607402802 0.44942647218704224
0.56758612394332886 0.25381723046302795 0.45973241329193115
0.73206984996795654 0.4013516902923584 0.47364044189453125
0.83582186698913574 0.5106276273727417 0.49099200963973999
0.91812294721603394 0.51407027244567871 0.50359374284744263
0.99037688970565796 0.59704267978668213 0.52451479434967041
0.34916985034942627 0.26219338178634644 0.46664741635322571
0.43369811773300171 0.27570268511772156 0.46670091152191162
0.59701007604598999 0.33184513449668884 0.47548571228981018
0.7525290846824646 0.47134003043174744 0.48454141616821289
0.84252101182937622 0.57006186246871948 0.49868673086166382
0.91225230693817139 0.56723421812057495 0.5077824592590332
0.98536801338195801 0.6380426287651062 0.52913212776184082
0.36297830939292908 0.42718333005905151 0.48151353001594543
0.44035166501998901 0.42186477780342102 0.48327386379241943
0.60723567008972168 0.45737683773040771 0.49151936173439026
0.76310920715332031 0.56843990087509155 0.49714741110801697
0.84968024492263794 0.65155965089797974 0.50766181945800781
0.913277268409729 0.65326124429702759 0.51632893085479736
0.97653520107269287 0.70121210813522339 0.53420364856719971
0.38854405283927917 0.59621971845626831 0.48410776257514954
0.44069144129753113 0.5871008038520813 0.48177391290664673
0.57879185676574707 0.59545552730560303 0.48788884282112122
0.75599652528762817 0.65055608749389648 0.50717318058013916
0.85005122423171997 0.71640539169311523 0.51425516605377197
0.91222435235977173 0.72809833288192749 0.52573180198669434
0.96734535694122314 0.77213138341903687 0.54253798723220825
0.57002675533294678 0.73583483695983887 0.49866160750389099
0.60066890716552734 0.73368728160858154 0.49552270770072937
0.66798293590545654 0.73501461744308472 0.49666830897331238
0.76611584424972534 0.74776309728622437 0.51081591844558716
0.84620767831802368 0.76802206039428711 0.51870918273925781
0.91173166036605835 0.79625672101974487 0.52995198965072632
0.96042144298553467 0.83014315366744995 0.5464136004447937
0.72694474458694458 0.83911806344985962 0.52084040641784668
0.74090242385864258 0.83556294441223145 0.52230751514434814
0.7750973105430603 0.83614003658294678 0.52415758371353149
0.82005995512008667 0.84642624855041504 0.53749716281890869
0.86341995000839233 0.85263580083847046 0.53946751356124878
0.90961533784866333 0.85973340272903442 0.54093492031097412
0.95629256963729858 0.87485247850418091 0.54776263236999512
0.84157282114028931 0.91276407241821289 0.5602346658706665
0.84720158576965332 0.91242098808288574 0.5617789626121521
0.85665047168731689 0.91120952367782593 0.56264102458953857
0.87549334764480591 0.91356378793716431 0.56960511207580566
0.90062326192855835 0.91843140125274658 0.57418918609619141
0.92982620000839233 0.92498689889907837 0.57982414960861206
0.95755398273468018 0.93309652805328369 0.58548414707183838
0.58847850561141968 0.3269084095954895 0.59802699089050293
0.64746814966201782 0.35260686278343201 0.59484124183654785
0.75325232744216919 0.43106791377067566 0.59215468168258667
0.84961593151092529 0.56633502244949341 0.58631312847137451
0.89690130949020386 0.70990926027297974 0.57373321056365967
0.93136292695999146 0.73583400249481201 0.57424867153167725
0.96314531564712524 0.73078733682632446 0.57560038566589355
0.59238612651824951 0.41355225443840027 0.59658288955688477
0.65142416954040527 0.43155825138092041 0.5925937294960022
0.75468534231185913 0.49758037924766541 0.59091675281524658
0.8485756516456604 0.61487555503845215 0.58458960056304932
0.89866286516189575 0.73073273897171021 0.57549172639846802
0.92936605215072632 0.76056492328643799 0.57555305957794189
0.96611756086349487 0.75730496644973755 0.57767891883850098
0.58184671401977539 0.53248840570449829 0.5924144983291626
0.62935489416122437 0.53886252641677856 0.58866661787033081
0.74181795120239258 0.58471620082855225 0.58591151237487793
0.84190678596496582 0.6762126088142395 0.57957488298416138
0.89587461948394775 0.75823312997817993 0.57628977298736572
0.92681729793548584 0.79025042057037354 0.57656300067901611
0.9598889946937561 0.78497755527496338 0.57935577630996704
0.5318184494972229 0.66180431842803955 0.5765112042427063
0.59026837348937988 0.65929663181304932 0.57451272010803223
0.70763969421386719 0.67368042469024658 0.57780879735946655
0.82010102272033691 0.71919220685958862 0.5767441987991333
0.89208948612213135 0.78940623998641968 0.57797479629516602
0.92462122440338135 0.82112115621566772 0.57821172475814819
0.95828640460968018 0.8166201114654541 0.58185648918151855
0.60885655879974365 0.7619132399559021 0.5661119818687439
0.62860310077667236 0.7551538348197937 0.56532043218612671
0.68892717361450195 0.75539082288742065 0.56535178422927856
0.77430343627929688 0.7637820839881897 0.56811857223510742
0.87330704927444458 0.80522924661636353 0.57597947120666504
0.92572730779647827 0.84807318449020386 0.5808943510055542
0.95669186115264893 0.85139042139053345 0.58218908309936523
0.73629611730575562 0.8446500301361084 0.56875240802764893
0.7485424280166626 0.84466111660003662 0.5695006251335144
0.77499586343765259 0.84220099449157715 0.56569266319274902
0.82608318328857422 0.84899049997329712 0.57776200771331787
0.87761408090591431 0.85861510038375854 0.58109551668167114
0.92091721296310425 0.87181049585342407 0.58088845014572144
0.95931082963943481 0.89127868413925171 0.58683913946151733
0.84131467342376709 0.91551870107650757 0.58390796184539795
0.8460509181022644 0.91650658845901489 0.58308464288711548
0.85906600952148438 0.91638898849487305 0.58393150568008423
0.88055908679962158 0.91632992029190063 0.59333795309066772
0.90696865320205688 0.9214056134223938 0.60266673564910889
0.934040367603302 0.92604702711105347 0.6064295768737793
0.96078634262084961 0.93661940097808838 0.61007004976272583
0.79650014638900757 0.62708675861358643 0.645588219165802
0.81690531969070435 0.641754150390625 0.64128285646438599
0.85701262950897217 0.68292474746704102 0.63640892505645752
0.90009456872940063 0.74317485094070435 0.62865060567855835
0.92925643920898438 0.80501991510391235 0.61850959062576294
0.95228999853134155 0.85419398546218872 0.61439496278762817
0.96636283397674561 0.85950994491577148 0.61441463232040405
0.80079495906829834 0.6644597053527832 0.64293777942657471
0.817405104637146 0.67517656087875366 0.63975602388381958
0.85832607746124268 0.71167665719985962 0.63420337438583374
0.89744663238525391 0.7607690691947937 0.62750744819641113
0.93072420358657837 0.81705868244171143 0.61934781074523926
0.95103716850280762 0.85890501737594604 0.61465907096862793
0.9658169150352478 0.86732673645019531 0.61519426107406616
0.79085922241210938 0.70604181289672852 0.6387174129486084
0.81174701452255249 0.71695870161056519 0.63520711660385132
0.85114568471908569 0.74595242738723755 0.63061308860778809
0.8947179913520813 0.78605729341506958 0.62400311231613159
0.93042629957199097 0.83442205190658569 0.61970257759094238
0.95167607069015503 0.87086093425750732 0.6159173846244812
0.96412986516952515 0.87885487079620361 0.61644446849822998
0.76730763912200928 0.76007330417633057 0.62910163402557373
0.78687751293182373 0.75821346044540405 0.62851762771606445
0.82901573181152344 0.77230453491210938 0.62621170282363892
0.88095682859420776 0.80586957931518555 0.62406545877456665
0.92624253034591675 0.84786832332611084 0.6205790638923645
0.94999790191650391 0.88081145286560059 0.61884629726409912
0.96381568908691406 0.89417469501495361 0.61897927522659302
0.70935720205307007 0.80303722620010376 0.62092286348342896
0.72476804256439209 0.80032330751419067 0.62095320224761963
0.77072679996490479 0.80413138866424561 0.61945044994354248
0.84298336505889893 0.82066947221755981 0.62128067016601562
0.90699321031570435 0.85298818349838257 0.61994576454162598
0.94476717710494995 0.89000052213668823 0.6197439432144165
0.96285384893417358 0.90949302911758423 0.62426882982254028
0.78499132394790649 0.86836785078048706 0.61878412961959839
0.78529906272888184 0.86480820178985596 0.61682224273681641
0.81003117561340332 0.86762386560440063 0.61817640066146851
0.83923792839050293 0.86540728807449341 0.61726194620132446
0.8809208869934082 0.87239986658096313 0.61665421724319458
0.94039857387542725 0.90536350011825562 0.62474459409713745
0.96203577518463135 0.92748677730560303 0.63105791807174683
0.85872358083724976 0.92756181955337524 0.62483090162277222
0.86307024955749512 0.92763686180114746 0.62613534927368164
0.87191128730773926 0.92767965793609619 0.62743997573852539
0.88924992084503174 0.92650097608566284 0.63030725717544556
0.91406804323196411 0.93287736177444458 0.63500159978866577
0.94033414125442505 0.93815833330154419 0.63928705453872681
0.96300530433654785 0.94970977306365967 0.64708274602890015
