luts/instant_consumer/polaroid_px-680_cold_+.cube
# Created by: G'MIC (https://gmic.eu)
TITLE "polaroid_px-680_cold_+"
# LUT size
LUT_3D_SIZE 13
# Data domain
DOMAIN_MIN 0.0 0.0 0.0
DOMAIN_MAX 1.0 1.0 1.0
# LUT data points
0.038663960993289948 0.20751115679740906 0.26061326265335083
0.039393406361341476 0.20834369957447052 0.26059049367904663
0.051959678530693054 0.20866400003433228 0.25923585891723633
0.088574878871440887 0.20758219063282013 0.25882354378700256
0.14705212414264679 0.20777693390846252 0.25882354378700256
0.23131012916564941 0.21022243797779083 0.25882354378700256
0.36229583621025085 0.21754921972751617 0.25882354378700256
0.52165013551712036 0.2303491085767746 0.25735536217689514
0.68072468042373657 0.25132104754447937 0.25394952297210693
0.79989498853683472 0.30208906531333923 0.24756543338298798
0.88101446628570557 0.36589023470878601 0.24395444989204407
0.94230473041534424 0.43146932125091553 0.24824555218219757
0.98051780462265015 0.48334091901779175 0.26753947138786316
0.036476150155067444 0.21166491508483887 0.2603553831577301
0.039751015603542328 0.21579426527023315 0.2603553831577301
0.056916076689958572 0.21833036839962006 0.25941574573516846
0.099712848663330078 0.21578574180603027 0.25882354378700256
0.15707656741142273 0.21301789581775665 0.25882354378700256
0.24582067131996155 0.21722173690795898 0.25882354378700256
0.37721610069274902 0.23074708878993988 0.25780993700027466
0.53875094652175903 0.24948622286319733 0.25476068258285522
0.69092053174972534 0.27608391642570496 0.25105124711990356
0.80475479364395142 0.3262573778629303 0.24469351768493652
0.88100868463516235 0.38570806384086609 0.24479547142982483
0.94113987684249878 0.44571167230606079 0.25019598007202148
0.98174387216567993 0.49714264273643494 0.27098825573921204
0.029118362814188004 0.22016757726669312 0.25920063257217407
0.031297884881496429 0.22642287611961365 0.25969666242599487
0.054994426667690277 0.22877222299575806 0.2598150372505188
0.10616201907396317 0.22759923338890076 0.25885924696922302
0.17758610844612122 0.22755981981754303 0.25882354378700256
0.27371177077293396 0.23731987178325653 0.25865784287452698
0.40942299365997314 0.25784128904342651 0.25554898381233215
0.56161224842071533 0.28077703714370728 0.25158151984214783
0.69505339860916138 0.31337249279022217 0.24644771218299866
0.80622172355651855 0.36218658089637756 0.2399427592754364
0.88225317001342773 0.41339358687400818 0.2425081729888916
0.93949884176254272 0.4697517454624176 0.25060459971427917
0.97882962226867676 0.51721024513244629 0.27204170823097229
0.010383561253547668 0.2398170679807663 0.25882354378700256
0.011433291248977184 0.24243706464767456 0.25893914699554443
0.039978910237550735 0.24666291475296021 0.25986656546592712
0.10338311642408371 0.25196108222007751 0.2594141960144043
0.19022387266159058 0.26483118534088135 0.25852754712104797
0.30647638440132141 0.28169059753417969 0.25554797053337097
0.43730995059013367 0.29904311895370483 0.25137075781822205
0.57107484340667725 0.32661375403404236 0.24485257267951965
0.69544684886932373 0.36227229237556458 0.23854905366897583
0.80461591482162476 0.40713700652122498 0.23286227881908417
0.87786811590194702 0.45360004901885986 0.23825559020042419
0.9354555606842041 0.49716141819953918 0.24900645017623901
0.9747697114944458 0.53869670629501343 0.27100899815559387
0.0003596436872612685 0.28870627284049988 0.25884529948234558
0.0024710262659937143 0.29113098978996277 0.25868040323257446
0.013561503030359745 0.29417616128921509 0.25898939371109009
0.079008810222148895 0.30638217926025391 0.25807112455368042
0.19215044379234314 0.32509532570838928 0.25507095456123352
0.3216865062713623 0.34986385703086853 0.24986942112445831
0.46556916832923889 0.37934288382530212 0.24213318526744843
0.58710622787475586 0.39267808198928833 0.23573364317417145
0.70225769281387329 0.4182855486869812 0.22974018752574921
0.80280607938766479 0.4563901424407959 0.22559666633605957
0.86793279647827148 0.48898637294769287 0.23509784042835236
0.92122936248779297 0.52397465705871582 0.24670577049255371
0.9670560359954834 0.56166934967041016 0.26756405830383301
0 0.37099900841712952 0.25629213452339172
0.0010793049586936831 0.36520349979400635 0.25710973143577576
0.0049815159291028976 0.37099045515060425 0.2579227089881897
0.032181698828935623 0.38017669320106506 0.25601741671562195
0.16463470458984375 0.40029421448707581 0.25162070989608765
0.31566515564918518 0.42684242129325867 0.24567259848117828
0.47887882590293884 0.46106606721878052 0.2351430356502533
0.60761749744415283 0.48314574360847473 0.22793267667293549
0.71421521902084351 0.49838647246360779 0.22236603498458862
0.79499095678329468 0.51179784536361694 0.22229896485805511
0.85883784294128418 0.52850186824798584 0.22732220590114594
0.91170376539230347 0.55504965782165527 0.24198822677135468
0.96056044101715088 0.58863848447799683 0.26786220073699951
0 0.45373240113258362 0.25368174910545349
1.1848001122416463e-05 0.45747309923171997 0.2562444806098938
0.0029507356230169535 0.46060958504676819 0.25689238309860229
0.0070183547213673592 0.4666876494884491 0.25445297360420227
0.12091103196144104 0.48127985000610352 0.2504006028175354
0.29983264207839966 0.50225889682769775 0.24632784724235535
0.45785173773765564 0.52555453777313232 0.23814032971858978
0.60674232244491577 0.55638015270233154 0.2296668142080307
0.71977955102920532 0.5750051736831665 0.22885516285896301
0.79328793287277222 0.57900017499923706 0.23000836372375488
0.85264259576797485 0.5813862681388855 0.23363722860813141
0.90358805656433105 0.59331232309341431 0.24391695857048035
0.95318198204040527 0.61767888069152832 0.26626315712928772
0 0.53453344106674194 0.25630673766136169
9.0580360847525299e-05 0.53805333375930786 0.25971949100494385
0.001057164859957993 0.53839880228042603 0.26046931743621826
0.0042395945638418198 0.54315018653869629 0.25777328014373779
0.092492841184139252 0.55400139093399048 0.25433337688446045
0.2934536337852478 0.57027721405029297 0.25270506739616394
0.44127035140991211 0.58339005708694458 0.24909493327140808
0.57867902517318726 0.60365700721740723 0.24815618991851807
0.70478236675262451 0.63228112459182739 0.24518047273159027
0.79127806425094604 0.64410686492919922 0.25031489133834839
0.8495790958404541 0.64568150043487549 0.25506463646888733
0.89910590648651123 0.64994674921035767 0.26687663793563843
0.94652044773101807 0.66088134050369263 0.28586089611053467
0.00079559627920389175 0.61276811361312866 0.26108089089393616
0.0033811083994805813 0.60883373022079468 0.2662198543548584
0.0035897947382181883 0.60715591907501221 0.26730543375015259
0.0042776968330144882 0.6100659966468811 0.26470100879669189
0.11075719445943832 0.61748379468917847 0.26409655809402466
0.30375474691390991 0.63000142574310303 0.26597180962562561
0.44823798537254333 0.64246392250061035 0.26828292012214661
0.56681793928146362 0.65427035093307495 0.27009731531143188
0.67881160974502563 0.6701539158821106 0.27450400590896606
0.78020268678665161 0.69196516275405884 0.28394323587417603
0.84991544485092163 0.70335036516189575 0.29542937874794006
0.89990288019180298 0.70623499155044556 0.31298762559890747
0.93809771537780762 0.70790183544158936 0.33109232783317566
0.004666945431381464 0.67238795757293701 0.2770821750164032
0.0043221120722591877 0.66925805807113647 0.27809855341911316
0.0077176261693239212 0.66679298877716064 0.27612555027008057
0.062762901186943054 0.67110228538513184 0.27644768357276917
0.20922629535198212 0.67381757497787476 0.28297105431556702
0.34792068600654602 0.67955881357192993 0.28876981139183044
0.46776899695396423 0.68713819980621338 0.29439830780029297
0.57366418838500977 0.69707399606704712 0.30319148302078247
0.67209351062774658 0.7084161639213562 0.31342056393623352
0.76022255420684814 0.7224997878074646 0.32275426387786865
0.8348395824432373 0.73689264059066772 0.34042584896087646
0.89927119016647339 0.75075834989547729 0.36508476734161377
0.93194615840911865 0.7524486780166626 0.38350272178649902
0.10388162732124329 0.72645848989486694 0.30131280422210693
0.12063531577587128 0.72438144683837891 0.30101075768470764
0.16795960068702698 0.7218174934387207 0.30214351415634155
0.25515788793563843 0.72244232892990112 0.30788138508796692
0.34202420711517334 0.72352582216262817 0.31881159543991089
0.42964866757392883 0.72663486003875732 0.32948207855224609
0.51953011751174927 0.73107451200485229 0.33601361513137817
0.60184699296951294 0.73853737115859985 0.3495573103427887
0.68680292367935181 0.7479557991027832 0.36329972743988037
0.76235896348953247 0.75633376836776733 0.3722987174987793
0.82446587085723877 0.7656017541885376 0.38883292675018311
0.88082057237625122 0.77676141262054443 0.41167396306991577
0.92900776863098145 0.78728300333023071 0.43753513693809509
0.36453241109848022 0.77361577749252319 0.35582712292671204
0.37048324942588806 0.77183753252029419 0.35683372616767883
0.38747456669807434 0.76907271146774292 0.36067667603492737
0.42689463496208191 0.76901447772979736 0.36511218547821045
0.48112642765045166 0.77004808187484741 0.37762230634689331
0.53883212804794312 0.77242356538772583 0.39112171530723572
0.60009801387786865 0.77585005760192871 0.39618098735809326
0.6638215184211731 0.78206026554107666 0.41101595759391785
0.72961670160293579 0.78859388828277588 0.42540222406387329
0.78535175323486328 0.79401195049285889 0.43909218907356262
0.83900231122970581 0.79945594072341919 0.46102732419967651
0.88010537624359131 0.80487644672393799 0.47765347361564636
0.91859543323516846 0.81129270792007446 0.49199458956718445
0.56161463260650635 0.81870025396347046 0.43671274185180664
0.56552928686141968 0.81747585535049438 0.43836480379104614
0.5765264630317688 0.81670308113098145 0.44108539819717407
0.59550106525421143 0.81592756509780884 0.44352641701698303
0.62807309627532959 0.81575196981430054 0.4544588029384613
0.66509997844696045 0.8183254599571228 0.46759521961212158
0.70079869031906128 0.81932556629180908 0.47766613960266113
0.74346321821212769 0.82259416580200195 0.49175599217414856
0.78474193811416626 0.82541573047637939 0.50546860694885254
0.82562214136123657 0.82883983850479126 0.52104312181472778
0.86480152606964111 0.83257496356964111 0.54078048467636108
0.8962475061416626 0.83606213331222534 0.55495977401733398
0.92660403251647949 0.84074431657791138 0.57279384136199951
0.035788681358098984 0.20939366519451141 0.265951007604599
0.041510950773954391 0.20958678424358368 0.2647588849067688
0.056305665522813797 0.20930109918117523 0.26271957159042358
0.093137331306934357 0.20819148421287537 0.26095959544181824
0.1485464870929718 0.20833508670330048 0.25963756442070007
0.23652666807174683 0.21117614209651947 0.26014241576194763
0.36863148212432861 0.2177567332983017 0.26018190383911133
0.53858387470245361 0.23344801366329193 0.26217103004455566
0.69180053472518921 0.26291361451148987 0.26115867495536804
0.80643725395202637 0.31128731369972229 0.26140955090522766
0.88403314352035522 0.37472891807556152 0.26236936450004578
0.94181329011917114 0.43910583853721619 0.27086862921714783
0.98174440860748291 0.49356454610824585 0.29162260890007019
0.033662654459476471 0.21301358938217163 0.26351484656333923
0.040726471692323685 0.2166483998298645 0.26326575875282288
0.061452858150005341 0.21771641075611115 0.26262480020523071
0.10296204686164856 0.21445499360561371 0.26027894020080566
0.16029247641563416 0.21342089772224426 0.25952243804931641
0.25167751312255859 0.21906059980392456 0.26016479730606079
0.38723909854888916 0.2340838611125946 0.26005139946937561
0.55166423320770264 0.25622710585594177 0.26010850071907043
0.70043492317199707 0.28771588206291199 0.2599828839302063
0.81027746200561523 0.33601236343383789 0.26238840818405151
0.88390392065048218 0.39538854360580444 0.26419556140899658
0.94146746397018433 0.45556652545928955 0.27433231472969055
0.98065423965454102 0.5072435736656189 0.29734668135643005
0.0269496850669384 0.22134122252464294 0.26234328746795654
0.035023901611566544 0.22810645401477814 0.26320111751556396
0.064807325601577759 0.23013204336166382 0.26329165697097778
0.11094313859939575 0.22977417707443237 0.26190292835235596
0.18197627365589142 0.23352552950382233 0.260793536901474
0.28119298815727234 0.24376662075519562 0.25968891382217407
0.42167088389396667 0.26518318057060242 0.25804424285888672
0.57316648960113525 0.28817325830459595 0.2556157112121582
0.70879155397415161 0.32281553745269775 0.2544867992401123
0.81459230184555054 0.3710172176361084 0.25425881147384644
0.88564068078994751 0.42198693752288818 0.25951689481735229
0.93910020589828491 0.47551757097244263 0.27474850416183472
0.97833782434463501 0.52675950527191162 0.30015796422958374
0.0092644486576318741 0.2417885959148407 0.26091358065605164
0.018045732751488686 0.24537909030914307 0.26174876093864441
0.048585586249828339 0.25407728552818298 0.26341885328292847
0.11298161000013351 0.25816860795021057 0.26320543885231018
0.20124664902687073 0.27092486619949341 0.2617744505405426
0.31571254134178162 0.29023003578186035 0.25987759232521057
0.45473429560661316 0.30847266316413879 0.2568666934967041
0.59161043167114258 0.33099117875099182 0.25036680698394775
0.7108994722366333 0.36763474345207214 0.24709738790988922
0.81258416175842285 0.41115781664848328 0.24737532436847687
0.87865978479385376 0.45794379711151123 0.25753867626190186
0.93274950981140137 0.50174409151077271 0.27255463600158691
0.97311234474182129 0.54645633697509766 0.29676985740661621
0.000338101846864447 0.30059528350830078 0.26307195425033569
0.0031587788835167885 0.2990419864654541 0.262917160987854
0.016474001109600067 0.29883900284767151 0.26341697573661804
0.083616234362125397 0.31292372941970825 0.26209345459938049
0.2036033421754837 0.33043619990348816 0.25978440046310425
0.33714881539344788 0.35413309931755066 0.25557297468185425
0.47993972897529602 0.38071766495704651 0.24987979233264923
0.60232102870941162 0.39402991533279419 0.24335357546806335
0.70710235834121704 0.42562806606292725 0.24146553874015808
0.80417561531066895 0.46077463030815125 0.24331776797771454
0.8685033917427063 0.49590831995010376 0.25513795018196106
0.92258024215698242 0.53181594610214233 0.26795884966850281
0.96809238195419312 0.56933307647705078 0.28975200653076172
3.5544002457754686e-05 0.38086560368537903 0.26341822743415833
0.0025550243444740772 0.37674039602279663 0.26399135589599609
0.0059532313607633114 0.37828266620635986 0.26321566104888916
0.037788718938827515 0.3876798152923584 0.2616848349571228
0.18281671404838562 0.4091460108757019 0.25889348983764648
0.33416205644607544 0.43348249793052673 0.25349587202072144
0.49355781078338623 0.46628555655479431 0.24488943815231323
0.61419761180877686 0.48455542325973511 0.24136669933795929
0.71345299482345581 0.50140750408172607 0.23806469142436981
0.79803913831710815 0.5161551833152771 0.23977743089199066
0.86036521196365356 0.53494173288345337 0.24913398921489716
0.91344034671783447 0.56316262483596802 0.26324242353439331
0.96149998903274536 0.59478271007537842 0.28861191868782043
0 0.46268379688262939 0.26229709386825562
0.0002866408322006464 0.46128147840499878 0.263506680727005
0.0020966473966836929 0.46506983041763306 0.26411959528923035
0.0077640758827328682 0.47149261832237244 0.26228490471839905
0.13781800866127014 0.48819372057914734 0.25923803448677063
0.31804570555686951 0.5082848072052002 0.25604802370071411
0.47335904836654663 0.53113216161727905 0.25076335668563843
0.61808323860168457 0.56256198883056641 0.24414259195327759
0.72255545854568481 0.58045393228530884 0.24034892022609711
0.79485434293746948 0.58520746231079102 0.24516318738460541
0.85515445470809937 0.58899956941604614 0.25303542613983154
0.90570056438446045 0.59828966856002808 0.25943118333816528
0.95463651418685913 0.62326902151107788 0.28688311576843262
0.00020104202849324793 0.54206281900405884 0.2643837034702301
0.0012269412400200963 0.5390927791595459 0.26768279075622559
0.0014362859074026346 0.54156899452209473 0.26850408315658569
0.0041954638436436653 0.5471460223197937 0.2663237452507019
0.11201264709234238 0.55913180112838745 0.26378819346427917
0.30884465575218201 0.57596462965011597 0.26365453004837036
0.46059948205947876 0.59141349792480469 0.26270347833633423
0.594127357006073 0.61320292949676514 0.26166644692420959
0.71622347831726074 0.63937032222747803 0.26083141565322876
0.79493516683578491 0.64951014518737793 0.26580780744552612
0.85388493537902832 0.65312868356704712 0.27254298329353333
0.90029436349868774 0.65173137187957764 0.28512471914291382
0.94345122575759888 0.65957164764404297 0.30199441313743591
0.0018235599854961038 0.6116870641708374 0.27256253361701965
0.0039968453347682953 0.60895711183547974 0.27510556578636169
0.0041556116193532944 0.6099887490272522 0.27505356073379517
0.0079495301470160484 0.61351436376571655 0.27205392718315125
0.14434875547885895 0.6222267746925354 0.27481281757354736
0.32030045986175537 0.63546961545944214 0.27953323721885681
0.46227163076400757 0.64767938852310181 0.28140124678611755
0.58136516809463501 0.66054493188858032 0.28577479720115662
0.69475710391998291 0.67599284648895264 0.29225081205368042
0.78526383638381958 0.69426906108856201 0.30205300450325012
0.85187608003616333 0.70424479246139526 0.31410178542137146
0.89925622940063477 0.70542770624160767 0.32880717515945435
0.93686312437057495 0.70812594890594482 0.34486481547355652
0.0030029895715415478 0.67287081480026245 0.2862912118434906
0.0041886125691235065 0.66990196704864502 0.28535169363021851
0.015307018533349037 0.67020756006240845 0.28327503800392151
0.096072345972061157 0.67508143186569214 0.28591954708099365
0.24277471005916595 0.67768090963363647 0.29392915964126587
0.37219548225402832 0.6855471134185791 0.30174767971038818
0.48134592175483704 0.69102728366851807 0.30715453624725342
0.58448225259780884 0.69947540760040283 0.31683984398841858
0.68294245004653931 0.7102925181388855 0.32805392146110535
0.76956933736801147 0.72490531206130981 0.34040871262550354
0.84180855751037598 0.73947471380233765 0.35808229446411133
0.89942651987075806 0.75081813335418701 0.37944316864013672
0.93345338106155396 0.75504636764526367 0.39827555418014526
0.13276606798171997 0.7283281683921814 0.31036028265953064
0.14942638576030731 0.72614026069641113 0.3108004629611969
0.20016762614250183 0.72459852695465088 0.31263318657875061
0.27560338377952576 0.7243916392326355 0.31987491250038147
0.35871991515159607 0.72438734769821167 0.33169957995414734
0.44757881760597229 0.72908174991607666 0.34365081787109375
0.53089433908462524 0.73412960767745972 0.34850233793258667
0.61379092931747437 0.74111413955688477 0.36080196499824524
0.69543325901031494 0.74880349636077881 0.37483957409858704
0.76676982641220093 0.75678330659866333 0.38544958829879761
0.83015537261962891 0.76747286319732666 0.40121656656265259
0.88524705171585083 0.77881878614425659 0.42458519339561462
0.92713421583175659 0.78665953874588013 0.44928258657455444
0.37555438280105591 0.77449512481689453 0.36283203959465027
0.38376522064208984 0.7727246880531311 0.36595296859741211
0.40571683645248413 0.77106195688247681 0.37159353494644165
0.4414098858833313 0.7709919810295105 0.38267004489898682
0.49354058504104614 0.77051198482513428 0.39128571748733521
0.55029946565628052 0.77365106344223022 0.40189680457115173
0.61088252067565918 0.7786678671836853 0.4078478217124939
0.67328900098800659 0.78411865234375 0.42106279730796814
0.73462092876434326 0.78906118869781494 0.43527790904045105
0.78753513097763062 0.79402327537536621 0.44880908727645874
0.83937501907348633 0.79957461357116699 0.46521410346031189
0.88018858432769775 0.80478960275650024 0.48264250159263611
0.91989016532897949 0.81130826473236084 0.50033873319625854
0.56826537847518921 0.81960183382034302 0.44313246011734009
0.57115203142166138 0.81792712211608887 0.44361972808837891
0.58214688301086426 0.81601095199584961 0.44630181789398193
0.60177165269851685 0.81719958782196045 0.4534604549407959
0.6346403956413269 0.81664419174194336 0.46215575933456421
0.66618466377258301 0.81800442934036255 0.4725949764251709
0.70532304048538208 0.82034862041473389 0.48356172442436218
0.74772512912750244 0.82303047180175781 0.49699395895004272
0.78838956356048584 0.82584929466247559 0.50974857807159424
0.82507729530334473 0.82820779085159302 0.52497392892837524
0.86389696598052979 0.83171278238296509 0.54300147294998169
0.89699143171310425 0.83642756938934326 0.56259232759475708
0.92832881212234497 0.84151369333267212 0.58030575513839722
0.030793238431215286 0.21171997487545013 0.27234172821044922
0.042373448610305786 0.21140220761299133 0.26998978853225708
0.057750910520553589 0.20943665504455566 0.26558950543403625
0.091075405478477478 0.20794761180877686 0.26362350583076477
0.15143530070781708 0.20801675319671631 0.2655244767665863
0.24379450082778931 0.20866753160953522 0.26824992895126343
0.38638526201248169 0.20696939527988434 0.27025216817855835
0.5599740743637085 0.2222960889339447 0.27395433187484741
0.7057308554649353 0.26107046008110046 0.28069397807121277
0.81265449523925781 0.32237675786018372 0.29059752821922302
0.88709956407546997 0.39100849628448486 0.29771554470062256
0.94143182039260864 0.45558366179466248 0.30770149827003479
0.98175472021102905 0.51241755485534668 0.32939362525939941
0.029931521043181419 0.21378721296787262 0.26857107877731323
0.042603526264429092 0.21631954610347748 0.26857548952102661
0.06290697306394577 0.21704643964767456 0.26676064729690552
0.10098493844270706 0.21422192454338074 0.26458117365837097
0.16629298031330109 0.21494728326797485 0.26637247204780579
0.26531732082366943 0.21853561699390411 0.26996141672134399
0.41186609864234924 0.2241566926240921 0.27248832583427429
0.57297384738922119 0.250049889087677 0.27535328269004822
0.71417838335037231 0.29342490434646606 0.28342446684837341
0.81835782527923584 0.34812512993812561 0.29242879152297974
0.88869452476501465 0.41089993715286255 0.29890438914299011
0.94021821022033691 0.4707581102848053 0.31136694550514221
0.9803881049156189 0.5244860053062439 0.33345293998718262
0.026617670431733131 0.22022105753421783 0.26615926623344421
0.041128061711788177 0.22810365259647369 0.26958048343658447
0.071611396968364716 0.22963842749595642 0.2691752016544342
0.11578737199306488 0.22909587621688843 0.2674594521522522
0.19715449213981628 0.23848237097263336 0.27013576030731201
0.30358394980430603 0.24704186618328094 0.27315738797187805
0.44302454590797424 0.25990453362464905 0.27339097857475281
0.59130167961120605 0.28945755958557129 0.27655872702598572
0.72252029180526733 0.33235052227973938 0.28089436888694763
0.82077336311340332 0.38446044921875 0.28690674901008606
0.88831847906112671 0.43759411573410034 0.29535356163978577
0.93803787231445312 0.48919165134429932 0.31101334095001221
0.97954809665679932 0.54025709629058838 0.33552649617195129
0.015213042497634888 0.24789643287658691 0.26935258507728577
0.032418686896562576 0.2483208179473877 0.27051341533660889
0.070837162435054779 0.25695821642875671 0.27154847979545593
0.12852026522159576 0.26244249939918518 0.270496666431427
0.22323709726333618 0.27774769067764282 0.27154123783111572
0.34244310855865479 0.29318436980247498 0.27145460247993469
0.4760986864566803 0.30932113528251648 0.27091392874717712
0.60982125997543335 0.34040018916130066 0.2741754949092865
0.72605258226394653 0.38052356243133545 0.27587538957595825
0.81773024797439575 0.42707920074462891 0.28224450349807739
0.88109707832336426 0.47238436341285706 0.29205188155174255
0.93164432048797607 0.51602613925933838 0.30938693881034851
0.9740900993347168 0.56094861030578613 0.33478602766990662
0.0035730248782783747 0.30427870154380798 0.27381908893585205
0.0084266364574432373 0.30554366111755371 0.27271836996078491
0.033976178616285324 0.31124970316886902 0.27436983585357666
0.10925349593162537 0.3238292932510376 0.27386859059333801
0.22805066406726837 0.34088075160980225 0.27153140306472778
0.36552885174751282 0.36232197284698486 0.26963219046592712
0.49852922558784485 0.38109257817268372 0.26674181222915649
0.61732476949691772 0.40071171522140503 0.26598024368286133
