luts/instant_consumer/polaroid_px-680_warm_-.cube
# Created by: G'MIC (https://gmic.eu)
TITLE "polaroid_px-680_warm_-"
# LUT size
LUT_3D_SIZE 13
# Data domain
DOMAIN_MIN 0.0 0.0 0.0
DOMAIN_MAX 1.0 1.0 1.0
# LUT data points
0.17047008872032166 0.1490476131439209 0.0088561410084366798
0.18074208498001099 0.14957907795906067 0.0093831382691860199
0.20344120264053345 0.14924591779708862 0.01064568292349577
0.25202226638793945 0.14791287481784821 0.0078547010198235512
0.31999149918556213 0.14865098893642426 0.0047185113653540611
0.41974809765815735 0.14948689937591553 0.0044687008485198021
0.54276782274246216 0.14909277856349945 0.0026481479872018099
0.66835582256317139 0.16063427925109863 0.0021532096434384584
0.77505826950073242 0.20033995807170868 0.00074890733230859041
0.85737901926040649 0.25674313306808472 0.0012255649780854583
0.92015135288238525 0.31766393780708313 0.0043335561640560627
0.96791493892669678 0.37851423025131226 0.015302381478250027
0.99430584907531738 0.43859943747520447 0.070888906717300415
0.16879817843437195 0.15604253113269806 0.0071398718282580376
0.18193811178207397 0.15752400457859039 0.0077585857361555099
0.21472269296646118 0.16492441296577454 0.0092476336285471916
0.26038625836372375 0.16379255056381226 0.0067549310624599457
0.33041122555732727 0.16593456268310547 0.0026063956320285797
0.43045827746391296 0.16683155298233032 0.0016671423800289631
0.55244225263595581 0.17103591561317444 0.00056512869196012616
0.67560940980911255 0.18876112997531891 0.002022911561653018
0.77724558115005493 0.23017066717147827 0.0023054834455251694
0.8567536473274231 0.28077331185340881 0.0019385095220059156
0.91920053958892822 0.33372068405151367 0.0037640142254531384
0.96525949239730835 0.3937818706035614 0.013625515624880791
0.99327766895294189 0.45371118187904358 0.07465863972902298
0.16795353591442108 0.18417000770568848 0.0084008611738681793
0.18346069753170013 0.18698820471763611 0.0078148338943719864
0.2143036276102066 0.19165529310703278 0.0066358679905533791
0.26734960079193115 0.19917187094688416 0.0047815358266234398
0.34601345658302307 0.19900986552238464 0.0016580618685111403
0.44580322504043579 0.19880254566669464 0.00041387221426703036
0.56745642423629761 0.2107740193605423 0.00028928869869560003
0.68138349056243896 0.23280128836631775 0.0014474607305601239
0.77860021591186523 0.26664149761199951 0.0017280877800658345
0.85217732191085815 0.31478574872016907 0.00083253148477524519
0.91636079549789429 0.36290797591209412 0.0011065913131460547
0.96390783786773682 0.41781747341156006 0.0097404932603240013
0.99288564920425415 0.47448107600212097 0.069080442190170288
0.1629650741815567 0.23014642298221588 0.0062771216034889221
0.17763277888298035 0.23460035026073456 0.0057237814180552959
0.20922023057937622 0.24015586078166962 0.0032238231506198645
0.2656312882900238 0.24734300374984741 0.0016480389749631286
0.36093533039093018 0.2593739926815033 0.0010448680259287357
0.46985581517219543 0.26383006572723389 9.4424976850859821e-05
0.5805743932723999 0.26859429478645325 1.7233456674148329e-05
0.68656075000762939 0.28489181399345398 0.00059085921384394169
0.77523559331893921 0.31839045882225037 0.0011132633080706
0.84770894050598145 0.35767343640327454 0.0010962393134832382
0.91094398498535156 0.40003776550292969 0.0031040117610245943
0.95758539438247681 0.44897794723510742 0.0077538881450891495
0.99122381210327148 0.49896654486656189 0.05393015593290329
0.15063165128231049 0.29168125987052917 0.003668422345072031
0.16700011491775513 0.29638135433197021 0.0028172810561954975
0.20104150474071503 0.30272012948989868 0.00039267446845769882
0.26156333088874817 0.3127041757106781 2.5132123482762836e-05
0.35567411780357361 0.32779565453529358 6.4625462982803583e-05
0.47918155789375305 0.34692934155464172 0.00023696001153439283
0.59611499309539795 0.35788977146148682 0
0.69117957353591919 0.36032655835151672 0
0.77232736349105835 0.37556049227714539 4.4100892409915105e-05
0.84243315458297729 0.40478289127349854 0.0010132733732461929
0.90403813123703003 0.44251185655593872 0.0018450717907398939
0.95023524761199951 0.48478439450263977 0.0043607223778963089
0.9884493350982666 0.5291440486907959 0.035199228674173355
0.12673616409301758 0.36503967642784119 0.0018504124600440264
0.14875748753547668 0.36964884400367737 0.00081268011126667261
0.19024960696697235 0.37205976247787476 0.00043022306635975838
0.25235483050346375 0.38041830062866211 0.00053930841386318207
0.34467703104019165 0.39592158794403076 0.0010464388178661466
0.46467798948287964 0.41727432608604431 0
0.59233468770980835 0.44371098279953003 0
0.69001531600952148 0.45761954784393311 0
0.76561754941940308 0.46444684267044067 0
0.83474868535995483 0.4710966944694519 0
0.89459967613220215 0.48988378047943115 0.00063537899404764175
0.94269537925720215 0.52456998825073242 0.002429094398394227
0.98136812448501587 0.56264108419418335 0.018146693706512451
0.092434093356132507 0.43882489204406738 6.8933826696593314e-05
0.12781067192554474 0.44235792756080627 0.00017706179642118514
0.18008016049861908 0.44363963603973389 0.0013248518807813525
0.24339374899864197 0.44979989528656006 0.0014277290320023894
0.3382190465927124 0.46404454112052917 0.00070363958366215229
0.45178857445716858 0.48332345485687256 0.00019248513854108751
0.56668663024902344 0.50771749019622803 0.0011599372373893857
0.67587804794311523 0.5392497181892395 0.0011754952138289809
0.75970226526260376 0.55736219882965088 0.00020000981749035418
0.82588231563568115 0.5609326958656311 0.0012746773427352309
0.88349509239196777 0.56154024600982666 0.0025940090417861938
0.93279629945755005 0.57113611698150635 0.0024390874896198511
0.97012960910797119 0.60080385208129883 0.007679404690861702
0.049960386008024216 0.51459771394729614 0
0.11029989272356033 0.51559382677078247 0.00015768910816404969
0.1712527871131897 0.51636499166488647 0.002086699241772294
0.24084502458572388 0.51980000734329224 0.0014602660667151213
0.32965919375419617 0.53075480461120605 0.00010139615187654272
0.43469902873039246 0.54891830682754517 0.0010401706676930189
0.54450148344039917 0.57004249095916748 0.0023645437322556973
0.6442035436630249 0.5944095253944397 0.0044138440862298012
0.74262076616287231 0.62823218107223511 0.0030416601803153753
0.81516319513320923 0.64053446054458618 0.0033399693202227354
0.87153899669647217 0.64196842908859253 0.0045345230028033257
0.91929435729980469 0.64530974626541138 0.0029777525924146175
0.95794379711151123 0.65693330764770508 0.0093292240053415298
0.048581846058368683 0.58821719884872437 0.001333767781034112
0.11167435348033905 0.58835643529891968 0.0014108245959505439
0.17946811020374298 0.58977460861206055 0.0018523571779951453
0.24859841167926788 0.59240275621414185 0.0041654249653220177
0.33048871159553528 0.60062098503112793 0.0051706503145396709
0.4267183244228363 0.61542272567749023 0.0070498897694051266
0.52519035339355469 0.63296133279800415 0.0079217944294214249
0.61890000104904175 0.65175372362136841 0.011760203167796135
0.70751708745956421 0.67314797639846802 0.017018979415297508
0.79323559999465942 0.69624686241149902 0.02581106498837471
0.86042028665542603 0.71242457628250122 0.048299122601747513
0.90701830387115479 0.71808427572250366 0.076772801578044891
0.94538760185241699 0.7224959135055542 0.12183231860399246
0.11666617542505264 0.6588979959487915 0.0090558519586920738
0.16123928129673004 0.65926128625869751 0.012003879994153976
0.2150375097990036 0.6600569486618042 0.014899669215083122
0.2798125147819519 0.6621519923210144 0.030959319323301315
0.35228809714317322 0.66819053888320923 0.049372445791959763
0.43580624461174011 0.67881357669830322 0.061561301350593567
0.52181988954544067 0.69307202100753784 0.077462293207645416
0.6064077615737915 0.70592623949050903 0.091279871761798859
0.68798810243606567 0.71988224983215332 0.1136818528175354
0.7670409083366394 0.73409795761108398 0.1380375474691391
0.84034472703933716 0.75459092855453491 0.17346008121967316
0.89566099643707275 0.7686123251914978 0.21678169071674347
0.93380802869796753 0.77330648899078369 0.254232257604599
0.23447181284427643 0.72857075929641724 0.095067255198955536
0.25749003887176514 0.72670996189117432 0.097074054181575775
0.29183334112167358 0.72664910554885864 0.10221919417381287
0.34264323115348816 0.72638595104217529 0.11921712756156921
0.39746883511543274 0.73121774196624756 0.14473488926887512
0.46197861433029175 0.73820197582244873 0.16630849242210388
0.53837233781814575 0.74680280685424805 0.18273688852787018
0.61238241195678711 0.7563355565071106 0.20125000178813934
0.68693935871124268 0.76504671573638916 0.22119665145874023
0.75940442085266113 0.77560192346572876 0.24548213183879852
0.82272988557815552 0.78511613607406616 0.27223393321037292
0.87832307815551758 0.79575026035308838 0.30695006251335144
0.92339837551116943 0.80678391456604004 0.34936660528182983
0.36703717708587646 0.79004073143005371 0.22227184474468231
0.38171553611755371 0.79010844230651855 0.2258017361164093
0.40429913997650146 0.7895282506942749 0.23149217665195465
0.44302064180374146 0.78665858507156372 0.24177849292755127
0.48121902346611023 0.79070258140563965 0.25815030932426453
0.52928727865219116 0.79437547922134399 0.28032141923904419
0.59043985605239868 0.79998713731765747 0.30053490400314331
0.65174263715744019 0.80458235740661621 0.3167022168636322
0.7173163890838623 0.806365966796875 0.33439725637435913
0.7776828408241272 0.81355398893356323 0.35737597942352295
0.83146035671234131 0.81995975971221924 0.38237285614013672
0.877308189868927 0.8257860541343689 0.40707865357398987
0.9137994647026062 0.83222740888595581 0.43293863534927368
0.53601205348968506 0.84211534261703491 0.37330669164657593
0.5420302152633667 0.84184831380844116 0.37292382121086121
0.55565178394317627 0.84167218208312988 0.37750339508056641
0.58129876852035522 0.83869493007659912 0.3858892023563385
0.60740697383880615 0.84055209159851074 0.39747276902198792
0.64070785045623779 0.84208452701568604 0.41341647505760193
0.68184375762939453 0.84442460536956787 0.43153777718544006
0.72432845830917358 0.84637540578842163 0.44523507356643677
0.76883286237716675 0.84719884395599365 0.45905235409736633
0.81090658903121948 0.85089558362960815 0.47538810968399048
0.85004281997680664 0.85532015562057495 0.49566623568534851
0.88504540920257568 0.85869258642196655 0.51370781660079956
0.91581887006759644 0.86156684160232544 0.53147685527801514
0.17037418484687805 0.14962419867515564 0.020150890573859215
0.18214602768421173 0.15250389277935028 0.020903732627630234
0.20743891596794128 0.15316897630691528 0.022305596619844437
0.2523251473903656 0.14996330440044403 0.021493095904588699
0.32736983895301819 0.15148936212062836 0.024508696049451828
0.42757734656333923 0.15677890181541443 0.028500664979219437
0.55397504568099976 0.16151238977909088 0.027948910370469093
0.67915326356887817 0.18364240229129791 0.027520513162016869
0.78164666891098022 0.22230753302574158 0.024274054914712906
0.86247849464416504 0.27508699893951416 0.029179980978369713
0.92115753889083862 0.33621364831924438 0.048938211053609848
0.96472209692001343 0.39679929614067078 0.086085394024848938
0.99162381887435913 0.4544256329536438 0.13947169482707977
0.17199720442295074 0.16106480360031128 0.023759085685014725
0.18626736104488373 0.16332164406776428 0.026159398257732391
0.21598829329013824 0.16848009824752808 0.025276424363255501
0.26578056812286377 0.1679517924785614 0.024694690480828285
0.34204477071762085 0.17186591029167175 0.026526641100645065
0.44195759296417236 0.17817971110343933 0.026906181126832962
0.56405478715896606 0.18737480044364929 0.025866234675049782
0.68539810180664062 0.20833720266819 0.021106496453285217
0.78438258171081543 0.24504837393760681 0.018629994243383408
0.86212575435638428 0.29511448740959167 0.023219702765345573
0.92090475559234619 0.35337325930595398 0.042838931083679199
0.96311098337173462 0.41287380456924438 0.081490039825439453
0.99056524038314819 0.46937653422355652 0.14388453960418701
0.17640604078769684 0.19016991555690765 0.028856121003627777
0.19016332924365997 0.19143006205558777 0.027003448456525803
0.22000706195831299 0.19468371570110321 0.024501098319888115
0.27533155679702759 0.20241187512874603 0.022611191496253014
0.35738202929496765 0.20334406197071075 0.017594520002603531
0.45981180667877197 0.20842260122299194 0.01485081110149622
0.57935017347335815 0.22391378879547119 0.014161098748445511
0.69041347503662109 0.24667231738567352 0.012679111212491989
0.78335511684417725 0.28121528029441833 0.011268480680882931
0.85868281126022339 0.32717427611351013 0.016716226935386658
0.91892027854919434 0.37776273488998413 0.031542938202619553
0.9614642858505249 0.43256831169128418 0.072791233658790588
0.98924583196640015 0.48893749713897705 0.14145170152187347
0.17485493421554565 0.23867838084697723 0.025213100016117096
0.19066259264945984 0.24286641180515289 0.025803135707974434
0.22092284262180328 0.24575601518154144 0.024338755756616592
0.27841004729270935 0.25243350863456726 0.018160682171583176
0.37325003743171692 0.26256245374679565 0.012362506240606308
0.48086434602737427 0.26560473442077637 0.0057960362173616886
0.5917699933052063 0.27484232187271118 0.0045572170056402683
0.69450968503952026 0.29581385850906372 0.0048093460500240326
0.78127163648605347 0.32897642254829407 0.0058837290853261948
0.85354691743850708 0.36827003955841064 0.0097328033298254013
0.91296917200088501 0.41187801957130432 0.021540189161896706
0.95752370357513428 0.45973211526870728 0.057198170572519302
0.98816937208175659 0.5113099217414856 0.12953819334506989
0.16894863545894623 0.30074834823608398 0.020542025566101074
0.18496748805046082 0.30454719066619873 0.021681228652596474
0.21777340769767761 0.30790182948112488 0.021310528740286827
0.27607744932174683 0.31678250432014465 0.016006439924240112
0.37139877676963806 0.33375614881515503 0.0082122953608632088
0.49517324566841125 0.35226279497146606 0.0044681476429104805
0.60556244850158691 0.35808065533638 0.0027378455270081758
0.695220947265625 0.36487856507301331 0.0018914316315203905
0.77740579843521118 0.38264816999435425 0.0021235896274447441
0.84655463695526123 0.41448682546615601 0.0040183872915804386
0.90574914216995239 0.45201879739761353 0.0087900198996067047
0.95175743103027344 0.49294674396514893 0.03368103876709938
0.98555296659469604 0.53937011957168579 0.10800628364086151
0.15018162131309509 0.37386366724967957 0.013620488345623016
0.17166067659854889 0.37755113840103149 0.015155328437685966
0.21130093932151794 0.38052889704704285 0.016326993703842163
0.2717222273349762 0.38703078031539917 0.014941271394491196
0.36064296960830688 0.40197587013244629 0.0082462979480624199
0.47542178630828857 0.42246547341346741 0.0024387284647673368
0.59964311122894287 0.44682031869888306 0.0029762268532067537
0.6952710747718811 0.46018970012664795 0.0020664588082581758
0.77075737714767456 0.46615231037139893 0.0023855920881032944
0.83884519338607788 0.47618299722671509 0.0020666534546762705
0.89668542146682739 0.49706006050109863 0.0030837564263492823
0.94365203380584717 0.53189796209335327 0.017030902206897736
0.98031550645828247 0.57014244794845581 0.076806612312793732
0.12667359411716461 0.44500738382339478 0.0065336939878761768
0.15614047646522522 0.44813299179077148 0.0085495896637439728
0.20069855451583862 0.4498559832572937 0.010369124822318554
0.26287248730659485 0.4574286937713623 0.01388976164162159
0.35111242532730103 0.47037473320960999 0.0085085704922676086
0.4591333270072937 0.48942273855209351 0.005475407000631094
0.57424765825271606 0.51417231559753418 0.0051364973187446594
0.68225622177124023 0.54359859228134155 0.0043604983948171139
0.76274186372756958 0.55860692262649536 0.0038962420076131821
0.82891678810119629 0.56321543455123901 0.0038338454905897379
0.88504964113235474 0.56688946485519409 0.0027969060465693474
0.93293547630310059 0.5782284140586853 0.0047775865532457829
0.97129243612289429 0.60475385189056396 0.040256842970848083
0.10278701782226562 0.518291175365448 0.0054032867774367332
0.14305098354816437 0.52042293548583984 0.0060619129799306393
0.19619691371917725 0.52253806591033936 0.0090097915381193161
0.26095861196517944 0.52710223197937012 0.014583662152290344
0.34327945113182068 0.53752923011779785 0.015786070376634598
0.44402775168418884 0.5548865795135498 0.010711026377975941
0.54958754777908325 0.57589757442474365 0.01053937990218401
0.64821654558181763 0.59984332323074341 0.0099018020555377007
0.743755042552948 0.62747561931610107 0.0085613327100872993
0.81886827945709229 0.64337456226348877 0.0093091325834393501
0.87291133403778076 0.64644151926040649 0.012130199000239372
0.91927355527877808 0.64948862791061401 0.023864954710006714
0.95952951908111572 0.65733426809310913 0.050046570599079132
0.1049409881234169 0.59253865480422974 0.0094123091548681259
0.15058499574661255 0.59295874834060669 0.01092764176428318
0.20398484170436859 0.59447860717773438 0.013718309812247753
0.26973000168800354 0.59767824411392212 0.024067644029855728
0.34779137372970581 0.60638850927352905 0.03821583092212677
0.44056522846221924 0.62080895900726318 0.039867788553237915
0.53339534997940063 0.63655728101730347 0.039213009178638458
0.62471091747283936 0.65479856729507446 0.048490382730960846
0.7133481502532959 0.67469209432601929 0.057861223816871643
0.79720258712768555 0.69777399301528931 0.075886823236942291
0.86192929744720459 0.71273249387741089 0.10281208902597427
0.90673625469207764 0.71853208541870117 0.13155931234359741
0.94568395614624023 0.7232477068901062 0.16970466077327728
0.15761765837669373 0.66288846731185913 0.036521341651678085
0.19233381748199463 0.66294211149215698 0.04287351667881012
0.24014870822429657 0.66366052627563477 0.054145514965057373
0.30178138613700867 0.66542088985443115 0.072775654494762421
0.37028065323829651 0.67214125394821167 0.093776494264602661
0.44873279333114624 0.68202441930770874 0.10836070775985718
0.53446716070175171 0.69278061389923096 0.1196882352232933
0.61905688047409058 0.70692950487136841 0.13908243179321289
0.6990436315536499 0.72090178728103638 0.15480145812034607
0.77185982465744019 0.73452091217041016 0.17547404766082764
0.83987152576446533 0.75272828340530396 0.20752029120922089
0.89540773630142212 0.76881271600723267 0.24665330350399017
0.93298721313476562 0.7741706371307373 0.27915528416633606
0.2554662823677063 0.72915959358215332 0.12426891177892685
0.27900445461273193 0.72884845733642578 0.1310032457113266
0.31076511740684509 0.73035299777984619 0.13857151567935944
0.35933944582939148 0.73078817129135132 0.15475133061408997
0.41173270344734192 0.73469263315200806 0.17440967261791229
0.47273901104927063 0.73994678258895874 0.19424755871295929
0.54649144411087036 0.74756574630737305 0.20927746593952179
0.62050408124923706 0.75730568170547485 0.22649818658828735
0.69639730453491211 0.76632976531982422 0.24553969502449036
0.76459181308746338 0.77520310878753662 0.26858335733413696
0.82441657781600952 0.78591901063919067 0.29677358269691467
0.87887895107269287 0.79751878976821899 0.32884061336517334
0.92444890737533569 0.80821281671524048 0.36700648069381714
0.37959447503089905 0.79172033071517944 0.24166719615459442
0.39423578977584839 0.79149633646011353 0.24608369171619415
0.41379839181900024 0.79200822114944458 0.24981090426445007
0.44928678870201111 0.79157626628875732 0.26038607954978943
0.48910966515541077 0.7941623330116272 0.27570238709449768
0.53607827425003052 0.79645818471908569 0.29640519618988037
0.59601205587387085 0.80040252208709717 0.31582444906234741
0.6562885046005249 0.80507373809814453 0.33291566371917725
0.72056347131729126 0.80819404125213623 0.35213708877563477
0.77885967493057251 0.81445658206939697 0.37477010488510132
0.83173340559005737 0.82077765464782715 0.39764371514320374
0.87667655944824219 0.82645505666732788 0.41913577914237976
0.91632789373397827 0.83478713035583496 0.44820496439933777
0.5386161208152771 0.8421318531036377 0.38170698285102844
0.54724633693695068 0.8419991135597229 0.38297584652900696
0.55920952558517456 0.84203034639358521 0.3861079216003418
0.58349913358688354 0.84209650754928589 0.39529305696487427
0.61188191175460815 0.84255212545394897 0.40694549679756165
0.64423787593841553 0.84321367740631104 0.42166227102279663
0.68410515785217285 0.84502285718917847 0.43900242447853088
0.72430622577667236 0.84612607955932617 0.45223760604858398
0.77046710252761841 0.84710365533828735 0.46769312024116516
0.81173437833786011 0.85098433494567871 0.48501580953598022
0.8502771258354187 0.85519629716873169 0.5020681619644165
0.88495194911956787 0.85907977819442749 0.52117729187011719
0.91611385345458984 0.86242175102233887 0.53955113887786865
0.1749659925699234 0.15183919668197632 0.047010593116283417
0.18788152933120728 0.15458743274211884 0.046261671930551529
0.20924800634384155 0.15488775074481964 0.045641716569662094
0.2514156699180603 0.15439502894878387 0.049179602414369583
0.32864460349082947 0.15459851920604706 0.059208080172538757
0.43324050307273865 0.15335226058959961 0.068257816135883331
0.56468683481216431 0.15705990791320801 0.079433873295783997
0.69115602970123291 0.19720917940139771 0.10028990358114243
0.79038983583450317 0.24811927974224091 0.11302416771650314
0.86619168519973755 0.30429297685623169 0.12779894471168518
0.92044234275817871 0.37064105272293091 0.15684574842453003
0.96256172657012939 0.42662477493286133 0.1884772777557373
0.99140280485153198 0.48305106163024902 0.23049968481063843
0.1786809116601944 0.16653616726398468 0.053880549967288971
0.19362322986125946 0.16670000553131104 0.056675944477319717
0.21935267746448517 0.17055721580982208 0.056781992316246033
0.26668688654899597 0.17400787770748138 0.059053923934698105
0.34724816679954529 0.17787908017635345 0.069344460964202881
0.45230492949485779 0.18084914982318878 0.075461171567440033
0.58172714710235596 0.19863159954547882 0.089972428977489471
0.69702613353729248 0.23076103627681732 0.10195955634117126
0.7918543815612793 0.27276387810707092 0.10881049931049347
0.86520028114318848 0.32605057954788208 0.12313983589410782
0.91928279399871826 0.38534086942672729 0.14986404776573181
0.96138554811477661 0.43982931971549988 0.18412134051322937
0.99047279357910156 0.49483290314674377 0.23190285265445709
0.18379548192024231 0.19394716620445251 0.058648575097322464
0.20070628821849823 0.19791951775550842 0.064440436661243439
0.23081326484680176 0.20487414300441742 0.065941080451011658
0.28717309236526489 0.21149134635925293 0.069292418658733368
0.37122231721878052 0.21476136147975922 0.071083381772041321
0.47730281949043274 0.2209794670343399 0.073071487247943878
0.59624743461608887 0.24004817008972168 0.082254298031330109
0.70228755474090576 0.26970645785331726 0.089381754398345947
0.79027819633483887 0.30629771947860718 0.095602907240390778
0.86034703254699707 0.35509964823722839 0.11326491087675095
0.91614377498626709 0.40668725967407227 0.13940395414829254
0.9589306116104126 0.45655030012130737 0.17673014104366302
0.99001681804656982 0.50956457853317261 0.2293989360332489
0.19170768558979034 0.24296945333480835 0.063996382057666779
0.20891804993152618 0.24712002277374268 0.069919154047966003
0.23937016725540161 0.25153845548629761 0.071668200194835663
0.30080750584602356 0.2610352635383606 0.073784098029136658
0.39173135161399841 0.27034911513328552 0.068121351301670074
0.49800616502761841 0.27439999580383301 0.062972307205200195
0.60900449752807617 0.2881568968296051 0.060544479638338089
0.70572555065155029 0.31383907794952393 0.065620556473731995
0.78862720727920532 0.34940961003303528 0.072079889476299286
0.85626596212387085 0.389821857213974 0.092521533370018005
0.91309225559234619 0.43245959281921387 0.1238454207777977
0.95415276288986206 0.479961097240448 0.16694261133670807
0.98693990707397461 0.52987194061279297 0.21919696033000946
0.20729261636734009 0.30932727456092834 0.076830826699733734
0.21968652307987213 0.31297379732131958 0.07656899094581604
0.24731431901454926 0.3171694278717041 0.076147548854351044
0.30297616124153137 0.32497021555900574 0.07632097601890564
