luts/instant_consumer/polaroid_px-680_cold.cube
# Created by: G'MIC (https://gmic.eu)
TITLE "polaroid_px-680_cold"
# LUT size
LUT_3D_SIZE 5
# Data domain
DOMAIN_MIN 0.0 0.0 0.0
DOMAIN_MAX 1.0 1.0 1.0
# LUT data points
0.16615411639213562 0.22521123290061951 0.25098040699958801
0.17681896686553955 0.21487259864807129 0.24866516888141632
0.37360534071922302 0.21053832769393921 0.24568866193294525
0.79741197824478149 0.28779786825180054 0.22879707813262939
0.9548649787902832 0.45337224006652832 0.2725147008895874
0.15797854959964752 0.22955721616744995 0.24705882370471954
0.19064256548881531 0.23848749697208405 0.24587957561016083
0.45715230703353882 0.29203510284423828 0.23144830763339996
0.79778313636779785 0.38867092132568359 0.20897075533866882
0.94418066740036011 0.51746922731399536 0.28479301929473877
0.005591418594121933 0.44161629676818848 0.23145470023155212
0.035560205578804016 0.45567089319229126 0.22756399214267731
0.47083303332328796 0.53304678201675415 0.20970314741134644
0.77165287733078003 0.58636218309402466 0.2087695300579071
0.91403764486312866 0.61126887798309326 0.28374069929122925
0.00049707747530192137 0.67655742168426514 0.27692866325378418
0.015036280266940594 0.68077176809310913 0.28366890549659729
0.42112880945205688 0.70211195945739746 0.31260028481483459
0.70460027456283569 0.74305194616317749 0.35854396224021912
0.87352567911148071 0.784321129322052 0.43843621015548706
0.47605964541435242 0.8485596776008606 0.48940390348434448
0.51329296827316284 0.84835946559906006 0.49537822604179382
0.61912345886230469 0.85549873113632202 0.5238988995552063
0.75056546926498413 0.87696975469589233 0.5603945255279541
0.85462099313735962 0.89595943689346313 0.60487091541290283
0.16341871023178101 0.21838134527206421 0.2621343731880188
0.18453863263130188 0.21184800565242767 0.25806230306625366
0.41040182113647461 0.17518949508666992 0.26983073353767395
0.82069188356399536 0.27571004629135132 0.32025006413459778
0.93525046110153198 0.53726613521575928 0.42861315608024597
0.15066969394683838 0.23401448130607605 0.26202505826950073
0.19885939359664917 0.24601797759532928 0.26950231194496155
0.5182342529296875 0.28946718573570251 0.28972974419593811
0.81185054779052734 0.42949989438056946 0.33815491199493408
0.92642742395401001 0.5787351131439209 0.42664036154747009
0.0068180160596966743 0.47409984469413757 0.30600392818450928
0.1021733433008194 0.49556580185890198 0.29708424210548401
0.51709765195846558 0.55243206024169922 0.31025427579879761
0.77957260608673096 0.58076244592666626 0.32999351620674133
0.90525221824645996 0.65289229154586792 0.41236701607704163
0.02467530220746994 0.69215553998947144 0.34943214058876038
0.18406069278717041 0.69433951377868652 0.35728675127029419
0.47713935375213623 0.7112458348274231 0.39219623804092407
0.71973723173141479 0.75344103574752808 0.4395700991153717
0.87113010883331299 0.78883308172225952 0.49080795049667358
0.49724236130714417 0.84944313764572144 0.50886952877044678
0.53510934114456177 0.84946143627166748 0.51699239015579224
0.63354337215423584 0.85926151275634766 0.54541993141174316
0.75265061855316162 0.87118911743164062 0.57652050256729126
0.85882532596588135 0.89635163545608521 0.62561589479446411
0.10751902312040329 0.21176470816135406 0.38349923491477966
0.26782375574111938 0.21207767724990845 0.39241594076156616
0.51155966520309448 0.28443244099617004 0.43652963638305664
0.79163122177124023 0.30581209063529968 0.49166396260261536
0.92396289110183716 0.53989160060882568 0.5405997633934021
0.020231673493981361 0.28820070624351501 0.43492680788040161
0.28445389866828918 0.30384901165962219 0.45571896433830261
0.57246589660644531 0.42754143476486206 0.47766497731208801
0.79271417856216431 0.46935740113258362 0.51571911573410034
0.91114991903305054 0.62794452905654907 0.56459832191467285
0.0029933257028460503 0.50219124555587769 0.44708970189094543
0.26013481616973877 0.52172005176544189 0.4609869122505188
0.59591341018676758 0.59737551212310791 0.50819700956344604
0.78052562475204468 0.65753000974655151 0.54064673185348511
0.89024996757507324 0.72442251443862915 0.57624644041061401
0.32813999056816101 0.69490474462509155 0.48025447130203247
0.43375891447067261 0.7017204761505127 0.4935869574546814
0.57908874750137329 0.72383809089660645 0.51462703943252563
0.75037157535552979 0.76365858316421509 0.54889088869094849
0.87653303146362305 0.79035717248916626 0.56883984804153442
0.55227327346801758 0.84893667697906494 0.5635027289390564
0.56801635026931763 0.84969699382781982 0.55927532911300659
0.64619195461273193 0.86252671480178833 0.57959234714508057
0.75569242238998413 0.87668526172637939 0.61692124605178833
0.86131292581558228 0.90179651975631714 0.65775942802429199
0.32597899436950684 0.27873599529266357 0.63032060861587524
0.47979304194450378 0.32336360216140747 0.63079595565795898
0.68628972768783569 0.5100102424621582 0.63151532411575317
0.79815208911895752 0.64558756351470947 0.64179450273513794
0.88822180032730103 0.65155649185180664 0.65714293718338013
0.32551589608192444 0.40233522653579712 0.63496166467666626
0.48564934730529785 0.44642329216003418 0.63433480262756348
0.69386208057403564 0.595694899559021 0.63864398002624512
0.7976500391960144 0.68880343437194824 0.649067223072052
0.88378363847732544 0.69303840398788452 0.66313785314559937
0.12817704677581787 0.56910961866378784 0.60856586694717407
0.38252532482147217 0.5828545093536377 0.61385351419448853
0.66402029991149902 0.65918558835983276 0.63631391525268555
0.79515367746353149 0.74161046743392944 0.65746593475341797
0.87782615423202515 0.74999606609344482 0.67159289121627808
0.34142568707466125 0.70589172840118408 0.58599197864532471
0.43371185660362244 0.70872038602828979 0.5891573429107666
0.60068029165267944 0.72863268852233887 0.60953414440155029
0.78102415800094604 0.79022413492202759 0.65686899423599243
0.88199728727340698 0.8278505802154541 0.68681085109710693
0.48364672064781189 0.84139907360076904 0.61050713062286377
0.53601133823394775 0.84341180324554443 0.61580836772918701
0.64708602428436279 0.85527783632278442 0.63495808839797974
0.76756840944290161 0.8796616792678833 0.6744498610496521
0.87102943658828735 0.90748316049575806 0.72449833154678345
0.67521101236343384 0.63140189647674561 0.77862000465393066
0.71681159734725952 0.65023124217987061 0.77263689041137695
0.79820799827575684 0.71693539619445801 0.77063018083572388
0.85419392585754395 0.79541581869125366 0.76817965507507324
0.88484293222427368 0.8305060863494873 0.77111172676086426
0.66697919368743896 0.66716587543487549 0.77683115005493164
0.71054983139038086 0.68312340974807739 0.77323019504547119
0.79062151908874512 0.74152272939682007 0.77234280109405518
0.8555072546005249 0.81086665391921997 0.77312296628952026
0.88061392307281494 0.84025168418884277 0.77294409275054932
0.60494852066040039 0.71586281061172485 0.76588195562362671
0.65637791156768799 0.72266769409179688 0.76664876937866211
0.7618110179901123 0.76424598693847656 0.77279508113861084
0.84857088327407837 0.82784605026245117 0.77696388959884644
0.88495713472366333 0.86427807807922363 0.78284621238708496
0.48415923118591309 0.7881770133972168 0.7505180835723877
0.51891660690307617 0.78138679265975952 0.74435263872146606
0.63963586091995239 0.78984183073043823 0.75556915998458862
0.81302982568740845 0.83872568607330322 0.77834010124206543
0.88693088293075562 0.89078450202941895 0.80024176836013794
0.53672188520431519 0.88185912370681763 0.75045156478881836
0.56252110004425049 0.88216376304626465 0.75163793563842773
0.6316225528717041 0.8850286602973938 0.75649505853652954
0.74940198659896851 0.89330101013183594 0.77220445871353149
0.88059359788894653 0.9246293306350708 0.81860274076461792
