luts/instant_consumer/polaroid_time_zero_expired_cold.cube
# Created by: G'MIC (https://gmic.eu)
TITLE "polaroid_time_zero_expired_cold"
# LUT size
LUT_3D_SIZE 5
# Data domain
DOMAIN_MIN 0.0 0.0 0.0
DOMAIN_MAX 1.0 1.0 1.0
# LUT data points
0.57260733842849731 0.35639950633049011 0.18808594346046448
0.58683031797409058 0.35336688160896301 0.18722207844257355
0.64115315675735474 0.36132192611694336 0.18975840508937836
0.7448846697807312 0.37466105818748474 0.18960963189601898
0.86425179243087769 0.40463218092918396 0.20873968303203583
0.58014136552810669 0.3874143660068512 0.18385110795497894
0.60151159763336182 0.3902246356010437 0.18964561820030212
0.66112315654754639 0.40147316455841064 0.18974007666110992
0.76176702976226807 0.41980129480361938 0.18004356324672699
0.88093757629394531 0.4484805166721344 0.20008018612861633
0.60700660943984985 0.49349531531333923 0.15675936639308929
0.63258755207061768 0.49530544877052307 0.15761534869670868
0.69572198390960693 0.51023632287979126 0.16635806858539581
0.7851828932762146 0.53096991777420044 0.17096464335918427
0.88406670093536377 0.55398166179656982 0.17152325809001923
0.64873337745666504 0.65024286508560181 0.089580759406089783
0.67425626516342163 0.65083080530166626 0.067164190113544464
0.73609077930450439 0.66153723001480103 0.09905426949262619
0.81893438100814819 0.68239670991897583 0.1923610121011734
0.90059143304824829 0.70565742254257202 0.28864386677742004
0.73884284496307373 0.81053918600082397 0.13098789751529694
0.75649511814117432 0.81020808219909668 0.11041112989187241
0.7999647855758667 0.81509178876876831 0.085049994289875031
0.87158256769180298 0.81821471452713013 0.24638094007968903
0.94083058834075928 0.82638436555862427 0.42537140846252441
0.57849985361099243 0.3545626699924469 0.20448261499404907
0.59188753366470337 0.35655337572097778 0.21017301082611084
0.64258348941802979 0.36525842547416687 0.21643540263175964
0.7517581582069397 0.37567365169525146 0.23465923964977264
0.87639522552490234 0.41325443983078003 0.25045943260192871
0.5867658257484436 0.39011847972869873 0.21373368799686432
0.60925149917602539 0.39857152104377747 0.21799778938293457
0.66606831550598145 0.40676409006118774 0.22407224774360657
0.76382571458816528 0.41300886869430542 0.22408434748649597
0.88298892974853516 0.44720208644866943 0.2381783127784729
0.61148172616958618 0.4980739951133728 0.20442244410514832
0.63515287637710571 0.50523620843887329 0.19597636163234711
0.70527887344360352 0.52292495965957642 0.22015772759914398
0.78693592548370361 0.52849966287612915 0.21993273496627808
0.8890843391418457 0.5551418662071228 0.22796009480953217
0.6575549840927124 0.65909451246261597 0.17536421120166779
0.67808747291564941 0.65945810079574585 0.15804913640022278
0.73759287595748901 0.66852313280105591 0.16444450616836548
0.8243250846862793 0.68580859899520874 0.24871140718460083
0.89720350503921509 0.7048221230506897 0.31674447655677795
0.73784792423248291 0.80903702974319458 0.21096442639827728
0.76066672801971436 0.81257730722427368 0.21342742443084717
0.79717832803726196 0.81458574533462524 0.17082516849040985
0.87569880485534668 0.82151901721954346 0.29849207401275635
0.93772190809249878 0.82818144559860229 0.43870627880096436
0.63074803352355957 0.36415645480155945 0.31968027353286743
0.64407622814178467 0.37159514427185059 0.32761350274085999
0.67925292253494263 0.38562199473381042 0.33074468374252319
0.76832407712936401 0.38504919409751892 0.34796476364135742
0.88706678152084351 0.41280126571655273 0.37862458825111389
0.64318662881851196 0.41267320513725281 0.32357868552207947
0.66648298501968384 0.42964532971382141 0.33187595009803772
0.69807577133178711 0.43371659517288208 0.33465263247489929
0.77603566646575928 0.42472764849662781 0.34408402442932129
0.88744139671325684 0.45718872547149658 0.36853235960006714
0.65002214908599854 0.50282758474349976 0.3055177628993988
0.67159593105316162 0.51568001508712769 0.30891233682632446
0.71771198511123657 0.53027927875518799 0.32017210125923157
0.793323814868927 0.53437680006027222 0.32093840837478638
0.8920477032661438 0.56267052888870239 0.33863756060600281
0.67120611667633057 0.64979034662246704 0.30477944016456604
0.68912893533706665 0.65417158603668213 0.30585470795631409
0.73684775829315186 0.667136549949646 0.30378690361976624
0.8218148946762085 0.69097024202346802 0.35752055048942566
0.89934331178665161 0.70219498872756958 0.37805509567260742
0.73687613010406494 0.8063780665397644 0.35750719904899597
0.76427137851715088 0.81343924999237061 0.36502376198768616
0.79401898384094238 0.81518959999084473 0.32287690043449402
0.86423087120056152 0.82188510894775391 0.36315801739692688
0.94019192457199097 0.83120077848434448 0.50234073400497437
0.72091329097747803 0.41230812668800354 0.5220634937286377
0.73034447431564331 0.42281034588813782 0.52127230167388916
0.75554478168487549 0.45189943909645081 0.52914178371429443
0.8023485541343689 0.4697631299495697 0.51931041479110718
0.88229656219482422 0.46497228741645813 0.52525615692138672
0.74305909872055054 0.49120938777923584 0.51375871896743774
0.7547723650932312 0.50044852495193481 0.5195162296295166
0.77177006006240845 0.51818305253982544 0.52943116426467896
0.80727475881576538 0.5236961841583252 0.51217013597488403
0.88326680660247803 0.50886744260787964 0.52357190847396851
0.74524247646331787 0.57154589891433716 0.49803316593170166
0.75764459371566772 0.58187228441238403 0.49987110495567322
0.78707820177078247 0.61184406280517578 0.52060043811798096
0.82578098773956299 0.62103217840194702 0.51769286394119263
0.89252376556396484 0.58363813161849976 0.52590686082839966
0.72475332021713257 0.66385859251022339 0.4737086296081543
0.74374431371688843 0.66672033071517944 0.46747544407844543
0.78242462873458862 0.69127017259597778 0.49024775624275208
0.83494085073471069 0.71023321151733398 0.49408143758773804
0.90390503406524658 0.696449875831604 0.49324315786361694
0.75041007995605469 0.80079817771911621 0.49908003211021423
0.76832664012908936 0.8052944540977478 0.5006062388420105
0.80207681655883789 0.8107571005821228 0.50903481245040894
0.85799896717071533 0.82663661241531372 0.50193649530410767
0.9329560399055481 0.84150874614715576 0.60633820295333862
0.81427192687988281 0.56730359792709351 0.70551472902297974
0.81329649686813354 0.55726045370101929 0.69927835464477539
0.82570189237594604 0.57992243766784668 0.6998479962348938
0.85537105798721313 0.62143301963806152 0.7172691822052002
0.89240002632141113 0.63861888647079468 0.70886582136154175
0.82601302862167358 0.6230427622795105 0.70236885547637939
0.82941150665283203 0.61987650394439697 0.70232844352722168
0.83904469013214111 0.63714742660522461 0.70605891942977905
0.86339420080184937 0.66337001323699951 0.71848803758621216
0.89503401517868042 0.66720676422119141 0.70497840642929077
0.84112644195556641 0.69105523824691772 0.70471811294555664
0.84345799684524536 0.68750369548797607 0.70469045639038086
0.85898715257644653 0.70247459411621094 0.71384567022323608
0.8756098747253418 0.72678500413894653 0.72059446573257446
0.89863842725753784 0.72204697132110596 0.71115881204605103
0.82184821367263794 0.74065589904785156 0.69568479061126709
0.83676397800445557 0.74368762969970703 0.69820767641067505
0.86619240045547485 0.75467389822006226 0.70656168460845947
0.88500136137008667 0.78086704015731812 0.72220516204833984
0.91237664222717285 0.77548182010650635 0.72577732801437378
0.82474595308303833 0.8204229474067688 0.70073807239532471
0.83411669731140137 0.82460743188858032 0.70118892192840576
0.85406672954559326 0.8233075737953186 0.70133775472640991
0.88351726531982422 0.83605551719665527 0.72244316339492798
0.9344976544380188 0.84578728675842285 0.7382349967956543
