luts/instant_consumer/polaroid_px-680_warm_-.cube
# Created by: G'MIC (https://gmic.eu)
TITLE "polaroid_px-680_warm_-"
# LUT size
LUT_3D_SIZE 5
# Data domain
DOMAIN_MIN 0.0 0.0 0.0
DOMAIN_MAX 1.0 1.0 1.0
# LUT data points
0.17047008872032166 0.1490476131439209 0.0088561410084366798
0.25202226638793945 0.14791287481784821 0.0078547010198235512
0.54276782274246216 0.14909277856349945 0.0026481479872018099
0.85737901926040649 0.25674313306808472 0.0012255649780854583
0.99430584907531738 0.43859943747520447 0.070888906717300415
0.1629650741815567 0.23014642298221588 0.0062771216034889221
0.2656312882900238 0.24734300374984741 0.0016480389749631286
0.5805743932723999 0.26859429478645325 1.7233456674148329e-05
0.84770894050598145 0.35767343640327454 0.0010962393134832382
0.99122381210327148 0.49896654486656189 0.05393015593290329
0.092434093356132507 0.43882489204406738 6.8933826696593314e-05
0.24339374899864197 0.44979989528656006 0.0014277290320023894
0.56668663024902344 0.50771749019622803 0.0011599372373893857
0.82588231563568115 0.5609326958656311 0.0012746773427352309
0.97012960910797119 0.60080385208129883 0.007679404690861702
0.11666617542505264 0.6588979959487915 0.0090558519586920738
0.2798125147819519 0.6621519923210144 0.030959319323301315
0.52181988954544067 0.69307202100753784 0.077462293207645416
0.7670409083366394 0.73409795761108398 0.1380375474691391
0.93380802869796753 0.77330648899078369 0.254232257604599
0.53601205348968506 0.84211534261703491 0.37330669164657593
0.58129876852035522 0.83869493007659912 0.3858892023563385
0.68184375762939453 0.84442460536956787 0.43153777718544006
0.81090658903121948 0.85089558362960815 0.47538810968399048
0.91581887006759644 0.86156684160232544 0.53147685527801514
0.18509817123413086 0.15640617907047272 0.095196366310119629
0.26635167002677917 0.17068162560462952 0.094726696610450745
0.56315350532531738 0.15467309951782227 0.13665866851806641
0.87115013599395752 0.30702567100524902 0.21651561558246613
0.98481327295303345 0.52303129434585571 0.32790538668632507
0.20287631452083588 0.25233608484268188 0.11656194925308228
0.32835826277732849 0.27433097362518311 0.14289693534374237
0.62666583061218262 0.31168130040168762 0.16291327774524689
0.86038076877593994 0.42309543490409851 0.21485520899295807
0.97994822263717651 0.56336796283721924 0.31834214925765991
0.27143299579620361 0.46721950173377991 0.16088186204433441
0.34124404191970825 0.4773038923740387 0.1534220278263092
0.6057625412940979 0.52783375978469849 0.16012631356716156
0.83567428588867188 0.56136274337768555 0.15432751178741455
0.96425491571426392 0.63307875394821167 0.25892159342765808
0.26492157578468323 0.66896575689315796 0.17400583624839783
0.36602136492729187 0.67430716753005981 0.19339410960674286
0.55555373430252075 0.6977468729019165 0.23872533440589905
0.77603322267532349 0.74207991361618042 0.29381856322288513
0.93277943134307861 0.77519887685775757 0.36246177554130554
0.55026108026504517 0.84236305952072144 0.40825673937797546
0.5913969874382019 0.84190088510513306 0.42035201191902161
0.68970203399658203 0.8440212607383728 0.46226596832275391
0.81261539459228516 0.85139238834381104 0.5073244571685791
0.91594779491424561 0.8625444769859314 0.56026601791381836
0.25759643316268921 0.20065659284591675 0.32581445574760437
0.42177712917327881 0.23898626863956451 0.34363186359405518
0.64035087823867798 0.33411058783531189 0.37890902161598206
0.84642595052719116 0.32263901829719543 0.42417168617248535
0.97936934232711792 0.51617813110351562 0.4839610755443573
0.26319292187690735 0.31266719102859497 0.35916420817375183
0.44301071763038635 0.3349582850933075 0.38512542843818665
0.66953003406524658 0.4419216513633728 0.41393810510635376
0.84995079040527344 0.45120528340339661 0.44751551747322083
0.96802914142608643 0.60486733913421631 0.50928658246994019
0.30174612998962402 0.47889864444732666 0.34575572609901428
0.43430528044700623 0.49967807531356812 0.37146514654159546
0.67396676540374756 0.57240098714828491 0.43441727757453918
0.84039342403411865 0.63157933950424194 0.47245535254478455
0.94398528337478638 0.70993995666503906 0.52133405208587646
0.4224236011505127 0.66599154472351074 0.37861594557762146
0.50615888833999634 0.68022245168685913 0.39702904224395752
0.62966030836105347 0.70983421802520752 0.4236968457698822
0.80691725015640259 0.75420939922332764 0.47249388694763184
0.93399894237518311 0.77257966995239258 0.49783244729042053
0.60212665796279907 0.83788418769836426 0.49696913361549377
0.62112700939178467 0.83947169780731201 0.49296015501022339
0.6996646523475647 0.84277051687240601 0.51598578691482544
0.8137744665145874 0.84906333684921265 0.56503140926361084
0.91862517595291138 0.8619234561920166 0.6151537299156189
0.48414516448974609 0.31797534227371216 0.58892214298248291
0.60356670618057251 0.36412405967712402 0.59066414833068848
0.76981586217880249 0.5184028148651123 0.60387516021728516
0.85633546113967896 0.63135194778442383 0.61243802309036255
0.93818408250808716 0.62869393825531006 0.62513715028762817
0.47743973135948181 0.40989047288894653 0.59071797132492065
0.5967896580696106 0.44990137219429016 0.59269267320632935
0.76398146152496338 0.57969874143600464 0.60684919357299805
0.85527545213699341 0.67534768581390381 0.61896276473999023
0.9324457049369812 0.66739541292190552 0.63116133213043213
0.36999267339706421 0.54416829347610474 0.55449962615966797
0.49642866849899292 0.55875641107559204 0.5673711895942688
0.72357749938964844 0.63531100749969482 0.59939205646514893
0.85168200731277466 0.73330187797546387 0.63013070821762085
0.93244951963424683 0.73579496145248413 0.64726614952087402
0.41002872586250305 0.68019074201583862 0.52328008413314819
0.48756793141365051 0.68737441301345825 0.5331764817237854
0.65009689331054688 0.71332764625549316 0.56127661466598511
0.83615374565124512 0.77669280767440796 0.6263422966003418
0.93558245897293091 0.80517673492431641 0.66546964645385742
0.51388460397720337 0.8317025899887085 0.56663578748703003
0.57160675525665283 0.83224380016326904 0.57256776094436646
0.70566225051879883 0.83744329214096069 0.60228890180587769
0.82519310712814331 0.8511505126953125 0.64185339212417603
0.93373876810073853 0.8642316460609436 0.68992859125137329
0.74105328321456909 0.6138424277305603 0.75131040811538696
0.77876883745193481 0.64081186056137085 0.74923110008239746
0.84355854988098145 0.70487910509109497 0.74512255191802979
0.89984863996505737 0.78119480609893799 0.7450253963470459
0.93435865640640259 0.7981148362159729 0.74716281890869141
0.72901374101638794 0.6495775580406189 0.75014352798461914
0.77294754981994629 0.67275571823120117 0.75024855136871338
0.84276086091995239 0.73065322637557983 0.74560725688934326
0.90010172128677368 0.78666782379150391 0.74614399671554565
0.93627846240997314 0.80762588977813721 0.75119036436080933
0.6690133810043335 0.70097774267196655 0.74632835388183594
0.71820318698883057 0.70990383625030518 0.74567645788192749
0.81671178340911865 0.74653917551040649 0.74893856048583984
0.89716500043869019 0.80242007970809937 0.75449448823928833
0.93946355581283569 0.82527798414230347 0.75615870952606201
0.53175383806228638 0.77617979049682617 0.73294854164123535
0.5790029764175415 0.77395635843276978 0.73424291610717773
0.69527041912078857 0.7764211893081665 0.73975157737731934
0.8705439567565918 0.81148511171340942 0.75889843702316284
0.94794970750808716 0.85002762079238892 0.77355968952178955
0.58495771884918213 0.85920590162277222 0.73634278774261475
0.6139671802520752 0.85854840278625488 0.73714286088943481
0.6957554817199707 0.85750436782836914 0.74382483959197998
0.81012749671936035 0.85895627737045288 0.75294280052185059
0.9472954273223877 0.87681013345718384 0.78590285778045654
