luts/instant_consumer/polaroid_px-100uv+_warm.cube
# Created by: G'MIC (https://gmic.eu)
TITLE "polaroid_px-100uv+_warm"
# LUT size
LUT_3D_SIZE 5
# Data domain
DOMAIN_MIN 0.0 0.0 0.0
DOMAIN_MAX 1.0 1.0 1.0
# LUT data points
0.27096548676490784 0.24924060702323914 0.25238564610481262
0.29617124795913696 0.27835094928741455 0.27936887741088867
0.3786652684211731 0.36526408791542053 0.3684745728969574
0.48815560340881348 0.47488698363304138 0.47830307483673096
0.62186318635940552 0.60342764854431152 0.59772080183029175
0.31665584444999695 0.30000272393226624 0.30174022912979126
0.3365209698677063 0.32257169485092163 0.32379749417304993
0.4031866192817688 0.39303246140480042 0.39547532796859741
0.49270576238632202 0.48159173130989075 0.48372256755828857
0.61926913261413574 0.60130339860916138 0.59423625469207764
0.42736443877220154 0.41608628630638123 0.42013058066368103
0.42861112952232361 0.41924166679382324 0.42388394474983215
0.46486374735832214 0.4573424756526947 0.46138849854469299
0.52382200956344604 0.51275324821472168 0.5134737491607666
0.645549476146698 0.62601751089096069 0.61452049016952515
0.54925000667572021 0.5375475287437439 0.5351797342300415
0.54114705324172974 0.53023993968963623 0.52946817874908447
0.55817955732345581 0.5470280647277832 0.54497224092483521
0.61436015367507935 0.59919595718383789 0.59229195117950439
0.72645628452301025 0.70416378974914551 0.68338179588317871
0.75758630037307739 0.73637211322784424 0.71286249160766602
0.7565428614616394 0.73109585046768188 0.71074694395065308
0.75901472568511963 0.73550224304199219 0.71450483798980713
0.79561901092529297 0.77351468801498413 0.7477913498878479
0.8388437032699585 0.81855779886245728 0.78559523820877075
0.33444836735725403 0.31959730386734009 0.32218244671821594
0.36324065923690796 0.35194087028503418 0.35520300269126892
0.43817400932312012 0.43038961291313171 0.43426218628883362
0.53984665870666504 0.5283464789390564 0.53087753057479858
0.66401749849319458 0.64466011524200439 0.63458740711212158
0.37170594930648804 0.35885074734687805 0.3610866367816925
0.3972630500793457 0.38785597681999207 0.39061728119850159
0.46100470423698425 0.45387148857116699 0.45557317137718201
0.54369324445724487 0.53206342458724976 0.53218036890029907
0.66739797592163086 0.64738857746124268 0.63582104444503784
0.47658678889274597 0.46526667475700378 0.46884772181510925
0.48351746797561646 0.47367379069328308 0.47662645578384399
0.51075160503387451 0.50129008293151855 0.50210356712341309
0.56924349069595337 0.55463355779647827 0.55203360319137573
0.68514436483383179 0.66288751363754272 0.64903444051742554
0.59704834222793579 0.58407431840896606 0.57879197597503662
0.59577929973602295 0.58094388246536255 0.57627397775650024
0.59692502021789551 0.58104556798934937 0.57542139291763306
0.64398038387298584 0.62457633018493652 0.61516737937927246
0.74021804332733154 0.71627163887023926 0.69594502449035645
0.7771342396736145 0.75591456890106201 0.73296606540679932
0.77323007583618164 0.74953854084014893 0.72820758819580078
0.76979559659957886 0.74581646919250488 0.72358453273773193
0.8042447566986084 0.78092408180236816 0.75350475311279297
0.85021495819091797 0.82732599973678589 0.79444354772567749
0.46221631765365601 0.45147997140884399 0.45590037107467651
0.48450881242752075 0.47669196128845215 0.48073217272758484
0.52086955308914185 0.51011675596237183 0.51246768236160278
0.59152078628540039 0.57735389471054077 0.57527822256088257
0.72763568162918091 0.70605289936065674 0.68627238273620605
0.49370607733726501 0.48243725299835205 0.48586156964302063
0.49993053078651428 0.49079164862632751 0.49329239130020142
0.53574979305267334 0.52491366863250732 0.5246129035949707
0.60706979036331177 0.59114867448806763 0.58573073148727417
0.73708087205886841 0.71315884590148926 0.69359755516052246
0.52216202020645142 0.51394003629684448 0.51455068588256836
0.54252082109451294 0.53152585029602051 0.53064119815826416
0.58357959985733032 0.56990700960159302 0.56521809101104736
0.6545717716217041 0.63352900743484497 0.62378275394439697
0.75719243288040161 0.73210346698760986 0.71146053075790405
0.65340834856033325 0.63655084371566772 0.62421625852584839
0.65969020128250122 0.63985377550125122 0.62793028354644775
0.6767650842666626 0.65551280975341797 0.64160811901092529
0.7107464075088501 0.68697798252105713 0.67120474576950073
0.7857973575592041 0.76109832525253296 0.73749667406082153
0.81362473964691162 0.79140591621398926 0.76459652185440063
0.81255245208740234 0.78880757093429565 0.76392167806625366
0.81463181972503662 0.78997421264648438 0.76296788454055786
0.83014440536499023 0.80587887763977051 0.77659338712692261
0.86434531211853027 0.84058332443237305 0.80821973085403442
0.62931901216506958 0.61492502689361572 0.60885673761367798
0.64257192611694336 0.62731868028640747 0.62086033821105957
0.68538373708724976 0.66682535409927368 0.65510988235473633
0.69927185773849487 0.67978590726852417 0.66512620449066162
0.76482135057449341 0.74051022529602051 0.7160155177116394
0.65207844972610474 0.63642144203186035 0.62791353464126587
0.66609865427017212 0.64853227138519287 0.63882982730865479
0.69553536176681519 0.67674869298934937 0.66165649890899658
0.70860475301742554 0.68971079587936401 0.67068707942962646
0.77879619598388672 0.75477319955825806 0.7294343113899231
0.66069644689559937 0.64344865083694458 0.63185453414916992
0.67455387115478516 0.65469324588775635 0.64231061935424805
0.70465803146362305 0.68464428186416626 0.66755455732345581
0.73671376705169678 0.71661341190338135 0.69336444139480591
0.80457693338394165 0.78159570693969727 0.75495588779449463
0.70673424005508423 0.68397176265716553 0.66578429937362671
0.71540528535842896 0.69131344556808472 0.67377597093582153
0.74195188283920288 0.71888762712478638 0.69796806573867798
0.78414028882980347 0.76122844219207764 0.7355307936668396
0.83532428741455078 0.81285393238067627 0.78391820192337036
0.83973926305770874 0.81600731611251831 0.78590679168701172
0.83570796251296997 0.81190472841262817 0.78428143262863159
0.85279649496078491 0.82938456535339355 0.79876446723937988
0.86331182718276978 0.84060466289520264 0.80863076448440552
0.87938952445983887 0.85729682445526123 0.82540112733840942
0.8348315954208374 0.8124157190322876 0.78434687852859497
0.83486849069595337 0.81312161684036255 0.78618788719177246
0.84792709350585938 0.82558423280715942 0.79583334922790527
0.86811625957489014 0.84328597784042358 0.81087177991867065
0.87793928384780884 0.85066556930541992 0.81641489267349243
0.84125101566314697 0.82036614418029785 0.79206544160842896
0.84565764665603638 0.82387113571166992 0.79639387130737305
0.85104316473007202 0.83042770624160767 0.80185872316360474
0.87008142471313477 0.84831953048706055 0.81526285409927368
0.8774266242980957 0.85211825370788574 0.81929850578308105
0.84311282634735107 0.82294797897338867 0.7923312783241272
0.8460381031036377 0.82276499271392822 0.79415291547775269
0.85874491930007935 0.83578026294708252 0.80496364831924438
0.87904834747314453 0.85608017444610596 0.82189774513244629
0.87528795003890991 0.85237306356430054 0.82169413566589355
0.84407693147659302 0.82124000787734985 0.79114049673080444
0.84926867485046387 0.82524287700653076 0.79618984460830688
0.85339969396591187 0.83065831661224365 0.79988068342208862
0.87511259317398071 0.85401064157485962 0.82010692358016968
0.89067083597183228 0.87064170837402344 0.83729749917984009
0.87520569562911987 0.85472351312637329 0.82073390483856201
0.87889981269836426 0.85741543769836426 0.82583498954772949
0.8776857852935791 0.85784620046615601 0.82628327608108521
0.89192444086074829 0.87246054410934448 0.83938217163085938
0.89801853895187378 0.87834978103637695 0.84701007604598999
