luts/instant_consumer/polaroid_px-70_warm_--.cube
# Created by: G'MIC (https://gmic.eu)
TITLE "polaroid_px-70_warm_--"
# LUT size
LUT_3D_SIZE 13
# Data domain
DOMAIN_MIN 0.0 0.0 0.0
DOMAIN_MAX 1.0 1.0 1.0
# LUT data points
0.011867747642099857 0.021036185324192047 0.027700401842594147
0.039823584258556366 0.025222225114703178 0.029158184304833412
0.090622201561927795 0.034696377813816071 0.037603940814733505
0.15841555595397949 0.037964135408401489 0.048744633793830872
0.24440577626228333 0.039335813373327255 0.063009120523929596
0.37738233804702759 0.024372879415750504 0.076252073049545288
0.5393751859664917 0.0082933614030480385 0.083489000797271729
0.69443601369857788 0.026379244402050972 0.086276516318321228
0.81428509950637817 0.12576951086521149 0.080980993807315826
0.90757900476455688 0.24961163103580475 0.071996100246906281
0.96898353099822998 0.35621693730354309 0.073345154523849487
0.9960588812828064 0.44452598690986633 0.10209939628839493
0.99938589334487915 0.52171027660369873 0.15036693215370178
0.011592566035687923 0.056547559797763824 0.044705543667078018
0.041539959609508514 0.060182008892297745 0.043924864381551743
0.095601998269557953 0.065442405641078949 0.047690209001302719
0.16459974646568298 0.065925925970077515 0.052295312285423279
0.25724115967750549 0.067252442240715027 0.063981615006923676
0.39059931039810181 0.062325630336999893 0.075720764696598053
0.54719769954681396 0.05863526463508606 0.081931091845035553
0.69613313674926758 0.09202314168214798 0.079626701772212982
0.81567895412445068 0.18407762050628662 0.071695618331432343
0.90479332208633423 0.2879258394241333 0.059086009860038757
0.96688002347946167 0.38168373703956604 0.061479322612285614
0.99462252855300903 0.46272218227386475 0.092664681375026703
0.99938112497329712 0.53525799512863159 0.14401975274085999
0.0059249727055430412 0.1124604344367981 0.069062128663063049
0.028022510930895805 0.11862930655479431 0.069508709013462067
0.084411412477493286 0.12506024539470673 0.069570906460285187
0.17000043392181396 0.12256506830453873 0.067232780158519745
0.27634075284004211 0.12069959193468094 0.069333456456661224
0.41233605146408081 0.12560497224330902 0.072593063116073608
0.56136363744735718 0.14428332448005676 0.071625649929046631
0.70196688175201416 0.18117286264896393 0.064196459949016571
0.81497800350189209 0.2516513466835022 0.049702275544404984
0.90092408657073975 0.33883300423622131 0.034129228442907333
0.96159368753433228 0.41869688034057617 0.039996262639760971
0.99578934907913208 0.48949924111366272 0.071539998054504395
0.99995046854019165 0.5552176833152771 0.13644878566265106
0.0039215688593685627 0.18900144100189209 0.09539998322725296
0.010340671986341476 0.18783380091190338 0.093886464834213257
0.057433724403381348 0.19612601399421692 0.092621639370918274
0.16770970821380615 0.2064659595489502 0.086943529546260834
0.2962435781955719 0.21340847015380859 0.079418554902076721
0.43638506531715393 0.21951419115066528 0.06310851126909256
0.57722306251525879 0.2334764152765274 0.047544889152050018
0.70432060956954956 0.26526051759719849 0.035246532410383224
0.8113548755645752 0.323465496301651 0.019260736182332039
0.89719527959823608 0.3934611976146698 0.0094371866434812546
0.95957338809967041 0.46104103326797485 0.013039518147706985
0.99561083316802979 0.52373242378234863 0.043682608753442764
0.99999356269836426 0.58007824420928955 0.11651367694139481
0.0023462034296244383 0.2994941771030426 0.10192452371120453
0.0022642246913164854 0.29601499438285828 0.1018824428319931
0.01977691613137722 0.29914534091949463 0.1024278998374939
0.14240427315235138 0.31316804885864258 0.092804960906505585
0.30396726727485657 0.32720312476158142 0.074413791298866272
0.45923784375190735 0.34299927949905396 0.042630679905414581
0.59738582372665405 0.35451456904411316 0.0189182348549366
0.71070104837417603 0.36932456493377686 0.010756025090813637
0.81001651287078857 0.40372955799102783 0.0044663823209702969
0.88993966579437256 0.45976606011390686 0.0038644529413431883
0.9517483115196228 0.51392316818237305 0.0064062979072332382
0.99106460809707642 0.56148809194564819 0.020057767629623413
0.9999813437461853 0.60928750038146973 0.088918335735797882
0.00031154855969361961 0.42756783962249756 0.095285587012767792
0.00086925731739029288 0.42866495251655579 0.093961216509342194
0.003239740151911974 0.43160867691040039 0.09607359766960144
0.10776554048061371 0.4419001042842865 0.087413907051086426
0.30081889033317566 0.45566239953041077 0.063064247369766235
0.4703945517539978 0.46799477934837341 0.023804923519492149
0.6144443154335022 0.48108205199241638 0.0052028433419764042
0.72198486328125 0.49441468715667725 0.0041861739009618759
0.81006139516830444 0.50868958234786987 0.0027304107788950205
0.88373386859893799 0.53302395343780518 0.0018988365773111582
0.94175684452056885 0.56378811597824097 0.0026732799597084522
0.98337262868881226 0.60245895385742188 0.0034556519240140915
0.99938184022903442 0.6423831582069397 0.056293338537216187
0.00011668485967675224 0.55628448724746704 0.087094448506832123
0.00018415263912174851 0.55769264698028564 0.088235609233379364
0.0035737878642976284 0.55942124128341675 0.093559339642524719
0.11999978125095367 0.56529039144515991 0.089365012943744659
0.32458406686782837 0.57117545604705811 0.068056069314479828
0.48386219143867493 0.57876801490783691 0.031661491841077805
0.61717504262924194 0.58807110786437988 0.0079792849719524384
0.72374486923217773 0.59779620170593262 0.0043957578018307686
0.80914628505706787 0.61112368106842041 0.003907566424459219
0.88023972511291504 0.62251245975494385 0.0037755181547254324
0.93232512474060059 0.63053488731384277 0.0038974687922745943
0.9776151180267334 0.65076982975006104 0.0032850527204573154
0.998748779296875 0.67647236585617065 0.017858976498246193
0.005217189434915781 0.66477912664413452 0.11154581606388092
0.019414192065596581 0.66689008474349976 0.11081689596176147
0.092001862823963165 0.66743296384811401 0.11586448550224304
0.24551604688167572 0.66641753911972046 0.12406966090202332
0.38970088958740234 0.66865336894989014 0.11497873067855835
0.51738429069519043 0.67180180549621582 0.084708437323570251
0.62582433223724365 0.67814344167709351 0.053130235522985458
0.72426843643188477 0.68628162145614624 0.024658562615513802
0.8096473217010498 0.69560760259628296 0.010665789246559143
0.87535327672958374 0.70137882232666016 0.0065608453005552292
0.9266364574432373 0.70569157600402832 0.0073315040208399296
0.9708406925201416 0.71383953094482422 0.013511852361261845
0.99630153179168701 0.72410595417022705 0.028491944074630737
0.19200098514556885 0.75170779228210449 0.16764910519123077
0.24086083471775055 0.75161421298980713 0.17193861305713654
0.30816769599914551 0.74861931800842285 0.1796879768371582
0.38498410582542419 0.74495559930801392 0.18669481575489044
0.47358030080795288 0.74516654014587402 0.18778085708618164
0.56482779979705811 0.74900031089782715 0.17815683782100677
0.64965283870697021 0.75243449211120605 0.15854728221893311
0.72841119766235352 0.75645321607589722 0.1361812949180603
0.80198127031326294 0.76206731796264648 0.10547792166471481
0.86736488342285156 0.76573878526687622 0.0778626948595047
0.92172920703887939 0.77068251371383667 0.079707108438014984
0.96640235185623169 0.77493739128112793 0.10713531076908112
0.99183559417724609 0.78105902671813965 0.14004677534103394
0.4092082679271698 0.81286638975143433 0.24996337294578552
0.4297279417514801 0.81294560432434082 0.25117930769920349
0.46325156092643738 0.81128031015396118 0.25618332624435425
0.50096040964126587 0.80749291181564331 0.26082339882850647
0.55949884653091431 0.80743134021759033 0.26549163460731506
0.61883127689361572 0.80677539110183716 0.26107755303382874
0.67759698629379272 0.8084251880645752 0.25620955228805542
0.7395484447479248 0.81310594081878662 0.24758334457874298
0.79939252138137817 0.81675136089324951 0.23228216171264648
0.8588416576385498 0.8198317289352417 0.21669046580791473
0.91307944059371948 0.82255184650421143 0.20514571666717529
0.96120482683181763 0.82726120948791504 0.21633939445018768
0.99031752347946167 0.83160078525543213 0.24178102612495422
0.54791355133056641 0.86277526617050171 0.33468160033226013
0.55766910314559937 0.86046707630157471 0.33508560061454773
0.57862907648086548 0.86099988222122192 0.33833813667297363
0.60241103172302246 0.85874408483505249 0.34307193756103516
0.62929123640060425 0.85908496379852295 0.3503912091255188
0.66849154233932495 0.85795331001281738 0.35176721215248108
0.71736681461334229 0.85916578769683838 0.35181692242622375
0.76786094903945923 0.86273741722106934 0.34809592366218567
0.8138766884803772 0.86534750461578369 0.33952504396438599
0.86050444841384888 0.86709088087081909 0.32959157228469849
0.90803849697113037 0.86921685934066772 0.3216107189655304
0.95803350210189819 0.87363415956497192 0.31782621145248413
0.99196320772171021 0.87990748882293701 0.33413684368133545
0.65582096576690674 0.90867722034454346 0.42711156606674194
0.66237854957580566 0.90653783082962036 0.42714324593544006
0.67354357242584229 0.9068756103515625 0.43109279870986938
0.68617576360702515 0.90618371963500977 0.43901091814041138
0.70446717739105225 0.9061274528503418 0.44632849097251892
0.73107707500457764 0.90624749660491943 0.44917759299278259
0.76462036371231079 0.9075324535369873 0.44784843921661377
0.80046051740646362 0.90977555513381958 0.44714069366455078
0.83568865060806274 0.91204029321670532 0.44338697195053101
0.87513333559036255 0.91385036706924438 0.43985843658447266
0.91601210832595825 0.91514080762863159 0.43992727994918823
0.96027207374572754 0.91832816600799561 0.4346502423286438
0.99080896377563477 0.92261612415313721 0.43415006995201111
0.74373334646224976 0.95206910371780396 0.52609550952911377
0.74911367893218994 0.95162409543991089 0.52736175060272217
0.75610899925231934 0.95155012607574463 0.52897816896438599
0.76658612489700317 0.95197176933288574 0.53616106510162354
0.77949130535125732 0.95147162675857544 0.54155141115188599
0.7976037859916687 0.95172137022018433 0.54825115203857422
0.81857597827911377 0.95207881927490234 0.54724502563476562
0.84207135438919067 0.95560908317565918 0.55232036113739014
0.86712455749511719 0.95584911108016968 0.5476377010345459
0.89787739515304565 0.9591519832611084 0.55367588996887207
0.92996364831924438 0.96049362421035767 0.55601459741592407
0.96405613422393799 0.96312826871871948 0.55654007196426392
0.98971295356750488 0.9666818380355835 0.55987203121185303
0.012560272589325905 0.030860571190714836 0.069079048931598663
0.036161549389362335 0.034808769822120667 0.06830037385225296
0.082685269415378571 0.043702609837055206 0.074194900691509247
0.15378043055534363 0.04875221848487854 0.086238175630569458
0.2475782036781311 0.055877372622489929 0.10425499081611633
0.38571813702583313 0.053940761834383011 0.11870419234037399
0.55048513412475586 0.036298729479312897 0.12556461989879608
0.70072257518768311 0.070010244846343994 0.13091054558753967
0.81774836778640747 0.17191769182682037 0.12996266782283783
0.90694612264633179 0.27585431933403015 0.12958076596260071
0.96723943948745728 0.37605878710746765 0.13853272795677185
0.9914320707321167 0.45991635322570801 0.16723361611366272
0.99784582853317261 0.53570127487182617 0.20499515533447266
0.011867612600326538 0.063987031579017639 0.085328854620456696
0.041647203266620636 0.069267004728317261 0.085597366094589233
0.096058398485183716 0.078640222549438477 0.088926218450069427
0.16866810619831085 0.081848189234733582 0.095873601734638214
0.2667773962020874 0.086291596293449402 0.10754538327455521
0.39877426624298096 0.089111015200614929 0.11783119291067123
0.5591168999671936 0.093288466334342957 0.12352905422449112
0.70656728744506836 0.12982922792434692 0.12573002278804779
0.82132011651992798 0.21265204250812531 0.12231461703777313
0.90556478500366211 0.3055170476436615 0.12177031487226486
0.96216344833374023 0.39779260754585266 0.13476581871509552
0.99343776702880859 0.47932296991348267 0.16102083027362823
0.9984624981880188 0.54752027988433838 0.19911640882492065
0.0093700485303997993 0.11291216313838959 0.10346495360136032
0.035895075649023056 0.11979898065328598 0.10337577015161514
0.096591532230377197 0.13060113787651062 0.10506756603717804
0.17816793918609619 0.13119582831859589 0.10643880814313889
0.28454786539077759 0.13078776001930237 0.10810171067714691
0.42269474267959595 0.14553405344486237 0.11204314976930618
0.57328933477401733 0.16176190972328186 0.1136658638715744
0.70997673273086548 0.20197324454784393 0.11091223359107971
0.8209347128868103 0.2719389796257019 0.10490380227565765
0.9012036919593811 0.3544253408908844 0.10124703496694565
0.95892786979675293 0.43489256501197815 0.11269205063581467
0.99310016632080078 0.50632399320602417 0.14393150806427002
0.99896574020385742 0.56809115409851074 0.18790782988071442
0.0063515906222164631 0.19117610156536102 0.12007700651884079
0.018142940476536751 0.19131496548652649 0.11928369849920273
0.080115363001823425 0.19954591989517212 0.1198526993393898
0.17894746363162994 0.20750455558300018 0.11821733415126801
0.30709332227706909 0.2184043675661087 0.11210108548402786
0.44688865542411804 0.22739206254482269 0.10075157135725021
0.58689969778060913 0.24468913674354553 0.092899084091186523
0.7140921950340271 0.28085064888000488 0.085065491497516632
0.81805384159088135 0.33868718147277832 0.070552125573158264
0.89788997173309326 0.40646758675575256 0.066766701638698578
0.95698046684265137 0.47434759140014648 0.08297024667263031
0.99276620149612427 0.53635746240615845 0.12012311071157455
0.99917066097259521 0.58983075618743896 0.17290197312831879
0.0038938035722821951 0.30793529748916626 0.12872929871082306
0.0051587573252618313 0.30498933792114258 0.12848058342933655
0.033090241253376007 0.3043416440486908 0.12996475398540497
0.16517108678817749 0.31957951188087463 0.12274862825870514
0.32156851887702942 0.33648961782455444 0.1096123605966568
0.46922016143798828 0.34996959567070007 0.087949447333812714
0.60433399677276611 0.36386311054229736 0.060240201652050018
0.71946126222610474 0.3760506808757782 0.042906429618597031
0.81717973947525024 0.41202759742736816 0.025997700169682503
0.89234554767608643 0.46476244926452637 0.027249893173575401
0.95145112276077271 0.51810508966445923 0.04426218569278717
0.99095767736434937 0.56962645053863525 0.089585743844509125
0.99950224161148071 0.61700713634490967 0.15695188939571381
0.00066136376699432731 0.43584954738616943 0.12785907089710236
0.00040645225089974701 0.43456172943115234 0.12769575417041779
0.0071215461939573288 0.4380154013633728 0.12764279544353485
0.13947825133800507 0.4473932683467865 0.12267076224088669
0.32796281576156616 0.46146771311759949 0.10570614039897919
0.48511266708374023 0.47458371520042419 0.068982921540737152
0.62164765596389771 0.48610270023345947 0.031335059553384781
0.72845101356506348 0.49731665849685669 0.014095052145421505
0.81618380546569824 0.5126957893371582 0.0090449610725045204
0.88600796461105347 0.53396987915039062 0.0085972808301448822
0.94315958023071289 0.56919652223587036 0.012496230192482471
0.98551082611083984 0.60797673463821411 0.044654443860054016
0.9999847412109375 0.64809894561767578 0.12308822572231293
0.00040702070691622794 0.56243056058883667 0.12293077260255814
0.0011310053523629904 0.56243318319320679 0.12562964856624603
0.016279976814985275 0.56484895944595337 0.1278243362903595
0.16825531423091888 0.56853914260864258 0.12833642959594727
0.3490789532661438 0.57414788007736206 0.11311978846788406
0.49999520182609558 0.58098900318145752 0.081605829298496246
0.62293940782546997 0.5901373028755188 0.047973409295082092
0.73188835382461548 0.60289537906646729 0.01538136787712574
0.81559449434280396 0.61538296937942505 0.0073912227526307106
0.8816191554069519 0.62500947713851929 0.0075323516502976418
0.9346851110458374 0.63530117273330688 0.0079062813892960548
0.97768723964691162 0.65347528457641602 0.015063341706991196
0.99910533428192139 0.68024826049804688 0.072378657758235931
0.019127340987324715 0.66897821426391602 0.1446966677904129
0.049963768571615219 0.66950732469558716 0.14578638970851898
0.14584162831306458 0.66939020156860352 0.15132604539394379
0.28304123878479004 0.66759669780731201 0.1587492823600769
0.4108162522315979 0.66903400421142578 0.15646828711032867
0.53108096122741699 0.67218732833862305 0.13449226319789886
0.63153660297393799 0.6791871190071106 0.11181440204381943
0.72900503873825073 0.68796533346176147 0.073034904897212982
0.81337976455688477 0.6974940299987793 0.045348282903432846
0.87705338001251221 0.70412588119506836 0.034607578068971634
0.92736709117889404 0.70809000730514526 0.036116238683462143
0.96853286027908325 0.71443235874176025 0.048676136881113052
0.99508661031723022 0.72448962926864624 0.082654930651187897
0.24095243215560913 0.7526935338973999 0.19681577384471893
0.28123053908348083 0.75295430421829224 0.19972518086433411
0.33874392509460449 0.75008243322372437 0.2064983993768692
0.40850919485092163 0.74821382761001587 0.2137894481420517
0.48923644423484802 0.74965173006057739 0.21862508356571198
0.57418370246887207 0.75132596492767334 0.21072202920913696
0.65882998704910278 0.75220048427581787 0.19157224893569946
0.7329743504524231 0.75733077526092529 0.17608565092086792
0.80518823862075806 0.76364046335220337 0.15517617762088776
0.86825329065322876 0.766826331615448 0.13937987387180328
0.9218146800994873 0.77104181051254272 0.13819810748100281
0.96435987949371338 0.77364993095397949 0.14934477210044861
0.99292057752609253 0.78044432401657104 0.17803102731704712
0.42950907349586487 0.8121718168258667 0.27043521404266357
0.44548597931861877 0.81179457902908325 0.2714594304561615
0.47097668051719666 0.80918794870376587 0.27497577667236328
0.51021069288253784 0.80834668874740601 0.27990379929542542
0.56502074003219604 0.80925673246383667 0.28690454363822937
0.62370860576629639 0.80844324827194214 0.2853299081325531
0.6882016658782959 0.80849403142929077 0.27646377682685852
0.74481010437011719 0.81382292509078979 0.26703426241874695
0.80183678865432739 0.81723481416702271 0.25774088501930237
0.86296087503433228 0.81968247890472412 0.24647794663906097
0.91502410173416138 0.82225495576858521 0.23828476667404175
0.96087163686752319 0.82661265134811401 0.24714943766593933
0.99475866556167603 0.83179986476898193 0.26297900080680847
0.55620306730270386 0.86061012744903564 0.34842756390571594
0.56727463006973267 0.85953211784362793 0.35005798935890198
0.58256828784942627 0.85938167572021484 0.34957417845726013
0.60801702737808228 0.85966020822525024 0.35570383071899414
0.63953477144241333 0.85979336500167847 0.36599606275558472
0.6771816611289978 0.85986292362213135 0.36530983448028564
0.72199904918670654 0.86074542999267578 0.36270397901535034
0.76796042919158936 0.8620140552520752 0.35881951451301575
0.81383895874023438 0.86435604095458984 0.35534122586250305
0.86192595958709717 0.86608785390853882 0.34506332874298096
0.90666484832763672 0.86891764402389526 0.33741319179534912
0.95692306756973267 0.87355554103851318 0.33523523807525635
0.99279773235321045 0.87999755144119263 0.34939244389533997
0.66032183170318604 0.90581667423248291 0.43643319606781006
0.66635197401046753 0.90519571304321289 0.43702888488769531
0.67554008960723877 0.90510779619216919 0.43868833780288696
0.69022190570831299 0.90645962953567505 0.4472038745880127
0.71527576446533203 0.9069969654083252 0.45590406656265259
0.74138987064361572 0.90699774026870728 0.45858901739120483
0.76770317554473877 0.90702372789382935 0.45861679315567017
0.80297666788101196 0.90863746404647827 0.45972803235054016
0.83947014808654785 0.91109997034072876 0.45897209644317627
0.87678885459899902 0.91296732425689697 0.45318764448165894
0.91436725854873657 0.91490077972412109 0.4451657235622406
0.95843660831451416 0.91817337274551392 0.44247281551361084
0.99038153886795044 0.92229759693145752 0.44279259443283081
0.74697637557983398 0.95126968622207642 0.53193420171737671
0.75117820501327515 0.95154023170471191 0.53329747915267944
0.75869500637054443 0.95138406753540039 0.53546786308288574
0.76912987232208252 0.95185142755508423 0.54315030574798584
0.78531640768051147 0.95204448699951172 0.54832971096038818
0.8011813759803772 0.95184540748596191 0.55451118946075439
0.82119148969650269 0.9524417519569397 0.55900043249130249
0.84412181377410889 0.95404678583145142 0.56067508459091187
0.86993873119354248 0.95626544952392578 0.56097722053527832
0.89769035577774048 0.95868057012557983 0.56146883964538574
0.92875075340270996 0.96019500494003296 0.55914187431335449
0.96220511198043823 0.96175283193588257 0.55870139598846436
0.9896094799041748 0.96584445238113403 0.56422722339630127
0.011825112625956535 0.041985996067523956 0.11522423475980759
0.039512064307928085 0.050168115645647049 0.11663330346345901
0.081716872751712799 0.056682974100112915 0.11713265627622604
0.14330004155635834 0.061295930296182632 0.12434569746255875
0.24708954989910126 0.057761218398809433 0.13898630440235138
0.3911704421043396 0.037608817219734192 0.15295521914958954
0.56196051836013794 0.034625139087438583 0.16727335751056671
0.71156865358352661 0.10087938606739044 0.18188321590423584
0.82722491025924683 0.21653561294078827 0.193624347448349
0.906322181224823 0.31762570142745972 0.2032431960105896
0.96331989765167236 0.40928831696510315 0.21635366976261139
0.99056315422058105 0.48849451541900635 0.24143634736537933
0.99772018194198608 0.55843091011047363 0.27366259694099426
0.011336128227412701 0.074120871722698212 0.12763655185699463
0.042937751859426498 0.081502772867679596 0.12912897765636444
0.096956513822078705 0.090836226940155029 0.13176724314689636
0.16048967838287354 0.092136800289154053 0.13637171685695648
0.26577514410018921 0.092127464711666107 0.14755204319953918
0.41047573089599609 0.092090487480163574 0.16092374920845032
0.57418316602706909 0.10521858185529709 0.17223545908927917
0.71957790851593018 0.16696777939796448 0.18246020376682281
0.82830202579498291 0.25287133455276489 0.18804216384887695
0.90491455793380737 0.34334167838096619 0.19827552139759064
0.96121507883071899 0.42702355980873108 0.21188138425350189
0.99363142251968384 0.5038142204284668 0.23486801981925964
0.99821746349334717 0.5700497031211853 0.26924863457679749
0.011501147411763668 0.12021785229444504 0.14051094651222229
0.046504106372594833 0.12591381371021271 0.14260618388652802
0.10741446912288666 0.13463495671749115 0.1468372642993927
0.18283545970916748 0.13838288187980652 0.14877910912036896
0.29343956708908081 0.14585369825363159 0.15352450311183929
0.43677777051925659 0.16478496789932251 0.16234253346920013
0.58831453323364258 0.18900883197784424 0.16915841400623322
0.72430682182312012 0.23700280487537384 0.17233218252658844
0.82868039608001709 0.3051389753818512 0.17389942705631256
0.90091019868850708 0.38479924201965332 0.18364666402339935
0.95749127864837646 0.4613192081451416 0.19961269199848175
0.99287658929824829 0.5273321270942688 0.22502361238002777
0.99799364805221558 0.58715581893920898 0.2598649263381958
0.0077541875652968884 0.19685691595077515 0.15600882470607758
0.043950684368610382 0.20010332763195038 0.1574176698923111
0.10818249732255936 0.20938031375408173 0.15989376604557037
0.19961132109165192 0.21666628122329712 0.15979553759098053
0.32544037699699402 0.22568483650684357 0.15479542315006256
0.4649980366230011 0.24017608165740967 0.1532837450504303
0.60114061832427979 0.26323220133781433 0.15201939642429352
0.72722995281219482 0.3051636815071106 0.15179064869880676
0.82681119441986084 0.36289104819297791 0.15142340958118439
0.89720827341079712 0.42882809042930603 0.16163821518421173
0.95354527235031128 0.49813109636306763 0.18079136312007904
0.99116438627243042 0.55728626251220703 0.20895220339298248
0.99781531095504761 0.60492968559265137 0.24609653651714325
0.0045890058390796185 0.31559035181999207 0.16978192329406738
0.018871979787945747 0.31304880976676941 0.16782946884632111
0.078987747430801392 0.31709343194961548 0.16866931319236755
0.20171374082565308 0.32812502980232239 0.16702783107757568
