luts/instant_consumer/polaroid_px-70_warm_+.cube
# Created by: G'MIC (https://gmic.eu)
TITLE "polaroid_px-70_warm_+"
# LUT size
LUT_3D_SIZE 5
# Data domain
DOMAIN_MIN 0.0 0.0 0.0
DOMAIN_MAX 1.0 1.0 1.0
# LUT data points
0.23978510499000549 0.15894129872322083 0.15686275064945221
0.26250389218330383 0.15818203985691071 0.15456463396549225
0.41072189807891846 0.15649215877056122 0.15640942752361298
0.8140832781791687 0.23305819928646088 0.12876258790493011
1 0.51018458604812622 0.10467679053544998
0.24191725254058838 0.1925957053899765 0.15700678527355194
0.28203782439231873 0.19916823506355286 0.1560080349445343
0.46905708312988281 0.23189516365528107 0.14530631899833679
0.83565592765808105 0.36180466413497925 0.08771592378616333
0.99965387582778931 0.57527154684066772 0.089874595403671265
0.21098297834396362 0.45565688610076904 0.13845168054103851
0.30764010548591614 0.4575217068195343 0.14055913686752319
0.57231920957565308 0.51102226972579956 0.099374212324619293
0.86180001497268677 0.60721671581268311 0.0029503765981644392
0.9968915581703186 0.67873579263687134 0.05568898469209671
0.43148207664489746 0.78857421875 0.21247959136962891
0.4947696328163147 0.77637958526611328 0.21437911689281464
0.67731082439422607 0.78775328397750854 0.23320885002613068
0.85682052373886108 0.806449294090271 0.23818306624889374
0.97536712884902954 0.82907921075820923 0.31472292542457581
0.80660152435302734 0.923847496509552 0.50372225046157837
0.81864500045776367 0.92337417602539062 0.50814265012741089
0.85574507713317871 0.92418313026428223 0.52036827802658081
0.90583324432373047 0.92923855781555176 0.53087526559829712
0.95568138360977173 0.93534660339355469 0.54688423871994019
0.24126675724983215 0.15325422585010529 0.16977813839912415
0.26178234815597534 0.15585552155971527 0.16929978132247925
0.42905387282371521 0.14410442113876343 0.18583334982395172
0.86316525936126709 0.22804278135299683 0.21434961259365082
0.99996966123580933 0.55763858556747437 0.28887209296226501
0.25346052646636963 0.21116174757480621 0.18594758212566376
0.30488184094429016 0.21411493420600891 0.18901868164539337
0.51362067461013794 0.2456594854593277 0.19932055473327637
0.87718135118484497 0.40863168239593506 0.21044610440731049
0.99993681907653809 0.61232805252075195 0.28671514987945557
0.28634926676750183 0.49333584308624268 0.21238230168819427
0.35890477895736694 0.48804029822349548 0.20656812191009521
0.60079091787338257 0.52914637327194214 0.19446441531181335
0.87542432546615601 0.61348676681518555 0.17416641116142273
0.99557089805603027 0.69272208213806152 0.255380779504776
0.4951680600643158 0.79780501127243042 0.30388501286506653
0.55035108327865601 0.78709322214126587 0.30605977773666382
0.70493519306182861 0.79373013973236084 0.33468574285507202
0.86685973405838013 0.81513291597366333 0.33928707242012024
0.97458171844482422 0.83178043365478516 0.38746649026870728
0.81628680229187012 0.92265099287033081 0.51643311977386475
0.82972002029418945 0.92275381088256836 0.52144759893417358
0.86714190244674683 0.92231601476669312 0.53120917081832886
0.91080987453460693 0.92795687913894653 0.53876090049743652
0.95825749635696411 0.93618303537368774 0.55861645936965942
0.26916974782943726 0.16524817049503326 0.26425936818122864
0.33554574847221375 0.17475518584251404 0.2665330171585083
0.51126039028167725 0.23644645512104034 0.2932838499546051
0.85501182079315186 0.22488783299922943 0.38455101847648621
0.99706947803497314 0.52231866121292114 0.45155790448188782
0.26484596729278564 0.24714462459087372 0.30152526497840881
0.37125745415687561 0.25861942768096924 0.31165388226509094
0.59216904640197754 0.35912585258483887 0.33781155943870544
0.88379526138305664 0.40695950388908386 0.40773722529411316
0.99988257884979248 0.64508485794067383 0.47452527284622192
0.31023877859115601 0.52173244953155518 0.35634684562683105
0.43025767803192139 0.52346175909042358 0.36116576194763184
0.67619806528091431 0.57699716091156006 0.39390265941619873
0.88916963338851929 0.67609012126922607 0.43915075063705444
0.98852807283401489 0.76801925897598267 0.48831555247306824
0.62357956171035767 0.80670106410980225 0.45627418160438538
0.66860705614089966 0.79928427934646606 0.45523470640182495
0.76322311162948608 0.8042486310005188 0.4608968198299408
0.8792954683303833 0.81549811363220215 0.47489139437675476
0.9721795916557312 0.83426988124847412 0.48171433806419373
0.8413427472114563 0.9190557599067688 0.54692310094833374
0.85152268409729004 0.92179447412490845 0.54652220010757446
0.88621872663497925 0.92554390430450439 0.55823147296905518
0.91895562410354614 0.92478758096694946 0.56216579675674438
0.96085792779922485 0.93762433528900146 0.57471829652786255
0.44785186648368835 0.21557579934597015 0.53537321090698242
0.58480691909790039 0.24772493541240692 0.5416724681854248
0.80575215816497803 0.44586271047592163 0.55663365125656128
0.90763801336288452 0.64761209487915039 0.5574830174446106
0.98871904611587524 0.66450083255767822 0.5666770339012146
0.42493021488189697 0.34968104958534241 0.55774104595184326
0.5831298828125 0.3889373242855072 0.55519008636474609
0.8104967474937439 0.56188416481018066 0.5596930980682373
0.91109657287597656 0.71546715497970581 0.56197631359100342
0.98492544889450073 0.72735321521759033 0.56825810670852661
0.35228583216667175 0.62535470724105835 0.5446469783782959
0.50077569484710693 0.62049251794815063 0.54639101028442383
0.78381013870239258 0.68605190515518188 0.56053954362869263
0.90311986207962036 0.78276717662811279 0.56123799085617065
0.97956794500350952 0.79768502712249756 0.57023364305496216
0.63221293687820435 0.81522125005722046 0.55073857307434082
0.67479848861694336 0.81059670448303223 0.5478096604347229
0.79706114530563354 0.81530982255935669 0.56011438369750977
0.90276789665222168 0.84799063205718994 0.56583970785140991
0.96896296739578247 0.87788015604019165 0.57653379440307617
0.85467839241027832 0.92379856109619141 0.58176517486572266
0.86426007747650146 0.92423075437545776 0.58022737503051758
0.90172082185745239 0.92768728733062744 0.59070456027984619
0.93310171365737915 0.92994099855422974 0.59954774379730225
0.96515434980392456 0.93840956687927246 0.60792809724807739
0.79616254568099976 0.62415510416030884 0.65880316495895386
0.83719062805175781 0.65882605314254761 0.65208786725997925
0.91102892160415649 0.75256538391113281 0.63895422220230103
0.94956278800964355 0.84090328216552734 0.62394964694976807
0.96894097328186035 0.88062351942062378 0.62294638156890869
0.79552209377288818 0.68944823741912842 0.65296036005020142
0.83807867765426636 0.71642094850540161 0.64639627933502197
0.90594214200973511 0.7845759391784668 0.63666331768035889
0.95005285739898682 0.85972326993942261 0.62644612789154053
0.96938025951385498 0.88522535562515259 0.62263870239257812
0.76754069328308105 0.76930862665176392 0.64237600564956665
0.80698716640472412 0.77665829658508301 0.63945084810256958
0.88852477073669434 0.81991839408874512 0.63253945112228394
0.94530248641967773 0.88044339418411255 0.62705075740814209
0.97020769119262695 0.90807503461837769 0.62922090291976929
0.73859047889709473 0.84895139932632446 0.6289246678352356
0.76536017656326294 0.84499365091323853 0.62757629156112671
0.82850027084350586 0.85053515434265137 0.62622570991516113
0.93011415004730225 0.89422184228897095 0.62962430715560913
0.9614940881729126 0.91629475355148315 0.6306833028793335
0.87906914949417114 0.93525964021682739 0.63344353437423706
0.88438493013381958 0.93452584743499756 0.63360065221786499
0.9081539511680603 0.93447405099868774 0.63223838806152344
0.94020813703536987 0.93963122367858887 0.64056909084320068
0.9664539098739624 0.94915330410003662 0.6498790979385376
