luts/instant_consumer/polaroid_px-680_cold_++.cube
# Created by: G'MIC (https://gmic.eu)
TITLE "polaroid_px-680_cold_++"
# LUT size
LUT_3D_SIZE 13
# Data domain
DOMAIN_MIN 0.0 0.0 0.0
DOMAIN_MAX 1.0 1.0 1.0
# LUT data points
0 0.23514476418495178 0.293905109167099
0 0.23173545300960541 0.2928985059261322
0.00087699142750352621 0.2273527979850769 0.29192924499511719
0.018864305689930916 0.22211089730262756 0.29157859086990356
0.15667356550693512 0.22667954862117767 0.29214683175086975
0.32849833369255066 0.23566509783267975 0.29269033670425415
0.48597478866577148 0.24822515249252319 0.29240190982818604
0.62931728363037109 0.2690502405166626 0.29174727201461792
0.73036020994186401 0.31329655647277832 0.29508677124977112
0.81087636947631836 0.36900973320007324 0.29973062872886658
0.87560427188873291 0.42734572291374207 0.30657339096069336
0.91873317956924438 0.48851528763771057 0.3185482919216156
0.94660508632659912 0.54043269157409668 0.33233234286308289
0 0.23530614376068115 0.29293385148048401
0.0013443442294374108 0.23473766446113586 0.29241853952407837
0.0037644179537892342 0.23313458263874054 0.29137051105499268
0.039047092199325562 0.23282484710216522 0.29008540511131287
0.18824714422225952 0.24012942612171173 0.291322261095047
0.34758496284484863 0.2531278133392334 0.29305922985076904
0.50124239921569824 0.27339622378349304 0.29368463158607483
0.63906699419021606 0.2934480607509613 0.2922268807888031
0.74146652221679688 0.33510813117027283 0.29384413361549377
0.81793135404586792 0.38931435346603394 0.29922568798065186
0.87169176340103149 0.44615873694419861 0.3072417676448822
0.91737759113311768 0.50369381904602051 0.31954288482666016
0.9451720118522644 0.55240130424499512 0.33404725790023804
0 0.24686329066753387 0.29302740097045898
0.0024668823461979628 0.2530207633972168 0.29343947768211365
0.0064062532037496567 0.25679430365562439 0.29265761375427246
0.07867412269115448 0.26364925503730774 0.29153329133987427
0.23356032371520996 0.26985204219818115 0.2908596396446228
0.38333284854888916 0.28474211692810059 0.29117736220359802
0.52833408117294312 0.30543255805969238 0.29167839884757996
0.64796066284179688 0.33087378740310669 0.29078632593154907
0.74365216493606567 0.37188005447387695 0.29289305210113525
0.81303602457046509 0.41937103867530823 0.2986348569393158
0.86653155088424683 0.46678054332733154 0.30547827482223511
0.91234928369522095 0.52237391471862793 0.31797382235527039
0.94589507579803467 0.57190418243408203 0.33449822664260864
0 0.2935585081577301 0.29561042785644531
0.0009901607409119606 0.29894223809242249 0.29583290219306946
0.0022773891687393188 0.30109497904777527 0.29433164000511169
0.082209236919879913 0.30860906839370728 0.29246595501899719
0.27273905277252197 0.33027374744415283 0.29083579778671265
0.41691353917121887 0.3403855562210083 0.28854310512542725
0.54715108871459961 0.35314649343490601 0.28737723827362061
0.65496993064880371 0.38038259744644165 0.28616094589233398
0.73798269033432007 0.41886866092681885 0.29093250632286072
0.80176883935928345 0.45962104201316833 0.29742693901062012
0.85826420783996582 0.49972176551818848 0.30468130111694336
0.90743106603622437 0.54443943500518799 0.31526473164558411
0.94186681509017944 0.59338688850402832 0.33270269632339478
0.00020237342687323689 0.3576604425907135 0.29919326305389404
0.00028152466984465718 0.36539795994758606 0.29827451705932617
0.0014281179755926132 0.36970001459121704 0.29625040292739868
0.078321821987628937 0.37887135148048401 0.29361194372177124
0.27223768830299377 0.39943751692771912 0.2910025417804718
0.43981125950813293 0.42740088701248169 0.28806230425834656
0.56152075529098511 0.43884891271591187 0.28496429324150085
0.65997993946075439 0.44426029920578003 0.28285467624664307
0.73461318016052246 0.46373069286346436 0.28636610507965088
0.79822397232055664 0.50134998559951782 0.29239532351493835
0.85101139545440674 0.53401517868041992 0.30048182606697083
0.89497452974319458 0.56861633062362671 0.31173568964004517
0.9331783652305603 0.61167025566101074 0.32809370756149292
0.0035901835653930902 0.43552413582801819 0.30420297384262085
0.0037006454076617956 0.44023749232292175 0.30230456590652466
0.0028531241696327925 0.44529753923416138 0.29942363500595093
0.064596138894557953 0.45426291227340698 0.29607704281806946
0.2552219033241272 0.47259145975112915 0.29492804408073425
0.41837739944458008 0.49613466858863831 0.29124876856803894
0.55779784917831421 0.52152776718139648 0.28618770837783813
0.65580445528030396 0.53112637996673584 0.28561076521873474
0.73253482580184937 0.53910905122756958 0.28737199306488037
0.79321104288101196 0.54966044425964355 0.28936335444450378
0.8423425555229187 0.56828290224075317 0.29478108882904053
0.88503319025039673 0.60006517171859741 0.3073163628578186
0.92309218645095825 0.63754022121429443 0.32359397411346436
0.0039215688593685627 0.50959199666976929 0.30859506130218506
0.0039215688593685627 0.51231688261032104 0.30606982111930847
0.00450159702450037 0.51707017421722412 0.30293521285057068
0.058113787323236465 0.52315986156463623 0.30051770806312561
0.24353562295436859 0.53630346059799194 0.30000185966491699
0.39572024345397949 0.55532932281494141 0.29773685336112976
0.52575230598449707 0.57567000389099121 0.29399552941322327
0.64247620105743408 0.60292500257492065 0.29149910807609558
0.72459512948989868 0.61788523197174072 0.29423892498016357
0.78207570314407349 0.61888414621353149 0.29706230759620667
0.83171874284744263 0.62211984395980835 0.30047416687011719
0.87376493215560913 0.63851046562194824 0.30671831965446472
0.91311728954315186 0.66753476858139038 0.3189581036567688
0.006093926727771759 0.57681280374526978 0.31081080436706543
0.0047936681658029556 0.57813620567321777 0.30832293629646301
0.0073744379915297031 0.5800977349281311 0.30567064881324768
0.092162877321243286 0.58466166257858276 0.30561375617980957
0.2574552595615387 0.59607875347137451 0.3071959912776947
0.38597604632377625 0.60886770486831665 0.30651047825813293
0.50683039426803589 0.62390506267547607 0.30651184916496277
0.6122812032699585 0.64519631862640381 0.30487987399101257
0.70297873020172119 0.67411655187606812 0.30412495136260986
0.77179503440856934 0.68861490488052368 0.30972307920455933
0.82115882635116577 0.69158089160919189 0.31648623943328857
0.86203563213348389 0.69970786571502686 0.32077199220657349
0.90341025590896606 0.71192437410354614 0.32539325952529907
0.010036423802375793 0.64077627658843994 0.31224164366722107
0.009362359531223774 0.63914006948471069 0.31034138798713684
0.05565236508846283 0.64103585481643677 0.30961281061172485
0.16847066581249237 0.64256179332733154 0.31155598163604736
0.28001505136489868 0.64826709032058716 0.31517454981803894
0.39511576294898987 0.66327911615371704 0.31778395175933838
0.5032726526260376 0.67589324712753296 0.31915876269340515
0.59729641675949097 0.69117659330368042 0.31884923577308655
0.67513453960418701 0.70990830659866333 0.32070636749267578
0.74777090549468994 0.73299682140350342 0.32545620203018188
0.80873489379882812 0.75201082229614258 0.33562847971916199
0.85175704956054688 0.7586168646812439 0.34328833222389221
0.89347749948501587 0.76722270250320435 0.35042047500610352
0.088459298014640808 0.7008327841758728 0.31585824489593506
0.11282550543546677 0.69841915369033813 0.31601244211196899
0.1775844544172287 0.69722175598144531 0.31736886501312256
0.25273647904396057 0.69921588897705078 0.32060936093330383
0.32977533340454102 0.70338612794876099 0.32588917016983032
0.41293215751647949 0.71098536252975464 0.33076074719429016
0.50426018238067627 0.72196662425994873 0.3319496214389801
0.58810216188430786 0.73547655344009399 0.33418554067611694
0.66248184442520142 0.75194108486175537 0.34059470891952515
0.72895908355712891 0.76783394813537598 0.34800958633422852
0.78912711143493652 0.78744345903396606 0.35915353894233704
0.84649801254272461 0.80751502513885498 0.37324339151382446
0.88418298959732056 0.81271803379058838 0.3840586245059967
0.252888023853302 0.75739651918411255 0.33104363083839417
0.26429712772369385 0.75425851345062256 0.33185863494873047
0.29501083493232727 0.75289279222488403 0.33242180943489075
0.33996966481208801 0.75317585468292236 0.33755764365196228
0.3936346173286438 0.75626146793365479 0.3451799750328064
0.45827028155326843 0.76216894388198853 0.35005861520767212
0.5317804217338562 0.77035444974899292 0.35276210308074951
0.59908193349838257 0.77990633249282837 0.35928788781166077
0.66289299726486206 0.79263222217559814 0.36735832691192627
0.72440731525421143 0.80692166090011597 0.37557506561279297
0.77905040979385376 0.82004702091217041 0.38782587647438049
0.83467066287994385 0.83703905344009399 0.40826103091239929
0.884135901927948 0.85361438989639282 0.42633295059204102
0.38804906606674194 0.81398260593414307 0.36117133498191833
0.39169755578041077 0.80972558259963989 0.36186698079109192
0.40780660510063171 0.80906492471694946 0.36107423901557922
0.43992948532104492 0.8114129900932312 0.36745181679725647
0.48435243964195251 0.81396657228469849 0.37525761127471924
0.5305214524269104 0.81756061315536499 0.38148728013038635
0.57935714721679688 0.82288622856140137 0.38552582263946533
0.63452118635177612 0.83028918504714966 0.39531219005584717
0.68971794843673706 0.83947008848190308 0.40607991814613342
0.74002814292907715 0.84886080026626587 0.41685217618942261
0.78541237115859985 0.85676968097686768 0.43367773294448853
0.83402860164642334 0.86688113212585449 0.45596465468406677
0.87914365530014038 0.88126349449157715 0.46874719858169556
0.52561742067337036 0.87092071771621704 0.41498798131942749
0.53024566173553467 0.86830949783325195 0.41558155417442322
0.53937667608261108 0.86773806810379028 0.41465172171592712
0.5589374303817749 0.86933940649032593 0.41844236850738525
0.58591717481613159 0.87113898992538452 0.42611074447631836
0.61855804920196533 0.87232983112335205 0.43626251816749573
0.65290910005569458 0.8750954270362854 0.44385427236557007
0.69276076555252075 0.8800850510597229 0.45291119813919067
0.73068296909332275 0.88402235507965088 0.46493545174598694
0.7724919319152832 0.8912472128868103 0.48107203841209412
0.8102651834487915 0.89670538902282715 0.49679699540138245
0.84832996129989624 0.90194952487945557 0.51817482709884644
0.88303625583648682 0.91009300947189331 0.52929019927978516
0 0.23523849248886108 0.29890727996826172
0.00018611234554555267 0.23410117626190186 0.2982698380947113
0.0036537917330861092 0.22976016998291016 0.29780870676040649
0.027772851288318634 0.22360014915466309 0.29663681983947754
0.17731617391109467 0.22680510580539703 0.29733014106750488
0.34719711542129517 0.23447120189666748 0.30090156197547913
0.50913578271865845 0.25541949272155762 0.30566030740737915
0.64515382051467896 0.28378403186798096 0.30604740977287292
0.74572306871414185 0.32878783345222473 0.310313880443573
0.81997674703598022 0.38742378354072571 0.31743678450584412
0.87536245584487915 0.44665291905403137 0.32647731900215149
0.91502600908279419 0.50842511653900146 0.34071648120880127
0.94513034820556641 0.55912500619888306 0.35310173034667969
0 0.23575751483440399 0.29835829138755798
0.0013774049002677202 0.23784103989601135 0.29785811901092529
0.0030433954671025276 0.23617339134216309 0.29735365509986877
0.053197510540485382 0.23569263517856598 0.29734492301940918
0.21066772937774658 0.24634680151939392 0.29923275113105774
0.3687380850315094 0.25665020942687988 0.30146703124046326
0.52228760719299316 0.27415341138839722 0.30415445566177368
0.65313100814819336 0.3035392165184021 0.30552434921264648
0.74842995405197144 0.3532288670539856 0.31100976467132568
0.82057589292526245 0.41000160574913025 0.31932699680328369
0.87151634693145752 0.46432304382324219 0.32626315951347351
0.91393828392028809 0.51947271823883057 0.33733397722244263
0.94383913278579712 0.56870633363723755 0.35229313373565674
0 0.25301578640937805 0.29909482598304749
0.0022675457876175642 0.26005378365516663 0.29957228899002075
0.0052794064395129681 0.25881054997444153 0.29888737201690674
0.094655252993106842 0.26432690024375916 0.29845672845840454
0.25655338168144226 0.27776053547859192 0.30025073885917664
0.40231499075889587 0.29226374626159668 0.3001149594783783
0.54295986890792847 0.30964192748069763 0.30229583382606506
0.65959733724594116 0.34062176942825317 0.30335244536399841
0.7517319917678833 0.38629215955734253 0.30855023860931396
0.8191952109336853 0.43646055459976196 0.31698757410049438
0.8684922456741333 0.48434638977050781 0.32398244738578796
0.91138166189193726 0.53354686498641968 0.33374476432800293
0.94324159622192383 0.58536213636398315 0.35171282291412354
0 0.30027437210083008 0.30258908867835999
0.0013619516976177692 0.29988744854927063 0.30163693428039551
0.0062730824574828148 0.30471202731132507 0.30136844515800476
0.11337383836507797 0.31481263041496277 0.30079552531242371
0.29318729043006897 0.33415710926055908 0.29871079325675964
0.43325230479240417 0.34358203411102295 0.29653200507164001
0.55967068672180176 0.3598511815071106 0.29768642783164978
0.66313409805297852 0.39108669757843018 0.30044320225715637
0.7484290599822998 0.43134030699729919 0.30643561482429504
0.81270074844360352 0.47177848219871521 0.31401461362838745
0.86416798830032349 0.51299107074737549 0.32309499382972717
0.90566897392272949 0.55828952789306641 0.3345218300819397
0.93909245729446411 0.60331517457962036 0.34924304485321045
0.00099835859145969152 0.37411558628082275 0.30995932221412659
0.0024882745929062366 0.37353271245956421 0.30716386437416077
0.0031930063851177692 0.37508711218833923 0.30414256453514099
0.10940707474946976 0.38655790686607361 0.30238381028175354
0.294403076171875 0.40678021311759949 0.29996347427368164
0.45227396488189697 0.43079134821891785 0.29704439640045166
0.57026374340057373 0.44175344705581665 0.29645606875419617
0.66555202007293701 0.45274180173873901 0.29765057563781738
0.74153786897659302 0.4774010181427002 0.30017974972724915
0.80513328313827515 0.51181381940841675 0.30705827474594116
0.8533821702003479 0.54488688707351685 0.31885236501693726
0.89487618207931519 0.58236563205718994 0.33130839467048645
0.92944294214248657 0.62191063165664673 0.34644034504890442
0.0036423029378056526 0.45124906301498413 0.31429144740104675
0.0040114158764481544 0.45090147852897644 0.31214195489883423
0.0054097641259431839 0.45154508948326111 0.30774319171905518
0.095533065497875214 0.46058306097984314 0.30488479137420654
0.27621793746948242 0.47807091474533081 0.303629070520401
0.43009814620018005 0.49936440587043762 0.3008330762386322
0.5667693018913269 0.52694356441497803 0.29816600680351257
0.66217905282974243 0.53762990236282349 0.29782998561859131
0.73557031154632568 0.54512208700180054 0.29876145720481873
0.7940680980682373 0.55501216650009155 0.30317947268486023
0.84133124351501465 0.58007866144180298 0.31287607550621033
0.8853028416633606 0.61139011383056641 0.32436680793762207
0.92265945672988892 0.6477818489074707 0.3418329656124115
0.0039215688593685627 0.52298474311828613 0.31624525785446167
0.0041164024733006954 0.52076578140258789 0.3133854866027832
0.0072244233451783657 0.5216975212097168 0.30954977869987488
0.10281952470541 0.52952933311462402 0.30890929698944092
0.2735256552696228 0.54277151823043823 0.30910962820053101
0.41409161686897278 0.5572550892829895 0.30760157108306885
0.53778195381164551 0.58005636930465698 0.30485352873802185
0.64906984567642212 0.60933470726013184 0.30281683802604675
0.72538632154464722 0.62011998891830444 0.30685210227966309
0.78123962879180908 0.62283420562744141 0.31143581867218018
0.83015668392181396 0.6308213472366333 0.3147951066493988
0.87500333786010742 0.64713114500045776 0.31989273428916931
0.91390770673751831 0.67757844924926758 0.33606922626495361
0.0038831823039799929 0.58416956663131714 0.31598439812660217
0.0044376896694302559 0.58473140001296997 0.31406992673873901
0.027025081217288971 0.58744102716445923 0.31211104989051819
0.14832019805908203 0.59154361486434937 0.31432834267616272
0.28198438882827759 0.59924638271331787 0.31588912010192871
0.40448042750358582 0.6124495267868042 0.31539282202720642
0.5142938494682312 0.62870967388153076 0.31393858790397644
0.61742109060287476 0.65219461917877197 0.31498268246650696
0.70964920520782471 0.67976212501525879 0.31773346662521362
0.77166903018951416 0.6911194920539856 0.32305788993835449
0.82076895236968994 0.69644385576248169 0.32816010713577271
0.86429297924041748 0.70388013124465942 0.33325070142745972
0.90403920412063599 0.71677064895629883 0.34012541174888611
0.014502910897135735 0.64518493413925171 0.31656104326248169
0.034576669335365295 0.64442157745361328 0.3158162534236908
0.10577289015054703 0.6451454758644104 0.31755504012107849
0.21146215498447418 0.64817965030670166 0.32057788968086243
0.30496802926063538 0.65306013822555542 0.32333859801292419
0.40880253911018372 0.66442811489105225 0.32497191429138184
0.51111686229705811 0.67773813009262085 0.32570105791091919
0.59975647926330566 0.69518870115280151 0.32866594195365906
0.68009787797927856 0.71555489301681519 0.33189967274665833
0.75177741050720215 0.73713493347167969 0.33800247311592102
0.81202816963195801 0.75383776426315308 0.34735333919525146
0.85462367534637451 0.7596895694732666 0.35733217000961304
0.89330822229385376 0.76555269956588745 0.36380741000175476
0.13555993139743805 0.70506143569946289 0.32301658391952515
0.16590785980224609 0.70306801795959473 0.32296058535575867
0.2154277116060257 0.70008951425552368 0.3250311017036438
0.27644854784011841 0.70079517364501953 0.32845795154571533
0.34776598215103149 0.70521050691604614 0.33328169584274292
0.42800107598304749 0.71340334415435791 0.33730736374855042
0.5160900354385376 0.72453600168228149 0.33894503116607666
0.59577924013137817 0.73945337533950806 0.34392145276069641
0.66698819398880005 0.75540417432785034 0.34948885440826416
0.73218268156051636 0.77158057689666748 0.35761487483978271
0.79352951049804688 0.79055643081665039 0.36927402019500732
0.84771376848220825 0.80793851613998413 0.38507163524627686
0.88531553745269775 0.81218081712722778 0.39607635140419006
0.27122107148170471 0.75736308097839355 0.33691757917404175
0.28855609893798828 0.75640660524368286 0.33823859691619873
0.31403806805610657 0.75483214855194092 0.34017893671989441
0.35591611266136169 0.75655490159988403 0.34250596165657043
0.40983018279075623 0.75932019948959351 0.34880796074867249
0.47141149640083313 0.76400637626647949 0.35452187061309814
0.53911805152893066 0.77167940139770508 0.36027884483337402
0.60556048154830933 0.78289657831192017 0.36750560998916626
0.66909050941467285 0.79711794853210449 0.37385234236717224
0.72608572244644165 0.80830508470535278 0.38380017876625061
0.78223001956939697 0.82130700349807739 0.3980540931224823
0.8391345739364624 0.84044569730758667 0.41810750961303711
0.88391786813735962 0.85354375839233398 0.43357419967651367
0.39546114206314087 0.81378054618835449 0.36536416411399841
0.40333905816078186 0.81046253442764282 0.36776995658874512
0.42117488384246826 0.811431884765625 0.36861521005630493
0.4525296688079834 0.81505990028381348 0.37250801920890808
0.49374234676361084 0.8165658712387085 0.38129755854606628
0.53671735525131226 0.81779509782791138 0.38784131407737732
0.58494716882705688 0.82310265302658081 0.39407140016555786
0.63908278942108154 0.83228498697280884 0.40234670042991638
0.69253969192504883 0.84231793880462646 0.41175147891044617
0.74151289463043213 0.849994957447052 0.42349588871002197
0.78934156894683838 0.85945206880569458 0.43800371885299683
0.83524215221405029 0.8692018985748291 0.45633497834205627
0.87907916307449341 0.88160067796707153 0.47310122847557068
0.52812433242797852 0.87084192037582397 0.4174652099609375
0.53358316421508789 0.86989206075668335 0.41928604245185852
0.5442461371421814 0.87042689323425293 0.41969525814056396
0.56471508741378784 0.8726385235786438 0.42336055636405945
0.59180283546447754 0.87251269817352295 0.43227282166481018
0.62222546339035034 0.8724970817565918 0.44130676984786987
0.65457165241241455 0.87463551759719849 0.44629061222076416
0.69061952829360962 0.87906712293624878 0.45388582348823547
0.7341579794883728 0.88671529293060303 0.47003090381622314
0.77378326654434204 0.89195561408996582 0.4827016294002533
0.81004506349563599 0.89694225788116455 0.4956514835357666
0.84810465574264526 0.90296977758407593 0.51526594161987305
0.88331687450408936 0.91089344024658203 0.53236168622970581
0 0.23042899370193481 0.3057025671005249
0.00063098082318902016 0.23471930623054504 0.30692905187606812
0.0036933750379830599 0.23451374471187592 0.30573436617851257
0.027696212753653526 0.22790457308292389 0.3041185736656189
0.18401886522769928 0.22847028076648712 0.30658698081970215
0.36043056845664978 0.2295231968164444 0.31048920750617981
0.52426338195800781 0.24746526777744293 0.31930974125862122
0.65742713212966919 0.29385033249855042 0.32904377579689026
0.75621867179870605 0.35420152544975281 0.33746984601020813
0.82491666078567505 0.41647863388061523 0.34591463208198547
0.87226217985153198 0.47525632381439209 0.35632580518722534
0.91066044569015503 0.53195643424987793 0.36864665150642395
0.94473809003829956 0.58377110958099365 0.37926080822944641
0.00022258383978623897 0.23507711291313171 0.30598917603492737
0.0012974608689546585 0.23988603055477142 0.30694040656089783
0.0018812890630215406 0.24082320928573608 0.30621606111526489
0.06155618280172348 0.23984858393669128 0.30633410811424255
0.22659291326999664 0.2492973655462265 0.3108486533164978
0.38845399022102356 0.25667142868041992 0.31501331925392151
0.53917437791824341 0.27319306135177612 0.32141503691673279
0.66505897045135498 0.32347759604454041 0.33050915598869324
0.75549650192260742 0.37975195050239563 0.33845257759094238
0.82336258888244629 0.43723100423812866 0.34709924459457397
0.87139356136322021 0.49105536937713623 0.35587155818939209
0.91021597385406494 0.54459285736083984 0.36702859401702881
0.94350922107696533 0.5923880934715271 0.37874910235404968
0.00080799777060747147 0.25546371936798096 0.30860164761543274
0.0051887212321162224 0.26273027062416077 0.31058096885681152
0.013466988690197468 0.26395556330680847 0.31031954288482666
0.11935415863990784 0.27055805921554565 0.31167638301849365
0.27876418828964233 0.28214594721794128 0.31444823741912842
0.42470210790634155 0.29650884866714478 0.31824484467506409
0.55793017148971558 0.32148385047912598 0.32383143901824951
0.67128807306289673 0.3649229109287262 0.32926452159881592
0.75762861967086792 0.41181287169456482 0.33548069000244141
0.82285887002944946 0.46207761764526367 0.34394380450248718
0.86996239423751831 0.50933349132537842 0.35327780246734619
0.90774405002593994 0.5552365779876709 0.36346819996833801
0.94126689434051514 0.60352087020874023 0.37691959738731384
0.0012095881393179297 0.30256950855255127 0.31338238716125488
0.0045887813903391361 0.30779144167900085 0.31464681029319763
0.025761816650629044 0.31111675500869751 0.31501448154449463
0.16042207181453705 0.32408201694488525 0.31685692071914673
0.32250425219535828 0.33777639269828796 0.31634524464607239
0.45594331622123718 0.35094162821769714 0.31618687510490417
0.57221746444702148 0.37580928206443787 0.32013556361198425
0.67454475164413452 0.40980434417724609 0.32419848442077637
0.75622999668121338 0.44861695170402527 0.33047908544540405
0.81794250011444092 0.48774856328964233 0.33726707100868225
0.86441624164581299 0.52705079317092896 0.34708097577095032
0.90140426158905029 0.57052063941955566 0.35819247364997864
0.93554568290710449 0.61236017942428589 0.37015193700790405
0.003003348596394062 0.38287621736526489 0.32182839512825012
0.010005367919802666 0.38320526480674744 0.32080599665641785
0.037276774644851685 0.38529327511787415 0.31861266493797302
0.17253527045249939 0.39702758193016052 0.31940826773643494
0.33197715878486633 0.41587427258491516 0.3187277615070343
0.46829062700271606 0.43181028962135315 0.31743091344833374
0.5816156268119812 0.44728538393974304 0.31787839531898499
0.67360013723373413 0.46223276853561401 0.31872332096099854
0.74408125877380371 0.48909518122673035 0.32317161560058594
0.80575519800186157 0.52401101589202881 0.33032187819480896
