luts/instant_consumer/polaroid_time_zero_expired.cube
# Created by: G'MIC (https://gmic.eu)
TITLE "polaroid_time_zero_expired"
# LUT size
LUT_3D_SIZE 13
# Data domain
DOMAIN_MIN 0.0 0.0 0.0
DOMAIN_MAX 1.0 1.0 1.0
# LUT data points
0.61571425199508667 0.34892585873603821 0.13280202448368073
0.61718589067459106 0.34642159938812256 0.13005316257476807
0.62092477083206177 0.34559044241905212 0.12935361266136169
0.62828946113586426 0.34622657299041748 0.12933844327926636
0.64098381996154785 0.34766528010368347 0.12965770065784454
0.65959686040878296 0.34987831115722656 0.13054358959197998
0.68460553884506226 0.35051587224006653 0.13080574572086334
0.71531927585601807 0.35030350089073181 0.12978914380073547
0.74999809265136719 0.35101336240768433 0.12874199450016022
0.78772181272506714 0.35404407978057861 0.12876766920089722
0.82651597261428833 0.35998338460922241 0.13094852864742279
0.86501538753509521 0.36955690383911133 0.13659469783306122
0.90216612815856934 0.38256910443305969 0.14680592715740204
0.61788749694824219 0.35559201240539551 0.13145878911018372
0.61968702077865601 0.35299926996231079 0.13022851943969727
0.62367552518844604 0.35216554999351501 0.12986291944980621
0.63173896074295044 0.35242170095443726 0.13081525266170502
0.64491927623748779 0.35396835207939148 0.13224180042743683
0.66400706768035889 0.35555127263069153 0.1321662962436676
0.68929249048233032 0.35659530758857727 0.13033299148082733
0.72002249956130981 0.35726702213287354 0.12752370536327362
0.75475162267684937 0.35886687040328979 0.12495797872543335
0.79257941246032715 0.36202681064605713 0.12343636155128479
0.83203929662704468 0.36828476190567017 0.12473665177822113
0.87125527858734131 0.37810048460960388 0.13017764687538147
0.90906065702438354 0.39179182052612305 0.14066562056541443
0.62048125267028809 0.36582359671592712 0.12920078635215759
0.62305516004562378 0.36335998773574829 0.12875796854496002
0.62827444076538086 0.36248138546943665 0.1294594407081604
0.63739126920700073 0.36271977424621582 0.13119086623191833
0.65128850936889648 0.36396363377571106 0.13309101760387421
0.67092663049697876 0.36569675803184509 0.13260094821453094
0.69625061750411987 0.36782640218734741 0.12923060357570648
0.72658491134643555 0.36957576870918274 0.12486293911933899
0.76096296310424805 0.37187743186950684 0.1205083504319191
0.79810225963592529 0.3755391538143158 0.11734490841627121
0.83740544319152832 0.38193213939666748 0.11767067760229111
0.8771519660949707 0.39206698536872864 0.12353505194187164
0.91536861658096313 0.40661370754241943 0.13511323928833008
0.62531149387359619 0.38231346011161804 0.12327387183904648
0.6287798285484314 0.37993380427360535 0.12284097075462341
0.63534468412399292 0.37994852662086487 0.12346678972244263
0.64554399251937866 0.38006377220153809 0.12591302394866943
0.6604233980178833 0.38059544563293457 0.12913435697555542
0.68054288625717163 0.38346797227859497 0.12920281291007996
0.70592212677001953 0.38678741455078125 0.12588672339916229
0.7355998158454895 0.38988268375396729 0.12107684463262558
0.76842707395553589 0.39283877611160278 0.11539074778556824
0.80414384603500366 0.39654973149299622 0.10980689525604248
0.84242600202560425 0.40296933054924011 0.10804294049739838
0.88203704357147217 0.41325870156288147 0.11398879438638687
0.920737624168396 0.4279991090297699 0.1272110790014267
0.63266503810882568 0.40744203329086304 0.11027254909276962
0.63729923963546753 0.40637251734733582 0.10902732610702515
0.64494037628173828 0.4068758487701416 0.10867493599653244
0.65644115209579468 0.40735173225402832 0.11046978831291199
0.67246568202972412 0.40853786468505859 0.11468292027711868
0.69339478015899658 0.41152557730674744 0.11744742095470428
0.71881103515625 0.41633999347686768 0.1172502413392067
0.74750524759292603 0.42061156034469604 0.11636180430650711
0.7782629132270813 0.42353665828704834 0.11141806095838547
0.81104058027267456 0.4264504611492157 0.10220514982938766
0.84704256057739258 0.43246263265609741 0.095845192670822144
0.8857884407043457 0.44295138120651245 0.098827630281448364
0.92410272359848022 0.45748752355575562 0.11230054497718811
0.64307904243469238 0.44338566064834595 0.088288776576519012
0.64852100610733032 0.44242474436759949 0.086598187685012817
0.65715909004211426 0.44386518001556396 0.084379993379116058
0.66987508535385132 0.44518375396728516 0.083044163882732391
0.68722254037857056 0.44811424612998962 0.08445701003074646
0.70907902717590332 0.45180711150169373 0.08980146050453186
0.73500245809555054 0.45681196451187134 0.099276222288608551
0.76289409399032593 0.46135720610618591 0.10925415903329849
0.7913394570350647 0.46436840295791626 0.10963833332061768
0.8205140233039856 0.46657481789588928 0.097975954413414001
0.85293442010879517 0.47153234481811523 0.084885813295841217
0.88869607448577881 0.48148009181022644 0.080488957464694977
0.92467844486236572 0.49570193886756897 0.088085278868675232
0.65607833862304688 0.48710513114929199 0.060981210321187973
0.6617811918258667 0.48643589019775391 0.058969967067241669
0.67117989063262939 0.48849111795425415 0.05460873618721962
0.68492794036865234 0.49148833751678467 0.048554558306932449
0.70307028293609619 0.49557334184646606 0.044174492359161377
0.7261771559715271 0.49975347518920898 0.049587592482566833
0.75220763683319092 0.50447332859039307 0.068442642688751221
0.78003489971160889 0.50953435897827148 0.093675576150417328
0.80754679441452026 0.51342439651489258 0.10696577280759811
0.83431357145309448 0.51620078086853027 0.10076199471950531
0.86251610517501831 0.52007341384887695 0.084161274135112762
0.89341223239898682 0.52843683958053589 0.070625782012939453
0.92513424158096313 0.54117131233215332 0.070252254605293274
0.67122882604598999 0.53652215003967285 0.033676687628030777
0.67699211835861206 0.53643828630447388 0.031741857528686523
0.68634986877441406 0.53806620836257935 0.026806565001606941
0.70021432638168335 0.54141008853912354 0.017555356025695801
0.7188982367515564 0.54577624797821045 0.0083055533468723297
0.74188774824142456 0.54979205131530762 0.009519629180431366
0.76806306838989258 0.5538526177406311 0.026755359023809433
0.79594075679779053 0.55938810110092163 0.056316688656806946
0.82374739646911621 0.5655590295791626 0.085208415985107422
0.85019034147262573 0.57129913568496704 0.10536714643239975
0.87481826543807983 0.57500672340393066 0.10045453161001205
0.9005163311958313 0.58157014846801758 0.086279459297657013
0.92821258306503296 0.59262359142303467 0.083038777112960815
0.68834394216537476 0.58874726295471191 0.011587599292397499
0.69356048107147217 0.58874136209487915 0.011335365474224091
0.7024189829826355 0.5900077223777771 0.0078286565840244293
0.71533501148223877 0.59230393171310425 0.0015053243841975927
0.73317378759384155 0.59538435935974121 0
0.75573760271072388 0.59888118505477905 0
0.78139227628707886 0.60267847776412964 0.0010535146575421095
0.80870091915130615 0.60816776752471924 0.010842596180737019
0.83678066730499268 0.61564624309539795 0.040682610124349594
0.86384499073028564 0.62561166286468506 0.098776392638683319
0.88710129261016846 0.63176929950714111 0.13022059202194214
0.90935981273651123 0.63778585195541382 0.13305386900901794
0.9334636926651001 0.64748716354370117 0.13608834147453308
0.70777839422225952 0.64249587059020996 0.0013885498046875
0.71259421110153198 0.64235961437225342 0.0011433170875534415
0.72034341096878052 0.64291256666183472 0.00050446751993149519
0.73179954290390015 0.64396661520004272 0
0.74799227714538574 0.6457207202911377 0
0.76893287897109985 0.64875155687332153 0
0.79331928491592407 0.65268748998641968 0
0.81945633888244629 0.65799862146377563 8.0781828728504479e-06
0.84583991765975952 0.66450494527816772 0.0071819680742919445
0.87225663661956787 0.67432016134262085 0.069402895867824554
0.89582681655883789 0.6826331615447998 0.1410670131444931
0.9170222282409668 0.69011527299880981 0.1869913637638092
0.93881314992904663 0.7006872296333313 0.2097209095954895
0.73166418075561523 0.69698822498321533 0
0.73581802845001221 0.6965901255607605 0
0.74268639087677002 0.6966138482093811 4.6673943870700896e-05
0.75257611274719238 0.69706076383590698 0.00010501637007109821
0.76624786853790283 0.6980280876159668 0
0.78472185134887695 0.70067530870437622 0.00011453067418187857
0.80772370100021362 0.70480966567993164 0.0010074091842398047
0.83218950033187866 0.70988720655441284 0.00011705884389812127
0.85621058940887451 0.71514230966567993 0.0015432918444275856
0.88098263740539551 0.72158950567245483 0.055898554623126984
0.904319167137146 0.72850978374481201 0.14689856767654419
0.92431789636611938 0.73635715246200562 0.22376702725887299
0.94195616245269775 0.74671334028244019 0.27929100394248962
0.76148653030395508 0.75171375274658203 0
0.76510000228881836 0.75136232376098633 0
0.77095729112625122 0.75115388631820679 0
0.7794913649559021 0.75155717134475708 0
0.79131340980529785 0.7526242733001709 0
0.80678695440292358 0.75412195920944214 0.00039596558781340718
0.82600986957550049 0.75732499361038208 0.0024742723908275366
0.8489607572555542 0.76198256015777588 0.00012545118806883693
0.87188994884490967 0.76610153913497925 0.0077800676226615906
0.89545023441314697 0.76977747678756714 0.087443903088569641
0.91611760854721069 0.7727811336517334 0.17927132546901703
0.93254780769348145 0.77756613492965698 0.25048792362213135
0.94678473472595215 0.78505939245223999 0.31472319364547729
0.79778945446014404 0.80582106113433838 0.0044137993827462196
0.80051970481872559 0.80554044246673584 0.0034161435905843973
0.80510294437408447 0.8050878643989563 0.001158291706815362
0.81201565265655518 0.80560195446014404 7.0010914896556642e-06
0.82192331552505493 0.80632436275482178 0.00022850785171613097
0.83400750160217285 0.80693191289901733 0.0010532753076404333
0.85045242309570312 0.80938082933425903 0.001514374976977706
0.87053686380386353 0.81224817037582397 0.0074238795787096024
0.89283245801925659 0.81380480527877808 0.078289777040481567
0.91347646713256836 0.81489157676696777 0.17571979761123657
0.92997395992279053 0.81629776954650879 0.25201627612113953
0.94400674104690552 0.81847590208053589 0.31134769320487976
0.95653825998306274 0.82355242967605591 0.37000924348831177
0.61568629741668701 0.34655815362930298 0.13839411735534668
0.61581712961196899 0.3445926308631897 0.13461233675479889
0.61926877498626709 0.34414970874786377 0.13237811625003815
0.62632161378860474 0.34557291865348816 0.13206164538860321
0.63867920637130737 0.34707486629486084 0.13310375809669495
0.65773671865463257 0.34863018989562988 0.13465748727321625
0.68350756168365479 0.34972688555717468 0.13646627962589264
0.7156451940536499 0.34975489974021912 0.13810808956623077
0.75209254026412964 0.35021600127220154 0.1391792893409729
0.79113936424255371 0.35317772626876831 0.13990278542041779
0.83124518394470215 0.35969710350036621 0.14159274101257324
0.8710935115814209 0.3697974681854248 0.14618396759033203
0.90831452608108521 0.38394638895988464 0.15546210110187531
0.61781728267669678 0.3536212146282196 0.13705769181251526
0.61885190010070801 0.35197433829307556 0.13491538166999817
0.62217342853546143 0.35190638899803162 0.1342727392911911
0.62975645065307617 0.35211870074272156 0.13441573083400726
0.64292418956756592 0.35360467433929443 0.13501362502574921
0.66231882572174072 0.35496437549591064 0.13546708226203918
0.68838393688201904 0.35588234663009644 0.13579010963439941
0.72035497426986694 0.35590198636054993 0.1355566531419754
0.75697064399719238 0.35724788904190063 0.13501143455505371
0.79628288745880127 0.36058884859085083 0.13464543223381042
0.8367580771446228 0.36670485138893127 0.13548138737678528
0.87660622596740723 0.37715592980384827 0.13998141884803772
0.9147104024887085 0.39175409078598022 0.14935076236724854
0.62084817886352539 0.36456167697906494 0.13512961566448212
0.62252527475357056 0.3622538149356842 0.13420023024082184
0.62709224224090576 0.36201733350753784 0.13431477546691895
0.63611549139022827 0.36268347501754761 0.13505882024765015
0.64968192577362061 0.36427551507949829 0.13589103519916534
0.66948491334915161 0.36550700664520264 0.13542410731315613
0.69575959444046021 0.36681786179542542 0.13386337459087372
0.72716373205184937 0.36834588646888733 0.13170880079269409
0.76312154531478882 0.37014871835708618 0.12987986207008362
0.80181306600570679 0.3736632764339447 0.12825915217399597
0.84188336133956909 0.3800501823425293 0.12869147956371307
0.88210630416870117 0.39065295457839966 0.13374041020870209
0.92052489519119263 0.40635430812835693 0.14448022842407227
0.62583059072494507 0.38155871629714966 0.12923330068588257
0.62871164083480835 0.37958541512489319 0.1289374977350235
0.63444894552230835 0.37982136011123657 0.12915726006031036
0.64445358514785767 0.38042566180229187 0.13084962964057922
0.65936791896820068 0.38193410634994507 0.1323285698890686
0.67984908819198608 0.38408514857292175 0.13197268545627594
0.70572948455810547 0.38642939925193787 0.12931367754936218
0.73636859655380249 0.38885217905044556 0.12669767439365387
0.77081573009490967 0.39144730567932129 0.12413059175014496
0.80765873193740845 0.39504352211952209 0.12077454477548599
0.84668034315109253 0.40183630585670471 0.11974150687456131
0.88640099763870239 0.41261938214302063 0.12525221705436707
0.92481380701065063 0.42847916483879089 0.13771386444568634
0.63345783948898315 0.40744209289550781 0.11705406010150909
0.637237548828125 0.4062226414680481 0.11654959619045258
0.64442825317382812 0.40686425566673279 0.11609529703855515
0.65594255924224854 0.40801507234573364 0.11751063913106918
0.67202252149581909 0.41014078259468079 0.11943572014570236
0.69330334663391113 0.41301688551902771 0.12085424363613129
0.71922832727432251 0.41680291295051575 0.12161529809236526
0.74879258871078491 0.42038744688034058 0.122109055519104
0.78085774183273315 0.42295676469802856 0.1201881542801857
0.8147892951965332 0.42612800002098083 0.1139148622751236
0.85101050138473511 0.43236306309700012 0.10880530625581741
0.88941597938537598 0.44338995218276978 0.11204411834478378
0.92704468965530396 0.45929744839668274 0.1252114474773407
0.64374333620071411 0.44340252876281738 0.096341691911220551
0.64851349592208862 0.44240549206733704 0.095660068094730377
0.65674316883087158 0.4439576268196106 0.094441264867782593
0.66943281888961792 0.44582369923591614 0.093137331306934357
0.68705850839614868 0.44904592633247375 0.094001397490501404
0.70952349901199341 0.45322570204734802 0.098569326102733612
0.73607677221298218 0.45801815390586853 0.10756082087755203
0.76482480764389038 0.46219182014465332 0.11755360662937164
0.7941439151763916 0.4650176465511322 0.11995743215084076
0.82425695657730103 0.46718695759773254 0.11158783733844757
0.85656410455703735 0.47222474217414856 0.10015722364187241
0.89185178279876709 0.4825168251991272 0.096729472279548645
0.92771649360656738 0.49781721830368042 0.1057031974196434
0.65670418739318848 0.48725605010986328 0.069073602557182312
0.66201013326644897 0.48701176047325134 0.068622991442680359
0.67106431722640991 0.48899996280670166 0.066061988472938538
0.68466866016387939 0.49183410406112671 0.061205547302961349
0.70307987928390503 0.49577459692955017 0.058230798691511154
0.72680485248565674 0.50045567750930786 0.062778875231742859
0.75381845235824585 0.50579965114593506 0.080006271600723267
0.78222954273223877 0.51103538274765015 0.10300297290086746
0.81017875671386719 0.51478546857833862 0.11782486736774445
0.83718079328536987 0.51739585399627686 0.11658243089914322
0.86520624160766602 0.52127128839492798 0.10261350125074387
0.89586478471755981 0.52955585718154907 0.090322248637676239
0.92794841527938843 0.54309195280075073 0.091561049222946167
0.67212837934494019 0.53696161508560181 0.037888575345277786
0.67740970849990845 0.53733402490615845 0.038443412631750107
0.68647050857543945 0.53934609889984131 0.03614724799990654
0.70000946521759033 0.5421217679977417 0.028596272692084312
0.71872431039810181 0.54570168256759644 0.020066175609827042
0.74229198694229126 0.54974138736724854 0.020042179152369499
0.7694583535194397 0.55477601289749146 0.036191649734973907
0.79785996675491333 0.56117737293243408 0.068148821592330933
0.82572764158248901 0.56773018836975098 0.10186583548784256
0.85200190544128418 0.57297372817993164 0.1240849643945694
0.87667101621627808 0.5769924521446228 0.12183700501918793
0.90235799551010132 0.583171546459198 0.10701236873865128
0.93023538589477539 0.59398043155670166 0.10205090045928955
0.6890113353729248 0.58970183134078979 0.0082925083115696907
0.69379180669784546 0.59012258052825928 0.01070982962846756
0.70224630832672119 0.59146404266357422 0.010485211387276649
0.71492451429367065 0.59343534708023071 0.0045977872796356678
0.73275649547576904 0.59594345092773438 0.00076459994306787848
0.75570929050445557 0.59908562898635864 0.00027729108114726841
0.78211516141891479 0.60349488258361816 0.0028683382552117109
0.80995142459869385 0.61034172773361206 0.023899886757135391
0.83768558502197266 0.61867010593414307 0.065561763942241669
0.86415791511535645 0.62711799144744873 0.11710004508495331
0.88743817806243896 0.63273197412490845 0.1450401246547699
0.91004866361618042 0.63867330551147461 0.1460527777671814
0.93438923358917236 0.64829307794570923 0.14467214047908783
0.70780879259109497 0.64351910352706909 0
0.71230262517929077 0.64370763301849365 0
0.71919435262680054 0.64412605762481689 0
0.73086392879486084 0.64487767219543457 0
0.7471509575843811 0.64688515663146973 0
0.76835781335830688 0.64940667152404785 0
0.7931981086730957 0.65363484621047974 0
0.81972575187683105 0.65952557325363159 0.0017277287552133203
0.84609586000442505 0.66675645112991333 0.024347057566046715
0.87194043397903442 0.67508351802825928 0.088207349181175232
0.89482522010803223 0.68221855163574219 0.15305677056312561
0.91648346185684204 0.69023627042770386 0.19052638113498688
0.93845885992050171 0.70136773586273193 0.21053881943225861
0.73122411966323853 0.69878596067428589 0
0.7341231107711792 0.69847923517227173 0
0.74067914485931396 0.69802844524383545 0.00053012324497103691
0.75115442276000977 0.69841420650482178 0.00054532219655811787
0.76505672931671143 0.69958162307739258 0
0.78357750177383423 0.70138585567474365 2.9320810881472426e-06
0.80657804012298584 0.70495724678039551 0.00017655316332820803
0.83202356100082397 0.71026015281677246 8.3773747974191792e-06
0.85642582178115845 0.71581131219863892 0.0075971717014908791
0.88116323947906494 0.72193342447280884 0.074636839330196381
0.90369915962219238 0.72786372900009155 0.15980072319507599
0.92371493577957153 0.73639595508575439 0.22456879913806915
0.94160264730453491 0.74806267023086548 0.28207919001579285
0.76037633419036865 0.75309532880783081 0
0.76360172033309937 0.75320827960968018 0
0.76891124248504639 0.75250214338302612 0.00056574202608317137
0.77813100814819336 0.75329899787902832 0.001185308676213026
0.7902752161026001 0.75416713953018188 0
0.80477410554885864 0.75464707612991333 1.7487769582658075e-05
0.82503962516784668 0.75688296556472778 0.0020000084768980742
0.8501201868057251 0.7620355486869812 0.00050342036411166191
0.87342303991317749 0.76710283756256104 0.021127574145793915
0.89636135101318359 0.77039730548858643 0.11198679357767105
0.91629403829574585 0.77287155389785767 0.19343103468418121
0.93243539333343506 0.77797913551330566 0.25759166479110718
0.9460023045539856 0.78701907396316528 0.32793816924095154
0.79867726564407349 0.80642861127853394 0.02075551263988018
0.80029642581939697 0.80650371313095093 0.015887033194303513
0.80416905879974365 0.80580645799636841 0.0070113986730575562
0.81129294633865356 0.80637407302856445 0.0026186027098447084
0.82160806655883789 0.80754971504211426 0.0026827794499695301
0.83318591117858887 0.80666452646255493 0.00074833887629210949
0.84944659471511841 0.80828362703323364 0.00051185756456106901
0.87142270803451538 0.81246167421340942 0.016695523634552956
0.89248526096343994 0.81479924917221069 0.094926856458187103
0.91390448808670044 0.81534314155578613 0.1936047226190567
0.93014067411422729 0.81669241189956665 0.26400288939476013
0.94375526905059814 0.81883937120437622 0.31867974996566772
0.95610374212265015 0.82447093725204468 0.3786308765411377
0.61781901121139526 0.34568902850151062 0.14756406843662262
0.61772477626800537 0.34440153837203979 0.14240922033786774
0.62034153938293457 0.34479120373725891 0.13980156183242798
0.6268877387046814 0.34630629420280457 0.13904862105846405
0.638896644115448 0.34776735305786133 0.13983249664306641
0.65802884101867676 0.34938398003578186 0.14264200627803802
0.68471944332122803 0.34997564554214478 0.14753124117851257
0.717906653881073 0.34992486238479614 0.15251909196376801
0.75570321083068848 0.35066425800323486 0.15615317225456238
0.7959589958190918 0.35407787561416626 0.15782463550567627
0.83690452575683594 0.36087274551391602 0.15851929783821106
0.87679672241210938 0.37197154760360718 0.16129735112190247
0.91447830200195312 0.38730958104133606 0.16901667416095734
0.62057143449783325 0.35321202874183655 0.14635267853736877
0.62071233987808228 0.35198962688446045 0.14297573268413544
0.62379664182662964 0.35236096382141113 0.14156924188137054
0.63093549013137817 0.35352945327758789 0.14140698313713074
0.64363503456115723 0.35513240098953247 0.14229422807693481
0.66302943229675293 0.35619872808456421 0.1439821869134903
0.68976974487304688 0.35629308223724365 0.14663897454738617
0.72308695316314697 0.35630571842193604 0.14984358847141266
0.76091492176055908 0.35742855072021484 0.15196405351161957
0.80127644538879395 0.36078920960426331 0.15253275632858276
0.84218668937683105 0.36720851063728333 0.15273448824882507
0.88250041007995605 0.37787574529647827 0.15514867007732391
0.92040687799453735 0.39349383115768433 0.16314025223255157
0.62407833337783813 0.36520177125930786 0.14466114342212677
0.62523925304412842 0.36369669437408447 0.14272554218769073
0.62944197654724121 0.36394116282463074 0.14227941632270813
0.63767832517623901 0.36522895097732544 0.1433182954788208
0.65120011568069458 0.36659112572669983 0.14386165142059326
0.67105698585510254 0.36762946844100952 0.14390653371810913
0.6973995566368103 0.36830383539199829 0.14418923854827881
0.73007506132125854 0.36862865090370178 0.14533901214599609
0.76729089021682739 0.37043830752372742 0.14656081795692444
0.80688202381134033 0.37385809421539307 0.1464739590883255
0.84729647636413574 0.38035988807678223 0.1463455855846405
0.88716977834701538 0.39102190732955933 0.14951670169830322
0.92505478858947754 0.40726393461227417 0.15898251533508301
0.62954592704772949 0.38318851590156555 0.13954424858093262
0.6315498948097229 0.38151818513870239 0.13901585340499878
0.63705337047576904 0.38203144073486328 0.13952736556529999
0.64670133590698242 0.38363814353942871 0.14052382111549377
0.66133648157119751 0.38527226448059082 0.14099757373332977
0.68153566122055054 0.38690978288650513 0.14040869474411011
0.70759886503219604 0.38837823271751404 0.13866925239562988
0.7392614483833313 0.38960739970207214 0.13853232562541962
0.77508270740509033 0.39203345775604248 0.13982246816158295
0.81306999921798706 0.39600419998168945 0.13872493803501129
0.8516724705696106 0.4029231071472168 0.13779443502426147
0.89058768749237061 0.41427519917488098 0.14233525097370148
0.92837131023406982 0.43077343702316284 0.15403541922569275
0.63662183284759521 0.40909364819526672 0.12871626019477844
0.6398923397064209 0.4078332781791687 0.12873396277427673
0.64664715528488159 0.40879616141319275 0.12920387089252472
0.65776091814041138 0.41096746921539307 0.1299966424703598
0.67378205060958862 0.41354984045028687 0.13165725767612457
0.69507211446762085 0.41652315855026245 0.13224528729915619
0.72108453512191772 0.41918078064918518 0.13256652653217316
0.75141733884811401 0.4214184582233429 0.13410425186157227
0.78498238325119019 0.42449304461479187 0.13607765734195709
0.81960254907608032 0.42785570025444031 0.13165545463562012
0.85555213689804077 0.4344254732131958 0.12720310688018799
0.89297389984130859 0.44617825746536255 0.13124257326126099
0.92989331483840942 0.46321764588356018 0.1456669420003891
