luts/instant_consumer/polaroid_px-100uv+_warm_++.cube
# Created by: G'MIC (https://gmic.eu)
TITLE "polaroid_px-100uv+_warm_++"
# LUT size
LUT_3D_SIZE 13
# Data domain
DOMAIN_MIN 0.0 0.0 0.0
DOMAIN_MAX 1.0 1.0 1.0
# LUT data points
0.42352941632270813 0.38428571820259094 0.38823530077934265
0.42352941632270813 0.38431373238563538 0.38823530077934265
0.4239078164100647 0.38452664017677307 0.38842019438743591
0.42449298501014709 0.38475030660629272 0.38869288563728333
0.4266502857208252 0.38630136847496033 0.39046177268028259
0.43289375305175781 0.39271658658981323 0.39727437496185303
0.44570595026016235 0.40629422664642334 0.41071715950965881
0.46624773740768433 0.42862111330032349 0.43264320492744446
0.49393662810325623 0.45878073573112488 0.46186989545822144
0.52589863538742065 0.49332970380783081 0.49488988518714905
0.56007784605026245 0.53024506568908691 0.52961301803588867
0.59517258405685425 0.56851619482040405 0.56502264738082886
0.62982690334320068 0.60542738437652588 0.59926921129226685
0.42311868071556091 0.38368070125579834 0.38823530077934265
0.42352941632270813 0.38431373238563538 0.38823530077934265
0.42511746287345886 0.38576331734657288 0.38931339979171753
0.42659413814544678 0.38682496547698975 0.39057713747024536
0.42825216054916382 0.38863974809646606 0.39278092980384827
0.43474125862121582 0.39540207386016846 0.39990755915641785
0.44787001609802246 0.40929746627807617 0.41411203145980835
0.46825999021530151 0.4311879575252533 0.43574181199073792
0.49512693285942078 0.46004238724708557 0.46383506059646606
0.52624160051345825 0.49362450838088989 0.49597808718681335
0.5600508451461792 0.53021723031997681 0.53048586845397949
0.59546250104904175 0.56862747669219971 0.56559401750564575
0.63029968738555908 0.60582685470581055 0.59993821382522583
0.42324739694595337 0.38393819332122803 0.38823530077934265
0.42352941632270813 0.38433346152305603 0.38825502991676331
0.42532128095626831 0.38622042536735535 0.39001303911209106
0.42739519476890564 0.38818591833114624 0.3920668363571167
0.43017253279685974 0.39117756485939026 0.39544311165809631
0.43752950429916382 0.39882215857505798 0.40347069501876831
0.45075401663780212 0.4129086434841156 0.41791141033172607
0.47053951025009155 0.43402349948883057 0.43917495012283325
0.4961087703704834 0.46139886975288391 0.46594801545143127
0.52641314268112183 0.49358990788459778 0.49702394008636475
0.55983757972717285 0.52963632345199585 0.53068739175796509
0.59526258707046509 0.56816750764846802 0.56580603122711182
0.63084882497787476 0.60667747259140015 0.60077321529388428
0.42567402124404907 0.38647770881652832 0.39072194695472717
0.42636874318122864 0.3873445987701416 0.39159289002418518
0.42827147245407104 0.38926127552986145 0.39327740669250488
0.43014433979988098 0.3914375901222229 0.39545035362243652
0.43407589197158813 0.39551210403442383 0.39978957176208496
0.44173625111579895 0.40359875559806824 0.40817692875862122
0.45480877161026001 0.41730508208274841 0.42258107662200928
0.47356489300727844 0.4373869001865387 0.44298842549324036
0.49777945876121521 0.46297675371170044 0.46833974123001099
0.52653759717941284 0.4936661422252655 0.49789473414421082
0.55937778949737549 0.52885729074478149 0.53094935417175293
0.59563463926315308 0.5680122971534729 0.5662645697593689
0.63207954168319702 0.60748827457427979 0.60202294588088989
0.43416723608970642 0.39534720778465271 0.40008342266082764
0.43450495600700378 0.39565017819404602 0.40023881196975708
0.43574684858322144 0.39715522527694702 0.40142467617988586
0.43771696090698242 0.39942061901092529 0.40362986922264099
0.44142377376556396 0.40353286266326904 0.40783092379570007
0.44878658652305603 0.41124311089515686 0.41600579023361206
0.46127200126647949 0.42446371912956238 0.42963489890098572
0.47894939780235291 0.44308781623840332 0.44892415404319763
0.50150281190872192 0.46679285168647766 0.47265198826789856
0.52831929922103882 0.49516814947128296 0.50027865171432495
0.56011641025543213 0.52950644493103027 0.53217065334320068
0.59680426120758057 0.56898456811904907 0.56797158718109131
0.63487595319747925 0.61017036437988281 0.60455179214477539
0.44846588373184204 0.41059413552284241 0.41535037755966187
0.44846436381340027 0.41064506769180298 0.4153883159160614
0.44972580671310425 0.41169488430023193 0.41601184010505676
0.45125371217727661 0.41376635432243347 0.41810131072998047
0.45452603697776794 0.41740632057189941 0.42154234647750854
0.46107310056686401 0.42445093393325806 0.42884469032287598
0.47264721989631653 0.4366033673286438 0.44174733757972717
0.48908147215843201 0.45381590723991394 0.45959129929542542
0.50961506366729736 0.47525998950004578 0.48145142197608948
0.53405386209487915 0.50128018856048584 0.50660967826843262
0.56398922204971313 0.53316295146942139 0.5365874171257019
0.60057556629180908 0.57262814044952393 0.57200324535369873
0.63908672332763672 0.61445909738540649 0.60884267091751099
0.46847060322761536 0.43134784698486328 0.43625599145889282
0.46878799796104431 0.43172219395637512 0.43659356236457825
0.46998104453086853 0.43315050005912781 0.43760806322097778
0.47143435478210449 0.43515512347221375 0.43938592076301575
0.47430881857872009 0.4383394718170166 0.44246077537536621
0.48016649484634399 0.44474205374717712 0.44896510243415833
0.49063518643379211 0.45576366782188416 0.46050357818603516
0.50577789545059204 0.47157195210456848 0.47648066282272339
0.52463936805725098 0.49131810665130615 0.49658757448196411
0.54746335744857788 0.51534861326217651 0.52025407552719116
0.57547986507415771 0.54519587755203247 0.54800844192504883
0.6094977855682373 0.58202981948852539 0.58096504211425781
0.64569282531738281 0.62111800909042358 0.61540877819061279
0.49417683482170105 0.45887571573257446 0.46304991841316223
0.49542206525802612 0.45984920859336853 0.46421670913696289
0.49674868583679199 0.46164482831954956 0.46553352475166321
0.49816668033599854 0.4634532630443573 0.46720424294471741
0.50064688920974731 0.46633139252662659 0.46997424960136414
0.50593143701553345 0.47212019562721252 0.47585293650627136
0.51549863815307617 0.48216074705123901 0.48617196083068848
0.52934789657592773 0.49660313129425049 0.50069564580917358
0.54701465368270874 0.51505428552627563 0.51906424760818481
0.56844854354858398 0.53769272565841675 0.54069554805755615
0.59419453144073486 0.56523364782333374 0.5662190318107605
0.62440365552902222 0.59779942035675049 0.59550809860229492
0.65663564205169678 0.63264942169189453 0.62621665000915527
0.52780485153198242 0.49462595582008362 0.49746072292327881
0.52868199348449707 0.49544396996498108 0.4983372688293457
0.52997893095016479 0.49695780873298645 0.49952828884124756
0.53094500303268433 0.49836540222167969 0.50092369318008423
0.53304857015609741 0.50066912174224854 0.50318056344985962
0.53793084621429443 0.50614273548126221 0.50838494300842285
0.54678523540496826 0.51530182361602783 0.51765626668930054
0.55956405401229858 0.52859610319137573 0.53075778484344482
0.57587093114852905 0.54600018262863159 0.54733920097351074
0.59552204608917236 0.56661581993103027 0.56708180904388428
0.61833077669143677 0.59099972248077393 0.58946973085403442
0.6443600058555603 0.6189466118812561 0.61452984809875488
0.67217814922332764 0.64905798435211182 0.64132916927337646
0.56837499141693115 0.53794056177139282 0.53812354803085327
0.56853324174880981 0.53806895017623901 0.53839194774627686
0.56905055046081543 0.53870975971221924 0.53900146484375
0.56957298517227173 0.53934955596923828 0.53974682092666626
0.57099837064743042 0.54108166694641113 0.54152315855026245
0.57570087909698486 0.54590815305709839 0.54596376419067383
0.58369648456573486 0.55440914630889893 0.55454760789871216
0.59541541337966919 0.56678861379623413 0.56621485948562622
0.61026030778884888 0.58254951238632202 0.58101469278335571
0.62727195024490356 0.59990191459655762 0.59764093160629272
0.64639014005661011 0.62102037668228149 0.61687105894088745
0.66842198371887207 0.64443957805633545 0.63777768611907959
0.69201946258544922 0.66992217302322388 0.66016370058059692
0.61402243375778198 0.58696740865707397 0.58334600925445557
0.61378127336502075 0.58632934093475342 0.58308720588684082
0.61358588933944702 0.58598977327346802 0.5827634334564209
0.61331039667129517 0.58574825525283813 0.58279788494110107
0.61441242694854736 0.58679509162902832 0.58390742540359497
0.61817902326583862 0.59114307165145874 0.58799558877944946
0.62582045793533325 0.59908473491668701 0.59547191858291626
0.6365506649017334 0.61044102907180786 0.60598850250244141
0.64891272783279419 0.62372428178787231 0.61824434995651245
0.66286885738372803 0.63836628198623657 0.63209950923919678
0.67835360765457153 0.65498536825180054 0.64700400829315186
0.69552081823348999 0.67331463098526001 0.66380000114440918
0.71511143445968628 0.69431102275848389 0.68260413408279419
0.66387820243835449 0.63984334468841553 0.63183391094207764
0.66267198324203491 0.63837409019470215 0.63069307804107666
0.66122055053710938 0.63653862476348877 0.62920928001403809
0.66008263826370239 0.63543075323104858 0.62841182947158813
0.66082406044006348 0.63608431816101074 0.62919574975967407
0.66431021690368652 0.63989537954330444 0.63242447376251221
0.67116844654083252 0.647053062915802 0.63918966054916382
0.68061590194702148 0.65697276592254639 0.64836835861206055
0.69090461730957031 0.66780894994735718 0.65852010250091553
0.70109999179840088 0.67884176969528198 0.66883373260498047
0.7122265100479126 0.69082921743392944 0.67973721027374268
0.72513997554779053 0.70489341020584106 0.6922229528427124
0.74022310972213745 0.72141808271408081 0.70690292119979858
0.71397608518600464 0.69276827573776245 0.67973035573959351
0.71188199520111084 0.6904447078704834 0.67792701721191406
0.7094842791557312 0.68774712085723877 0.67564284801483154
0.70766282081604004 0.68596696853637695 0.67407894134521484
0.70809829235076904 0.68625980615615845 0.67441684007644653
0.7111358642578125 0.68933629989624023 0.67732751369476318
0.7170644998550415 0.69549655914306641 0.68306553363800049
0.72517174482345581 0.70405310392379761 0.69090980291366577
0.733268141746521 0.71266114711761475 0.69895696640014648
0.73982042074203491 0.7198832631111145 0.70546770095825195
0.7470971941947937 0.72775965929031372 0.71277779340744019
0.75601297616958618 0.73770385980606079 0.72158032655715942
0.76745718717575073 0.75034111738204956 0.73292559385299683
0.42204383015632629 0.38129863142967224 0.38817927241325378
0.42352941632270813 0.38407588005065918 0.38823530077934265
0.42520961165428162 0.38536852598190308 0.38998359441757202
0.4270472526550293 0.38697156310081482 0.39150446653366089
0.42935097217559814 0.38975995779037476 0.39430844783782959
0.43758389353752136 0.39848765730857849 0.40333265066146851
0.45332792401313782 0.41560053825378418 0.42033442854881287
0.47681751847267151 0.44118499755859375 0.4454229474067688
0.50566446781158447 0.4724351167678833 0.4755551815032959
0.53763014078140259 0.50677382946014404 0.50840038061141968
0.57138967514038086 0.54326027631759644 0.54243296384811401
0.60574936866760254 0.57999658584594727 0.57683885097503662
0.63919919729232788 0.61622148752212524 0.6099247932434082
0.4208061695098877 0.38102316856384277 0.38722619414329529
0.42352941632270813 0.38429468870162964 0.38842847943305969
0.42725068330764771 0.38789883255958557 0.39207237958908081
0.42816817760467529 0.38920354843139648 0.39349508285522461
0.43174391984939575 0.39279624819755554 0.39732789993286133
0.4401555061340332 0.40176990628242493 0.40665286779403687
0.45599958300590515 0.41897773742675781 0.42380246520042419
0.47889590263366699 0.44378483295440674 0.44845873117446899
0.50700020790100098 0.47399047017097473 0.47791877388954163
0.53838503360748291 0.50742006301879883 0.50995665788650513
0.57165509462356567 0.54344230890274048 0.54362362623214722
0.6060173511505127 0.58024430274963379 0.57765465974807739
0.6399843692779541 0.61670178174972534 0.61092418432235718
0.42231529951095581 0.38279873132705688 0.38809704780578613
0.42414787411689758 0.38504758477210999 0.38939961791038513
0.42755666375160217 0.38869425654411316 0.3926718533039093
0.43026831746101379 0.39170393347740173 0.39580947160720825
0.43460288643836975 0.39632242918014526 0.40070414543151855
0.44353696703910828 0.40595778822898865 0.41066530346870422
0.45895475149154663 0.42246177792549133 0.42756092548370361
0.48091024160385132 0.44607612490653992 0.45102629065513611
0.50792646408081055 0.47491204738616943 0.4792884886264801
0.53846430778503418 0.50729209184646606 0.51047772169113159
0.57144957780838013 0.54281359910964966 0.54364556074142456
0.60595607757568359 0.57956498861312866 0.57771998643875122
0.64034205675125122 0.61672532558441162 0.61116605997085571
0.42660954594612122 0.38758796453475952 0.3923734724521637
0.42848837375640869 0.3896733820438385 0.3941059410572052
0.43113607168197632 0.39266124367713928 0.39684867858886719
0.43435400724411011 0.39620736241340637 0.40027689933776855
0.43909069895744324 0.40151503682136536 0.40577736496925354
0.44803568720817566 0.41102564334869385 0.41550707817077637
0.4627346396446228 0.42667895555496216 0.43185275793075562
0.4834778904914856 0.44866552948951721 0.45402121543884277
0.50898951292037964 0.4757925271987915 0.48083177208900452
0.53826630115509033 0.50705891847610474 0.51078170537948608
0.57107537984848022 0.54175132513046265 0.54357481002807617
0.60574507713317871 0.57923674583435059 0.57779937982559204
0.64087414741516113 0.61689823865890503 0.6116408109664917
0.43729069828987122 0.39873775839805603 0.40374851226806641
0.4384896457195282 0.40024146437644958 0.40475821495056152
0.44056785106658936 0.40265414118766785 0.40691918134689331
0.44315445423126221 0.40558227896690369 0.40966585278511047
0.44732013344764709 0.41025891900062561 0.41427403688430786
0.45508033037185669 0.41895073652267456 0.4231402575969696
0.4690060019493103 0.43330633640289307 0.43826189637184143
0.48828428983688354 0.45367881655693054 0.45906281471252441
0.51212221384048462 0.47882473468780518 0.4841424822807312
0.53986287117004395 0.50811308622360229 0.51270812749862671
0.57156884670257568 0.54190909862518311 0.54437017440795898
0.60656857490539551 0.57965964078903198 0.57846051454544067
0.64252293109893799 0.61873024702072144 0.61317801475524902
0.45512121915817261 0.41738048195838928 0.42243504524230957
0.45580312609672546 0.4180874228477478 0.42279016971588135
0.45652866363525391 0.41955652832984924 0.42414724826812744
0.458120197057724 0.42141515016555786 0.42551431059837341
0.46094146370887756 0.42459723353385925 0.42857247591018677
0.46725636720657349 0.4314579963684082 0.43560963869094849
0.47972759604454041 0.44478872418403625 0.44938486814498901
0.49754410982131958 0.46334138512611389 0.46874731779098511
0.51938760280609131 0.48628008365631104 0.49177119135856628
0.54512590169906616 0.5133633017539978 0.51817458868026733
0.57534927129745483 0.54563933610916138 0.54825127124786377
0.60985249280929565 0.58281147480010986 0.58167362213134766
0.64584100246429443 0.62169528007507324 0.61617237329483032
0.47837391495704651 0.44204345345497131 0.4470369815826416
0.47862949967384338 0.44249698519706726 0.44730421900749207
0.47925007343292236 0.44318786263465881 0.44780430197715759
0.47969010472297668 0.4441114068031311 0.44829997420310974
0.48123472929000854 0.44626432657241821 0.45022130012512207
0.48626604676246643 0.45175603032112122 0.45583608746528625
0.49718001484870911 0.46306189894676208 0.46748742461204529
0.51277703046798706 0.47963586449623108 0.48496696352958679
0.53284811973571777 0.50042295455932617 0.50545084476470947
0.55658984184265137 0.52562683820724487 0.52970612049102783
0.58486169576644897 0.55569779872894287 0.55767029523849487
0.61746615171432495 0.59078103303909302 0.58916068077087402
0.65165740251541138 0.62750351428985596 0.62169027328491211
0.5061003565788269 0.47155940532684326 0.47619274258613586
0.50681561231613159 0.47222912311553955 0.47657373547554016
0.50690275430679321 0.47248426079750061 0.47678720951080322
0.50677168369293213 0.47289353609085083 0.47664806246757507
0.5075608491897583 0.4739854633808136 0.47768124938011169
0.51165163516998291 0.47845008969306946 0.48232361674308777
0.52085959911346436 0.48824301362037659 0.49210989475250244
0.5349050760269165 0.50299912691116333 0.506916344165802
0.55322891473770142 0.52203083038330078 0.52571725845336914
0.57517516613006592 0.54527819156646729 0.54780352115631104
0.60107111930847168 0.57265156507492065 0.57332557439804077
0.63035100698471069 0.60424292087554932 0.60163813829421997
0.66134840250015259 0.63774913549423218 0.6313011646270752
0.53814029693603516 0.50575315952301025 0.50923633575439453
0.53892189264297485 0.50654935836791992 0.50989073514938354
0.53927791118621826 0.50709325075149536 0.51014542579650879
0.5387226939201355 0.50660783052444458 0.50959497690200806
0.5386771559715271 0.50703591108322144 0.5097619891166687
0.54193681478500366 0.51073712110519409 0.51343560218811035
0.55039000511169434 0.51944571733474731 0.52201777696609497
0.5632789134979248 0.53302192687988281 0.53520870208740234
0.57983452081680298 0.55021774768829346 0.55193567276000977
0.59964537620544434 0.57130903005599976 0.57167726755142212
0.62261223793029785 0.59560567140579224 0.59405303001403809
0.6482241153717041 0.62325656414031982 0.61887073516845703
0.67566096782684326 0.6526864767074585 0.6450502872467041
0.57513052225112915 0.54554343223571777 0.54634422063827515
0.57616311311721802 0.54630786180496216 0.54732197523117065
0.57658571004867554 0.54678249359130859 0.54752653837203979
0.57550108432769775 0.54606366157531738 0.54663932323455811
0.57500165700912476 0.54541254043579102 0.54643398523330688
0.57752037048339844 0.54850673675537109 0.54934930801391602
0.58534747362136841 0.55668824911117554 0.55691671371459961
0.59731340408325195 0.56913012266159058 0.56878763437271118
0.61211144924163818 0.5847046971321106 0.58349746465682983
0.6292724609375 0.60287606716156006 0.60036575794219971
0.64887624979019165 0.62356871366500854 0.61925899982452393
0.67045223712921143 0.64685165882110596 0.64012014865875244
0.69396734237670898 0.67214804887771606 0.66263705492019653
0.61832278966903687 0.59152835607528687 0.58875709772109985
0.6189379096031189 0.59204334020614624 0.58940547704696655
0.6187821626663208 0.5918312668800354 0.58926498889923096
0.61750388145446777 0.59051072597503662 0.58812624216079712
0.61671930551528931 0.58978313207626343 0.5875435471534729
0.61902701854705811 0.59230095148086548 0.58991122245788574
0.62607157230377197 0.59956443309783936 0.59675151109695435
0.63667285442352295 0.61078757047653198 0.60691583156585693
0.64915502071380615 0.62398505210876465 0.61929237842559814
0.66334211826324463 0.63875234127044678 0.63285309076309204
0.67874884605407715 0.65534061193466187 0.6480218768119812
0.69628113508224487 0.67410188913345337 0.66494762897491455
0.7155839204788208 0.69492125511169434 0.68328350782394409
0.66608470678329468 0.64231777191162109 0.63508349657058716
0.66598165035247803 0.64182555675506592 0.63506621122360229
0.6648557186126709 0.64054280519485474 0.63374662399291992
0.66328585147857666 0.63888752460479736 0.6322748064994812
0.66260570287704468 0.63823401927947998 0.63167089223861694
0.66480040550231934 0.64059799909591675 0.63389885425567627
0.67078018188476562 0.64658963680267334 0.63955557346343994
0.67941910028457642 0.65597128868103027 0.64807593822479248
0.68953400850296021 0.666484534740448 0.65745127201080322
0.7001042366027832 0.67779731750488281 0.66806203126907349
0.71132361888885498 0.68977135419845581 0.67920190095901489
0.72445899248123169 0.70393693447113037 0.69174963235855103
0.73981648683547974 0.72089087963104248 0.70672863721847534
0.71472764015197754 0.69334489107131958 0.68116539716720581
0.71363610029220581 0.69247341156005859 0.68047362565994263
0.71179580688476562 0.69026714563369751 0.67876416444778442
0.71019834280014038 0.68838751316070557 0.67704355716705322
0.70964998006820679 0.68772041797637939 0.67652314901351929
0.71136277914047241 0.68967169523239136 0.67817699909210205
0.71593618392944336 0.69461357593536377 0.68277287483215332
0.7230561375617981 0.70194065570831299 0.68942952156066895
0.73059332370758057 0.70979690551757812 0.69664394855499268
0.73745608329772949 0.71731460094451904 0.70366805791854858
0.74502742290496826 0.72567081451416016 0.71111416816711426
0.75433272123336792 0.73589038848876953 0.72056937217712402
0.76626777648925781 0.74881982803344727 0.73183947801589966
0.42205703258514404 0.38068479299545288 0.38823062181472778
0.42370900511741638 0.38380375504493713 0.38911968469619751
0.42654678225517273 0.38637778162956238 0.39199811220169067
0.42886325716972351 0.38926383852958679 0.39440858364105225
0.43340501189231873 0.39413034915924072 0.39932465553283691
0.44357991218566895 0.4054209291934967 0.41048076748847961
0.46259826421737671 0.42642337083816528 0.43120607733726501
0.4892708957195282 0.45584145188331604 0.45983904600143433
0.51934289932250977 0.48826321959495544 0.4913475513458252
0.55097532272338867 0.52217859029769897 0.52349108457565308
0.58410227298736572 0.55754178762435913 0.55674159526824951
0.61734169721603394 0.59330838918685913 0.58958178758621216
0.64944243431091309 0.62788647413253784 0.62131971120834351
0.42150592803955078 0.38131788372993469 0.38808351755142212
0.42429265379905701 0.38488242030143738 0.39009073376655579
0.42806407809257507 0.3889751136302948 0.39379927515983582
0.43164429068565369 0.39284014701843262 0.39774432778358459
0.43680161237716675 0.39858341217041016 0.40344104170799255
0.44752508401870728 0.41025906801223755 0.41524568200111389
0.46623215079307556 0.43089097738265991 0.43584573268890381
0.49230080842971802 0.45932215452194214 0.46382331848144531
0.52153873443603516 0.49064955115318298 0.49429693818092346
0.55253535509109497 0.52381634712219238 0.52572858333587646
0.58512169122695923 0.55840253829956055 0.55825090408325195
0.61838352680206299 0.59379631280899048 0.59103536605834961
0.65039575099945068 0.62830114364624023 0.62236404418945312
0.42347016930580139 0.38410082459449768 0.38938796520233154
0.42640623450279236 0.38751211762428284 0.39228910207748413
0.43071433901786804 0.39235702157020569 0.39677989482879639
0.4354056715965271 0.39741998910903931 0.4018460214138031
0.44167721271514893 0.40434226393699646 0.40881535410881042
0.45261403918266296 0.41624376177787781 0.42103305459022522
0.47032433748245239 0.43551412224769592 0.44036886096000671
0.4944998025894165 0.46150434017181396 0.46620252728462219
0.52274066209793091 0.49151527881622314 0.49554169178009033
0.55328953266143799 0.52413195371627808 0.52660441398620605
0.58543640375137329 0.55819201469421387 0.55857747793197632
0.61843228340148926 0.59357208013534546 0.59111136198043823
0.65077263116836548 0.62824302911758423 0.62252545356750488
0.42945742607116699 0.3908296525478363 0.39564114809036255
0.43241924047470093 0.39417660236358643 0.39876902103424072
0.43690696358680725 0.39913582801818848 0.40339553356170654
0.44175201654434204 0.40454289317131042 0.4087015688419342
0.4482235312461853 0.41161558032035828 0.41587984561920166
0.45861226320266724 0.42305895686149597 0.42741644382476807
0.47529175877571106 0.44067144393920898 0.44536590576171875
0.49754545092582703 0.4643879234790802 0.46925994753837585
0.52416425943374634 0.49260568618774414 0.49704670906066895
0.55380165576934814 0.52418214082717896 0.52713918685913086
0.58538979291915894 0.55762487649917603 0.55862802267074585
0.61827045679092407 0.59284859895706177 0.59091413021087646
0.65094625949859619 0.6280519962310791 0.62252646684646606
0.44279775023460388 0.4049886167049408 0.40964087843894958
0.44547602534294128 0.40788012742996216 0.41232091188430786
0.44896015524864197 0.41191810369491577 0.41611364483833313
0.45287883281707764 0.41637030243873596 0.42040178179740906
0.45835697650909424 0.42233738303184509 0.4262867271900177
0.4674055278301239 0.43225184082984924 0.43623495101928711
0.4822782576084137 0.44784140586853027 0.45245411992073059
0.5028301477432251 0.46957355737686157 0.47435665130615234
0.52749347686767578 0.49581173062324524 0.50027292966842651
