luts/instant_consumer/polaroid_px-100uv+_cold.cube
# Created by: G'MIC (https://gmic.eu)
TITLE "polaroid_px-100uv+_cold"
# LUT size
LUT_3D_SIZE 13
# Data domain
DOMAIN_MIN 0.0 0.0 0.0
DOMAIN_MAX 1.0 1.0 1.0
# LUT data points
0.18101795017719269 0.25615745782852173 0.26779323816299438
0.1836075484752655 0.25925540924072266 0.27078229188919067
0.19514921307563782 0.26977747678756714 0.28037673234939575
0.21762809157371521 0.28884512186050415 0.2979121208190918
0.24858246743679047 0.314165860414505 0.32180246710777283
0.28291419148445129 0.3423360288143158 0.34852951765060425
0.32144609093666077 0.37336695194244385 0.37851798534393311
0.36143279075622559 0.40699264407157898 0.41091498732566833
0.40358114242553711 0.44268569350242615 0.44445884227752686
0.44714707136154175 0.48020002245903015 0.4790310263633728
0.49323767423629761 0.52136075496673584 0.51534229516983032
0.5422741174697876 0.5662381649017334 0.5537000298500061
0.59265261888504028 0.61284744739532471 0.59249001741409302
0.19091545045375824 0.26547309756278992 0.27650636434555054
0.19338266551494598 0.2681325376033783 0.27897638082504272
0.20382587611675262 0.27732107043266296 0.28762111067771912
0.22313497960567474 0.29336544871330261 0.3026421070098877
0.2497667521238327 0.31523364782333374 0.32306835055351257
0.28293696045875549 0.3419995903968811 0.34874966740608215
0.32164540886878967 0.37368857860565186 0.37936508655548096
0.36335358023643494 0.40811765193939209 0.41254273056983948
0.40627285838127136 0.44422608613967896 0.44656965136528015
0.45021331310272217 0.48253914713859558 0.48139521479606628
0.49655422568321228 0.52387583255767822 0.5178602933883667
0.54547035694122314 0.56856584548950195 0.5559006929397583
0.59522956609725952 0.61478668451309204 0.59414768218994141
0.21137937903404236 0.28369787335395813 0.29353460669517517
0.2134355902671814 0.28513637185096741 0.2956288754940033
0.22182828187942505 0.29216849803924561 0.30220493674278259
0.23649238049983978 0.30406326055526733 0.31351593136787415
0.2575717568397522 0.32125729322433472 0.32961899042129517
0.28804430365562439 0.34589174389839172 0.35347390174865723
0.32731404900550842 0.37787225842475891 0.38435232639312744
0.36922037601470947 0.41240403056144714 0.41752603650093079
0.41186302900314331 0.44838079810142517 0.45108705759048462
0.45560860633850098 0.48652604222297668 0.48550635576248169
0.50142735242843628 0.5275765061378479 0.52119779586791992
0.54954725503921509 0.5717616081237793 0.55842298269271851
0.59845823049545288 0.61716490983963013 0.5958254337310791
0.24448384344577789 0.31079766154289246 0.32040596008300781
0.24535077810287476 0.31110265851020813 0.32129326462745667
0.25089862942695618 0.31537649035453796 0.32550147175788879
0.26178917288780212 0.32391095161437988 0.33377858996391296
0.27941608428955078 0.33812496066093445 0.34748092293739319
0.30667448043823242 0.36027505993843079 0.36845424771308899
0.34227749705314636 0.38937821984291077 0.3965262770652771
0.38138514757156372 0.42178758978843689 0.42740902304649353
0.42177358269691467 0.45577016472816467 0.45899108052253723
0.4633849561214447 0.49222198128700256 0.49147063493728638
0.50764036178588867 0.53222787380218506 0.52574813365936279
0.55473005771636963 0.57577478885650635 0.56185072660446167
0.6028856635093689 0.62077063322067261 0.59860366582870483
0.28692051768302917 0.34528675675392151 0.35471844673156738
0.28621992468833923 0.34407323598861694 0.35397493839263916
0.28909647464752197 0.34559166431427002 0.35585975646972656
0.29681065678596497 0.3513462245464325 0.36155736446380615
0.31151464581489563 0.36311626434326172 0.37289831042289734
0.33477747440338135 0.38205593824386597 0.39104160666465759
0.36559942364692688 0.40736377239227295 0.41531479358673096
0.40014958381652832 0.43611159920692444 0.44232082366943359
0.43610438704490662 0.46692368388175964 0.47035473585128784
0.47368863224983215 0.50038021802902222 0.49964514374732971
0.51553153991699219 0.53843581676483154 0.53174364566802979
0.5608905553817749 0.58089274168014526 0.56627446413040161
0.60847198963165283 0.62560206651687622 0.60248869657516479
0.33310002088546753 0.38269564509391785 0.39108544588088989
0.33128926157951355 0.38022580742835999 0.38941371440887451
0.33166706562042236 0.37936905026435852 0.38914740085601807
0.33626273274421692 0.38273563981056213 0.39263668656349182
0.34772998094558716 0.391622394323349 0.40132308006286621
0.36699298024177551 0.40742290019989014 0.41635280847549438
0.39331725239753723 0.42944815754890442 0.43715748190879822
0.42354068160057068 0.45502516627311707 0.46084883809089661
0.45418354868888855 0.48165804147720337 0.48482692241668701
0.48680528998374939 0.51127982139587402 0.51001876592636108
0.52499866485595703 0.54642921686172485 0.53909587860107422
0.56837719678878784 0.58731132745742798 0.57205939292907715
0.61478507518768311 0.63133460283279419 0.60720032453536987
0.37820088863372803 0.41978862881660461 0.42633157968521118
0.37541484832763672 0.41614630818367004 0.42383566498756409
0.37426784634590149 0.41397646069526672 0.42239698767662048
0.37648889422416687 0.41505086421966553 0.42386752367019653
0.38449966907501221 0.42129397392272949 0.42995163798332214
0.39972588419914246 0.43411800265312195 0.44203299283981323
0.42204868793487549 0.45307418704032898 0.4596458375453949
0.44834467768669128 0.47605231404304504 0.48024472594261169
0.47417056560516357 0.49911558628082275 0.50063598155975342
0.50236529111862183 0.52508926391601562 0.52236872911453247
0.53690582513809204 0.55742990970611572 0.54872435331344604
0.57760781049728394 0.59602504968643188 0.57943820953369141
0.62212586402893066 0.63822090625762939 0.61316770315170288
0.42174908518791199 0.45628440380096436 0.45980772376060486
0.41871511936187744 0.45226177573204041 0.45694723725318909
0.41631099581718445 0.44919723272323608 0.45491117238998413
0.41647118330001831 0.44857257604598999 0.45479431748390198
0.42163506150245667 0.45243322849273682 0.45858085155487061
0.43327540159225464 0.46236172318458557 0.46790125966072083
0.45125827193260193 0.478375643491745 0.48221340775489807
0.4731198251247406 0.49804621934890747 0.49939963221549988
0.49583128094673157 0.51917439699172974 0.51719903945922852
0.52122378349304199 0.5428052544593811 0.53695160150527954
0.55279159545898438 0.57291066646575928 0.56145811080932617
0.59114134311676025 0.60915011167526245 0.59036576747894287
0.63353109359741211 0.64952141046524048 0.62247681617736816
0.46706858277320862 0.49569866061210632 0.49435046315193176
0.46353980898857117 0.49135136604309082 0.49145203828811646
0.46077665686607361 0.48800837993621826 0.48894971609115601
0.45931205153465271 0.48581776022911072 0.48750478029251099
0.46142911911010742 0.48715373873710632 0.48911377787590027
0.47004449367523193 0.49480980634689331 0.49585562944412231
0.48488467931747437 0.50893473625183105 0.5080142617225647
0.50360637903213501 0.52685809135437012 0.5229383111000061
0.52379798889160156 0.54628437757492065 0.53898680210113525
0.54672122001647949 0.56772637367248535 0.55668824911117554
0.57534170150756836 0.59510576725006104 0.57935172319412231
0.61131328344345093 0.62903660535812378 0.60647100210189819
0.65173053741455078 0.66736704111099243 0.63695275783538818
0.51810598373413086 0.54244357347488403 0.53387898206710815
0.51475220918655396 0.5381462574005127 0.530933678150177
0.51178634166717529 0.53454715013504028 0.52826106548309326
0.50880968570709229 0.53107345104217529 0.52571803331375122
0.50836753845214844 0.52993953227996826 0.52500194311141968
0.51435869932174683 0.53587949275970459 0.52988404035568237
0.52811789512634277 0.54934436082839966 0.54080545902252197
0.54523837566375732 0.56629806756973267 0.5546906590461731
0.56366193294525146 0.58469325304031372 0.56939828395843506
0.58390778303146362 0.60404294729232788 0.5851929783821106
0.60921311378479004 0.62798947095870972 0.60513168573379517
0.64179009199142456 0.65870648622512817 0.63002008199691772
0.67869699001312256 0.69294077157974243 0.65809255838394165
0.57904797792434692 0.60002565383911133 0.58130276203155518
0.57600826025009155 0.59594249725341797 0.57852274179458618
0.57310914993286133 0.59248274564743042 0.57575160264968872
0.56995296478271484 0.58872854709625244 0.57280141115188599
0.56787937879562378 0.58630126714706421 0.57090169191360474
0.57237070798873901 0.59090322256088257 0.57430523633956909
0.58441513776779175 0.603016197681427 0.58382350206375122
0.60021698474884033 0.61911875009536743 0.59628742933273315
0.61639833450317383 0.63517123460769653 0.60982310771942139
0.63469439744949341 0.65335696935653687 0.62413972616195679
0.65663319826126099 0.67350679636001587 0.6414908766746521
0.68406271934509277 0.69862657785415649 0.66170662641525269
0.71548360586166382 0.72762346267700195 0.68606925010681152
0.64944523572921753 0.66733568906784058 0.63660657405853271
0.64651572704315186 0.66371828317642212 0.63330280780792236
0.6448712944984436 0.66116553544998169 0.6315503716468811
0.64272713661193848 0.65829664468765259 0.62883114814758301
0.64141446352005005 0.65703886747360229 0.62761193513870239
0.64425194263458252 0.65985649824142456 0.62944144010543823
0.6531110405921936 0.66899144649505615 0.63636952638626099
0.66639965772628784 0.68260341882705688 0.64692056179046631
0.68139338493347168 0.69754922389984131 0.65869295597076416
0.69673138856887817 0.71243613958358765 0.67111057043075562
0.71337312459945679 0.72768521308898926 0.6846049427986145
0.73476701974868774 0.74673169851303101 0.70025700330734253
0.75976598262786865 0.76952129602432251 0.71948820352554321
0.72329646348953247 0.73908638954162598 0.69448530673980713
0.72193962335586548 0.73603683710098267 0.69182884693145752
0.72185152769088745 0.73425877094268799 0.6905403733253479
0.72189545631408691 0.73382353782653809 0.68997550010681152
0.72131919860839844 0.73382353782653809 0.68865185976028442
0.72198677062988281 0.7345651388168335 0.6892504096031189
0.72756868600845337 0.74076247215270996 0.69336509704589844
0.73836100101470947 0.75171983242034912 0.70193970203399658
0.75155496597290039 0.76483750343322754 0.71222281455993652
0.76351982355117798 0.77601093053817749 0.72184717655181885
0.77547824382781982 0.78633922338485718 0.73121744394302368
0.79000598192214966 0.79941213130950928 0.74325942993164062
0.80981194972991943 0.81605201959609985 0.75772124528884888
0.19223302602767944 0.26646202802658081 0.27773821353912354
0.19450128078460693 0.26934149861335754 0.2809816300868988
0.20627236366271973 0.27991408109664917 0.29093641042709351
0.23117907345294952 0.30072033405303955 0.31043201684951782
0.2670707106590271 0.32979652285575867 0.33786699175834656
0.30420324206352234 0.35978394746780396 0.36632612347602844
0.34283405542373657 0.39091852307319641 0.39643889665603638
0.3827311098575592 0.42398273944854736 0.42769044637680054
0.42187649011611938 0.45743438601493835 0.45903769135475159
0.46186560392379761 0.49238130450248718 0.4910895824432373
0.50500380992889404 0.53079652786254883 0.52505701780319214
0.55256390571594238 0.57465183734893799 0.56187969446182251
0.60216385126113892 0.62096709012985229 0.60007917881011963
0.2008032351732254 0.2746918797492981 0.28526970744132996
0.20425093173980713 0.27805620431900024 0.28886482119560242
0.21669074892997742 0.28862529993057251 0.29925695061683655
0.23979008197784424 0.30750444531440735 0.3169497549533844
0.27121749520301819 0.33284825086593628 0.34096744656562805
0.30605816841125488 0.3610382080078125 0.36774727702140808
0.3442876935005188 0.39199182391166687 0.39775738120079041
0.38414981961250305 0.42482742667198181 0.42909941077232361
0.42420995235443115 0.4586658775806427 0.46084162592887878
0.46508491039276123 0.49426752328872681 0.49324473738670349
0.50879424810409546 0.53365552425384521 0.52759259939193726
0.55602550506591797 0.57744663953781128 0.56441503763198853
0.6049843430519104 0.62329936027526855 0.60186052322387695
0.22081014513969421 0.29213878512382507 0.30160772800445557
0.22542501986026764 0.2955729067325592 0.30579742789268494
0.23704583942890167 0.30501073598861694 0.31516867876052856
0.25566250085830688 0.31988817453384399 0.32975876331329346
0.28105407953262329 0.34044626355171204 0.34895339608192444
0.31278866529464722 0.36600270867347717 0.37360963225364685
0.34999969601631165 0.39620080590248108 0.40268471837043762
0.38902437686920166 0.42834427952766418 0.4333285391330719
0.42833474278450012 0.4616425633430481 0.46438607573509216
0.46941730380058289 0.49747961759567261 0.49647647142410278
0.51303970813751221 0.53707283735275269 0.53047913312911987
0.55992937088012695 0.58045113086700439 0.56661206483840942
0.6081116795539856 0.62583792209625244 0.6035844087600708
0.25614053010940552 0.32142934203147888 0.33054324984550476
0.25992143154144287 0.3234647810459137 0.33329004049301147
0.26834022998809814 0.32982593774795532 0.34016305208206177
0.28223976492881775 0.34073558449745178 0.35072973370552063
0.30227798223495483 0.35703831911087036 0.36610665917396545
0.32988303899765015 0.37918424606323242 0.3873649537563324
0.36337423324584961 0.40637457370758057 0.41372102499008179
0.39917430281639099 0.43618714809417725 0.44190740585327148
0.43619060516357422 0.46715682744979858 0.47056430578231812
0.47510203719139099 0.50160545110702515 0.50092548131942749
0.51781362295150757 0.54045635461807251 0.53380608558654785
0.56406790018081665 0.58361023664474487 0.56923407316207886
0.61175298690795898 0.62876254320144653 0.605735182762146
0.30388948321342468 0.36002513766288757 0.36889174580574036
0.30466848611831665 0.3591054379940033 0.36937585473060608
0.30884021520614624 0.36197534203529358 0.37172421813011169
0.31759846210479736 0.36868026852607727 0.37854412198066711
0.33277797698974609 0.38049373030662537 0.39024236798286438
0.35526067018508911 0.39902597665786743 0.40793311595916748
0.3836456835269928 0.42205959558486938 0.42985126376152039
0.41483268141746521 0.4479956328868866 0.45432475209236145
0.4472910463809967 0.47562435269355774 0.47955095767974854
0.48266834020614624 0.5071226954460144 0.50688642263412476
0.52317565679550171 0.54437470436096191 0.53779828548431396
0.56833231449127197 0.58711135387420654 0.57235908508300781
0.61593693494796753 0.63212591409683228 0.60846513509750366
0.35413813591003418 0.40018382668495178 0.40803301334381104
0.35268872976303101 0.39767852425575256 0.40745750069618225
0.35292941331863403 0.39670640230178833 0.40642258524894714
0.3570098876953125 0.3995271623134613 0.40922001004219055
0.36730554699897766 0.40766707062721252 0.41715487837791443
0.38455241918563843 0.42191064357757568 0.43078926205635071
0.40791106224060059 0.44131448864936829 0.44900020956993103
0.43432694673538208 0.46368387341499329 0.46988692879676819
0.46184870600700378 0.48740923404693604 0.49113327264785767
0.49270781874656677 0.51514846086502075 0.51482510566711426
0.53029578924179077 0.55044585466384888 0.54335486888885498
0.57401728630065918 0.59192425012588501 0.57664316892623901
0.62062138319015503 0.63661855459213257 0.61199039220809937
0.39903247356414795 0.43688258528709412 0.44346755743026733
0.39732539653778076 0.43399986624717712 0.44125252962112427
0.39545947313308716 0.43139481544494629 0.43945401906967163
0.39608085155487061 0.43124881386756897 0.4395642876625061
0.40221655368804932 0.43605443835258484 0.44435581564903259
0.41498500108718872 0.44690835475921631 0.45441210269927979
0.43388944864273071 0.46288001537322998 0.46928688883781433
0.4561007022857666 0.48196926712989807 0.48671382665634155
0.47935786843299866 0.50299948453903198 0.50498616695404053
0.50659102201461792 0.52782905101776123 0.52574282884597778
0.54082924127578735 0.5603712797164917 0.55184859037399292
0.58206665515899658 0.59990477561950684 0.58321154117584229
0.62710356712341309 0.64292293787002563 0.61725568771362305
0.43997281789779663 0.47096773982048035 0.47437530755996704
0.43793317675590515 0.46794494986534119 0.47235631942749023
0.43520519137382507 0.46482604742050171 0.4700009822845459
0.43426281213760376 0.46334019303321838 0.46884748339653015
0.43723613023757935 0.46576279401779175 0.47138863801956177
0.44648885726928711 0.47374767065048218 0.47862255573272705
0.46126645803451538 0.4869748055934906 0.49048569798469543
0.47986215353012085 0.50385552644729614 0.50503373146057129
0.50057035684585571 0.52291572093963623 0.52149653434753418
0.52517938613891602 0.54601126909255981 0.5403704047203064
0.55648505687713623 0.5758776068687439 0.56423830986022949
0.59481191635131836 0.61265772581100464 0.59347695112228394
0.6376916766166687 0.65346181392669678 0.62585300207138062
0.48091143369674683 0.50640970468521118 0.50522595643997192
0.47828906774520874 0.50342059135437012 0.50332754850387573
0.47620716691017151 0.50072175264358521 0.50118327140808105
0.47395068407058716 0.49853271245956421 0.49953904747962952
0.47509920597076416 0.49939480423927307 0.50030940771102905
0.48144915699958801 0.50525814294815063 0.50539320707321167
0.49366039037704468 0.51669120788574219 0.51515525579452515
0.50966846942901611 0.53199630975723267 0.52792578935623169
0.52842772006988525 0.55000084638595581 0.54267561435699463
0.55071777105331421 0.57140642404556274 0.56024265289306641
0.5793195366859436 0.59885436296463013 0.58215564489364624
0.61480647325515747 0.63256299495697021 0.60903096199035645
0.65488004684448242 0.67035394906997681 0.63942807912826538
0.52640300989151001 0.54807573556900024 0.54034268856048584
0.52485054731369019 0.5460236668586731 0.53878980875015259
0.52301120758056641 0.54369050264358521 0.53727954626083374
0.52057266235351562 0.54130113124847412 0.53525704145431519
0.52018553018569946 0.54090738296508789 0.53473460674285889
0.52474963665008545 0.54545170068740845 0.53847259283065796
0.53534990549087524 0.55614340305328369 0.54697376489639282
0.54995059967041016 0.57063597440719604 0.55846363306045532
0.56714856624603271 0.5874820351600647 0.57218796014785767
0.58728063106536865 0.60720425844192505 0.5880124568939209
0.61269265413284302 0.63150858879089355 0.60773158073425293
0.6444970965385437 0.66159749031066895 0.63196408748626709
0.68089383840560913 0.69573551416397095 0.65966826677322388
0.58392351865768433 0.60262918472290039 0.58492910861968994
0.58208656311035156 0.60014587640762329 0.58337849378585815
0.58018594980239868 0.59807860851287842 0.58154261112213135
0.57798796892166138 0.5958397388458252 0.5795559287071228
0.57711923122406006 0.59506559371948242 0.57844030857086182
0.58055371046066284 0.59862947463989258 0.58103364706039429
0.58963024616241455 0.60814082622528076 0.58825743198394775
0.60288292169570923 0.62173044681549072 0.59887075424194336
0.61876726150512695 0.63751554489135742 0.61139088869094849
0.63652223348617554 0.65510338544845581 0.62563341856002808
0.65842151641845703 0.67569869756698608 0.64216858148574829
0.68516826629638672 0.70054763555526733 0.66289925575256348
0.71645045280456543 0.72933900356292725 0.68691825866699219
0.65216273069381714 0.66843873262405396 0.6383737325668335
0.64993727207183838 0.66553801298141479 0.63638627529144287
0.64820057153701782 0.66346031427383423 0.63427114486694336
0.64687490463256836 0.66206121444702148 0.63279223442077637
0.64634174108505249 0.6613999605178833 0.63162267208099365
0.64864742755889893 0.66409945487976074 0.63332152366638184
0.6557689905166626 0.67182379961013794 0.63893395662307739
0.66733723878860474 0.6836777925491333 0.64796870946884155
0.68150824308395386 0.69773483276367188 0.6590569019317627
0.69677382707595825 0.71262580156326294 0.67121511697769165
0.71414381265640259 0.72837722301483154 0.68492180109024048
0.73515397310256958 0.74772018194198608 0.70059114694595337
0.76017433404922485 0.77043420076370239 0.71993869543075562
0.72444194555282593 0.73858189582824707 0.69473922252655029
0.72285997867584229 0.736164391040802 0.69393080472946167
0.72225230932235718 0.73504453897476196 0.69110637903213501
0.72209042310714722 0.73444229364395142 0.69056212902069092
0.72207462787628174 0.73430538177490234 0.69043588638305664
0.72297674417495728 0.73584461212158203 0.69063109159469604
0.7283557653427124 0.74153679609298706 0.69461381435394287
0.73786920309066772 0.75127452611923218 0.70195060968399048
0.74996364116668701 0.76327133178710938 0.71142446994781494
0.76219278573989868 0.77464175224304199 0.72112351655960083
0.77505844831466675 0.78605747222900391 0.73121744394302368
0.79000651836395264 0.79963606595993042 0.7432515025138855
0.80987834930419922 0.81654655933380127 0.75776249170303345
0.21413002908229828 0.28539332747459412 0.29599973559379578
0.21609921753406525 0.28755354881286621 0.29915505647659302
0.22616489231586456 0.29636165499687195 0.30807331204414368
0.24869169294834137 0.31503540277481079 0.32599720358848572
0.28534653782844543 0.34440502524375916 0.35368606448173523
0.32601794600486755 0.37715423107147217 0.38432615995407104
0.36752599477767944 0.4108709990978241 0.41611537337303162
0.4071953296661377 0.44376218318939209 0.44662708044052124
0.44380822777748108 0.47515383362770081 0.47595024108886719
0.48055854439735413 0.50826919078826904 0.50564861297607422
0.5213392972946167 0.54551416635513306 0.53753060102462769
0.56688672304153442 0.58742016553878784 0.57295471429824829
0.61481541395187378 0.63262587785720825 0.60968476533889771
0.22059544920921326 0.29174232482910156 0.30129024386405945
0.2255108654499054 0.29574078321456909 0.30638283491134644
0.23896697163581848 0.30664768815040588 0.31756386160850525
0.2619413435459137 0.32533100247383118 0.33579763770103455
0.2944520115852356 0.35130941867828369 0.36056730151176453
0.33102899789810181 0.38103505969047546 0.38849037885665894
0.36987286806106567 0.41270175576210022 0.41825959086418152
0.40821933746337891 0.44438445568084717 0.44815337657928467
0.44535335898399353 0.47621175646781921 0.47728574275970459
0.48366868495941162 0.51003021001815796 0.50742870569229126
0.52481883764266968 0.5476531982421875 0.5399053692817688
0.57034331560134888 0.59044641256332397 0.57507610321044922
0.61772793531417847 0.63508099317550659 0.61145150661468506
0.23791854083538055 0.30651488900184631 0.3156525194644928
0.24599529802799225 0.31248801946640015 0.32239258289337158
0.26074239611625671 0.3239348828792572 0.3343338668346405
0.2817637026309967 0.34045854210853577 0.3510444164276123
0.30900391936302185 0.36253169178962708 0.37186712026596069
0.34103778004646301 0.38878178596496582 0.39657235145568848
0.37643435597419739 0.41775286197662354 0.42389312386512756
0.41253039240837097 0.44766402244567871 0.4520459771156311
0.44865432381629944 0.47860190272331238 0.48019763827323914
0.48684170842170715 0.51226353645324707 0.50989943742752075
0.52838289737701416 0.55064213275909424 0.54219669103622437
0.57377296686172485 0.59319472312927246 0.57716292142868042
0.62069380283355713 0.63770407438278198 0.61310261487960815
0.27315694093704224 0.33507013320922852 0.34375178813934326
0.28041848540306091 0.34020403027534485 0.34957155585289001
0.29260954260826111 0.34926652908325195 0.35929146409034729
0.30913713574409485 0.36227765679359436 0.37226369976997375
0.33090543746948242 0.37980785965919495 0.38928833603858948
0.35824325680732727 0.40231987833976746 0.41029778122901917
0.38928815722465515 0.42788451910018921 0.43453752994537354
0.42140471935272217 0.45479312539100647 0.45950689911842346
0.45457643270492554 0.48285031318664551 0.48514282703399658
0.49063783884048462 0.51490718126296997 0.51301783323287964
0.53163188695907593 0.55272471904754639 0.54447847604751587
0.57670491933822632 0.59540277719497681 0.57907199859619141
0.62364059686660767 0.64002865552902222 0.61491179466247559
0.32419818639755249 0.37586042284965515 0.38459870219230652
0.32695063948631287 0.37690466642379761 0.38690698146820068
0.33348387479782104 0.38195931911468506 0.39125543832778931
0.34386059641838074 0.38976162672042847 0.39919954538345337
0.35958787798881531 0.40258336067199707 0.41163763403892517
0.38116294145584106 0.42046189308166504 0.42828387022018433
0.40694674849510193 0.44177567958831787 0.44853812456130981
0.43428510427474976 0.46460482478141785 0.46991953253746033
0.4627566933631897 0.48883116245269775 0.49184665083885193
