luts/instant_consumer/polaroid_px-680_warm_+.cube
# Created by: G'MIC (https://gmic.eu)
TITLE "polaroid_px-680_warm_+"
# LUT size
LUT_3D_SIZE 5
# Data domain
DOMAIN_MIN 0.0 0.0 0.0
DOMAIN_MAX 1.0 1.0 1.0
# LUT data points
0.30663302540779114 0.23643158376216888 0.12375820428133011
0.33787548542022705 0.2379702627658844 0.12343615293502808
0.54511618614196777 0.24340939521789551 0.11750069260597229
0.82342058420181274 0.31869727373123169 0.11647020280361176
0.95400714874267578 0.46151489019393921 0.19544485211372375
0.31165000796318054 0.27994948625564575 0.12607944011688232
0.3604947030544281 0.28619900345802307 0.12223352491855621
0.5880122184753418 0.31998956203460693 0.10361965745687485
0.81790018081665039 0.39238512516021729 0.10307739675045013
0.94897639751434326 0.50781530141830444 0.19477197527885437
0.30483624339103699 0.44984418153762817 0.12359677255153656
0.36845123767852783 0.45176434516906738 0.12427289038896561
0.58201402425765991 0.51239699125289917 0.10396052151918411
0.79651248455047607 0.5543137788772583 0.091241650283336639
0.92496001720428467 0.59190315008163452 0.17426370084285736
0.34699270129203796 0.64271795749664307 0.16731056571006775
0.39792540669441223 0.63303965330123901 0.17202304303646088
0.55064576864242554 0.66257786750793457 0.20742054283618927
0.74526005983352661 0.71409761905670166 0.25982171297073364
0.87699270248413086 0.76266038417816162 0.3357245922088623
0.5433850884437561 0.82234221696853638 0.39383456110954285
0.57380324602127075 0.82407063245773315 0.40502506494522095
0.66082167625427246 0.83364003896713257 0.44960308074951172
0.76768964529037476 0.85462212562561035 0.50612026453018188
0.8431321382522583 0.87432903051376343 0.56687468290328979
0.31410303711891174 0.23873546719551086 0.15222513675689697
0.34785601496696472 0.24407663941383362 0.15382584929466248
0.56750375032424927 0.23325493931770325 0.18688955903053284
0.83879214525222778 0.3517545759677887 0.25524979829788208
0.94212019443511963 0.53516280651092529 0.35764488577842712
0.32392817735671997 0.28845956921577454 0.17324607074260712
0.39961960911750793 0.3035978376865387 0.18744532763957977
0.62453734874725342 0.34294235706329346 0.21417614817619324
0.83039194345474243 0.44685405492782593 0.26926049590110779
0.93494951725006104 0.56038361787796021 0.34871610999107361
0.38046219944953918 0.47516998648643494 0.21643263101577759
0.42624175548553467 0.48256418108940125 0.21199984848499298
0.61479359865188599 0.53025311231613159 0.22823688387870789
0.80642819404602051 0.56461507081985474 0.24465569853782654
0.91879469156265259 0.62189137935638428 0.31586715579032898
0.39929145574569702 0.64791285991668701 0.24344402551651001
0.45014110207557678 0.65001219511032104 0.25526267290115356
0.57811480760574341 0.67558568716049194 0.29607552289962769
0.75836330652236938 0.72285926342010498 0.35109648108482361
0.8758886456489563 0.77102482318878174 0.41568693518638611
0.55549466609954834 0.82562148571014404 0.42378383874893188
0.5847625732421875 0.82545655965805054 0.43273136019706726
0.66469377279281616 0.83427518606185913 0.47564244270324707
0.76881331205368042 0.85446751117706299 0.53055274486541748
0.84188824892044067 0.87716543674468994 0.5930754542350769
0.35744205117225647 0.25445592403411865 0.31277796626091003
0.46004283428192139 0.27576658129692078 0.33403071761131287
0.63233101367950439 0.36029186844825745 0.37180748581886292
0.81624299287796021 0.37280800938606262 0.42180302739143372
0.93468797206878662 0.52837234735488892 0.4836704432964325
0.36091598868370056 0.3360418975353241 0.35412660241127014
0.48059955239295959 0.35719186067581177 0.37546658515930176
0.66092073917388916 0.45447582006454468 0.41122317314147949
0.81798374652862549 0.47488123178482056 0.44856062531471252
0.92167794704437256 0.60758465528488159 0.51450133323669434
0.40157502889633179 0.49610850214958191 0.36381015181541443
0.48296424746513367 0.50308108329772949 0.37435975670814514
0.66673356294631958 0.57089853286743164 0.43995493650436401
0.81150299310684204 0.62807548046112061 0.48287999629974365
0.8956148624420166 0.70116358995437622 0.52992159128189087
0.4901881217956543 0.65246284008026123 0.39701095223426819
0.54553020000457764 0.6637079119682312 0.41080453991889954
0.63944417238235474 0.68906331062316895 0.4386647641658783
0.77487689256668091 0.73272460699081421 0.48621046543121338
0.87558174133300781 0.76811701059341431 0.51472312211990356
0.59482938051223755 0.82662689685821533 0.50203424692153931
0.60657000541687012 0.82586300373077393 0.49581608176231384
0.67289233207702637 0.83815199136734009 0.52410995960235596
0.76688313484191895 0.85718792676925659 0.57843893766403198
0.84420132637023926 0.87938499450683594 0.63615727424621582
0.49657493829727173 0.33490273356437683 0.57655137777328491
0.59478139877319336 0.37450161576271057 0.58193200826644897
0.74105262756347656 0.51441454887390137 0.5976681113243103
0.82494932413101196 0.6269155740737915 0.61792194843292236
0.89279115200042725 0.62516868114471436 0.62959176301956177
0.50222516059875488 0.42040807008743286 0.58480209112167358
0.59068191051483154 0.45471814274787903 0.58322829008102417
0.73886311054229736 0.57642227411270142 0.60414105653762817
0.82156819105148315 0.67011404037475586 0.62390041351318359
0.88743466138839722 0.66232848167419434 0.63584697246551514
0.42844235897064209 0.54021590948104858 0.54992908239364624
0.52032148838043213 0.55482548475265503 0.56181067228317261
0.70731419324874878 0.62696957588195801 0.59971660375595093
0.81763654947280884 0.72186136245727539 0.63803696632385254
0.87793451547622681 0.72395086288452148 0.65481770038604736
0.47431927919387817 0.66442793607711792 0.52558213472366333
0.53116589784622192 0.67037111520767212 0.53368520736694336
0.65147906541824341 0.69418060779571533 0.56323063373565674
0.79225915670394897 0.76453489065170288 0.62906777858734131
0.86367273330688477 0.81046015024185181 0.67403972148895264
0.53134799003601074 0.81525892019271851 0.56542503833770752
0.56845283508300781 0.81584638357162476 0.57210099697113037
0.67040109634399414 0.83393830060958862 0.60640811920166016
0.76789122819900513 0.85995012521743774 0.65070337057113647
0.84799599647521973 0.88328123092651367 0.71241873502731323
0.71420067548751831 0.60359925031661987 0.76713651418685913
0.74992966651916504 0.62561118602752686 0.76076656579971313
0.8125031590461731 0.69316738843917847 0.76199918985366821
0.84266459941864014 0.78394991159439087 0.76079565286636353
0.85619091987609863 0.81012904644012451 0.75822871923446655
0.70405298471450806 0.63561511039733887 0.76503217220306396
0.74338150024414062 0.657065749168396 0.76333630084991455
0.805622398853302 0.71415174007415771 0.76110386848449707
0.83980882167816162 0.79385584592819214 0.76371210813522339
0.8606412410736084 0.82562506198883057 0.76596599817276001
0.64444112777709961 0.68912976980209351 0.75690209865570068
0.68770140409469604 0.68994218111038208 0.75659936666488647
0.77782714366912842 0.7348296046257019 0.7620995044708252
0.83049756288528442 0.80989086627960205 0.76731061935424805
0.85769271850585938 0.84689319133758545 0.77263551950454712
0.51750952005386353 0.75838321447372437 0.73680299520492554
0.55301171541213989 0.75382536649703979 0.73422574996948242
0.66446268558502197 0.76311159133911133 0.7469862699508667
0.8043818473815918 0.81716793775558472 0.77072793245315552
0.86337172985076904 0.87187719345092773 0.78693610429763794
0.55735272169113159 0.86326408386230469 0.74030715227127075
0.58191782236099243 0.86046481132507324 0.73967117071151733
0.65264177322387695 0.86444872617721558 0.74778264760971069
0.74996745586395264 0.87092602252960205 0.76179468631744385
0.87364035844802856 0.89311379194259644 0.80031239986419678
