luts/instant_consumer/polaroid_px-680_-.cube
# Created by: G'MIC (https://gmic.eu)
TITLE "polaroid_px-680_-"
# LUT size
LUT_3D_SIZE 7
# Data domain
DOMAIN_MIN 0.0 0.0 0.0
DOMAIN_MAX 1.0 1.0 1.0
# LUT data points
0.0039052178617566824 0.12126971781253815 0.16582313179969788
0.069380424916744232 0.11451368033885956 0.16716767847537994
0.24209749698638916 0.11556628346443176 0.16640925407409668
0.52457261085510254 0.13584053516387939 0.17239768803119659
0.77601408958435059 0.22721141576766968 0.17921340465545654
0.90136265754699707 0.35772207379341125 0.2202947586774826
0.97544324398040771 0.49008160829544067 0.29543367028236389
0.00012655819591600448 0.15113911032676697 0.1685347706079483
0.064129218459129333 0.16401180624961853 0.17177753150463104
0.26601579785346985 0.18240292370319366 0.16922047734260559
0.55024069547653198 0.22334155440330505 0.16637836396694183
0.7732158899307251 0.30451241135597229 0.1747724711894989
0.89290612936019897 0.408670574426651 0.21933744847774506
0.97157245874404907 0.51836973428726196 0.29661533236503601
0.00089690263848751783 0.29172274470329285 0.1858510822057724
0.0087618958204984665 0.30492311716079712 0.18443688750267029
0.2661164402961731 0.35466054081916809 0.17498290538787842
0.56765145063400269 0.40347078442573547 0.15386486053466797
0.75934988260269165 0.42516419291496277 0.1523444801568985
0.87905377149581909 0.49175703525543213 0.19841901957988739
0.95387661457061768 0.57099562883377075 0.28380569815635681
0 0.49131262302398682 0.19696557521820068
0.0041345185600221157 0.50255614519119263 0.20172595977783203
0.13516555726528168 0.52922248840332031 0.19737827777862549
0.49969345331192017 0.5755305290222168 0.19018305838108063
0.73149096965789795 0.60313421487808228 0.18301862478256226
0.85257679224014282 0.60103774070739746 0.20483870804309845
0.93870997428894043 0.63063687086105347 0.26581430435180664
0 0.64487534761428833 0.23608197271823883
0.0029507954604923725 0.64651477336883545 0.24225164949893951
0.067259572446346283 0.65897470712661743 0.25005745887756348
0.43598377704620361 0.68364870548248291 0.26682189106941223
0.66268014907836914 0.71385097503662109 0.28405424952507019
0.81754958629608154 0.73726457357406616 0.31442651152610779
0.9080236554145813 0.74278861284255981 0.35144069790840149
0.011921272613108158 0.76303505897521973 0.32013016939163208
0.045974191278219223 0.76366120576858521 0.32584086060523987
0.25666266679763794 0.76768684387207031 0.3451850414276123
0.46476483345031738 0.7776225209236145 0.371397465467453
0.63962465524673462 0.79801094532012939 0.39381644129753113
0.77349168062210083 0.81908982992172241 0.41901057958602905
0.87773799896240234 0.84403139352798462 0.45994514226913452
0.44476273655891418 0.87902659177780151 0.4765375554561615
0.47489610314369202 0.8785940408706665 0.47818079590797424
0.53004932403564453 0.87980997562408447 0.49089589715003967
0.60910362005233765 0.88496148586273193 0.50980091094970703
0.70773673057556152 0.89497774839401245 0.53140544891357422
0.79599463939666748 0.90646237134933472 0.55324691534042358
0.86830538511276245 0.91926687955856323 0.57970166206359863
0.0031100553460419178 0.11676408350467682 0.19769133627414703
0.063635945320129395 0.11790677160024643 0.19369301199913025
0.24389353394508362 0.11902863532304764 0.20957864820957184
0.55168408155441284 0.11163171380758286 0.23599673807621002
0.78518068790435791 0.27596980333328247 0.28284358978271484
0.89505964517593384 0.42112964391708374 0.33132398128509521
0.96079283952713013 0.53576475381851196 0.38904199004173279
0.0013370588421821594 0.16351817548274994 0.21283434331417084
0.085148289799690247 0.17618988454341888 0.21758264303207397
0.29256269335746765 0.1922638863325119 0.2266947329044342
0.57941991090774536 0.24707430601119995 0.24810649454593658
0.78049904108047485 0.35218864679336548 0.28096884489059448
0.88925909996032715 0.46195927262306213 0.32362955808639526
0.9561048150062561 0.56396138668060303 0.39156430959701538
0.0027943928726017475 0.31409552693367004 0.23687520623207092
0.029654648154973984 0.32665732502937317 0.24012760818004608
0.30840897560119629 0.36827853322029114 0.24390417337417603
0.58851355314254761 0.4081743061542511 0.23602743446826935
0.76771646738052368 0.44737008213996887 0.25148388743400574
0.8763616681098938 0.52055448293685913 0.30356833338737488
0.94497323036193848 0.60419160127639771 0.37420502305030823
0.0035385729279369116 0.51147288084030151 0.2554117739200592
0.0040754731744527817 0.51604783535003662 0.2576015293598175
0.19995203614234924 0.54138708114624023 0.26777619123458862
0.52763694524765015 0.58318662643432617 0.27965065836906433
0.7402116060256958 0.60906738042831421 0.27684921026229858
0.85496276617050171 0.60512757301330566 0.28738462924957275
0.93411809206008911 0.65294593572616577 0.35294470191001892
0.0019688925240188837 0.65374445915222168 0.29200470447540283
0.0040733786299824715 0.6539299488067627 0.29846608638763428
0.16705100238323212 0.66513180732727051 0.30701467394828796
0.46537154912948608 0.68700647354125977 0.32595857977867126
0.67595303058624268 0.7200121283531189 0.34663566946983337
0.82011854648590088 0.73955398797988892 0.37231248617172241
0.90352201461791992 0.7478829026222229 0.40364021062850952
0.047121908515691757 0.76581335067749023 0.35565468668937683
0.12735548615455627 0.7665439248085022 0.3594801127910614
0.30844679474830627 0.77159422636032104 0.37950000166893005
0.49899771809577942 0.78091806173324585 0.4051186740398407
0.65599912405014038 0.80351930856704712 0.43235719203948975
0.78151726722717285 0.8235970139503479 0.45514950156211853
0.88222271203994751 0.8472180962562561 0.48866972327232361
0.45621269941329956 0.87855356931686401 0.48863759636878967
0.48092788457870483 0.87839365005493164 0.49097079038619995
0.54152190685272217 0.88075125217437744 0.5062984824180603
0.61603695154190063 0.88490456342697144 0.52226549386978149
0.70915138721466064 0.89475530385971069 0.54131025075912476
0.79603689908981323 0.90693670511245728 0.56684345006942749
0.87002229690551758 0.92034828662872314 0.5928531289100647
0.0085520427674055099 0.12721708416938782 0.28901970386505127
0.13410191237926483 0.14584246277809143 0.29702213406562805
0.28597688674926758 0.17497105896472931 0.30896967649459839
0.53944653272628784 0.14311404526233673 0.3494415283203125
0.78387629985809326 0.21235300600528717 0.38669246435165405
0.89443457126617432 0.42471688985824585 0.43702977895736694
0.94444417953491211 0.60047584772109985 0.50559854507446289
0.0045545091852545738 0.19601947069168091 0.31849589943885803
0.13367420434951782 0.20983593165874481 0.32895985245704651
0.33827975392341614 0.25547173619270325 0.3415381908416748
0.5824475884437561 0.25898832082748413 0.37431833148002625
0.78429120779037476 0.36067280173301697 0.40993812680244446
0.87815660238265991 0.52423882484436035 0.46497952938079834
0.93681257963180542 0.63221460580825806 0.51071798801422119
0.0025058970786631107 0.34151953458786011 0.33852085471153259
0.085281893610954285 0.36113619804382324 0.3556550145149231
0.38540241122245789 0.40436029434204102 0.37925201654434204
0.61697959899902344 0.45404234528541565 0.40052881836891174
0.76793664693832397 0.52376061677932739 0.42580479383468628
0.86003494262695312 0.59609723091125488 0.46298685669898987
0.92822384834289551 0.6625487208366394 0.49662068486213684
0.010623722337186337 0.52265691757202148 0.36414012312889099
0.17288349568843842 0.54222118854522705 0.37804773449897766
0.36297726631164551 0.5626291036605835 0.38868209719657898
0.58047109842300415 0.59800952672958374 0.40219619870185852
0.74279654026031494 0.61279690265655518 0.41067129373550415
0.84692305326461792 0.63892090320587158 0.42715132236480713
0.92184418439865112 0.69062346220016479 0.4717266857624054
0.1821800172328949 0.66604578495025635 0.40025809407234192
0.21957734227180481 0.66856199502944946 0.39493006467819214
0.34779703617095947 0.67502659559249878 0.40270891785621643
0.52871620655059814 0.69216233491897583 0.42541420459747314
0.70299935340881348 0.72408586740493774 0.44542348384857178
0.82076692581176758 0.73798775672912598 0.45911237597465515
0.90420705080032349 0.744476318359375 0.46485897898674011
0.25839832425117493 0.76671922206878662 0.42348021268844604
0.29195743799209595 0.76695001125335693 0.42365854978561401
0.40008294582366943 0.77450865507125854 0.43799611926078796
0.53436791896820068 0.78220921754837036 0.46043628454208374
0.67915910482406616 0.80441886186599731 0.48567146062850952
0.79339075088500977 0.82549631595611572 0.50502258539199829
0.88618725538253784 0.8516620397567749 0.53336971998214722
0.48279142379760742 0.8781554102897644 0.51295393705368042
0.50130844116210938 0.87834233045578003 0.51414299011230469
0.55428457260131836 0.88069254159927368 0.5254979133605957
0.62602418661117554 0.88326245546340942 0.54173493385314941
0.71606653928756714 0.89176702499389648 0.56463247537612915
0.79905343055725098 0.90264785289764404 0.58594900369644165
0.87111431360244751 0.91592389345169067 0.61214369535446167
0.060771733522415161 0.16823658347129822 0.45421835780143738
0.25139793753623962 0.19436700642108917 0.46420195698738098
0.4605458676815033 0.27680730819702148 0.47894158959388733
0.61249446868896484 0.37423071265220642 0.48988419771194458
0.74604266881942749 0.35098689794540405 0.5035291314125061
0.87137466669082642 0.44541734457015991 0.53022056818008423
0.93994510173797607 0.58004772663116455 0.55962765216827393
0.036580193787813187 0.24616709351539612 0.48001071810722351
0.24772258102893829 0.27365279197692871 0.48314887285232544
0.48378822207450867 0.36063548922538757 0.49731627106666565
0.62836760282516479 0.44704520702362061 0.50559896230697632
0.74995952844619751 0.44463428854942322 0.51553291082382202
0.86327314376831055 0.51337689161300659 0.5375404953956604
0.93473285436630249 0.62273353338241577 0.56937378644943237
0.0032640495337545872 0.40113401412963867 0.48218414187431335
0.13191957771778107 0.4125232994556427 0.4915388822555542
0.46272590756416321 0.47056275606155396 0.50942236185073853
0.63789105415344238 0.54985111951828003 0.52183431386947632
0.75242108106613159 0.55649846792221069 0.53100848197937012
0.84758669137954712 0.6240735650062561 0.55875062942504883
0.92024552822113037 0.69387197494506836 0.58684277534484863
0.010943274013698101 0.54128944873809814 0.47015994787216187
0.19090130925178528 0.54983651638031006 0.47550123929977417
0.43962275981903076 0.58122998476028442 0.5003056526184082
0.63215583562850952 0.62915503978729248 0.5226709246635437
0.75197428464889526 0.65688562393188477 0.53986912965774536
0.83968657255172729 0.69696885347366333 0.56135052442550659
0.91105037927627563 0.7399824857711792 0.57993084192276001
0.21677106618881226 0.65419626235961914 0.46791315078735352
0.31844803690910339 0.66035908460617065 0.48031315207481384
0.48097187280654907 0.68199199438095093 0.50183653831481934
0.60222572088241577 0.70447194576263428 0.51827991008758545
0.72028195858001709 0.72552168369293213 0.53141635656356812
0.8275875449180603 0.74311816692352295 0.54334276914596558
0.89973455667495728 0.76384323835372925 0.54788446426391602
0.39435622096061707 0.7619551420211792 0.49798870086669922
0.44236928224563599 0.76562094688415527 0.50556868314743042
0.50474941730499268 0.77430588006973267 0.50976783037185669
0.58680444955825806 0.78485846519470215 0.52426892518997192
0.69313091039657593 0.80359929800033569 0.54616296291351318
0.80013394355773926 0.82547163963317871 0.5644230842590332
0.89132648706436157 0.85215479135513306 0.5859343409538269
0.53421550989151001 0.87713313102722168 0.55758774280548096
0.54531395435333252 0.87399077415466309 0.55871880054473877
0.57155358791351318 0.8771323561668396 0.55585777759552002
0.63788962364196777 0.88591140508651733 0.57253992557525635
0.71916884183883667 0.89272689819335938 0.59275007247924805
0.80349862575531006 0.90924638509750366 0.62166619300842285
0.87393486499786377 0.92080044746398926 0.64472836256027222
0.28916069865226746 0.26837384700775146 0.58981567621231079
0.40683528780937195 0.29719001054763794 0.59644502401351929
0.57221609354019165 0.39778390526771545 0.60026133060455322
0.69420945644378662 0.5295373797416687 0.60284119844436646
0.77174067497253418 0.58586543798446655 0.6053546667098999
0.83743095397949219 0.57669621706008911 0.60949766635894775
0.91622447967529297 0.61740231513977051 0.62792378664016724
0.29830425977706909 0.34653756022453308 0.59955191612243652
0.41090795397758484 0.37823274731636047 0.59930622577667236
0.57242691516876221 0.45881834626197815 0.60406005382537842
0.70159691572189331 0.57869976758956909 0.60750800371170044
0.77153807878494263 0.62990611791610718 0.61332368850708008
0.83707034587860107 0.61657911539077759 0.61542624235153198
0.91707450151443481 0.64905893802642822 0.63421344757080078
0.2602044939994812 0.47190311551094055 0.59559589624404907
0.38294923305511475 0.48892602324485779 0.59617322683334351
0.54128193855285645 0.54639661312103271 0.60105675458908081
0.69819903373718262 0.62821078300476074 0.61276459693908691
0.7695307731628418 0.67811572551727295 0.61851847171783447
0.83402884006500244 0.66649621725082397 0.62226927280426025
0.9127923846244812 0.69765615463256836 0.64146691560745239
0.12123282998800278 0.57409489154815674 0.57217860221862793
0.28173857927322388 0.57951098680496216 0.57587540149688721
0.47283437848091125 0.6051933765411377 0.58722275495529175
0.65956795215606689 0.66235494613647461 0.60538208484649658
0.76580464839935303 0.71908301115036011 0.62475574016571045
0.83471596240997314 0.72184431552886963 0.63401854038238525
0.90342992544174194 0.76081883907318115 0.65641546249389648
0.27563834190368652 0.66785591840744019 0.55382293462753296
0.34885516762733459 0.67088800668716431 0.55669844150543213
0.47779804468154907 0.68749034404754639 0.56771349906921387
0.61923784017562866 0.7112349271774292 0.59085679054260254
0.74693065881729126 0.75526577234268188 0.61564648151397705
0.82971549034118652 0.7810245156288147 0.63228470087051392
0.9011000394821167 0.81047099828720093 0.65703916549682617
0.29601261019706726 0.74559932947158813 0.5398901104927063
0.36323827505111694 0.74968713521957397 0.54391181468963623
0.48326936364173889 0.76070475578308105 0.55855357646942139
0.61842083930969238 0.78128349781036377 0.58341741561889648
0.72195672988891602 0.80866515636444092 0.60735630989074707
0.81099194288253784 0.83284199237823486 0.62770497798919678
0.89260953664779663 0.84686928987503052 0.64341169595718384
0.50139182806015015 0.87109380960464478 0.59956568479537964
0.52934068441390991 0.87250959873199463 0.60235846042633057
0.58487796783447266 0.87481039762496948 0.60699176788330078
0.65545082092285156 0.88451635837554932 0.6182398796081543
0.72445207834243774 0.89554005861282349 0.63384652137756348
0.80806213617324829 0.91122180223464966 0.66644257307052612
0.87780183553695679 0.92434066534042358 0.69665437936782837
0.51970690488815308 0.4478105902671814 0.69167554378509521
0.57570338249206543 0.4780896008014679 0.69283795356750488
0.66676974296569824 0.5471489429473877 0.69190299510955811
0.75168430805206299 0.63726806640625 0.694286048412323
0.81216514110565186 0.72434455156326294 0.69783443212509155
0.84946274757385254 0.7296912670135498 0.69563692808151245
0.90425777435302734 0.73185145854949951 0.70775687694549561
0.51997613906860352 0.49745112657546997 0.69257670640945435
0.56907856464385986 0.53131610155105591 0.69647789001464844
0.66553163528442383 0.58718740940093994 0.69511222839355469
0.75688856840133667 0.6629871129989624 0.69430029392242432
0.8114815354347229 0.73887526988983154 0.70064985752105713
0.85180079936981201 0.75111347436904907 0.70087659358978271
0.90321695804595947 0.74454748630523682 0.71027165651321411
0.50346231460571289 0.5679505467414856 0.68571525812149048
0.54776298999786377 0.58860176801681519 0.68600165843963623
0.6411820650100708 0.63890385627746582 0.68951940536499023
0.74124360084533691 0.68732517957687378 0.69330084323883057
0.8040962815284729 0.75391417741775513 0.70420259237289429
0.85086202621459961 0.77771604061126709 0.70642966032028198
0.89832466840744019 0.76648569107055664 0.71402949094772339
0.37266656756401062 0.62601429224014282 0.66487294435501099
0.45356488227844238 0.63518637418746948 0.66715812683105469
0.58929812908172607 0.66440922021865845 0.67472916841506958
0.71415907144546509 0.70770859718322754 0.68815749883651733
0.79478746652603149 0.770793616771698 0.70538842678070068
0.85204076766967773 0.8071025013923645 0.71660500764846802
0.89521294832229614 0.79984009265899658 0.72055637836456299
0.33702173829078674 0.69815993309020996 0.64437508583068848
0.39287048578262329 0.70019042491912842 0.64576643705368042
0.49310195446014404 0.70634758472442627 0.65131407976150513
0.62778681516647339 0.72876417636871338 0.66832679510116577
0.75895386934280396 0.78532934188842773 0.69673693180084229
0.8474230170249939 0.83280825614929199 0.72316616773605347
0.8901137113571167 0.83815151453018188 0.73353791236877441
0.36342638731002808 0.76800805330276489 0.62575012445449829
0.40488380193710327 0.76909506320953369 0.62846750020980835
0.49008303880691528 0.77338975667953491 0.63414353132247925
0.59763866662979126 0.78685349225997925 0.64747941493988037
0.71694850921630859 0.80967849493026733 0.67028725147247314
0.83020460605621338 0.86074811220169067 0.71758002042770386
0.89717775583267212 0.88143837451934814 0.74279099702835083
0.36026060581207275 0.86316597461700439 0.63235795497894287
0.39868843555450439 0.8638421893119812 0.63431388139724731
0.48376190662384033 0.86670529842376709 0.64115637540817261
0.59316742420196533 0.87673038244247437 0.65608012676239014
0.70723181962966919 0.88778114318847656 0.6799808144569397
0.81065499782562256 0.91158324480056763 0.71968346834182739
0.88653886318206787 0.92922401428222656 0.7573089599609375
0.6978183388710022 0.65894889831542969 0.78862273693084717
0.71508252620697021 0.66802239418029785 0.7864571213722229
0.75835675001144409 0.69738876819610596 0.78538477420806885
0.80832207202911377 0.74110585451126099 0.78684091567993164
0.84884607791900635 0.78873395919799805 0.78422492742538452
0.87571549415588379 0.83234763145446777 0.78338944911956787
0.89680510759353638 0.84501343965530396 0.78596431016921997
0.69262516498565674 0.67814642190933228 0.7909894585609436
0.7145313024520874 0.68900108337402344 0.79014354944229126
0.75538092851638794 0.71020400524139404 0.78657782077789307
0.80723649263381958 0.75326669216156006 0.78520411252975464
0.8438299298286438 0.79484778642654419 0.78216910362243652
0.87908267974853516 0.83945548534393311 0.78528386354446411
0.89644604921340942 0.85072439908981323 0.78656387329101562
0.67074638605117798 0.70350873470306396 0.78883594274520874
0.69193744659423828 0.71241301298141479 0.78547769784927368
0.73926073312759399 0.73485755920410156 0.785117506980896
0.79087674617767334 0.76266390085220337 0.78350460529327393
0.83722549676895142 0.80608582496643066 0.78518295288085938
0.87751036882400513 0.84726011753082275 0.79027748107910156
0.89283889532089233 0.8596152663230896 0.79055118560791016
0.62095075845718384 0.73638820648193359 0.78413921594619751
0.64537608623504639 0.73688012361526489 0.7824816107749939
0.70120882987976074 0.75002419948577881 0.78289401531219482
0.77348148822784424 0.77859801054000854 0.78758132457733154
0.83150529861450195 0.81904786825180054 0.78990066051483154
0.87497508525848389 0.86146479845046997 0.79785072803497314
0.88693058490753174 0.87252849340438843 0.79703658819198608
0.48674094676971436 0.77325206995010376 0.77250319719314575
0.51575034856796265 0.77128785848617554 0.77013945579528809
0.59301882982254028 0.7759406566619873 0.7758520245552063
0.70783728361129761 0.79290181398391724 0.7842065691947937
0.8074491024017334 0.82651269435882568 0.79415076971054077
0.86717158555984497 0.87189525365829468 0.80317860841751099
0.89338535070419312 0.89227128028869629 0.80803489685058594
0.48373773694038391 0.83533406257629395 0.76524800062179565
0.50388938188552856 0.83319032192230225 0.76342612504959106
0.5569881796836853 0.83658778667449951 0.77132695913314819
0.63146191835403442 0.83676272630691528 0.77588444948196411
0.72925519943237305 0.84439939260482788 0.78339540958404541
0.84085524082183838 0.8802986741065979 0.8037073016166687
0.89840537309646606 0.91895538568496704 0.8247445821762085
0.49567985534667969 0.90580278635025024 0.76975983381271362
0.5178108811378479 0.90781944990158081 0.77515625953674316
0.55387091636657715 0.90705668926239014 0.7770991325378418
0.61235624551773071 0.90913945436477661 0.77588367462158203
0.69810193777084351 0.91225361824035645 0.78621363639831543
0.79715645313262939 0.91936564445495605 0.79690772294998169
0.89034950733184814 0.94295525550842285 0.83540505170822144
