luts/instant_consumer/polaroid_px-100uv+_cold.cube
# Created by: G'MIC (https://gmic.eu)
TITLE "polaroid_px-100uv+_cold"
# LUT size
LUT_3D_SIZE 5
# Data domain
DOMAIN_MIN 0.0 0.0 0.0
DOMAIN_MAX 1.0 1.0 1.0
# LUT data points
0.18101795017719269 0.25615745782852173 0.26779323816299438
0.21762809157371521 0.28884512186050415 0.2979121208190918
0.32144609093666077 0.37336695194244385 0.37851798534393311
0.44714707136154175 0.48020002245903015 0.4790310263633728
0.59265261888504028 0.61284744739532471 0.59249001741409302
0.24448384344577789 0.31079766154289246 0.32040596008300781
0.26178917288780212 0.32391095161437988 0.33377858996391296
0.34227749705314636 0.38937821984291077 0.3965262770652771
0.4633849561214447 0.49222198128700256 0.49147063493728638
0.6028856635093689 0.62077063322067261 0.59860366582870483
0.37820088863372803 0.41978862881660461 0.42633157968521118
0.37648889422416687 0.41505086421966553 0.42386752367019653
0.42204868793487549 0.45307418704032898 0.4596458375453949
0.50236529111862183 0.52508926391601562 0.52236872911453247
0.62212586402893066 0.63822090625762939 0.61316770315170288
0.51810598373413086 0.54244357347488403 0.53387898206710815
0.50880968570709229 0.53107345104217529 0.52571803331375122
0.52811789512634277 0.54934436082839966 0.54080545902252197
0.58390778303146362 0.60404294729232788 0.5851929783821106
0.67869699001312256 0.69294077157974243 0.65809255838394165
0.72329646348953247 0.73908638954162598 0.69448530673980713
0.72189545631408691 0.73382353782653809 0.68997550010681152
0.72756868600845337 0.74076247215270996 0.69336509704589844
0.76351982355117798 0.77601093053817749 0.72184717655181885
0.80981194972991943 0.81605201959609985 0.75772124528884888
0.25126835703849792 0.31585255265235901 0.32552275061607361
0.28337916731834412 0.34180566668510437 0.35371991991996765
0.39212614297866821 0.43052160739898682 0.43559738993644714
0.50294607877731323 0.52729839086532593 0.52200186252593994
0.63189685344696045 0.64886283874511719 0.62208801507949829
0.29868954420089722 0.35439836978912354 0.36296966671943665
0.34157097339630127 0.38804665207862854 0.39774325489997864
0.41772544384002686 0.45215657353401184 0.45718240737915039
0.51022690534591675 0.53258806467056274 0.52790898084640503
0.63965904712677002 0.65602093935012817 0.62706923484802246
0.44155076146125793 0.47193974256515503 0.47612735629081726
0.44449120759963989 0.47276294231414795 0.47744688391685486
0.47114354372024536 0.49704021215438843 0.49914282560348511
0.53119081258773804 0.55111730098724365 0.54496055841445923
0.65131253004074097 0.66731929779052734 0.63614320755004883
0.56832081079483032 0.58723104000091553 0.57323431968688965
0.55913734436035156 0.57837969064712524 0.56631731986999512
0.56298553943634033 0.58418965339660645 0.56923848390579224
0.60692757368087769 0.62763744592666626 0.60281753540039062
0.69634759426116943 0.71260130405426025 0.67129069566726685
0.7381894588470459 0.75024586915969849 0.70538890361785889
0.73351216316223145 0.74539005756378174 0.7006828784942627
0.73658448457717896 0.74994862079620361 0.70212662220001221
0.76688545942306519 0.7790520191192627 0.72484254837036133
0.81647235155105591 0.82406401634216309 0.76307755708694458
0.42791479825973511 0.46132427453994751 0.4635162353515625
0.45391947031021118 0.48141512274742126 0.48545825481414795
0.48176705837249756 0.50936132669448853 0.50673246383666992
0.56128382682800293 0.58102023601531982 0.56583678722381592
0.69093316793441772 0.70623660087585449 0.66640371084213257
0.45181775093078613 0.47825923562049866 0.48163625597953796
0.46987903118133545 0.49596774578094482 0.4975878894329071
0.5061948299407959 0.52977436780929565 0.52538573741912842
0.57478684186935425 0.59501892328262329 0.57714360952377319
0.70189690589904785 0.71833986043930054 0.67520993947982788
0.48966687917709351 0.51347702741622925 0.51404273509979248
0.50679576396942139 0.53058785200119019 0.52704721689224243
0.55090427398681641 0.57378226518630981 0.56123441457748413
0.62136936187744141 0.6415519118309021 0.61443734169006348
0.7230646014213562 0.73892509937286377 0.6923598051071167
0.622397780418396 0.64090335369110107 0.61534196138381958
0.62970423698425293 0.64906436204910278 0.62159997224807739
0.63545119762420654 0.65701520442962646 0.62678021192550659
0.67334026098251343 0.69401818513870239 0.65515130758285522
0.74853169918060303 0.76400595903396606 0.71225816011428833
0.77757304906845093 0.78809058666229248 0.73534226417541504
0.78199893236160278 0.79239606857299805 0.73896950483322144
0.78013116121292114 0.7926594614982605 0.73782539367675781
0.79879248142242432 0.81002926826477051 0.75145584344863892
0.8373725414276123 0.84473609924316406 0.78032547235488892
0.61392396688461304 0.63188403844833374 0.60939687490463257
0.61446219682693481 0.63238739967346191 0.6112934947013855
0.65009921789169312 0.66771262884140015 0.63753324747085571
0.67073750495910645 0.68680864572525024 0.65241998434066772
0.73200482130050659 0.74528950452804565 0.6985052227973938
0.62873518466949463 0.64513099193572998 0.62071478366851807
0.63830000162124634 0.65569144487380981 0.62840616703033447
0.66171836853027344 0.67716437578201294 0.64463067054748535
0.68018364906311035 0.69561523199081421 0.65944904088973999
0.74531054496765137 0.75795155763626099 0.71018248796463013
0.62897568941116333 0.64729875326156616 0.62051022052764893
0.6420668363571167 0.66224479675292969 0.63099348545074463
0.67580240964889526 0.69314813613891602 0.65640878677368164
0.71200674772262573 0.7276923656463623 0.68487745523452759
0.77680438756942749 0.78851157426834106 0.73416042327880859
0.67144650220870972 0.68806970119476318 0.65161401033401489
0.68061274290084839 0.69883185625076294 0.65970951318740845
0.70726561546325684 0.72527939081192017 0.68252789974212646
0.75284361839294434 0.76809263229370117 0.71789121627807617
0.80417639017105103 0.81513410806655884 0.7564997673034668
0.80912190675735474 0.81824284791946411 0.75906866788864136
0.81075829267501831 0.81910508871078491 0.76088798046112061
0.82319766283035278 0.83223825693130493 0.77241140604019165
0.83423805236816406 0.84288126230239868 0.78138500452041626
0.8552432656288147 0.86118406057357788 0.7966618537902832
0.80818533897399902 0.81706887483596802 0.75915604829788208
0.80347615480422974 0.81237637996673584 0.75624120235443115
0.81899911165237427 0.82641547918319702 0.76722800731658936
0.84306830167770386 0.84978854656219482 0.78632158041000366
0.84322339296340942 0.84886878728866577 0.78513854742050171
0.81604689359664917 0.82424861192703247 0.76412355899810791
0.81608247756958008 0.82470870018005371 0.76403111219406128
0.82431399822235107 0.83040279150009155 0.76854485273361206
0.84852081537246704 0.85389584302902222 0.78715336322784424
0.85383379459381104 0.85823643207550049 0.79152858257293701
0.81552720069885254 0.82441014051437378 0.76228290796279907
0.81451123952865601 0.82355529069900513 0.76099592447280884
0.82343751192092896 0.83067023754119873 0.76762956380844116
0.84749776124954224 0.85246920585632324 0.786185622215271
0.85540831089019775 0.85933732986450195 0.79221105575561523
0.81746256351470947 0.82479774951934814 0.76294821500778198
0.82100284099578857 0.82765793800354004 0.76565879583358765
0.8220255970954895 0.82875931262969971 0.76829880475997925
0.84924566745758057 0.8546871542930603 0.79087042808532715
0.87039732933044434 0.87394887208938599 0.8073275089263916
0.85396462678909302 0.85907095670700073 0.79421967267990112
0.86080807447433472 0.86298465728759766 0.79867511987686157
0.85760629177093506 0.85897636413574219 0.79713994264602661
0.87235218286514282 0.87453442811965942 0.81057476997375488
0.88068944215774536 0.88251185417175293 0.81714403629302979
