luts/instant_consumer/polaroid_time_zero_expired_-.cube
# Created by: G'MIC (https://gmic.eu)
TITLE "polaroid_time_zero_expired_-"
# LUT size
LUT_3D_SIZE 13
# Data domain
DOMAIN_MIN 0.0 0.0 0.0
DOMAIN_MAX 1.0 1.0 1.0
# LUT data points
0.4067503809928894 0.18050065636634827 0.04956422746181488
0.41588810086250305 0.18155451118946075 0.047948755323886871
0.4289606511592865 0.17998549342155457 0.046011578291654587
0.45785892009735107 0.1775624006986618 0.043718196451663971
0.50751036405563354 0.16917791962623596 0.040054589509963989
0.56113338470458984 0.16256293654441833 0.034897882491350174
0.6148611307144165 0.16004030406475067 0.032467905431985855
0.67103087902069092 0.16445893049240112 0.03014850988984108
0.72537350654602051 0.17045953869819641 0.027601668611168861
0.77895456552505493 0.18690101802349091 0.02817109040915966
0.83547258377075195 0.20602181553840637 0.027737995609641075
0.88875842094421387 0.23311944305896759 0.029902709648013115
0.93636250495910645 0.26509219408035278 0.034388240426778793
0.40963205695152283 0.19084250926971436 0.044998019933700562
0.42014867067337036 0.19271738827228546 0.042115934193134308
0.43560177087783813 0.19263884425163269 0.03963267058134079
0.47259610891342163 0.19326557219028473 0.035022437572479248
0.51811355352401733 0.1911025196313858 0.028786469250917435
0.57114249467849731 0.1893010288476944 0.023610403761267662
0.62458688020706177 0.18904112279415131 0.021700331941246986
0.67849665880203247 0.18993628025054932 0.021176505833864212
0.73125666379928589 0.19506719708442688 0.020686354488134384
0.78298217058181763 0.21145646274089813 0.020184565335512161
0.83755260705947876 0.23000095784664154 0.019046947360038757
0.89034157991409302 0.25259843468666077 0.019302817061543465
0.93760263919830322 0.28487968444824219 0.026019886136054993
0.42073580622673035 0.22661095857620239 0.025117926299571991
0.43304151296615601 0.22676648199558258 0.023089583963155746
0.45254737138748169 0.22410017251968384 0.025308452546596527
0.48945993185043335 0.22446402907371521 0.022606553509831429
0.53191429376602173 0.22501984238624573 0.015198128297924995
0.58382993936538696 0.22733984887599945 0.01178416796028614
0.63535857200622559 0.22591756284236908 0.0088061010465025902
0.68596237897872925 0.23036107420921326 0.0088525805622339249
0.73784267902374268 0.23654431104660034 0.0086358161643147469
0.78861027956008911 0.24817536771297455 0.0079846251755952835
0.84079664945602417 0.26074278354644775 0.0065444647334516048
0.89321649074554443 0.28234833478927612 0.006875939667224884
0.93823760747909546 0.31277525424957275 0.013930152170360088
0.44156688451766968 0.27830031514167786 0.0042433645576238632
0.45856830477714539 0.28041249513626099 0.0055896234698593616
0.48438110947608948 0.27858534455299377 0.0071644051931798458
0.51392883062362671 0.27441880106925964 0.0053826426155865192
0.55446702241897583 0.27567663788795471 0.0055038300342857838
0.60509812831878662 0.2820078432559967 0.0076824710704386234
0.65290391445159912 0.28531661629676819 0.0045186211355030537
0.69814145565032959 0.28827059268951416 0.0026243620086461306
0.74442696571350098 0.29264780879020691 0.0025321510620415211
0.79313760995864868 0.30183002352714539 0.0012812296627089381
0.84456193447113037 0.31476655602455139 0.0011431674938648939
0.89532983303070068 0.33100777864456177 0.00025268254103139043
0.93574780225753784 0.35338643193244934 0.0040801102295517921
0.47429987788200378 0.33761304616928101 0.00076065061148256063
0.49116653203964233 0.34040132164955139 0.0039063249714672565
0.51527059078216553 0.33836513757705688 0.0039215688593685627
0.54277557134628296 0.33621066808700562 0.0010447034146636724
0.5822291374206543 0.33948370814323425 0.0028396158013492823
0.6272275447845459 0.3432864248752594 0.0039959177374839783
0.67142480611801147 0.34768879413604736 0.0024052190128713846
0.71196240186691284 0.34960633516311646 0.00018977744912263006
0.75197333097457886 0.3483349084854126 0
0.79839164018630981 0.35823416709899902 0
0.8470725417137146 0.37128505110740662 3.7099802284501493e-05
0.89436662197113037 0.38654276728630066 0.00098079605959355831
0.93656420707702637 0.40629050135612488 0.00031736784148961306
0.50952386856079102 0.40031823515892029 0
0.52305954694747925 0.40124350786209106 0.0018597173038870096
0.54136127233505249 0.39941877126693726 0.0033259072806686163
0.56893765926361084 0.39953875541687012 0.0013893127907067537
0.60879427194595337 0.40411031246185303 0.0011538636172190309
0.64956521987915039 0.40652662515640259 0.00051232130499556661
0.68913388252258301 0.41022470593452454 0.00010904050577664748
0.72887426614761353 0.4146583080291748 0
0.76754271984100342 0.41558820009231567 0
0.80918896198272705 0.42252019047737122 0
0.85197436809539795 0.4307594895362854 1.7951516610992257e-06
0.89461052417755127 0.44215682148933411 0.00025172514142468572
0.93644243478775024 0.46242019534111023 0.00024880800629034638
0.54271066188812256 0.46291974186897278 0
0.55481517314910889 0.46150240302085876 0
0.56931072473526001 0.46096020936965942 0.00030131620587781072
0.59342992305755615 0.46326643228530884 0.00065777346026152372
0.63180446624755859 0.46800777316093445 4.5955883251735941e-05
0.67195171117782593 0.47297230362892151 0
0.71093332767486572 0.47812020778656006 0
0.7497742772102356 0.48298203945159912 0.00078172871144488454
0.78701317310333252 0.48627486824989319 0.0020745520014315844
0.82560408115386963 0.49277612566947937 0.0014001135714352131
0.8627479076385498 0.50160044431686401 0.00097906077280640602
0.90051126480102539 0.51127403974533081 0.00049882777966558933
0.93742632865905762 0.52552115917205811 1.4002182979311328e-05
0.57443147897720337 0.52463066577911377 0
0.58688944578170776 0.52408015727996826 0
0.60042464733123779 0.52339392900466919 0
0.61800658702850342 0.52554494142532349 0.0002983541926369071
0.65281569957733154 0.53201460838317871 0.00034341251011937857
0.69283157587051392 0.53951966762542725 0
0.73221135139465332 0.54516756534576416 0.00023739384778309613
0.76903748512268066 0.54937565326690674 0.0036904877051711082
0.8039972186088562 0.55462819337844849 0.0039215688593685627
0.83832508325576782 0.56256306171417236 0.0039215688593685627
0.87283533811569214 0.57284575700759888 0.0038850223645567894
0.90776276588439941 0.58143353462219238 0.0035257826093584299
0.93860942125320435 0.58944529294967651 0.0001983642578125
0.60880440473556519 0.58949190378189087 0
0.61888039112091064 0.58834272623062134 0
0.63131439685821533 0.5870853066444397 0
0.64780664443969727 0.58904677629470825 0.00020069794845767319
0.67659801244735718 0.59563243389129639 0
0.71255314350128174 0.60285794734954834 0
0.75165277719497681 0.60860550403594971 0.00075873581226915121
0.78728216886520386 0.61361134052276611 0.0039215688593685627
0.81979447603225708 0.62122911214828491 0.0039215688593685627
0.85096567869186401 0.62912923097610474 0.0039215688593685627
0.88293910026550293 0.63877815008163452 0.0052315057255327702
0.91439932584762573 0.64718329906463623 0.0038274878170341253
0.9422340989112854 0.65367579460144043 0.00087298225844278932
0.6441841721534729 0.65363055467605591 0
0.6523057222366333 0.65280598402023315 0
0.66313266754150391 0.65266364812850952 0
0.67888790369033813 0.65456223487854004 7.234461372718215e-05
0.70565104484558105 0.6600348949432373 0
0.73400336503982544 0.66442036628723145 0
0.76897001266479492 0.66964906454086304 0.00024364695127587765
0.80293798446655273 0.67561465501785278 0.0036904579028487206
0.83466225862503052 0.68359905481338501 0.0039215688593685627
0.86494112014770508 0.69120901823043823 0.0039215688593685627
0.89400190114974976 0.69852632284164429 0.0054973824881017208
0.92162162065505981 0.70737916231155396 0.04906902089715004
0.94704580307006836 0.71464896202087402 0.074667669832706451
0.68050640821456909 0.7162330150604248 0
0.68770080804824829 0.71557354927062988 0
0.69625520706176758 0.71707427501678467 0
0.70769625902175903 0.71855539083480835 0
0.73131483793258667 0.72044605016708374 0
0.75671249628067017 0.723663330078125 0
0.78421396017074585 0.72794854640960693 0.00037574020097963512
0.8162807822227478 0.73314887285232544 0.0036892460193485022
0.84754836559295654 0.73819082975387573 0.0039834114722907543
0.87605243921279907 0.7429964542388916 0.0039215688593685627
0.90290635824203491 0.74782323837280273 0.0051894094794988632
0.92648577690124512 0.75482803583145142 0.089335136115550995
0.94801270961761475 0.76354193687438965 0.20266649127006531
0.72049063444137573 0.77169519662857056 0
0.72695285081863403 0.77185231447219849 0
0.73357385396957397 0.77223664522171021 0
0.74197328090667725 0.77324211597442627 0
0.76108789443969727 0.77330797910690308 0
0.78275817632675171 0.77421420812606812 0
0.80350065231323242 0.77648478746414185 0.0010148590663447976
0.83124864101409912 0.77969574928283691 0.0041457978077232838
0.86043828725814819 0.78352481126785278 0.007626253180205822
0.88715165853500366 0.78754812479019165 0.0057082679122686386
0.91278493404388428 0.79387789964675903 0.018081784248352051
0.9347078800201416 0.79666250944137573 0.13499540090560913
0.95204669237136841 0.80043309926986694 0.24812380969524384
0.76035201549530029 0.82032090425491333 0
0.76329654455184937 0.81832104921340942 0
0.76875424385070801 0.81889182329177856 0
0.7780911922454834 0.82164698839187622 0
0.79252660274505615 0.81946218013763428 0
0.80714040994644165 0.81858497858047485 0
0.8252178430557251 0.8202250599861145 0.0005772908334620297
0.84908443689346313 0.821635901927948 0.0038408616092056036
0.87515175342559814 0.82356452941894531 0.0047924863174557686
0.90231102705001831 0.82953274250030518 0.015801195055246353
0.92446714639663696 0.83129894733428955 0.10769356787204742
0.94367766380310059 0.83141618967056274 0.23285132646560669
0.96021980047225952 0.83249425888061523 0.32318148016929626
0.41139519214630127 0.18038105964660645 0.060128979384899139
0.41462117433547974 0.1810293048620224 0.055651869624853134
0.42896687984466553 0.18011048436164856 0.054460100829601288
0.46505042910575867 0.17728079855442047 0.05696907639503479
0.51210880279541016 0.17010526359081268 0.054191529750823975
0.56644034385681152 0.16945293545722961 0.056067179888486862
0.62267756462097168 0.17248952388763428 0.055479895323514938
0.67859601974487305 0.17490756511688232 0.051032360643148422
0.73098075389862061 0.18500395119190216 0.050892338156700134
0.78412932157516479 0.200095534324646 0.053804405033588409
0.83963227272033691 0.21891015768051147 0.054857157170772552
0.89066463708877563 0.2448175847530365 0.057548806071281433
0.9360383152961731 0.27304184436798096 0.063807949423789978
0.41393479704856873 0.19337573647499084 0.053603049367666245
0.41988539695739746 0.19317317008972168 0.050291772931814194
0.44094067811965942 0.19485360383987427 0.050143852829933167
0.47963786125183105 0.19392459094524384 0.049406073987483978
0.52265501022338867 0.19124501943588257 0.046568013727664948
0.57594543695449829 0.19469435513019562 0.046808384358882904
0.6301116943359375 0.19687855243682861 0.046981394290924072
0.68339699506759644 0.19750262796878815 0.044127266854047775
0.73516196012496948 0.20723547041416168 0.043970998376607895
0.78794723749160767 0.22229711711406708 0.045665007084608078
0.84106707572937012 0.23969277739524841 0.044562678784132004
0.89153069257736206 0.26246917247772217 0.044692620635032654
0.93878179788589478 0.29207125306129456 0.054964881390333176
0.42183035612106323 0.22722277045249939 0.03677680715918541
0.4348982572555542 0.22704285383224487 0.034074746072292328
0.46101230382919312 0.22998447716236115 0.037239629775285721
0.49653756618499756 0.23065529763698578 0.039018206298351288
0.53976517915725708 0.23142020404338837 0.033386111259460449
0.58978325128555298 0.2337060421705246 0.029391957446932793
0.64122146368026733 0.23488001525402069 0.029994215816259384
0.69087398052215576 0.2371220737695694 0.029520729556679726
0.74117964506149292 0.24436089396476746 0.028683844953775406
0.79285615682601929 0.25557705760002136 0.030396061018109322
0.84413605928421021 0.26903745532035828 0.0296146459877491
0.89479613304138184 0.28789752721786499 0.028989903628826141
0.94005328416824341 0.31830123066902161 0.040545832365751266
0.44544336199760437 0.28073212504386902 0.012409375049173832
0.46034330129623413 0.28208044171333313 0.010595837607979774
0.48697265982627869 0.28191232681274414 0.011578159406781197
0.51917636394500732 0.28065904974937439 0.014366718009114265
0.56130820512771606 0.28010174632072449 0.015855930745601654
0.60607737302780151 0.28222927451133728 0.013141991570591927
0.65279650688171387 0.2863166332244873 0.012203171849250793
0.70098674297332764 0.28852838277816772 0.010045459493994713
0.74890434741973877 0.2917269766330719 0.0083573134616017342
0.79759746789932251 0.30231225490570068 0.008585282601416111
0.84777891635894775 0.31448885798454285 0.0093354471027851105
0.89661628007888794 0.3330274224281311 0.012561454437673092
0.93972086906433105 0.35849913954734802 0.018507281318306923
0.47910460829734802 0.34131345152854919 0.0029279221780598164
0.49298107624053955 0.34157279133796692 0.0032015482429414988
0.51718360185623169 0.34150707721710205 0.0042958576232194901
0.5482780933380127 0.34131711721420288 0.0034463771153241396
0.58860820531845093 0.34338852763175964 0.0047327675856649876
0.63111454248428345 0.34647676348686218 0.0063209831714630127
0.67181754112243652 0.34931635856628418 0.0050530377775430679
0.71381837129592896 0.35163971781730652 0.0034467959776520729
0.75683033466339111 0.35466152429580688 0.0024221830535680056
0.80340409278869629 0.36049482226371765 0.0015967275248840451
0.85085749626159668 0.37088209390640259 0.0020973952487111092
0.89701801538467407 0.38672244548797607 0.004483839962631464
0.94065302610397339 0.40781155228614807 0.004563694354146719
0.51665931940078735 0.40440547466278076 0.0011231066891923547
0.52678358554840088 0.40278857946395874 0.0023474749177694321
0.54588466882705688 0.40259471535682678 0.003911635372787714
0.57554954290390015 0.4050041139125824 0.0039215688593685627
0.61470210552215576 0.40871971845626831 0.003744462039321661
0.65558809041976929 0.41179934144020081 0.002192583167925477
0.69344896078109741 0.41415268182754517 0.0010143952677026391
0.73131519556045532 0.41704589128494263 0.00041099995723925531
0.77007514238357544 0.42013046145439148 0.0021592234261333942
0.81058496236801147 0.42173165082931519 0.0010087705450132489
0.85332965850830078 0.4306643009185791 0.00045940923155285418
0.89785629510879517 0.44782170653343201 0.0025739781558513641
0.9385676383972168 0.46447035670280457 0.0036639792378991842
0.54994720220565796 0.46566727757453918 0.0016495049931108952
0.55967885255813599 0.4625459611415863 0.0033624386414885521
0.57493764162063599 0.46292918920516968 0.0037048340309411287
0.59999263286590576 0.46749722957611084 0.0038868773262947798
0.63679665327072144 0.47150138020515442 0.0027096020057797432
0.67622894048690796 0.47616672515869141 0.00086228613508865237
0.71457421779632568 0.4792846143245697 3.8595760997850448e-05
0.75149428844451904 0.48302853107452393 0.00067912082886323333
0.78893989324569702 0.48737969994544983 0.0034470800310373306
0.82608705759048462 0.49172243475914001 0.0010477701434865594
0.86199581623077393 0.50054061412811279 0.0019296683603897691
0.9021112322807312 0.51419949531555176 0.001685662311501801
0.93892300128936768 0.5259588360786438 0.00024988510995171964
0.58277404308319092 0.52821248769760132 0.0025458391755819321
0.59185165166854858 0.52583324909210205 0.0029312882106751204
0.6053159236907959 0.52538669109344482 0.0032150268089026213
0.62371569871902466 0.52785724401473999 0.003855791175737977
0.6563180685043335 0.53334003686904907 0.0038889118004590273
0.6957736611366272 0.53939914703369141 0.0034709556493908167
0.73495006561279297 0.54408961534500122 0.001324881799519062
0.7714073657989502 0.54849386215209961 0.0034221126697957516
0.80636656284332275 0.55529135465621948 0.0038136949297040701
0.84042221307754517 0.56299322843551636 0.003285576356574893
0.87396395206451416 0.57199889421463013 0.0037152159493416548
0.90894818305969238 0.58165872097015381 0.002256116596981883
0.93847090005874634 0.58973890542984009 0.00054022099357098341
0.61540853977203369 0.59230697154998779 0.00092994840815663338
0.62434011697769165 0.59017717838287354 0.0019303265726193786
0.63597089052200317 0.58892184495925903 0.0029322605114430189
0.65148782730102539 0.59049993753433228 0.0038770190440118313
0.67895597219467163 0.59642726182937622 0.0035860848147422075
0.7154080867767334 0.60230815410614014 0.0035518570803105831
0.7539055347442627 0.60754287242889404 0.0033648770768195391
0.78920984268188477 0.61360740661621094 0.0039215688593685627
0.82202774286270142 0.6224064826965332 0.0039581297896802425
0.85346889495849609 0.63030314445495605 0.0044215931557118893
0.88514077663421631 0.63959699869155884 0.0039623184129595757
0.91570740938186646 0.64779043197631836 0.005106697790324688
0.94058108329772949 0.65377306938171387 0.0041752234101295471
0.6476513147354126 0.65529030561447144 5.6278004194609821e-05
0.65671145915985107 0.65338373184204102 0.00040205413824878633
0.66770046949386597 0.65376883745193481 0.0022441938053816557
0.68229395151138306 0.65556567907333374 0.00373077392578125
0.70583212375640869 0.65975010395050049 0.0027912065852433443
0.73407316207885742 0.66376340389251709 0.0015502331079915166
0.76951903104782104 0.66896826028823853 0.0023855322506278753
0.80390727519989014 0.67578500509262085 0.0039123534224927425
0.83585035800933838 0.6832587718963623 0.0039355708286166191
0.86569273471832275 0.68945133686065674 0.0043886671774089336
0.89455288648605347 0.69844168424606323 0.013434885069727898
0.92124193906784058 0.70944499969482422 0.0789504274725914
0.9456712007522583 0.71565455198287964 0.099608130753040314
0.68090909719467163 0.71873044967651367 0
0.68994224071502686 0.71598136425018311 0
0.69995379447937012 0.71630185842514038 0.00016620112000964582
0.71121937036514282 0.7174527645111084 0.00042153152753598988
0.7317507266998291 0.7198520302772522 3.5753437259700149e-05
0.7563711404800415 0.72390580177307129 0
0.78366696834564209 0.72912514209747314 5.7355096942046657e-05
0.81637567281723022 0.73269522190093994 0.0033092722296714783
0.84765416383743286 0.73746013641357422 0.0039215688593685627
0.87657445669174194 0.7424435019493103 0.0029785456135869026
0.90347683429718018 0.74861711263656616 0.0078200092539191246
0.92707365751266479 0.75684493780136108 0.11498263478279114
0.94824779033660889 0.76420116424560547 0.21895425021648407
0.71986794471740723 0.77250248193740845 0
0.72747635841369629 0.77205437421798706 0
0.7352139949798584 0.77217239141464233 0
0.74386841058731079 0.77262020111083984 0
0.76128429174423218 0.77421802282333374 0
0.78306138515472412 0.77582520246505737 0
0.80448919534683228 0.7786443829536438 0.00018543915939517319
0.83232301473617554 0.78094512224197388 0.0037109374534338713
0.86094999313354492 0.78374093770980835 0.0042108870111405849
0.88793158531188965 0.78849053382873535 0.0039890515618026257
0.91350573301315308 0.7943425178527832 0.027534874156117439
0.93423503637313843 0.79694390296936035 0.15664944052696228
0.95194083452224731 0.80021315813064575 0.26342815160751343
0.76042801141738892 0.82131737470626831 0
0.76429265737533569 0.81968492269515991 0
0.76896679401397705 0.81986463069915771 0
0.7779194712638855 0.82254558801651001 0
0.79201221466064453 0.82073640823364258 0
0.80738526582717896 0.82090657949447632 0
0.82702630758285522 0.82469755411148071 4.6584184019593522e-05
0.85095268487930298 0.8242570161819458 0.0023632273077964783
0.87593364715576172 0.82529968023300171 0.0033745709806680679
0.90228044986724854 0.82965099811553955 0.019131066277623177
0.92467808723449707 0.83107286691665649 0.12495031952857971
0.94349652528762817 0.83102589845657349 0.24309568107128143
0.9610978364944458 0.83306574821472168 0.33875295519828796
0.41867315769195557 0.17908954620361328 0.075228311121463776
0.42648541927337646 0.181301549077034 0.076356537640094757
0.43847769498825073 0.1806892603635788 0.076689913868904114
0.46712499856948853 0.17841459810733795 0.077982477843761444
0.51920711994171143 0.17651502788066864 0.085347659885883331
0.57515978813171387 0.17658163607120514 0.091733984649181366
0.63076877593994141 0.18102027475833893 0.089815311133861542
0.68491888046264648 0.18813055753707886 0.086590096354484558
0.73644566535949707 0.20497041940689087 0.084903120994567871
0.78934687376022339 0.21411912143230438 0.083505652844905853
0.84387397766113281 0.22902636229991913 0.084421269595623016
0.89339578151702881 0.25284484028816223 0.089970819652080536
0.93868720531463623 0.27961975336074829 0.096845187246799469
0.42347815632820129 0.19151860475540161 0.072986379265785217
0.43514987826347351 0.19675417244434357 0.073865525424480438
0.45146915316581726 0.1984243243932724 0.074343673884868622
0.48217496275901794 0.19858185946941376 0.075025059282779694
0.53084176778793335 0.20119884610176086 0.07891535758972168
0.58539509773254395 0.20449422299861908 0.08327978104352951
0.63837385177612305 0.20613105595111847 0.084146209061145782
0.68869078159332275 0.21038906276226044 0.082332819700241089
0.73970341682434082 0.22474946081638336 0.078557364642620087
0.79367685317993164 0.23554933071136475 0.077629730105400085
0.84604668617248535 0.24894741177558899 0.078262090682983398
0.89431685209274292 0.27098014950752258 0.082852140069007874
0.94063687324523926 0.29860222339630127 0.091348357498645782
0.43487712740898132 0.22552153468132019 0.064935095608234406
0.44958806037902832 0.22812649607658386 0.065970011055469513
0.47026950120925903 0.23160780966281891 0.066212356090545654
0.50325495004653931 0.23594772815704346 0.066891223192214966
0.54795879125595093 0.2400747686624527 0.066411003470420837
0.5985102653503418 0.2419673353433609 0.066162273287773132
0.64779788255691528 0.2429502010345459 0.068316519260406494
0.69539564847946167 0.24548695981502533 0.067828580737113953
0.7453034520149231 0.25406917929649353 0.065643265843391418
0.79783755540847778 0.2619529664516449 0.065903760492801666
0.84880506992340088 0.27581959962844849 0.067227683961391449
0.89683264493942261 0.30017361044883728 0.071457579731941223
0.9433484673500061 0.32796722650527954 0.081565737724304199
0.45997688174247742 0.2820945680141449 0.044891566038131714
0.47139441967010498 0.28286629915237427 0.046330902725458145
0.49460905790328979 0.28485199809074402 0.043590620160102844
0.52693682909011841 0.28527617454528809 0.048199042677879333
0.56909984350204468 0.28720355033874512 0.04895927757024765
0.61380445957183838 0.28833487629890442 0.047361813485622406
0.65757942199707031 0.29121550917625427 0.045193120837211609
0.70464140176773071 0.29377752542495728 0.044322922825813293
0.75255835056304932 0.2976231575012207 0.045450758188962936
0.8014025092124939 0.30720412731170654 0.044621411710977554
0.85164445638656616 0.31944915652275085 0.047201119363307953
0.89890629053115845 0.33976969122886658 0.051699604839086533
0.94306701421737671 0.36661526560783386 0.059695105999708176
0.48985689878463745 0.34358474612236023 0.020945515483617783
0.50096386671066284 0.3432793915271759 0.018915796652436256
0.52258586883544922 0.34549063444137573 0.015043924562633038
0.55530214309692383 0.34700655937194824 0.016658512875437737
0.59425550699234009 0.34751331806182861 0.022319629788398743
0.63609284162521362 0.34995558857917786 0.029326211661100388
0.67475104331970215 0.35089728236198425 0.024361195042729378
0.71544486284255981 0.35199540853500366 0.016658125445246696
0.76042604446411133 0.35770431160926819 0.019752517342567444
0.80760735273361206 0.36458751559257507 0.018622064962983131
0.85512524843215942 0.37273740768432617 0.017713194712996483
0.90031629800796509 0.38792431354522705 0.021939804777503014
0.94358706474304199 0.40943065285682678 0.031844016164541245
0.52325606346130371 0.4062630832195282 0.0062838387675583363
0.5337485671043396 0.4039955735206604 0.0066575594246387482
0.55259507894515991 0.40645056962966919 0.0052085728384554386
