luts/instant_consumer/polaroid_time_zero_expired_+.cube
# Created by: G'MIC (https://gmic.eu)
TITLE "polaroid_time_zero_expired_+"
# LUT size
LUT_3D_SIZE 13
# Data domain
DOMAIN_MIN 0.0 0.0 0.0
DOMAIN_MAX 1.0 1.0 1.0
# LUT data points
0.80917549133300781 0.52487528324127197 0.25697079300880432
0.81165111064910889 0.52269327640533447 0.2546505331993103
0.81176471710205078 0.52123099565505981 0.25351047515869141
0.81322693824768066 0.52087140083312988 0.25382846593856812
0.81627935171127319 0.52186030149459839 0.25555223226547241
0.82108223438262939 0.52352088689804077 0.25769975781440735
0.82840168476104736 0.52584618330001831 0.26015040278434753
0.83979082107543945 0.52767282724380493 0.2610471248626709
0.85526639223098755 0.52996551990509033 0.26039427518844604
0.87210029363632202 0.53238469362258911 0.26019108295440674
0.89124464988708496 0.53592789173126221 0.26038029789924622
0.91155916452407837 0.54041063785552979 0.26258388161659241
0.93120819330215454 0.54546016454696655 0.26825979351997375
0.81119608879089355 0.52866733074188232 0.25453886389732361
0.81176471710205078 0.52678269147872925 0.25265577435493469
0.81257790327072144 0.52586567401885986 0.25207740068435669
0.81550216674804688 0.52605170011520386 0.25284713506698608
0.81830590963363647 0.52713465690612793 0.25470700860023499
0.82340896129608154 0.52896773815155029 0.25714704394340515
0.83143001794815063 0.53120100498199463 0.25972375273704529
0.84278839826583862 0.53340309858322144 0.26081201434135437
0.85754776000976562 0.53572243452072144 0.26090341806411743
0.87552386522293091 0.53860366344451904 0.26043024659156799
0.89481443166732788 0.54216659069061279 0.26072585582733154
0.91414976119995117 0.54677259922027588 0.26274940371513367
0.9334179162979126 0.55253005027770996 0.26771372556686401
0.81172674894332886 0.53340995311737061 0.25259125232696533
0.811897873878479 0.53178811073303223 0.25107511878013611
0.81521451473236084 0.53162968158721924 0.25069299340248108
0.81682592630386353 0.53229004144668579 0.25174179673194885
0.82097429037094116 0.5339171290397644 0.25345152616500854
0.82661008834838867 0.53602701425552368 0.25625953078269958
0.83502715826034546 0.53832948207855225 0.2587827742099762
0.84649062156677246 0.54070645570755005 0.26060372591018677
0.8607017993927002 0.54335743188858032 0.26115196943283081
0.8769872784614563 0.54646134376525879 0.26114067435264587
0.89485293626785278 0.55019021034240723 0.26138386130332947
0.91415441036224365 0.55504631996154785 0.2635396420955658
0.93345588445663452 0.56086248159408569 0.26828625798225403
0.81176471710205078 0.54039674997329712 0.25121825933456421
0.81337565183639526 0.5391954779624939 0.24955002963542938
0.81579768657684326 0.53976917266845703 0.24899402260780334
0.81912910938262939 0.54112201929092407 0.24957393109798431
0.8235088586807251 0.54328382015228271 0.25158241391181946
0.82977396249771118 0.54562443494796753 0.254404217004776
0.83843457698822021 0.54812872409820557 0.25754454731941223
0.84968620538711548 0.55075854063034058 0.26035615801811218
0.86357742547988892 0.55353325605392456 0.26138904690742493
0.87958747148513794 0.55684804916381836 0.26175698637962341
0.8971179723739624 0.56085962057113647 0.26196923851966858
0.91419142484664917 0.56590741872787476 0.2639276385307312
0.93345588445663452 0.57213681936264038 0.26835471391677856
0.81186974048614502 0.55038917064666748 0.24974372982978821
0.81511706113815308 0.54989099502563477 0.24786719679832458
0.8173375129699707 0.55119258165359497 0.24644939601421356
0.82109159231185913 0.55339300632476807 0.24653787910938263
0.82599526643753052 0.55612146854400635 0.24820154905319214
0.83286154270172119 0.55883729457855225 0.25152623653411865
0.84181129932403564 0.56144487857818604 0.25573310256004333
0.85295373201370239 0.56421816349029541 0.25983503460884094
0.86630964279174805 0.56721943616867065 0.26209390163421631
0.88162773847579956 0.57078802585601807 0.26267886161804199
0.89876985549926758 0.57506722211837769 0.26207125186920166
0.91555052995681763 0.58038520812988281 0.26278841495513916
0.93345588445663452 0.58664590120315552 0.2667941153049469
0.81376194953918457 0.56437921524047852 0.24787802994251251
0.81607300043106079 0.56490373611450195 0.24468283355236053
0.81944841146469116 0.56716066598892212 0.24232500791549683
0.82334780693054199 0.5702405571937561 0.24162645637989044
0.82878798246383667 0.57322067022323608 0.2431674599647522
0.83575719594955444 0.57585591077804565 0.24697746336460114
0.84472781419754028 0.57883810997009277 0.25268062949180603
0.85587823390960693 0.58196687698364258 0.25884690880775452
0.86901187896728516 0.58498495817184448 0.26330330967903137
0.88371729850769043 0.58878272771835327 0.26413306593894958
0.89927750825881958 0.59343808889389038 0.26221200823783875
0.91686266660690308 0.59934622049331665 0.25999432802200317
0.93345588445663452 0.60587972402572632 0.26234379410743713
0.81595605611801147 0.58458560705184937 0.24415327608585358
0.81875592470169067 0.58589088916778564 0.23977957665920258
0.82180595397949219 0.58846509456634521 0.23631471395492554
0.82589727640151978 0.5917123556137085 0.23446430265903473
0.83143341541290283 0.5950247049331665 0.23567524552345276
0.8385394811630249 0.59807091951370239 0.24008344113826752
0.84763485193252563 0.60083436965942383 0.24751830101013184
0.85854226350784302 0.60379296541213989 0.25685665011405945
0.87123072147369385 0.60712915658950806 0.26477822661399841
0.88538485765457153 0.61143791675567627 0.26711180806159973
0.90073239803314209 0.61675995588302612 0.26365810632705688
0.9175417423248291 0.62291967868804932 0.25911679863929749
0.93345588445663452 0.62980848550796509 0.25940287113189697
0.81935220956802368 0.61234176158905029 0.23757259547710419
0.82186031341552734 0.61320018768310547 0.23258653283119202
0.82502090930938721 0.61571973562240601 0.22831714153289795
0.82905638217926025 0.61870521306991577 0.22579260170459747
0.83436155319213867 0.62180948257446289 0.22605209052562714
0.84141921997070312 0.62475031614303589 0.23053647577762604
0.8502953052520752 0.62762659788131714 0.2394697517156601
0.86114448308944702 0.63042241334915161 0.25208956003189087
0.87363618612289429 0.63394200801849365 0.26476895809173584
0.88727658987045288 0.63879209756851196 0.27061089873313904
0.90178763866424561 0.64484977722167969 0.26833850145339966
0.91800183057785034 0.65149641036987305 0.26390579342842102
0.93349790573120117 0.65819501876831055 0.26385480165481567
0.82390129566192627 0.64595311880111694 0.23001205921173096
0.82631903886795044 0.64622855186462402 0.22484602034091949
0.82917869091033936 0.64816886186599731 0.22016322612762451
0.83287900686264038 0.65075808763504028 0.21648731827735901
0.8378671407699585 0.65339881181716919 0.21532453596591949
0.84457004070281982 0.65584844350814819 0.21889083087444305
0.85326772928237915 0.65871715545654297 0.22839036583900452
0.86379146575927734 0.66160213947296143 0.24326397478580475
0.87590551376342773 0.66529726982116699 0.25983646512031555
0.88910335302352905 0.67068964242935181 0.27173468470573425
0.90324079990386963 0.6772385835647583 0.27702605724334717
0.91824322938919067 0.68437057733535767 0.28012073040008545
0.93378496170043945 0.69134008884429932 0.28564357757568359
0.82952237129211426 0.68443626165390015 0.22432824969291687
0.83186221122741699 0.68443626165390015 0.21929372847080231
0.8344079852104187 0.68445372581481934 0.21445934474468231
0.8376535177230835 0.6873321533203125 0.20969393849372864
0.84205144643783569 0.68849247694015503 0.20634636282920837
0.84819751977920532 0.69118046760559082 0.20765608549118042
0.85658657550811768 0.69299232959747314 0.21666517853736877
0.86695754528045654 0.69633519649505615 0.23306827247142792
0.87884318828582764 0.7004016637802124 0.25328150391578674
0.89174729585647583 0.70573508739471436 0.27248641848564148
0.9051055908203125 0.71253764629364014 0.28972932696342468
0.91947269439697266 0.72015011310577393 0.3070330023765564
0.93475210666656494 0.72758865356445312 0.32600265741348267
0.83636784553527832 0.72350889444351196 0.223354771733284
0.83862340450286865 0.7237587571144104 0.21886016428470612
0.84077185392379761 0.72491514682769775 0.2146950364112854
0.84343361854553223 0.72683596611022949 0.20916186273097992
0.84711438417434692 0.72696363925933838 0.20307496190071106
0.85268950462341309 0.72859197854995728 0.20086494088172913
0.86080151796340942 0.73088234663009644 0.20873545110225677
0.87123006582260132 0.73341214656829834 0.22712492942810059
0.88317668437957764 0.73704451322555542 0.25149175524711609
0.89590328931808472 0.74194550514221191 0.27786445617675781
0.90930831432342529 0.74831163883209229 0.30478355288505554
0.92296689748764038 0.75561803579330444 0.33431187272071838
0.93789106607437134 0.76308178901672363 0.36699959635734558
0.84419894218444824 0.76638269424438477 0.2297501266002655
0.84633034467697144 0.76648497581481934 0.22643880546092987
0.84817922115325928 0.76707190275192261 0.22390663623809814
0.85045748949050903 0.76781558990478516 0.21939396858215332
0.8536534309387207 0.76851433515548706 0.21093814074993134
0.85849666595458984 0.769386887550354 0.20429182052612305
0.8663022518157959 0.7695038914680481 0.21090380847454071
0.87704819440841675 0.77201306819915771 0.23138047754764557
0.88910204172134399 0.77464044094085693 0.25925514101982117
0.90215396881103516 0.77867668867111206 0.29055702686309814
0.91570818424224854 0.78329312801361084 0.32319173216819763
0.92979222536087036 0.7885894775390625 0.35612732172012329
0.94489532709121704 0.79399889707565308 0.39039433002471924
0.8520084023475647 0.80959779024124146 0.24509856104850769
0.85408854484558105 0.80961835384368896 0.24320398271083832
0.8560793399810791 0.80975526571273804 0.24270807206630707
0.85846620798110962 0.81030851602554321 0.24073421955108643
0.86162328720092773 0.8101239800453186 0.23287412524223328
0.86638045310974121 0.80954760313034058 0.22501802444458008
0.87454074621200562 0.8098137378692627 0.23047080636024475
0.88461881875991821 0.81166499853134155 0.25041109323501587
0.8968501091003418 0.81257212162017822 0.27946966886520386
0.90994274616241455 0.81575542688369751 0.31436255574226379
0.92394626140594482 0.81873905658721924 0.35183089971542358
0.93884134292602539 0.82216131687164307 0.39021784067153931
0.95467668771743774 0.82627469301223755 0.43251168727874756
0.80936253070831299 0.52230530977249146 0.2592875063419342
0.81175225973129272 0.52025711536407471 0.25746724009513855
0.81176471710205078 0.51896935701370239 0.25703299045562744
0.81411969661712646 0.51881051063537598 0.25830239057540894
0.81694155931472778 0.51958930492401123 0.26064017415046692
0.82188874483108521 0.52125221490859985 0.26330858469009399
0.82963520288467407 0.52354788780212402 0.26551106572151184
0.84108126163482666 0.52593433856964111 0.26660069823265076
0.8560565710067749 0.52839994430541992 0.26670882105827332
0.87314915657043457 0.53165721893310547 0.26630333065986633
0.89235866069793701 0.5359877347946167 0.26648750901222229
0.91313320398330688 0.54120433330535889 0.26856449246406555
0.93298333883285522 0.54716372489929199 0.27405548095703125
0.81148934364318848 0.52630078792572021 0.25760337710380554
0.81176471710205078 0.52426362037658691 0.2562154233455658
0.81299704313278198 0.52346193790435791 0.25639045238494873
0.81569033861160278 0.52358841896057129 0.25772303342819214
0.81877344846725464 0.52479034662246704 0.2602362334728241
0.82418954372406006 0.52674931287765503 0.26318219304084778
0.83216482400894165 0.52895969152450562 0.26550775766372681
0.84346187114715576 0.53134292364120483 0.26707911491394043
0.85796511173248291 0.53414040803909302 0.26753437519073486
0.87555146217346191 0.53735774755477905 0.26717245578765869
0.89485293626785278 0.54156202077865601 0.26722866296768188
0.91415441036224365 0.54671424627304077 0.26887625455856323
0.93345588445663452 0.55290073156356812 0.27366146445274353
0.81176471710205078 0.5312117338180542 0.25664630532264709
0.81192135810852051 0.52980488538742065 0.25558546185493469
0.81528371572494507 0.52942866086959839 0.25598630309104919
0.81695371866226196 0.53020244836807251 0.25701683759689331
0.82106614112854004 0.53179663419723511 0.25955343246459961
0.82681882381439209 0.53380650281906128 0.26246547698974609
0.83526015281677246 0.53623032569885254 0.26514574885368347
0.84660571813583374 0.53870224952697754 0.26712462306022644
0.86079365015029907 0.54148072004318237 0.26807597279548645
0.87730306386947632 0.54480236768722534 0.26798126101493835
0.89488881826400757 0.54898512363433838 0.26800411939620972
0.91415441036224365 0.55415248870849609 0.2692909836769104
0.93345588445663452 0.56032407283782959 0.27398490905761719
0.81176471710205078 0.53855311870574951 0.25642755627632141
0.81333780288696289 0.53762781620025635 0.25497016310691833
0.8157724142074585 0.53776645660400391 0.25476130843162537
0.81906086206436157 0.53929346799850464 0.25591608881950378
0.82346725463867188 0.54126274585723877 0.25798112154006958
0.82976776361465454 0.54371333122253418 0.26098537445068359
0.8383985161781311 0.54622036218643188 0.26408961415290833
0.84967684745788574 0.5488165020942688 0.26649349927902222
0.86347520351409912 0.55165004730224609 0.2680479884147644
0.87954521179199219 0.55502915382385254 0.26807072758674622
0.89766424894332886 0.5591767430305481 0.26796483993530273
0.91437029838562012 0.56432831287384033 0.26889589428901672
0.93345588445663452 0.5706939697265625 0.27330416440963745
0.81176471710205078 0.54931050539016724 0.25577470660209656
0.81490606069564819 0.54878634214401245 0.25391140580177307
0.81692039966583252 0.549663245677948 0.25297942757606506
0.82074779272079468 0.55195081233978271 0.2533753514289856
0.82574248313903809 0.55442875623703003 0.25513586401939392
0.8325541615486145 0.55703645944595337 0.25827386975288391
0.84157949686050415 0.55987918376922607 0.2619909942150116
0.8525887131690979 0.56262826919555664 0.2653651237487793
0.86589080095291138 0.56551462411880493 0.26759010553359985
0.88132947683334351 0.56901800632476807 0.26757758855819702
0.89877450466156006 0.57330977916717529 0.26639741659164429
0.91611766815185547 0.57840234041213989 0.266754150390625
0.93345588445663452 0.58482944965362549 0.27063223719596863
0.81306314468383789 0.56377482414245605 0.2543080747127533
0.81572973728179932 0.5636095404624939 0.25158759951591492
0.81879431009292603 0.56689757108688354 0.24955551326274872
0.8227466344833374 0.5688520073890686 0.24899932742118835
0.8282133936882019 0.57158958911895752 0.25026145577430725
0.8352820873260498 0.57484167814254761 0.2536466121673584
0.84422296285629272 0.57799673080444336 0.25843539834022522
0.85534495115280151 0.58049100637435913 0.26354622840881348
0.86842876672744751 0.5835421085357666 0.26697024703025818
0.8832554817199707 0.58748739957809448 0.26702144742012024
0.89897185564041138 0.59210205078125 0.26479142904281616
0.91706550121307373 0.59738391637802124 0.2629147469997406
0.93345588445663452 0.60409760475158691 0.26522180438041687
0.81544196605682373 0.58508926630020142 0.25092560052871704
0.81750106811523438 0.58583176136016846 0.24720825254917145
0.82070600986480713 0.58804845809936523 0.24411699175834656
0.82502460479736328 0.59095162153244019 0.24250532686710358
0.83053278923034668 0.59410935640335083 0.24313685297966003
0.83780622482299805 0.59709370136260986 0.24676941335201263
0.84687989950180054 0.60012549161911011 0.25311943888664246
0.8579680323600769 0.60326719284057617 0.26051467657089233
0.87047755718231201 0.60658621788024902 0.26634392142295837
0.88475275039672852 0.61066329479217529 0.26791688799858093
0.9000546932220459 0.61584818363189697 0.26506027579307556
0.91721814870834351 0.62173980474472046 0.26103502511978149
0.93345588445663452 0.6285443902015686 0.2618040144443512
0.81790512800216675 0.61274760961532593 0.24501995742321014
0.82030719518661499 0.61334699392318726 0.24065105617046356
0.82351970672607422 0.61551958322525024 0.2365911602973938
0.82776254415512085 0.61825650930404663 0.23379614949226379
0.83330398797988892 0.62124121189117432 0.23361413180828094
0.84052580595016479 0.62431114912033081 0.2372145801782608
0.84957766532897949 0.62737619876861572 0.2447843998670578
0.86024421453475952 0.63045716285705566 0.25509071350097656
0.8727337121963501 0.63428425788879395 0.26503381133079529
0.88617229461669922 0.6390678882598877 0.27072694897651672
0.90104472637176514 0.64493006467819214 0.26969292759895325
0.91724181175231934 0.65123951435089111 0.26723209023475647
0.93345588445663452 0.65786969661712646 0.26879945397377014
0.8218500018119812 0.64593780040740967 0.23768655955791473
0.82427042722702026 0.64622986316680908 0.23299337923526764
0.82724446058273315 0.64788049459457397 0.22859153151512146
0.83125215768814087 0.65051519870758057 0.22487823665142059
0.83652931451797485 0.65312671661376953 0.22362574934959412
0.84350001811981201 0.6557774543762207 0.2259332686662674
0.85227411985397339 0.6588628888130188 0.23391340672969818
0.86292415857315063 0.66223400831222534 0.2468133419752121
0.87492960691452026 0.66640192270278931 0.26126539707183838
0.8882865309715271 0.67177289724349976 0.27280536293983459
0.90221220254898071 0.67820584774017334 0.28002563118934631
0.9175298810005188 0.68512243032455444 0.28544178605079651
0.93345588445663452 0.69180834293365479 0.29351004958152771
0.82713824510574341 0.6841733455657959 0.23128125071525574
0.8293759822845459 0.68443626165390015 0.22677433490753174
0.83215665817260742 0.68443626165390015 0.22227980196475983
0.83563864231109619 0.68705040216445923 0.2180471271276474
0.8405078649520874 0.68850612640380859 0.21475186944007874
0.84718704223632812 0.69157928228378296 0.21537740528583527
0.85582476854324341 0.69391900300979614 0.22306904196739197
0.86630040407180786 0.69740957021713257 0.23761852085590363
0.87811774015426636 0.70185881853103638 0.25677463412284851
0.89086472988128662 0.70735162496566772 0.27648553252220154
0.90442842245101929 0.71411138772964478 0.29529589414596558
0.91885530948638916 0.72152400016784668 0.31410688161849976
0.93412125110626221 0.7285802960395813 0.33364886045455933
0.8335646390914917 0.72304034233093262 0.22854875028133392
0.83573752641677856 0.72313648462295532 0.22499461472034454
0.83820384740829468 0.72451144456863403 0.22187471389770508
0.84136283397674561 0.72677028179168701 0.2172446995973587
0.84576612710952759 0.72720515727996826 0.21170993149280548
0.85192811489105225 0.73006844520568848 0.20968209207057953
0.86054116487503052 0.73139423131942749 0.21600410342216492
0.87071466445922852 0.73488563299179077 0.23260794579982758
0.88271939754486084 0.73898589611053467 0.25617209076881409
0.89521914720535278 0.74422997236251831 0.2836243212223053
0.90847909450531006 0.75040513277053833 0.31281301379203796
0.92259019613265991 0.75739693641662598 0.34401938319206238
0.93771159648895264 0.76399523019790649 0.37531000375747681
0.84079921245574951 0.76448911428451538 0.23318156599998474
0.84302312135696411 0.76546335220336914 0.23116195201873779
0.84537780284881592 0.76680469512939453 0.23016476631164551
0.84829044342041016 0.76795864105224609 0.22661082446575165
0.85229480266571045 0.76917904615402222 0.21942116320133209
0.85826975107192993 0.76956909894943237 0.21433635056018829
0.86613583564758301 0.7710224986076355 0.21921461820602417
0.87691915035247803 0.7735673189163208 0.23687110841274261
0.88868552446365356 0.77691018581390381 0.26377886533737183
0.90157747268676758 0.78101938962936401 0.29679977893829346
0.91511905193328857 0.78581279516220093 0.33274877071380615
0.92959290742874146 0.79103183746337891 0.37028539180755615
0.9448169469833374 0.79603391885757446 0.40830853581428528
0.84830993413925171 0.80769330263137817 0.2483847439289093
0.85077571868896484 0.8087964653968811 0.24744990468025208
0.85322481393814087 0.8097914457321167 0.24817606806755066
0.85620903968811035 0.81060338020324707 0.24660885334014893
0.86019420623779297 0.81110596656799316 0.23993976414203644
0.86577761173248291 0.81139838695526123 0.23361547291278839
0.87427783012390137 0.81190681457519531 0.23752392828464508
0.88451772928237915 0.81249672174453735 0.25484159588813782
0.8967515230178833 0.81525403261184692 0.28329741954803467
0.90978091955184937 0.81776887178421021 0.31944394111633301
0.92362517118453979 0.82096177339553833 0.36021885275840759
0.93859565258026123 0.82423150539398193 0.40305736660957336
0.95449215173721313 0.82768219709396362 0.44717669486999512
0.80967724323272705 0.52027982473373413 0.26350271701812744
0.81175923347473145 0.51818740367889404 0.26213067770004272
0.81232154369354248 0.51710504293441772 0.26289224624633789
0.8153654932975769 0.51695078611373901 0.26516208052635193
0.81846660375595093 0.5179792046546936 0.2681334912776947
0.82385015487670898 0.51950424909591675 0.27099546790122986
0.83169293403625488 0.52175712585449219 0.27378314733505249
0.842742919921875 0.52412909269332886 0.27525594830513
0.85698074102401733 0.52733522653579712 0.27587082982063293
0.87464624643325806 0.53118729591369629 0.27592390775680542
0.89346843957901001 0.53650581836700439 0.27612832188606262
0.91396301984786987 0.542805016040802 0.27812457084655762
0.93345588445663452 0.54954487085342407 0.2834031879901886
0.81168341636657715 0.52434474229812622 0.26238444447517395
0.81182771921157837 0.52266687154769897 0.26143038272857666
0.81437689065933228 0.52187651395797729 0.26253828406333923
0.81624144315719604 0.52215558290481567 0.26498723030090332
0.82026553153991699 0.52321350574493408 0.26808837056159973
0.82562822103500366 0.52493816614151001 0.27130761742591858
0.83369922637939453 0.52719151973724365 0.27414950728416443
0.8447721004486084 0.52974909543991089 0.27610605955123901
0.8590320348739624 0.53269916772842407 0.27717322111129761
0.87560486793518066 0.53648406267166138 0.27701392769813538
0.89485293626785278 0.54131984710693359 0.2770211398601532
0.91415441036224365 0.54754644632339478 0.27856779098510742
0.93345588445663452 0.554168701171875 0.28319627046585083
0.81176471710205078 0.53001958131790161 0.26260849833488464
0.81282979249954224 0.52846032381057739 0.2616933286190033
0.8156503438949585 0.52822220325469971 0.26284807920455933
0.8180122971534729 0.52879208326339722 0.26501375436782837
0.82206195592880249 0.53036338090896606 0.26794230937957764
0.82811206579208374 0.532478928565979 0.2709958553314209
0.83640235662460327 0.53476464748382568 0.27403232455253601
0.84744632244110107 0.53719061613082886 0.27621680498123169
0.86136132478713989 0.54011529684066772 0.27720588445663452
0.87802839279174805 0.54365402460098267 0.27720588445663452
0.89505761861801147 0.5482373833656311 0.27729260921478271
0.91415441036224365 0.55389118194580078 0.27870666980743408
0.93345588445663452 0.56058156490325928 0.2832038402557373
0.81176471710205078 0.53810346126556396 0.26344048976898193
0.81430792808532715 0.5370858907699585 0.26288193464279175
0.81612563133239746 0.53728890419006348 0.26322147250175476
0.81979012489318848 0.53841280937194824 0.26446515321731567
0.82440030574798584 0.54041790962219238 0.2669009268283844
0.83063173294067383 0.54268670082092285 0.26993247866630554
0.83932262659072876 0.54522442817687988 0.27295005321502686
0.85040420293807983 0.54763352870941162 0.27508863806724548
0.86399555206298828 0.55048602819442749 0.27640989422798157
0.87965387105941772 0.55386096239089966 0.27628815174102783
0.89832144975662231 0.55811983346939087 0.2758762538433075
0.91537964344024658 0.56339114904403687 0.27690494060516357
0.93345588445663452 0.56985020637512207 0.28114616870880127
0.8120046854019165 0.54962587356567383 0.26390877366065979
0.8153877854347229 0.54890090227127075 0.26263445615768433
0.81751757860183716 0.54960566759109497 0.26203426718711853
0.82131969928741455 0.55161142349243164 0.26265144348144531
0.82636362314224243 0.55402660369873047 0.26457232236862183
0.83323425054550171 0.55656725168228149 0.26733300089836121
0.84211564064025879 0.55938959121704102 0.27055415511131287
0.85307002067565918 0.56182968616485596 0.27324661612510681
0.86613798141479492 0.56459206342697144 0.27439382672309875
