luts/instant_consumer/polaroid_px-70_warm_-.cube
# Created by: G'MIC (https://gmic.eu)
TITLE "polaroid_px-70_warm_-"
# LUT size
LUT_3D_SIZE 7
# Data domain
DOMAIN_MIN 0.0 0.0 0.0
DOMAIN_MAX 1.0 1.0 1.0
# LUT data points
0.025520579889416695 0.089914850890636444 0.099759720265865326
0.12422040849924088 0.089741364121437073 0.097308889031410217
0.28054139018058777 0.086302079260349274 0.11141703277826309
0.5433804988861084 0.066264480352401733 0.13066822290420532
0.82256484031677246 0.17436541616916656 0.13241894543170929
0.980083167552948 0.38951516151428223 0.12270122021436691
1 0.54460203647613525 0.1720634251832962
0.049312710762023926 0.14575856924057007 0.11741623282432556
0.14406000077724457 0.14976580440998077 0.11844878643751144
0.31993749737739563 0.14906510710716248 0.11888601630926132
0.57287925481796265 0.16744531691074371 0.12679924070835114
0.82712113857269287 0.27621328830718994 0.11864621192216873
0.97578144073486328 0.44456857442855835 0.10303663462400436
1 0.57251346111297607 0.16437500715255737
0.03851795569062233 0.30157655477523804 0.14760076999664307
0.15832668542861938 0.30618420243263245 0.14871782064437866
0.35702279210090637 0.3324342668056488 0.13415266573429108
0.61372512578964233 0.36093682050704956 0.10668360441923141
0.82378196716308594 0.41843047738075256 0.059002522379159927
0.96187281608581543 0.53285741806030273 0.034691154956817627
1 0.62547320127487183 0.13209140300750732
0.0093764215707778931 0.54749757051467896 0.14410707354545593
0.17705221474170685 0.54453575611114502 0.14868785440921783
0.40323421359062195 0.55145865678787231 0.13770288228988647
0.64321231842041016 0.58055102825164795 0.084939964115619659
0.83275848627090454 0.6175885796546936 0.011829526163637638
0.94210618734359741 0.64908397197723389 0.0064481250010430813
0.99902689456939697 0.68771111965179443 0.060364875942468643
0.32259160280227661 0.74994158744812012 0.18211886286735535
0.38772234320640564 0.74163848161697388 0.18870782852172852
0.51178747415542603 0.73787778615951538 0.19217325747013092
0.67809087038040161 0.74900615215301514 0.1737329363822937
0.81954777240753174 0.76005232334136963 0.13997365534305573
0.92175310850143433 0.77309799194335938 0.11898478865623474
0.9877663254737854 0.7812037467956543 0.1681147962808609
0.58410745859146118 0.86017507314682007 0.31733798980712891
0.60028350353240967 0.85533320903778076 0.31733804941177368
0.65881967544555664 0.85346567630767822 0.32647976279258728
0.73459148406982422 0.85513997077941895 0.3257911205291748
0.82125842571258545 0.86085391044616699 0.32419425249099731
0.90255814790725708 0.86673611402511597 0.31784230470657349
0.96822625398635864 0.8733365535736084 0.3374885618686676
0.77609771490097046 0.93395477533340454 0.4816778302192688
0.78330546617507935 0.93388843536376953 0.48378962278366089
0.80142134428024292 0.93277484178543091 0.48929467797279358
0.83067452907562256 0.93191957473754883 0.49889987707138062
0.86989778280258179 0.93659120798110962 0.50224930047988892
0.9100806713104248 0.94068998098373413 0.50687664747238159
0.9524531364440918 0.94481492042541504 0.51455062627792358
0.044683448970317841 0.09748077392578125 0.14909778535366058
0.12749424576759338 0.10242161154747009 0.14884752035140991
0.28856393694877625 0.10277301818132401 0.16582557559013367
0.57122701406478882 0.098646961152553558 0.19420787692070007
0.84414941072463989 0.2395368218421936 0.21316444873809814
0.98031532764434814 0.43379431962966919 0.23035788536071777
1 0.57370638847351074 0.27140188217163086
0.085637398064136505 0.15595903992652893 0.16928602755069733
0.17271216213703156 0.1621171236038208 0.17522415518760681
0.34454557299613953 0.17308503389358521 0.18044371902942657
0.60234874486923218 0.20909376442432404 0.19692565500736237
0.84335815906524658 0.31967923045158386 0.20094709098339081
0.9764711856842041 0.47758126258850098 0.21514253318309784
1 0.5981452465057373 0.26429855823516846
0.15032869577407837 0.31949567794799805 0.19794216752052307
0.21754121780395508 0.32434293627738953 0.19703148305416107
0.3930392861366272 0.3443877100944519 0.19115340709686279
0.63328403234481812 0.36700537800788879 0.17417457699775696
0.83778148889541626 0.4415154755115509 0.16087515652179718
0.96392691135406494 0.55543023347854614 0.1763901561498642
0.99933785200119019 0.64142990112304688 0.24044562876224518
0.14947620034217834 0.56182956695556641 0.19833199679851532
0.2641700804233551 0.55786073207855225 0.20198996365070343
0.43916723132133484 0.56272029876708984 0.20428857207298279
0.66621756553649902 0.58917713165283203 0.17763443291187286
0.83706939220428467 0.62357276678085327 0.14139653742313385
0.94226640462875366 0.64920330047607422 0.12747696042060852
0.99839150905609131 0.69620931148529053 0.1913728266954422
0.38339835405349731 0.75166976451873779 0.24034826457500458
0.43734791874885559 0.74954652786254883 0.24244454503059387
0.54831951856613159 0.74654126167297363 0.25337445735931396
0.68819117546081543 0.74864155054092407 0.24678656458854675
0.8274422287940979 0.762623131275177 0.22514484822750092
0.92258107662200928 0.77403539419174194 0.21411728858947754
0.98661929368972778 0.78338176012039185 0.24059991538524628
0.60367769002914429 0.86008334159851074 0.3503061830997467
0.62388521432876587 0.85621011257171631 0.35434338450431824
0.6737406849861145 0.85245096683502197 0.36023932695388794
0.7461056113243103 0.85690486431121826 0.36918675899505615
0.82503491640090942 0.86114329099655151 0.36219504475593567
0.90534234046936035 0.86797773838043213 0.35767152905464172
0.9703977108001709 0.8769647479057312 0.37633123993873596
0.77985662221908569 0.93292051553726196 0.49179503321647644
0.78708750009536743 0.93207633495330811 0.49603363871574402
0.80691826343536377 0.93174880743026733 0.50172185897827148
0.83701354265213013 0.93246561288833618 0.51326918601989746
0.87171322107315063 0.93441832065582275 0.51296722888946533
0.91350167989730835 0.9391598105430603 0.51702219247817993
0.95394426584243774 0.94571125507354736 0.52575761079788208
0.10216231644153595 0.11641721427440643 0.23175255954265594
0.20392504334449768 0.13428574800491333 0.23535440862178802
0.33203181624412537 0.16708827018737793 0.24212166666984558
0.56432223320007324 0.11790868639945984 0.27000948786735535
0.84825688600540161 0.13876205682754517 0.30184894800186157
0.989482581615448 0.40059131383895874 0.33644655346870422
1 0.62304699420928955 0.40269705653190613
0.12925231456756592 0.18663929402828217 0.25592344999313354
0.23591075837612152 0.19583071768283844 0.26077976822853088
0.3824104368686676 0.22963188588619232 0.26374116539955139
0.61323022842407227 0.22069224715232849 0.28622341156005859
0.86251240968704224 0.30796831846237183 0.31025251746177673
0.97874373197555542 0.5157739520072937 0.35566467046737671
1 0.66000336408615112 0.4101107120513916
0.17751637101173401 0.34170123934745789 0.27450522780418396
0.27278915047645569 0.34841415286064148 0.28043583035469055
0.45157986879348755 0.36694687604904175 0.2883296012878418
0.67383307218551636 0.40768182277679443 0.29639965295791626
0.85791301727294922 0.50637757778167725 0.31645771861076355
0.96058017015457153 0.60693109035491943 0.34507811069488525
0.99739331007003784 0.68547642230987549 0.38942617177963257
0.32782784104347229 0.57447361946105957 0.3047727644443512
0.40693014860153198 0.57855361700057983 0.30702179670333862
0.51931279897689819 0.58358782529830933 0.3043820858001709
0.69119232892990112 0.60084015130996704 0.30332937836647034
0.84817385673522949 0.62735021114349365 0.2884160578250885
0.94189345836639404 0.66748756170272827 0.29901960492134094
0.99503344297409058 0.72279828786849976 0.35105624794960022
0.51865285634994507 0.75852340459823608 0.34971261024475098
0.5382809042930603 0.75466150045394897 0.34235990047454834
0.61208254098892212 0.75407707691192627 0.34481844305992126
0.71942019462585449 0.75672930479049683 0.3473781943321228
0.83131486177444458 0.76292139291763306 0.33039772510528564
0.92299294471740723 0.77443814277648926 0.33082842826843262
0.98540925979614258 0.78206712007522583 0.3424370288848877
0.65409153699874878 0.86125290393829346 0.41081655025482178
0.66972464323043823 0.85917335748672485 0.41408032178878784
0.71848231554031372 0.85879206657409668 0.42118707299232483
0.76755601167678833 0.86017805337905884 0.42924219369888306
0.83262479305267334 0.8619198203086853 0.42765411734580994
0.90501910448074341 0.86858463287353516 0.42156597971916199
0.96793991327285767 0.87678402662277222 0.43169477581977844
0.7947116494178772 0.93331193923950195 0.51622503995895386
0.80155366659164429 0.9327806830406189 0.51952433586120605
0.82034826278686523 0.93115586042404175 0.52242475748062134
0.84760105609893799 0.93264120817184448 0.53428071737289429
0.88090074062347412 0.93656837940216064 0.54150938987731934
0.91669929027557373 0.940216064453125 0.54191488027572632
0.95542699098587036 0.94591552019119263 0.54596877098083496
0.22883060574531555 0.16032706201076508 0.36679637432098389
0.34033018350601196 0.17703486979007721 0.36980503797531128
0.51645439863204956 0.24534882605075836 0.37549379467964172
0.6630784273147583 0.32924187183380127 0.38464465737342834
0.82754480838775635 0.30570971965789795 0.41426429152488708
0.97399157285690308 0.40890923142433167 0.44715818762779236
0.99910539388656616 0.58253371715545654 0.46797007322311401
0.24653899669647217 0.23657439649105072 0.38665363192558289
0.35840246081352234 0.25169923901557922 0.38766786456108093
0.54469573497772217 0.31959909200668335 0.39200684428215027
0.68993073701858521 0.40595507621765137 0.39831289649009705
0.83878630399703979 0.39212486147880554 0.4207058846950531
0.97044700384140015 0.48980823159217834 0.45247316360473633
0.99945616722106934 0.63840389251708984 0.47838291525840759
0.21507209539413452 0.39791911840438843 0.38977006077766418
0.32924675941467285 0.40009620785713196 0.39501091837882996
0.54913800954818726 0.43474546074867249 0.40680220723152161
0.71882086992263794 0.51878374814987183 0.41511616110801697
0.85352075099945068 0.52913939952850342 0.43565747141838074
0.95592331886291504 0.62193089723587036 0.46415555477142334
0.99704939126968384 0.7250053882598877 0.49949935078620911
0.3498150110244751 0.58953309059143066 0.4037996232509613
0.42985260486602783 0.59294551610946655 0.40579313039779663
0.57488501071929932 0.603992760181427 0.41539168357849121
0.73744642734527588 0.63263267278671265 0.42817133665084839
0.86113882064819336 0.67313748598098755 0.44178828597068787
0.93983548879623413 0.72888493537902832 0.4642716646194458
0.98894834518432617 0.77656149864196777 0.49153605103492737
0.56370288133621216 0.76283353567123413 0.43894502520561218
0.60056161880493164 0.76014429330825806 0.44038727879524231
0.67912185192108154 0.75878453254699707 0.44705209136009216
0.76307106018066406 0.7634771466255188 0.44964578747749329
0.84768533706665039 0.7700645923614502 0.44206336140632629
0.92627733945846558 0.78048932552337646 0.44272592663764954
0.98736602067947388 0.79847520589828491 0.45123457908630371
0.72265374660491943 0.86335456371307373 0.48888891935348511
0.73282891511917114 0.85923975706100464 0.48763272166252136
0.76129400730133057 0.86016279458999634 0.48630306124687195
0.79637539386749268 0.86180287599563599 0.48751631379127502
0.8513110876083374 0.86590158939361572 0.49275520443916321
0.91151213645935059 0.87055784463882446 0.49176135659217834
0.96886187791824341 0.87800890207290649 0.49352285265922546
0.82159918546676636 0.93376237154006958 0.55169022083282471
0.82161927223205566 0.93217325210571289 0.54865026473999023
0.83474063873291016 0.93366515636444092 0.55093109607696533
0.85764890909194946 0.93306839466094971 0.55895984172821045
0.88584822416305542 0.93484318256378174 0.5654405951499939
0.92185443639755249 0.93955898284912109 0.57005214691162109
0.95627474784851074 0.94494515657424927 0.57914793491363525
0.43935224413871765 0.2401692271232605 0.51976472139358521
0.53487920761108398 0.26498150825500488 0.52117913961410522
0.68860155344009399 0.34534925222396851 0.52452743053436279
0.81332677602767944 0.50903463363647461 0.52172034978866577
0.88017123937606812 0.58907139301300049 0.52648365497589111
0.94398653507232666 0.57092320919036865 0.53152954578399658
0.99551945924758911 0.63066387176513672 0.54430168867111206
0.44062626361846924 0.32864212989807129 0.52475714683532715
0.5383685827255249 0.34970080852508545 0.52668648958206177
0.69160228967666626 0.42511165142059326 0.52751994132995605
0.81430459022521973 0.5602840781211853 0.52544349431991577
0.8783717155456543 0.63342547416687012 0.52965641021728516
0.94071477651596069 0.61934089660644531 0.53402411937713623
0.99505162239074707 0.66398262977600098 0.54763907194137573
0.42092743515968323 0.48831087350845337 0.5223313570022583
0.50602495670318604 0.48431628942489624 0.52540063858032227
0.66844826936721802 0.52643054723739624 0.52711087465286255
0.81067502498626709 0.6281362771987915 0.52914071083068848
0.87534940242767334 0.69577640295028687 0.53361630439758301
0.93523001670837402 0.68443578481674194 0.53695416450500488
0.99111956357955933 0.72933894395828247 0.5545886754989624
0.39938831329345703 0.63492494821548462 0.50971704721450806
0.46958133578300476 0.63284653425216675 0.51078182458877563
0.60817450284957886 0.64025568962097168 0.51619631052017212
0.78399819135665894 0.69171518087387085 0.53029495477676392
0.87325066328048706 0.74994754791259766 0.53850895166397095
0.92923533916473389 0.75302541255950928 0.54470133781433105
0.97913843393325806 0.79285585880279541 0.56209814548492432
0.57378470897674561 0.76646286249160767 0.51972585916519165
0.61118382215499878 0.76612508296966553 0.51697385311126709
0.67978411912918091 0.76337230205535889 0.52325731515884399
0.77986913919448853 0.7737126350402832 0.52833515405654907
0.86256629228591919 0.79189199209213257 0.53622239828109741
0.92776268720626831 0.81208193302154541 0.54357355833053589
0.97570568323135376 0.84568524360656738 0.56458580493927002
0.71642196178436279 0.86309176683425903 0.53799110651016235
0.72889792919158936 0.85797876119613647 0.54133307933807373
0.77392446994781494 0.8597872257232666 0.54536008834838867
0.81964606046676636 0.86455059051513672 0.55055809020996094
0.8705553412437439 0.87082338333129883 0.55923783779144287
0.92013609409332275 0.87655538320541382 0.55884939432144165
0.96964162588119507 0.88188451528549194 0.55527192354202271
0.82951557636260986 0.93432623147964478 0.58744198083877563
0.83479273319244385 0.93363875150680542 0.58778858184814453
0.85193723440170288 0.93433719873428345 0.59166061878204346
0.87471145391464233 0.93659478425979614 0.59882622957229614
0.89887356758117676 0.93840867280960083 0.607829749584198
0.92510968446731567 0.94058668613433838 0.60729986429214478
0.95997869968414307 0.94820022583007812 0.61512845754623413
0.66941231489181519 0.42846763134002686 0.62786674499511719
0.72062140703201294 0.45918664336204529 0.62506651878356934
0.80591195821762085 0.53479540348052979 0.62287449836730957
0.87694448232650757 0.64848196506500244 0.61531400680541992
0.91410404443740845 0.75580215454101562 0.60799163579940796
0.94332849979400635 0.7746584415435791 0.60749518871307373
0.97722309827804565 0.75422728061676025 0.60767567157745361
0.66822183132171631 0.4964931309223175 0.62541204690933228
0.7134089469909668 0.5174441933631897 0.62147843837738037
0.79688453674316406 0.58564966917037964 0.61932200193405151
0.87204062938690186 0.68162244558334351 0.61641389131546021
0.91179054975509644 0.77208924293518066 0.61017441749572754
0.94355094432830811 0.79194766283035278 0.60975712537765503
0.97850078344345093 0.78202587366104126 0.61524802446365356
0.64656585454940796 0.59573447704315186 0.61860692501068115
0.68960320949554443 0.60023832321166992 0.61823207139968872
0.77972573041915894 0.64549380540847778 0.61580932140350342
0.86344510316848755 0.72083872556686401 0.61329209804534912
0.90809530019760132 0.79706782102584839 0.61330139636993408
0.93814122676849365 0.81318074464797974 0.61184191703796387
0.96516096591949463 0.79886054992675781 0.6137884259223938
0.56500440835952759 0.69285547733306885 0.6033511757850647
0.62443739175796509 0.6947820782661438 0.60384464263916016
0.72921919822692871 0.70732229948043823 0.60394680500030518
0.83528155088424683 0.75201833248138428 0.60780298709869385
0.89740145206451416 0.8139960765838623 0.61423832178115845
0.93499100208282471 0.83888512849807739 0.61812382936477661
0.96529626846313477 0.83359521627426147 0.62147873640060425
0.60925877094268799 0.78425753116607666 0.59404724836349487
0.63908869028091431 0.78307628631591797 0.5932929515838623
0.69456535577774048 0.77979147434234619 0.59436553716659546
0.78556293249130249 0.78870248794555664 0.59859853982925415
0.88048112392425537 0.82698166370391846 0.61070835590362549
0.93390417098999023 0.86651062965393066 0.6239435076713562
0.9670863151550293 0.86699360609054565 0.62845426797866821
0.71656912565231323 0.86677992343902588 0.59871363639831543
0.73614084720611572 0.8665320873260498 0.60014873743057251
0.77130639553070068 0.86551946401596069 0.60381555557250977
0.82428324222564697 0.86822396516799927 0.60815340280532837
0.87659817934036255 0.87582975625991821 0.61477440595626831
0.92651259899139404 0.88951748609542847 0.6227189302444458
0.96541643142700195 0.90492451190948486 0.63360035419464111
0.82082474231719971 0.93825805187225342 0.6272091269493103
0.82993447780609131 0.93597012758255005 0.62953972816467285
0.84605926275253296 0.93664973974227905 0.63130015134811401
0.87327665090560913 0.93831288814544678 0.63846784830093384
0.90280425548553467 0.9403800368309021 0.65215814113616943
0.92908722162246704 0.94419515132904053 0.66549956798553467
0.959633469581604 0.9513658881187439 0.67528295516967773
0.82032746076583862 0.68667358160018921 0.70141416788101196
0.83759695291519165 0.70273810625076294 0.70035237073898315
0.87076717615127563 0.73923754692077637 0.6964450478553772
0.90641921758651733 0.78397345542907715 0.68983876705169678
0.93428939580917358 0.83073723316192627 0.6847807765007019
0.95348525047302246 0.87266498804092407 0.68251150846481323
0.96557867527008057 0.87365013360977173 0.68299651145935059
0.81980627775192261 0.71251779794692993 0.7013092041015625
0.83650881052017212 0.72357285022735596 0.69793450832366943
0.86774653196334839 0.75394976139068604 0.69538462162017822
0.90317219495773315 0.79584383964538574 0.69146227836608887
0.93582135438919067 0.84012264013290405 0.68797427415847778
0.95378941297531128 0.87499982118606567 0.68431645631790161
0.96682411432266235 0.88295167684555054 0.68836367130279541
0.80768674612045288 0.74788761138916016 0.69811487197875977
0.8237043023109436 0.75348579883575439 0.69822973012924194
0.86105078458786011 0.77710163593292236 0.69571936130523682
0.89772099256515503 0.80966401100158691 0.69201630353927612
0.93137884140014648 0.85261702537536621 0.68865573406219482
0.95178550481796265 0.88421213626861572 0.68826031684875488
0.96440231800079346 0.8896527886390686 0.69191652536392212
0.78271710872650146 0.78338289260864258 0.69387829303741455
0.79962348937988281 0.78645062446594238 0.69285857677459717
0.83822119235992432 0.79917830228805542 0.69236582517623901
0.88328558206558228 0.82507026195526123 0.69250941276550293
0.92520678043365479 0.86459875106811523 0.69421356916427612
0.94792062044143677 0.89477735757827759 0.69494414329528809
0.9625924825668335 0.90639674663543701 0.69964069128036499
0.70632225275039673 0.81895118951797485 0.68561792373657227
0.72658509016036987 0.81841886043548584 0.68414664268493652
0.77557969093322754 0.82440006732940674 0.68515372276306152
0.84846669435501099 0.8394014835357666 0.69155704975128174
0.90670931339263916 0.87029677629470825 0.69542956352233887
0.94242995977401733 0.90495330095291138 0.70371198654174805
0.96068704128265381 0.92255240678787231 0.70839977264404297
0.76544821262359619 0.88675945997238159 0.69262498617172241
0.77254396677017212 0.88628578186035156 0.69115841388702393
0.79534649848937988 0.88568055629730225 0.68988096714019775
0.83049315214157104 0.88477128744125366 0.6927649974822998
0.8732597827911377 0.88868969678878784 0.6949877142906189
0.93022507429122925 0.91553789377212524 0.71007198095321655
0.95815485715866089 0.94091928005218506 0.72182607650756836
0.82963556051254272 0.94729876518249512 0.70818740129470825
0.83258664608001709 0.94461095333099365 0.70908254384994507
0.84799814224243164 0.94619148969650269 0.7122344970703125
0.87007176876068115 0.94581693410873413 0.71502339839935303
0.89553546905517578 0.94695746898651123 0.71596598625183105
0.92478257417678833 0.95193874835968018 0.73532605171203613
0.95329374074935913 0.96061402559280396 0.74832391738891602
