luts/instant_consumer/polaroid_px-680_warm.cube
# Created by: G'MIC (https://gmic.eu)
TITLE "polaroid_px-680_warm"
# LUT size
LUT_3D_SIZE 7
# Data domain
DOMAIN_MIN 0.0 0.0 0.0
DOMAIN_MAX 1.0 1.0 1.0
# LUT data points
0.25801840424537659 0.21106809377670288 0.084742046892642975
0.27018612623214722 0.21120850741863251 0.085033178329467773
0.33074542880058289 0.21023069322109222 0.082844831049442291
0.54047238826751709 0.21356987953186035 0.06859135627746582
0.7573818564414978 0.25410676002502441 0.050358731299638748
0.90047496557235718 0.35038959980010986 0.084099821746349335
0.98125118017196655 0.46973088383674622 0.18970456719398499
0.25650849938392639 0.23045836389064789 0.084802143275737762
0.27345144748687744 0.22903531789779663 0.081572435796260834
0.36330598592758179 0.23896290361881256 0.073738440871238708
0.57383745908737183 0.25561997294425964 0.051595710217952728
0.76914644241333008 0.30552887916564941 0.033259313553571701
0.90066659450531006 0.39534193277359009 0.083926692605018616
0.97864782810211182 0.49926599860191345 0.19280658662319183
0.24172179400920868 0.31696054339408875 0.075096070766448975
0.27735608816146851 0.32032155990600586 0.075941957533359528
0.40447160601615906 0.3491261899471283 0.049934372305870056
0.6134074330329895 0.38279333710670471 0.0083732903003692627
0.76566630601882935 0.39809533953666687 0.0069271163083612919
0.89038902521133423 0.46628254652023315 0.064451746642589569
0.96542853116989136 0.54615724086761475 0.18852944672107697
0.22667837142944336 0.45573601126670837 0.065231502056121826
0.27565810084342957 0.45181819796562195 0.073584616184234619
0.39319413900375366 0.47185614705085754 0.070587888360023499
0.58546990156173706 0.51666784286499023 0.052284855395555496
0.75677955150604248 0.56243032217025757 0.041768509894609451
0.87025874853134155 0.57533329725265503 0.077317073941230774
0.94898617267608643 0.60793286561965942 0.17384852468967438
0.28313133120536804 0.58396345376968384 0.11756237596273422
0.31977349519729614 0.5804063081741333 0.12232813984155655
0.41389885544776917 0.59033852815628052 0.13877619802951813
0.55631422996520996 0.62289321422576904 0.15525795519351959
0.71037161350250244 0.66367250680923462 0.18140536546707153
0.84750914573669434 0.70748168230056763 0.2281239777803421
0.92262202501296997 0.71666187047958374 0.27455005049705505
0.38511532545089722 0.71388322114944458 0.21934142708778381
0.40483307838439941 0.70871758460998535 0.21610188484191895
0.46960866451263428 0.71282082796096802 0.23962196707725525
0.57969397306442261 0.73329609632492065 0.27479475736618042
0.69780868291854858 0.7542576789855957 0.31059357523918152
0.81669515371322632 0.77444541454315186 0.3567902147769928
0.90715134143829346 0.79828810691833496 0.42601752281188965
0.57834649085998535 0.82055151462554932 0.4059569239616394
0.5895649790763855 0.81840389966964722 0.40694710612297058
0.63181287050247192 0.82088732719421387 0.4258829653263092
0.69677698612213135 0.82569563388824463 0.45799520611763
0.77370399236679077 0.82939749956130981 0.49081134796142578
0.84698450565338135 0.83687955141067505 0.52999281883239746
0.90733379125595093 0.84646964073181152 0.5743335485458374
0.25872898101806641 0.20922271907329559 0.096669413149356842
0.27314043045043945 0.2128252238035202 0.099598392844200134
0.34037920832633972 0.20885442197322845 0.10435786843299866
0.56772434711456299 0.20095863938331604 0.11687717586755753
0.77792990207672119 0.29141977429389954 0.16550831496715546
0.90067207813262939 0.40321117639541626 0.22219932079315186
0.97501170635223389 0.5095829963684082 0.28987869620323181
0.26190957427024841 0.22953797876834869 0.10578348487615585
0.28506797552108765 0.23842446506023407 0.11064139008522034
0.39441752433776855 0.24463412165641785 0.11446751654148102
0.60511022806167603 0.27040106058120728 0.12759709358215332
0.77977699041366577 0.34184786677360535 0.16240808367729187
0.9002806544303894 0.43716084957122803 0.21899065375328064
0.97210514545440674 0.53274905681610107 0.29322761297225952
0.26881438493728638 0.33318191766738892 0.12300976365804672
0.3037639856338501 0.33833524584770203 0.12358146905899048
0.43704447150230408 0.3619346022605896 0.122037373483181
0.63025903701782227 0.38575220108032227 0.12036354094743729
0.77495437860488892 0.4239031970500946 0.13824072480201721
0.88959556818008423 0.49776181578636169 0.20215132832527161
0.96287804841995239 0.57310742139816284 0.28506433963775635
0.28457251191139221 0.46757194399833679 0.13882589340209961
0.32255867123603821 0.46886974573135376 0.14080232381820679
0.43595507740974426 0.48703467845916748 0.15415245294570923
0.60676902532577515 0.53096312284469604 0.16078974306583405
0.76263666152954102 0.56758135557174683 0.1734367311000824
0.87030833959579468 0.57837355136871338 0.19124606251716614
0.94615703821182251 0.62072056531906128 0.25841513276100159
0.33135640621185303 0.5942997932434082 0.17945064604282379
0.36674195528030396 0.59189683198928833 0.18383146822452545
0.45045411586761475 0.60459494590759277 0.20258195698261261
0.5768815279006958 0.63389825820922852 0.22292464971542358
0.72123229503631592 0.67131900787353516 0.25305047631263733
0.84875363111495972 0.70770084857940674 0.29017579555511475
0.92390567064285278 0.71994125843048096 0.32464045286178589
0.40553757548332214 0.71718114614486694 0.25446981191635132
0.42894130945205688 0.71493583917617798 0.25496390461921692
0.491750568151474 0.71853351593017578 0.27850070595741272
0.59065717458724976 0.73615854978561401 0.3139289915561676
0.70978695154190063 0.75732940435409546 0.3530067503452301
0.8214414119720459 0.78079915046691895 0.39721408486366272
0.90911024808883667 0.80045348405838013 0.45600616931915283
0.58718740940093994 0.82228845357894897 0.42300885915756226
0.59832286834716797 0.82210046052932739 0.42367076873779297
0.63887625932693481 0.8214106559753418 0.44131052494049072
0.7046438455581665 0.82497882843017578 0.47601830959320068
0.7764592170715332 0.82998430728912354 0.50608807802200317
0.84940290451049805 0.83806449174880981 0.54352062940597534
0.90801763534545898 0.84681171178817749 0.58193248510360718
0.26918274164199829 0.21498854458332062 0.15534156560897827
0.29910546541213989 0.21869483590126038 0.16207173466682434
0.37631669640541077 0.23230162262916565 0.1766141802072525
0.56645524501800537 0.21996529400348663 0.22122403979301453
0.77847981452941895 0.25999146699905396 0.27084207534790039
0.90911078453063965 0.40361854434013367 0.33700123429298401
0.96367764472961426 0.56510764360427856 0.42359015345573425
0.26487845182418823 0.24733678996562958 0.18796293437480927
0.31557637453079224 0.25254487991333008 0.1981218159198761
0.43295785784721375 0.28274381160736084 0.2177899181842804
0.61410796642303467 0.28974694013595581 0.25302335619926453
0.78852438926696777 0.35376444458961487 0.29890197515487671
0.90362465381622314 0.48693627119064331 0.37067583203315735
0.9578704833984375 0.5997692346572876 0.43600660562515259
0.28512176871299744 0.34484007954597473 0.21815061569213867
0.3453516960144043 0.35620817542076111 0.23207488656044006
0.49735620617866516 0.38846105337142944 0.26129832863807678
0.65327936410903931 0.42089873552322388 0.28701302409172058
0.78788262605667114 0.48162895441055298 0.32396754622459412
0.88653761148452759 0.55630683898925781 0.37382537126541138
0.94808840751647949 0.6275973916053772 0.42512285709381104
0.3714548647403717 0.4811394214630127 0.25717282295227051
0.42530038952827454 0.49345290660858154 0.26892918348312378
0.50616276264190674 0.50964623689651489 0.2815152108669281
0.63904130458831787 0.54823011159896851 0.30369594693183899
0.77161663770675659 0.57311350107192993 0.31181001663208008
0.87230730056762695 0.60329949855804443 0.33550554513931274
0.93976068496704102 0.65708953142166138 0.39452716708183289
0.44017049670219421 0.61298400163650513 0.29754737019538879
0.45218104124069214 0.61186486482620239 0.29126545786857605
0.50541144609451294 0.62204790115356445 0.29926076531410217
0.60585659742355347 0.64390265941619873 0.32491952180862427
0.7442513108253479 0.68409621715545654 0.35768899321556091
0.85356724262237549 0.7086721658706665 0.38638594746589661
0.92300194501876831 0.71970027685165405 0.40516573190689087
0.46103084087371826 0.72200667858123779 0.32881870865821838
0.47317850589752197 0.7194899320602417 0.32467100024223328
0.53084880113601685 0.7262953519821167 0.34449538588523865
0.61361336708068848 0.74040418863296509 0.37672507762908936
0.723949134349823 0.76223641633987427 0.41313967108726501
0.8298039436340332 0.78628426790237427 0.45748034119606018
0.90936803817749023 0.80174160003662109 0.50063055753707886
0.59782201051712036 0.82346957921981812 0.45028313994407654
0.61024612188339233 0.82275420427322388 0.45224770903587341
0.65109187364578247 0.82262188196182251 0.4680270254611969
0.7095799446105957 0.82481092214584351 0.49639645218849182
0.78187686204910278 0.82977950572967529 0.52934682369232178
0.85147130489349365 0.84015238285064697 0.56605160236358643
0.91207408905029297 0.84844970703125 0.60824531316757202
0.30218642950057983 0.22621817886829376 0.31445443630218506
0.36799603700637817 0.23616454005241394 0.32489100098609924
0.50963008403778076 0.28925111889839172 0.34684953093528748
0.63695377111434937 0.3585779070854187 0.37486672401428223
0.75783258676528931 0.35105031728744507 0.40586993098258972
0.88844555616378784 0.4116857647895813 0.44443982839584351
0.96255767345428467 0.53476834297180176 0.48498854041099548
0.31133139133453369 0.27726683020591736 0.35008484125137329
0.39037775993347168 0.29306492209434509 0.3612455427646637
0.54222244024276733 0.34931403398513794 0.37964412569999695
0.65640079975128174 0.41955754160881042 0.40030184388160706
0.76868677139282227 0.40813854336738586 0.42266085743904114
0.88906353712081909 0.46955671906471252 0.45977643132209778
0.95608198642730713 0.57960253953933716 0.50112545490264893
0.31164366006851196 0.38338324427604675 0.36222398281097412
0.38534894585609436 0.3924848735332489 0.37694132328033447
0.55158239603042603 0.43030309677124023 0.40198305249214172
0.67523455619812012 0.49838665127754211 0.42673575878143311
0.78405249118804932 0.50764000415802002 0.4507119357585907
0.8810533881187439 0.57726949453353882 0.48588627576828003
0.93874305486679077 0.66207802295684814 0.53349405527114868
0.38823798298835754 0.50139933824539185 0.36733445525169373
0.43345922231674194 0.49812069535255432 0.36913669109344482
0.54676419496536255 0.5268588662147522 0.40120768547058105
0.6775018572807312 0.57884901762008667 0.44107586145401001
0.78857386112213135 0.61689966917037964 0.46730411052703857
0.870960533618927 0.66557997465133667 0.49665564298629761
0.92888695001602173 0.71231174468994141 0.53500890731811523
0.45605772733688354 0.6067885160446167 0.37864410877227783
0.49127441644668579 0.61086016893386841 0.38663467764854431
0.57000499963760376 0.63326573371887207 0.41071909666061401
0.65653359889984131 0.66343170404434204 0.43956378102302551
0.76686364412307739 0.69925105571746826 0.46637320518493652
0.85924971103668213 0.71582305431365967 0.48035264015197754
0.92106884717941284 0.73345458507537842 0.49424278736114502
0.52265936136245728 0.72109377384185791 0.42270439863204956
0.54587090015411377 0.72405624389648438 0.4261055588722229
0.58557909727096558 0.73433953523635864 0.43198800086975098
0.64698916673660278 0.74730056524276733 0.45138171315193176
0.74458330869674683 0.76640409231185913 0.485221266746521
0.84169411659240723 0.78903788328170776 0.52421027421951294
0.91103494167327881 0.79751604795455933 0.54966264963150024
0.63164407014846802 0.82003504037857056 0.50453442335128784
0.63883954286575317 0.82027649879455566 0.50212693214416504
0.66176480054855347 0.82353734970092773 0.50541764497756958
0.7184029221534729 0.82695984840393066 0.52938222885131836
0.7871934175491333 0.83276093006134033 0.56408774852752686
0.85630893707275391 0.83930093050003052 0.59640467166900635
0.91187518835067749 0.84656095504760742 0.62839901447296143
0.40983828902244568 0.2779182493686676 0.49714252352714539
0.48404121398925781 0.2967877984046936 0.50344330072402954
0.61288440227508545 0.35627356171607971 0.51416218280792236
0.73163032531738281 0.47925829887390137 0.53260385990142822
0.80234390497207642 0.54804337024688721 0.5454479455947876
0.86643368005752563 0.53393161296844482 0.55130016803741455
0.94247370958328247 0.58270132541656494 0.57576662302017212
0.43584427237510681 0.34143370389938354 0.51488089561462402
0.50371670722961426 0.35558795928955078 0.51779234409332275
0.62667924165725708 0.41578999161720276 0.52808856964111328
0.73535478115081787 0.52449953556060791 0.54335242509841919
0.80569672584533691 0.58693200349807739 0.5533180832862854
0.87517243623733521 0.57727992534637451 0.56041890382766724
0.93771833181381226 0.61332529783248901 0.58306479454040527
0.43652236461639404 0.44349575042724609 0.51463806629180908
0.49344995617866516 0.44402682781219482 0.5188860297203064
0.61326777935028076 0.48301905393600464 0.53051114082336426
0.73501521348953247 0.57886093854904175 0.5516132116317749
0.80545401573181152 0.63877290487289429 0.56366133689880371
0.86476147174835205 0.62870031595230103 0.5690147876739502
0.92977780103683472 0.66738486289978027 0.5939786434173584
0.41192656755447388 0.53278440237045288 0.49235567450523376
0.45701685547828674 0.5344235897064209 0.49575003981590271
0.55963921546936035 0.55152779817581177 0.5113987922668457
0.71051061153411865 0.61633265018463135 0.54659128189086914
0.80339163541793823 0.6843532919883728 0.57119137048721313
0.86339998245239258 0.68548291921615601 0.58115094900131226
0.92243111133575439 0.72895610332489014 0.61158734560012817
0.4675295352935791 0.62614220380783081 0.47990411520004272
0.49552622437477112 0.62808066606521606 0.48214781284332275
0.56714624166488647 0.64172035455703735 0.49742984771728516
0.67402297258377075 0.67015457153320312 0.5259474515914917
0.7907334566116333 0.72660809755325317 0.57023561000823975
0.86295908689498901 0.74895471334457397 0.58802521228790283
0.91976594924926758 0.77210444211959839 0.61394584178924561
0.47550725936889648 0.70279890298843384 0.46879085898399353
0.50771576166152954 0.70922982692718506 0.47361144423484802
0.575542151927948 0.72276091575622559 0.49167001247406006
0.67879366874694824 0.74483728408813477 0.52708649635314941
0.77515631914138794 0.77259230613708496 0.56391650438308716
0.85113173723220825 0.79279571771621704 0.59270018339157104
0.91834956407546997 0.80016380548477173 0.60947650671005249
0.60254770517349243 0.81522578001022339 0.54224687814712524
0.62564539909362793 0.81672203540802002 0.54675042629241943
0.67590153217315674 0.81872737407684326 0.56144386529922485
0.73364901542663574 0.82425665855407715 0.5753815770149231
0.79137289524078369 0.83306646347045898 0.59863102436065674
0.85985034704208374 0.84125834703445435 0.63629430532455444
0.92162483930587769 0.84830862283706665 0.67173892259597778
0.58279633522033691 0.40618422627449036 0.64139163494110107
0.62457025051116943 0.42665469646453857 0.63958984613418579
0.7036934494972229 0.48359048366546631 0.63737541437149048
0.79141336679458618 0.57680386304855347 0.64459133148193359
0.84703969955444336 0.69089460372924805 0.65101832151412964
0.88055509328842163 0.71097338199615479 0.65613937377929688
0.91841906309127808 0.70193570852279663 0.66053110361099243
0.58603334426879883 0.4559466540813446 0.64339721202850342
0.62556475400924683 0.46640598773956299 0.64275908470153809
0.70466935634613037 0.52064210176467896 0.6407657265663147
0.7880975604057312 0.60268276929855347 0.64529174566268921
0.84635245800018311 0.70466464757919312 0.65412944555282593
0.88180619478225708 0.72526556253433228 0.65747761726379395
0.90996897220611572 0.71206861734390259 0.65908753871917725
0.56699472665786743 0.51785796880722046 0.63404291868209839
0.60223376750946045 0.52504795789718628 0.63454931974411011
0.68882948160171509 0.5706411600112915 0.64023786783218384
0.77902424335479736 0.64493769407272339 0.64715409278869629
0.8444550633430481 0.7248387336730957 0.65813237428665161
0.87902331352233887 0.74661135673522949 0.66255956888198853
0.90835392475128174 0.73380285501480103 0.66486233472824097
0.48915174603462219 0.58883655071258545 0.61170738935470581
0.5362861156463623 0.59373617172241211 0.61270701885223389
0.63752835988998413 0.61208915710449219 0.62574666738510132
0.74861824512481689 0.67010033130645752 0.64206397533416748
0.84014952182769775 0.74017304182052612 0.65958493947982788
0.87922006845474243 0.76489633321762085 0.66766226291656494
0.91754472255706787 0.75894618034362793 0.67103517055511475
0.4669625461101532 0.66086477041244507 0.59140831232070923
0.49827322363853455 0.66192626953125 0.59299176931381226
0.56559848785400391 0.66925317049026489 0.60037577152252197
0.67672502994537354 0.69203180074691772 0.61853706836700439
0.80966901779174805 0.74431127309799194 0.65070420503616333
0.88128542900085449 0.78922319412231445 0.67782717943191528
0.9201774001121521 0.78930914402008057 0.68722617626190186
0.49375936388969421 0.73487120866775513 0.57599365711212158
0.51664459705352783 0.7339741587638855 0.57561147212982178
0.57413560152053833 0.74034905433654785 0.58234071731567383
0.66851294040679932 0.75338995456695557 0.59973478317260742
0.77072572708129883 0.77308082580566406 0.62686264514923096
0.87128579616546631 0.80853927135467529 0.67542678117752075
0.92539119720458984 0.82021927833557129 0.69877743721008301
0.51514130830764771 0.81446921825408936 0.58541905879974365
0.53429532051086426 0.81514495611190796 0.58477151393890381
0.59093785285949707 0.81587952375411987 0.59346306324005127
0.68049496412277222 0.81878268718719482 0.61163967847824097
0.78623950481414795 0.82997316122055054 0.64506024122238159
0.86402714252471924 0.84173369407653809 0.68241375684738159
0.92795580625534058 0.85201150178909302 0.71776700019836426
0.73770636320114136 0.61493831872940063 0.74041050672531128
0.7555888295173645 0.6262810230255127 0.73620665073394775
0.7960364818572998 0.6575016975402832 0.73317921161651611
0.84351038932800293 0.70548224449157715 0.73282504081726074
0.88143610954284668 0.75998663902282715 0.73319840431213379
0.9066961407661438 0.79350066184997559 0.73282629251480103
0.92476773262023926 0.7965276837348938 0.73580044507980347
0.73666054010391235 0.6375117301940918 0.74033719301223755
0.755484938621521 0.64655739068984985 0.73683899641036987
0.79625332355499268 0.67435014247894287 0.73476123809814453
0.84091973304748535 0.71666711568832397 0.73207122087478638
0.88060742616653442 0.76651060581207275 0.73403042554855347
0.90762788057327271 0.79458248615264893 0.73539811372756958
0.92503947019577026 0.80255502462387085 0.7396124005317688
0.71704286336898804 0.66048264503479004 0.7363772988319397
0.73831236362457275 0.66900861263275146 0.73352402448654175
0.78460580110549927 0.69797044992446899 0.73442679643630981
0.83595257997512817 0.73545944690704346 0.73410826921463013
0.87693053483963013 0.7750820517539978 0.73575848340988159
0.90668296813964844 0.80253124237060547 0.73770236968994141
0.92385095357894897 0.80614113807678223 0.73966401815414429
0.6770365834236145 0.698699951171875 0.73029029369354248
0.7001727819442749 0.70122069120407104 0.73031282424926758
0.75034290552139282 0.71129310131072998 0.72898173332214355
0.81622850894927979 0.7444838285446167 0.73493731021881104
0.86981254816055298 0.77945923805236816 0.73766899108886719
0.90823405981063843 0.80931621789932251 0.74432545900344849
0.9302172064781189 0.82246315479278564 0.74826061725616455
0.5607265830039978 0.73689454793930054 0.71925491094589233
0.58431130647659302 0.73415082693099976 0.71654045581817627
0.65092819929122925 0.73891866207122803 0.71928715705871582
0.75477564334869385 0.75547409057617188 0.72748178243637085
0.84692847728729248 0.7848631739616394 0.73737341165542603
0.90636199712753296 0.81715154647827148 0.74922937154769897
0.93334895372390747 0.83011555671691895 0.75490850210189819
0.57909578084945679 0.79345148801803589 0.71221625804901123
0.59218823909759521 0.79042726755142212 0.70822721719741821
0.63660955429077148 0.79073101282119751 0.71390563249588013
0.69875979423522949 0.79171961545944214 0.71907228231430054
0.78690671920776367 0.79895186424255371 0.73066532611846924
0.88730913400650024 0.82500088214874268 0.75169825553894043
0.93863606452941895 0.84680783748626709 0.76802247762680054
0.62802547216415405 0.84388643503189087 0.71835368871688843
0.63739275932312012 0.84280085563659668 0.7155488133430481
0.67038792371749878 0.84305441379547119 0.72054851055145264
0.7250068187713623 0.84500515460968018 0.72683835029602051
0.78693777322769165 0.84617072343826294 0.73590296506881714
0.8610958456993103 0.84716516733169556 0.75044488906860352
0.93778002262115479 0.86381709575653076 0.77872055768966675
