luts/instant_consumer/polaroid_px-70_-.cube
# Created by: G'MIC (https://gmic.eu)
TITLE "polaroid_px-70_-"
# LUT size
LUT_3D_SIZE 5
# Data domain
DOMAIN_MIN 0.0 0.0 0.0
DOMAIN_MAX 1.0 1.0 1.0
# LUT data points
0 0.093726545572280884 0.13931109011173248
0.090024553239345551 0.1051904708147049 0.1390177309513092
0.4615006148815155 0.13393008708953857 0.15213009715080261
0.88762390613555908 0.32584092020988464 0.13120050728321075
1 0.54520446062088013 0.14702954888343811
0 0.22452867031097412 0.15391205251216888
0.08367958664894104 0.24052348732948303 0.1481129378080368
0.51076924800872803 0.27671292424201965 0.13742688298225403
0.87926733493804932 0.43801602721214294 0.070831090211868286
0.99764829874038696 0.60760903358459473 0.11619671434164047
1.2925092050863896e-05 0.55603677034378052 0.13783001899719238
0.044523082673549652 0.55980134010314941 0.13789981603622437
0.58070248365402222 0.59018856287002563 0.064268894493579865
0.86800217628479004 0.64093595743179321 0.003744910703971982
0.99206525087356567 0.69106477499008179 0.01973673515021801
0.35024839639663696 0.81758207082748413 0.20525087416172028
0.4536471962928772 0.80945628881454468 0.21650031208992004
0.66858154535293579 0.81087517738342285 0.21664223074913025
0.84337174892425537 0.81926113367080688 0.18635402619838715
0.96830159425735474 0.82802426815032959 0.22610186040401459
0.75546848773956299 0.93350934982299805 0.48240810632705688
0.76732498407363892 0.9318077564239502 0.48671701550483704
0.81271374225616455 0.9323418140411377 0.50144737958908081
0.87103754281997681 0.93716508150100708 0.50807464122772217
0.94209188222885132 0.94379782676696777 0.52598649263381958
0.00060903513804078102 0.11177368462085724 0.19619035720825195
0.090857863426208496 0.14411242306232452 0.20095118880271912
0.48584482073783875 0.15052413940429688 0.22462499141693115
0.91458755731582642 0.34881716966629028 0.25385573506355286
0.99995851516723633 0.60928702354431152 0.32266256213188171
0 0.24848777055740356 0.21875202655792236
0.1620592474937439 0.26922541856765747 0.22403958439826965
0.56392908096313477 0.33007949590682983 0.23422940075397491
0.90043359994888306 0.49208706617355347 0.24084815382957458
0.99532079696655273 0.64606320858001709 0.30077126622200012
0.030229635536670685 0.58114689588546753 0.23594217002391815
0.22917087376117706 0.58159166574478149 0.22745877504348755
0.61857855319976807 0.60473412275314331 0.20992118120193481
0.87618649005889893 0.64699989557266235 0.17576757073402405
0.98833101987838745 0.70713651180267334 0.23684050142765045
0.45420914888381958 0.81872117519378662 0.30381882190704346
0.53491103649139404 0.8131641149520874 0.31204792857170105
0.69490957260131836 0.814003586769104 0.32638692855834961
0.85090857744216919 0.82368361949920654 0.30270129442214966
0.96657317876815796 0.8327181339263916 0.32671484351158142
0.76357859373092651 0.93274140357971191 0.50556617975234985
0.77971345186233521 0.93170291185379028 0.5119515061378479
0.81927758455276489 0.93191438913345337 0.5300288200378418
0.87481677532196045 0.93609923124313354 0.53814578056335449
0.94173890352249146 0.94486606121063232 0.54797685146331787
0.067776702344417572 0.18605314195156097 0.34986895322799683
0.33020678162574768 0.23443382978439331 0.35761696100234985
0.59987300634384155 0.35347166657447815 0.36811381578445435
0.89565348625183105 0.35050210356712341 0.41930806636810303
0.99705690145492554 0.59318196773529053 0.4566074013710022
0.043500758707523346 0.32977008819580078 0.37129703164100647
0.34379079937934875 0.35598284006118774 0.38164019584655762
0.65020096302032471 0.47073987126350403 0.39017128944396973
0.8909837007522583 0.50037747621536255 0.42752578854560852
0.99349308013916016 0.6821478009223938 0.47874200344085693
0.11804956197738647 0.60480529069900513 0.38743752241134644
0.38636758923530579 0.60664933919906616 0.39311549067497253
0.69319850206375122 0.64350020885467529 0.41267722845077515
0.88135427236557007 0.70826703310012817 0.43983769416809082
0.97543776035308838 0.7777593731880188 0.4813961386680603
0.60594147443771362 0.81827139854431152 0.4494856595993042
0.66713052988052368 0.81560611724853516 0.45532500743865967
0.75594085454940796 0.81773513555526733 0.46059787273406982
0.86275285482406616 0.82450169324874878 0.45670509338378906
0.95986241102218628 0.83001112937927246 0.45954352617263794
0.7919623851776123 0.92924028635025024 0.56054818630218506
0.80351799726486206 0.93258357048034668 0.56208109855651855
0.83723902702331543 0.93304204940795898 0.57841938734054565
0.88384908437728882 0.93615233898162842 0.59071594476699829
0.9434363842010498 0.94485151767730713 0.60150372982025146
0.48553746938705444 0.34171581268310547 0.57778483629226685
0.64518916606903076 0.4007447361946106 0.5780753493309021
0.82365357875823975 0.58363056182861328 0.57433396577835083
0.89484477043151855 0.70392060279846191 0.57411599159240723
0.97173964977264404 0.70355695486068726 0.58095455169677734
0.45253285765647888 0.46919873356819153 0.57933413982391357
0.62408113479614258 0.51309663057327271 0.57502728700637817
0.81645768880844116 0.65314006805419922 0.57842832803726196
0.89393788576126099 0.7464485764503479 0.57876670360565186
0.96637427806854248 0.74203234910964966 0.58905434608459473
0.31974983215332031 0.66995477676391602 0.55407685041427612
0.51542133092880249 0.67278897762298584 0.55820304155349731
0.78470444679260254 0.72474747896194458 0.57548815011978149
0.8872145414352417 0.79740214347839355 0.58883398771286011
0.95672482252120972 0.80982601642608643 0.60616391897201538
0.61288517713546753 0.82296502590179443 0.56473571062088013
0.67082780599594116 0.81971603631973267 0.57034933567047119
0.77267849445343018 0.8217741847038269 0.57756644487380981
0.87808114290237427 0.84479212760925293 0.59464722871780396
0.95458018779754639 0.87263637781143188 0.62225925922393799
0.7960628867149353 0.93176287412643433 0.63212710618972778
0.80865859985351562 0.930156409740448 0.6345638632774353
0.85225290060043335 0.9354788064956665 0.65140151977539062
0.89472252130508423 0.93976801633834839 0.66827046871185303
0.94488447904586792 0.94801527261734009 0.6815265417098999
0.78650939464569092 0.69718760251998901 0.7347491979598999
0.81862026453018188 0.71774923801422119 0.72799825668334961
0.87916523218154907 0.78386670351028442 0.72221076488494873
0.92427533864974976 0.85015803575515747 0.71580708026885986
0.94950622320175171 0.87304878234863281 0.72009611129760742
0.78228127956390381 0.73306423425674438 0.73503983020782471
0.81607919931411743 0.75122249126434326 0.72875744104385376
0.87563145160675049 0.80400276184082031 0.72702264785766602
0.92251747846603394 0.86120814085006714 0.72316884994506836
0.94833666086196899 0.88528430461883545 0.72540402412414551
0.74491304159164429 0.78559267520904541 0.7290465235710144
0.78280353546142578 0.79375004768371582 0.7265133261680603
0.85626959800720215 0.82667088508605957 0.72811281681060791
0.91489845514297485 0.87740129232406616 0.72781592607498169
0.94909375905990601 0.9060596227645874 0.73807960748672485
0.6916733980178833 0.8501356840133667 0.71950811147689819
0.71978563070297241 0.84939342737197876 0.72133266925811768
0.79500806331634521 0.85535001754760742 0.72488266229629517
0.89777845144271851 0.89087533950805664 0.74069082736968994
0.94746500253677368 0.9304879903793335 0.75533980131149292
0.79971981048583984 0.94574719667434692 0.74954944849014282
0.81180816888809204 0.94400280714035034 0.74958664178848267
0.84619826078414917 0.94668281078338623 0.75387907028198242
0.89030098915100098 0.94266176223754883 0.75906121730804443
0.94371610879898071 0.96139079332351685 0.782817542552948
