luts/instant_consumer/polaroid_px-680_warm_+.cube
# Created by: G'MIC (https://gmic.eu)
TITLE "polaroid_px-680_warm_+"
# LUT size
LUT_3D_SIZE 7
# Data domain
DOMAIN_MIN 0.0 0.0 0.0
DOMAIN_MAX 1.0 1.0 1.0
# LUT data points
0.30663302540779114 0.23643158376216888 0.12375820428133011
0.32185012102127075 0.23781800270080566 0.12398009747266769
0.37426307797431946 0.23763978481292725 0.12297213822603226
0.54511618614196777 0.24340939521789551 0.11750069260597229
0.74440097808837891 0.28434455394744873 0.11230546236038208
0.88005882501602173 0.36181965470314026 0.12938933074474335
0.95400714874267578 0.46151489019393921 0.19544485211372375
0.30988460779190063 0.25493356585502625 0.12460646033287048
0.32963329553604126 0.25838473439216614 0.1240842342376709
0.4003695547580719 0.26252603530883789 0.12018344551324844
0.57064366340637207 0.28170374035835266 0.11133959889411926
0.75092172622680664 0.32609236240386963 0.10400474071502686
0.87767672538757324 0.39599424600601196 0.12575156986713409
0.95390790700912476 0.48735859990119934 0.19708859920501709
0.30898115038871765 0.32484346628189087 0.12489119917154312
0.33398494124412537 0.32687640190124512 0.12509560585021973
0.42692875862121582 0.34911215305328369 0.11577270925045013
0.60521280765533447 0.38919517397880554 0.092133462429046631
0.75026583671569824 0.4069398045539856 0.077442154288291931
0.86786633729934692 0.46047884225845337 0.10994914919137955
0.94179332256317139 0.5328059196472168 0.19038419425487518
0.30483624339103699 0.44984418153762817 0.12359677255153656
0.33441388607025146 0.44798517227172852 0.12487727403640747
0.42602306604385376 0.46665620803833008 0.12023437768220901
0.58201402425765991 0.51239699125289917 0.10396052151918411
0.74142473936080933 0.55516409873962402 0.085382513701915741
0.84683102369308472 0.55737215280532837 0.10744546353816986
0.92496001720428467 0.59190315008163452 0.17426370084285736
0.31705889105796814 0.5757942795753479 0.13597516715526581
0.34836271405220032 0.57386857271194458 0.14090836048126221
0.42806020379066467 0.58426284790039062 0.1529487669467926
0.55378389358520508 0.61240899562835693 0.16440112888813019
0.69687646627426147 0.65144062042236328 0.18384228646755219
0.82567936182022095 0.69280797243118286 0.22528626024723053
0.89404082298278809 0.70788264274597168 0.26526364684104919
0.38701963424682617 0.69483751058578491 0.2133604884147644
0.4058891236782074 0.69183403253555298 0.21273514628410339
0.46870976686477661 0.69698697328567505 0.23398324847221375
0.5630066990852356 0.7162322998046875 0.26530653238296509
0.67803412675857544 0.74102967977523804 0.30313935875892639
0.78760135173797607 0.76866692304611206 0.34732767939567566
0.86199837923049927 0.80736911296844482 0.4118938148021698
0.5433850884437561 0.82234221696853638 0.39383456110954285
0.55764728784561157 0.82188445329666138 0.3960573673248291
0.59536141157150269 0.8253941535949707 0.41634580492973328
0.66082167625427246 0.83364003896713257 0.44960308074951172
0.73367154598236084 0.84777092933654785 0.48412728309631348
0.7967795729637146 0.86008518934249878 0.52458465099334717
0.8431321382522583 0.87432903051376343 0.56687468290328979
0.30867105722427368 0.23613326251506805 0.13265351951122284
0.32096362113952637 0.23644758760929108 0.13437826931476593
0.3849186897277832 0.23742423951625824 0.14190208911895752
0.56708008050918579 0.23608472943305969 0.15265311300754547
0.7652047872543335 0.30554705858230591 0.18442881107330322
0.88322621583938599 0.39796340465545654 0.22430421411991119
0.95081824064254761 0.49966233968734741 0.2873593270778656
0.31543716788291931 0.25735354423522949 0.1423763781785965
0.33706891536712646 0.26200813055038452 0.14581766724586487
0.42044493556022644 0.26729992032051086 0.15117457509040833
0.59519976377487183 0.29103457927703857 0.16541297733783722
0.77034813165664673 0.35013481974601746 0.18041908740997314
0.87908673286437988 0.42920562624931335 0.22023336589336395
0.94708430767059326 0.52100121974945068 0.28766119480133057
0.33010724186897278 0.33610650897026062 0.15743476152420044
0.35527381300926208 0.34081006050109863 0.15762686729431152
0.45339506864547729 0.36157098412513733 0.15925717353820801
0.62115991115570068 0.39077901840209961 0.15214097499847412
0.76218611001968384 0.42362129688262939 0.16052423417568207
0.87165135145187378 0.48565652966499329 0.2092507928609848
0.93731462955474854 0.55903369188308716 0.27863135933876038
0.33409687876701355 0.46433848142623901 0.16403836011886597
0.36630690097808838 0.46638393402099609 0.16716566681861877
0.44922533631324768 0.48043400049209595 0.17207850515842438
0.60192656517028809 0.52505803108215332 0.17214874923229218
0.74932980537414551 0.557880699634552 0.18009907007217407
0.85146927833557129 0.56576228141784668 0.19305028021335602
0.92283397912979126 0.61180609464645386 0.26089426875114441
0.3504597544670105 0.58917850255966187 0.18375100195407867
0.37934419512748718 0.58740329742431641 0.18588794767856598
0.45187091827392578 0.5969851016998291 0.20531420409679413
0.5733940601348877 0.62410891056060791 0.22051075100898743
0.7069772481918335 0.6611514687538147 0.24807803332805634
0.8287733793258667 0.69485175609588623 0.28620174527168274
0.89265686273574829 0.70998084545135498 0.31739673018455505
0.40897214412689209 0.69896119832992554 0.24837099015712738
0.43347135186195374 0.69846814870834351 0.25351640582084656
0.48972794413566589 0.70480883121490479 0.27419567108154297
0.57746028900146484 0.72057104110717773 0.30529242753982544
0.68998104333877563 0.74586063623428345 0.34511888027191162
0.79343968629837036 0.77431809902191162 0.38659760355949402
0.86101537942886353 0.81080454587936401 0.43892049789428711
0.55235034227371216 0.82362407445907593 0.41065061092376709
0.56629037857055664 0.82521277666091919 0.41620185971260071
0.60592067241668701 0.82728219032287598 0.43422502279281616
0.66587716341018677 0.83475375175476074 0.46730664372444153
0.73448306322097778 0.84617358446121216 0.49929234385490417
0.79747122526168823 0.86227810382843018 0.53967618942260742
0.84300369024276733 0.87573868036270142 0.5811232328414917
0.32156917452812195 0.24212552607059479 0.18465796113014221
0.35255515575408936 0.24730062484741211 0.18966144323348999
0.41115295886993408 0.25751176476478577 0.19998684525489807
0.56801289319992065 0.2496640533208847 0.23225292563438416
0.7654726505279541 0.27143740653991699 0.27194949984550476
0.88817191123962402 0.39972352981567383 0.33023476600646973
0.93402373790740967 0.55856877565383911 0.42219004034996033
0.32744759321212769 0.2689337432384491 0.20754924416542053
0.36683356761932373 0.2778441309928894 0.21681816875934601
0.45098981261253357 0.29462507367134094 0.22630235552787781
0.61079984903335571 0.30068418383598328 0.25630158185958862
0.77895629405975342 0.35663554072380066 0.29600074887275696
0.87965750694274902 0.48185327649116516 0.36674308776855469
0.93038034439086914 0.58933639526367188 0.43387559056282043
0.34198221564292908 0.34911534190177917 0.22652618587017059
0.38463678956031799 0.35870984196662903 0.23627059161663055
0.49960488080978394 0.38510987162590027 0.26021137833595276
0.64700204133987427 0.41959288716316223 0.286508709192276
0.77652180194854736 0.48017936944961548 0.32324212789535522
0.86591631174087524 0.54605448246002197 0.36569434404373169
0.92064410448074341 0.61643838882446289 0.42066353559494019
0.39418900012969971 0.47519394755363464 0.25792241096496582
0.43753176927566528 0.48974207043647766 0.26819273829460144
0.50780326128005981 0.50579524040222168 0.2780347466468811
0.63297009468078613 0.54149496555328369 0.29618304967880249
0.7617717981338501 0.56365740299224854 0.30881389975547791
0.85036695003509521 0.58705586194992065 0.32892242074012756
0.91213101148605347 0.64557486772537231 0.38743442296981812
0.45061922073364258 0.60615235567092896 0.29769730567932129
0.45897597074508667 0.60383147001266479 0.28975674510002136
0.5030103325843811 0.6134076714515686 0.29291471838951111
0.60007202625274658 0.63462305068969727 0.32250323891639709
0.72350752353668213 0.67276901006698608 0.35283985733985901
0.83022701740264893 0.69822287559509277 0.38461819291114807
0.89271235466003418 0.71367919445037842 0.3979468047618866
0.46181952953338623 0.70623350143432617 0.32316130399703979
0.47373664379119873 0.70579862594604492 0.32039275765419006
0.52359402179718018 0.71101164817810059 0.33895951509475708
0.60361951589584351 0.72634649276733398 0.37238818407058716
0.6997758150100708 0.74977701902389526 0.40727910399436951
0.79945284128189087 0.78313744068145752 0.45140734314918518
0.85975998640060425 0.81303548812866211 0.49428477883338928
0.56150180101394653 0.827392578125 0.4413447380065918
0.5742456316947937 0.82607805728912354 0.44356134533882141
0.61104065179824829 0.82909315824508667 0.45949426293373108
0.66830110549926758 0.83623826503753662 0.48975428938865662
0.73388206958770752 0.84676408767700195 0.52492010593414307
0.79662632942199707 0.86378920078277588 0.56277459859848022
0.84175986051559448 0.8781123161315918 0.60769015550613403
0.35744205117225647 0.25445592403411865 0.31277796626091003
0.40888923406600952 0.26243329048156738 0.32364571094512939
0.52049487829208374 0.30169859528541565 0.34600153565406799
0.63233101367950439 0.36029186844825745 0.37180748581886292
0.74891656637191772 0.34981334209442139 0.40091380476951599
0.8704230785369873 0.41101428866386414 0.44021439552307129
0.93468797206878662 0.52837234735488892 0.4836704432964325
0.36073762178421021 0.29187232255935669 0.34494426846504211
0.42036217451095581 0.30396714806556702 0.35520082712173462
0.54599034786224365 0.35143694281578064 0.37547692656517029
0.65184485912322998 0.41526517271995544 0.39681839942932129
0.75738215446472168 0.40482404828071594 0.41840186715126038
0.86655688285827637 0.47198987007141113 0.45555150508880615
0.92676126956939697 0.57431954145431519 0.50073271989822388
0.3551861047744751 0.38623294234275818 0.35646572709083557
0.4095592200756073 0.3919808566570282 0.36967304348945618
0.54890680313110352 0.42949676513671875 0.39696523547172546
0.66744357347488403 0.49382662773132324 0.42418429255485535
0.76504862308502197 0.50127905607223511 0.44340667128562927
0.85970598459243774 0.56854993104934692 0.48544815182685852
0.91163080930709839 0.64764481782913208 0.5313294529914856
0.40157502889633179 0.49610850214958191 0.36381015181541443
0.4413524866104126 0.49345070123672485 0.36380928754806519
0.53767019510269165 0.51892292499542236 0.39131927490234375
0.66673356294631958 0.57089853286743164 0.43995493650436401
0.76848310232162476 0.60264885425567627 0.46294692158699036
0.84919947385787964 0.65358000993728638 0.50065380334854126
0.8956148624420166 0.70116358995437622 0.52992159128189087
0.45601442456245422 0.59562933444976807 0.37425345182418823
0.49060910940170288 0.60264211893081665 0.38233864307403564
0.56459766626358032 0.62153369188308716 0.405464768409729
0.64906710386276245 0.64893811941146851 0.43528711795806885
0.74877101182937622 0.68036681413650513 0.46364539861679077
0.83214759826660156 0.70357751846313477 0.48150840401649475
0.88763701915740967 0.72868961095809937 0.49684396386146545
0.52267658710479736 0.70664983987808228 0.4204312264919281
0.54223954677581787 0.70889055728912354 0.42539608478546143
0.57860839366912842 0.71849942207336426 0.43196836113929749
0.63256442546844482 0.73236209154129028 0.44817912578582764
0.71793848276138306 0.75559622049331665 0.48449274897575378
0.80405926704406738 0.78603202104568481 0.5187833309173584
0.86094397306442261 0.81776857376098633 0.55353909730911255
0.59482938051223755 0.82662689685821533 0.50203424692153931
0.60190403461456299 0.82503747940063477 0.49929189682006836
0.62019342184066772 0.83123815059661865 0.50003772974014282
0.67289233207702637 0.83815199136734009 0.52410995960235596
0.73681998252868652 0.85060817003250122 0.55921453237533569
0.79539626836776733 0.86481994390487671 0.59659785032272339
0.84420132637023926 0.87938499450683594 0.63615727424621582
0.4345366358757019 0.29063361883163452 0.49331048130989075
0.49615663290023804 0.30532830953598022 0.50082957744598389
0.60737782716751099 0.35629463195800781 0.51511651277542114
0.71485441923141479 0.4768335223197937 0.53369855880737305
0.78086340427398682 0.54470890760421753 0.54725050926208496
0.84345215559005737 0.53080844879150391 0.55322796106338501
0.91068547964096069 0.57383710145950317 0.58255952596664429
0.44552898406982422 0.34365227818489075 0.51087689399719238
0.50421053171157837 0.36012959480285645 0.513560950756073
0.61292022466659546 0.40964385867118835 0.52295178174972534
0.71656805276870728 0.51727306842803955 0.54281818866729736
0.7849927544593811 0.58075410127639771 0.55520397424697876
0.83968532085418701 0.56733822822570801 0.56115883588790894
0.90495800971984863 0.60691678524017334 0.59240621328353882
0.44542214274406433 0.43793019652366638 0.51417845487594604
0.49077591300010681 0.43876788020133972 0.5169605016708374
0.6041254997253418 0.47880369424819946 0.53155100345611572
0.71625769138336182 0.56936383247375488 0.552479088306427
0.7831035852432251 0.62609738111495972 0.56662333011627197
0.84088015556335449 0.62097668647766113 0.57611441612243652
0.89622944593429565 0.64752334356307983 0.59973150491714478
0.41527441143989563 0.52206337451934814 0.48916482925415039
0.46224886178970337 0.52858060598373413 0.49541005492210388
0.55054217576980591 0.54450297355651855 0.51171594858169556
0.69292169809341431 0.60623472929000854 0.54999411106109619
0.78003031015396118 0.66920560598373413 0.57631593942642212
0.83926594257354736 0.67190152406692505 0.58984285593032837
0.88732630014419556 0.71108764410018921 0.61728024482727051
0.46161288022994995 0.6170157790184021 0.48012265563011169
0.49434185028076172 0.61764013767242432 0.48054105043411255
0.56122159957885742 0.62857294082641602 0.49561426043510437
0.65910631418228149 0.65679895877838135 0.52845209836959839
0.76555383205413818 0.70678579807281494 0.57316374778747559
0.83284783363342285 0.73629575967788696 0.59795218706130981
0.87295573949813843 0.77321058511734009 0.62737065553665161
0.47391769289970398 0.6908564567565918 0.46877196431159973
0.50408786535263062 0.69428682327270508 0.47471117973327637
0.56564146280288696 0.706390380859375 0.49144056439399719
0.66019868850708008 0.73285526037216187 0.52785873413085938
0.74259299039840698 0.76477020978927612 0.56736856698989868
0.80890649557113647 0.79470378160476685 0.59701675176620483
0.86241555213928223 0.81598502397537231 0.61855769157409668
0.56998747587203979 0.81921947002410889 0.54627174139022827
0.58562135696411133 0.8198356032371521 0.54840177297592163
0.62878608703613281 0.82582223415374756 0.56231808662414551
0.68462038040161133 0.83760005235671997 0.57899528741836548
0.73648971319198608 0.8520355224609375 0.60142844915390015
0.79429459571838379 0.86664718389511108 0.64358961582183838
0.84626835584640503 0.88283032178878784 0.68777865171432495
0.56574535369873047 0.40481451153755188 0.64829415082931519
0.6070096492767334 0.41981437802314758 0.64518278837203979
0.68322861194610596 0.47658613324165344 0.6487317681312561
0.76804572343826294 0.56922811269760132 0.6569286584854126
0.82020443677902222 0.67485696077346802 0.66756373643875122
0.84649533033370972 0.69316983222961426 0.67003905773162842
0.87565869092941284 0.67728990316390991 0.67099517583847046
0.57138407230377197 0.45024210214614868 0.65016859769821167
0.60501271486282349 0.46322408318519592 0.6437947154045105
0.68165487051010132 0.51117610931396484 0.64806103706359863
0.7643851637840271 0.59604483842849731 0.65783363580703735
0.81771206855773926 0.68985617160797119 0.67113631963729858
0.84451484680175781 0.71606898307800293 0.67850738763809204
0.87624174356460571 0.70047879219055176 0.67991185188293457
0.55329680442810059 0.50839465856552124 0.64368671178817749
0.58934658765792847 0.51886504888534546 0.64436525106430054
0.66993886232376099 0.56084352731704712 0.64882463216781616
0.75982570648193359 0.62918269634246826 0.65815716981887817
0.81297248601913452 0.71443533897399902 0.6756972074508667
0.83905357122421265 0.74081504344940186 0.68136489391326904
0.87130856513977051 0.72860121726989746 0.68642580509185791
0.47903531789779663 0.57468807697296143 0.61628812551498413
0.52683162689208984 0.58119362592697144 0.62023460865020752
0.62076497077941895 0.60043442249298096 0.63468873500823975
0.72718745470046997 0.65245348215103149 0.65175580978393555
0.80389225482940674 0.72801053524017334 0.67570114135742188
0.8361702561378479 0.76897215843200684 0.69116246700286865
0.86588078737258911 0.76000529527664185 0.69412326812744141
0.46640112996101379 0.64699000120162964 0.59651237726211548
0.49444130063056946 0.64667057991027832 0.59814059734344482
0.55654823780059814 0.65414184331893921 0.60841864347457886
0.6552727222442627 0.67506605386734009 0.6269342303276062
0.77466839551925659 0.73402529954910278 0.66588914394378662
0.82826167345046997 0.79309266805648804 0.69738185405731201
0.86256211996078491 0.80014544725418091 0.70783305168151855
0.48978909850120544 0.71879613399505615 0.58080732822418213
0.50116288661956787 0.71998238563537598 0.57678896188735962
0.56709569692611694 0.72616320848464966 0.58950549364089966
0.64638721942901611 0.74084615707397461 0.61014115810394287
0.73432570695877075 0.76677417755126953 0.64164751768112183
0.81332921981811523 0.81938374042510986 0.69436395168304443
0.85854309797286987 0.84525507688522339 0.71936750411987305
0.48061734437942505 0.81328505277633667 0.59184068441390991
0.50095415115356445 0.81223011016845703 0.5918462872505188
0.55329740047454834 0.81578600406646729 0.60112833976745605
0.63401782512664795 0.82872891426086426 0.62412351369857788
0.7278674840927124 0.84774947166442871 0.65990006923675537
0.79608452320098877 0.87109637260437012 0.70532536506652832
0.85543614625930786 0.8850245475769043 0.74437600374221802
0.71420067548751831 0.60359925031661987 0.76713651418685913
0.73146861791610718 0.61288297176361084 0.76320642232894897
0.77245134115219116 0.64580351114273071 0.76128435134887695
0.8125031590461731 0.69316738843917847 0.76199918985366821
0.83647316694259644 0.75313401222229004 0.76103681325912476
0.84766304492950439 0.80960160493850708 0.76372367143630981
0.85619091987609863 0.81012904644012451 0.75822871923446655
0.71144193410873413 0.62299185991287231 0.76729381084442139
0.73104315996170044 0.63300865888595581 0.76448124647140503
0.76824367046356201 0.65981817245483398 0.76127135753631592
0.80922544002532959 0.7060081958770752 0.76192861795425415
0.83384913206100464 0.76231032609939575 0.76150202751159668
0.84740322828292847 0.81171554327011108 0.76493018865585327
0.8570629358291626 0.82303380966186523 0.7650144100189209
0.69144344329833984 0.64922112226486206 0.76449036598205566
0.70914721488952637 0.65368843078613281 0.76288646459579468
0.75510984659194946 0.6814844012260437 0.76158881187438965
0.80080687999725342 0.71997761726379395 0.76035499572753906
0.82930034399032593 0.77558040618896484 0.76411867141723633
0.84398102760314941 0.82184529304504395 0.76771694421768188
0.86084163188934326 0.82932090759277344 0.76675975322723389
0.64444112777709961 0.68912976980209351 0.75690209865570068
0.66597169637680054 0.68658411502838135 0.75619155168533325
0.71490633487701416 0.69725674390792847 0.75629448890686035
0.77782714366912842 0.7348296046257019 0.7620995044708252
0.81701695919036865 0.78225743770599365 0.76225370168685913
0.84151440858840942 0.83191096782684326 0.77058082818984985
0.85769271850585938 0.84689319133758545 0.77263551950454712
0.52414935827255249 0.72647279500961304 0.74267101287841797
0.5495409369468689 0.72430461645126343 0.74140185117721558
0.61231648921966553 0.72781670093536377 0.74494731426239014
0.71866977214813232 0.74699002504348755 0.75414562225341797
0.79621315002441406 0.78830844163894653 0.76640385389328003
0.83522111177444458 0.84022575616836548 0.7756543755531311
0.86199325323104858 0.86271071434020996 0.78220856189727783
0.52935171127319336 0.79390555620193481 0.73562085628509521
0.54510420560836792 0.7920767068862915 0.73359817266464233
0.58565783500671387 0.79251062870025635 0.73572385311126709
0.6489793062210083 0.79496151208877563 0.74410814046859741
0.73319840431213379 0.80493831634521484 0.755726158618927
0.81434905529022217 0.84675991535186768 0.77468466758728027
0.86702746152877808 0.8794439435005188 0.79173839092254639
0.55735272169113159 0.86326408386230469 0.74030715227127075
0.56789153814315796 0.86234831809997559 0.73933225870132446
0.59939700365066528 0.86141228675842285 0.74122965335845947
0.65264177322387695 0.86444872617721558 0.74778264760971069
0.71554487943649292 0.86845821142196655 0.75514662265777588
0.78379291296005249 0.87642872333526611 0.77167922258377075
0.87364035844802856 0.89311379194259644 0.80031239986419678
