luts/instant_consumer/polaroid_px-680_warm_--.cube
# Created by: G'MIC (https://gmic.eu)
TITLE "polaroid_px-680_warm_--"
# LUT size
LUT_3D_SIZE 5
# Data domain
DOMAIN_MIN 0.0 0.0 0.0
DOMAIN_MAX 1.0 1.0 1.0
# LUT data points
0.0016139161307364702 0.023060698062181473 0.0022094128653407097
0.17881421744823456 0.036523513495922089 0.0027959935832768679
0.54127109050750732 0.07209479808807373 0.00023821662762202322
0.85230159759521484 0.23684029281139374 0.0012423496227711439
0.99746274948120117 0.43418934941291809 0.072202779352664948
0.0033888423349708319 0.19063325226306915 0
0.20557595789432526 0.21907684206962585 1.6156365063579869e-06
0.57658016681671143 0.2554900050163269 2.423454679956194e-05
0.83776718378067017 0.35163712501525879 0.0024931365624070168
0.99463272094726562 0.48660135269165039 0.056814111769199371
0.005272973794490099 0.46183809638023376 0
0.1732994019985199 0.46386736631393433 0.0010177762014791369
0.55002743005752563 0.51081883907318115 0.0025070041883736849
0.82329845428466797 0.54350048303604126 0.0011546115856617689
0.98403030633926392 0.58446663618087769 0.012330058962106705
0.13312108814716339 0.64755475521087646 0.028827367350459099
0.28157037496566772 0.65026277303695679 0.051194224506616592
0.52126932144165039 0.67750829458236694 0.11340312659740448
0.77073866128921509 0.72252339124679565 0.16528412699699402
0.95886337757110596 0.78114938735961914 0.25741487741470337
0.49688169360160828 0.87260466814041138 0.36894598603248596
0.54119235277175903 0.87314480543136597 0.37943550944328308
0.65103477239608765 0.88456398248672485 0.42145666480064392
0.7931256890296936 0.91086536645889282 0.46532654762268066
0.93385106325149536 0.93859165906906128 0.51773667335510254
0.057436458766460419 0.049648508429527283 0.075055859982967377
0.21514785289764404 0.098634637892246246 0.0738816037774086
0.56686043739318848 0.083998657763004303 0.1189456433057785
0.85974913835525513 0.31927645206451416 0.21801023185253143
0.98968905210494995 0.51080799102783203 0.33563801646232605
0.085663273930549622 0.22618615627288818 0.094502285122871399
0.30384132266044617 0.26238206028938293 0.1200738325715065
0.62018847465515137 0.32166430354118347 0.15185089409351349
0.8534587025642395 0.4238925576210022 0.21774490177631378
0.98974108695983887 0.5452883243560791 0.3225671648979187
0.24076332151889801 0.47814515233039856 0.15220540761947632
0.32680866122245789 0.48612028360366821 0.14508186280727386
0.5961611270904541 0.52762687206268311 0.16795855760574341
0.83246028423309326 0.54964494705200195 0.17378786206245422
0.98046749830245972 0.61833053827285767 0.26873660087585449
0.28794100880622864 0.65483182668685913 0.19646991789340973
0.37420418858528137 0.65861290693283081 0.21598045527935028
0.55725502967834473 0.6828993558883667 0.2626100480556488
0.7858697772026062 0.73445123434066772 0.30620560050010681
0.95915758609771729 0.78216910362243652 0.35772189497947693
0.50589197874069214 0.87325441837310791 0.40084743499755859
0.54900801181793213 0.87374424934387207 0.4125705361366272
0.6575198769569397 0.88244408369064331 0.45287296175956726
0.79228687286376953 0.90731346607208252 0.49620917439460754
0.93548911809921265 0.940407395362854 0.5504382848739624
0.21254417300224304 0.15453812479972839 0.33789840340614319
0.40717339515686035 0.21916608512401581 0.34906661510467529
0.62910211086273193 0.34761598706245422 0.37907293438911438
0.83212292194366455 0.34532323479652405 0.42166295647621155
0.98482978343963623 0.49802544713020325 0.4817347526550293
0.22635138034820557 0.31022483110427856 0.36531394720077515
0.42878520488739014 0.34661427140235901 0.38452443480491638
0.65625488758087158 0.44789275527000427 0.41491416096687317
0.83925926685333252 0.46122115850448608 0.44529950618743896
0.99025076627731323 0.57931649684906006 0.50970685482025146
0.28980728983879089 0.48729732632637024 0.35361641645431519
0.42455771565437317 0.50082236528396606 0.37151041626930237
0.66209250688552856 0.56075114011764526 0.43289560079574585
0.84317970275878906 0.61718428134918213 0.47659116983413696
0.97403192520141602 0.6912834644317627 0.52286833524703979
0.4281579852104187 0.6544337272644043 0.38828334212303162
0.5054858922958374 0.66507130861282349 0.40314647555351257
0.62982022762298584 0.69479525089263916 0.43292421102523804
0.8101125955581665 0.74630111455917358 0.47730550169944763
0.96659797430038452 0.7796059250831604 0.49464449286460876
0.55719125270843506 0.86793702840805054 0.49110454320907593
0.57721883058547974 0.87320888042449951 0.49016857147216797
0.66233289241790771 0.88535374402999878 0.51219546794891357
0.7944672703742981 0.91025424003601074 0.56558609008789062
0.941883385181427 0.942069411277771 0.61967927217483521
0.46739122271537781 0.33344441652297974 0.59067893028259277
0.58911746740341187 0.38050004839897156 0.59626024961471558
0.75858253240585327 0.51939654350280762 0.61424845457077026
0.85979640483856201 0.61541610956192017 0.62558388710021973
0.96079140901565552 0.60175365209579468 0.64602690935134888
0.46233507990837097 0.42634293437004089 0.59504526853561401
0.58705312013626099 0.45925483107566833 0.60036599636077881
0.76253724098205566 0.56389844417572021 0.61708062887191772
0.8638189435005188 0.65844517946243286 0.63718163967132568
0.96126300096511841 0.65230864286422729 0.66153812408447266
0.36167556047439575 0.54121905565261841 0.55933284759521484
0.48701003193855286 0.55621802806854248 0.57134473323822021
0.72472363710403442 0.6213873028755188 0.61393743753433228
0.86132329702377319 0.72154438495635986 0.65614640712738037
0.96836256980895996 0.72701764106750488 0.68214362859725952
0.41493195295333862 0.66396313905715942 0.52943259477615356
0.48278218507766724 0.67030400037765503 0.5370367169380188
0.64407044649124146 0.69633734226226807 0.56897032260894775
0.84124946594238281 0.77962654829025269 0.65212619304656982
0.97397679090499878 0.82700580358505249 0.70574367046356201
0.46590456366539001 0.85730528831481934 0.57992523908615112
0.52590537071228027 0.86116290092468262 0.5857500433921814
0.66259360313415527 0.87997692823410034 0.61612778902053833
0.79776209592819214 0.91472095251083374 0.6618039608001709
0.95827162265777588 0.95318156480789185 0.74926304817199707
0.71645736694335938 0.5998682975769043 0.84001004695892334
0.76628208160400391 0.61904847621917725 0.83535343408584595
0.84987443685531616 0.68866235017776489 0.83418339490890503
0.91855674982070923 0.78520309925079346 0.84152901172637939
0.96661120653152466 0.81909382343292236 0.84876680374145508
0.70784974098205566 0.63352060317993164 0.84282565116882324
0.75815331935882568 0.6533581018447876 0.84118044376373291
0.84071642160415649 0.70961570739746094 0.84122145175933838
0.9186176061630249 0.79827231168746948 0.84920322895050049
0.96925193071365356 0.83913785219192505 0.86139804124832153
0.63819026947021484 0.68938720226287842 0.83568894863128662
0.69431531429290771 0.69467568397521973 0.83759546279907227
0.8054841160774231 0.73924803733825684 0.84936350584030151
0.90773814916610718 0.82342100143432617 0.8624921441078186
0.97243773937225342 0.87181830406188965 0.87938207387924194
0.4763399064540863 0.78231692314147949 0.81905806064605713
0.52268964052200317 0.77736490964889526 0.81877142190933228
0.65784567594528198 0.78141134977340698 0.83627915382385254
0.86649012565612793 0.84202539920806885 0.87508112192153931
0.97142404317855835 0.91425591707229614 0.90542864799499512
0.4619482159614563 0.91585129499435425 0.83454436063766479
0.50453221797943115 0.91595059633255005 0.83444684743881226
0.60372275114059448 0.91778957843780518 0.84105712175369263
0.75490075349807739 0.93086940050125122 0.86655819416046143
0.97077476978302002 0.97404384613037109 0.9404178261756897
