luts/instant_consumer/polaroid_px-70_+++.cube
# Created by: G'MIC (https://gmic.eu)
TITLE "polaroid_px-70_+++"
# LUT size
LUT_3D_SIZE 7
# Data domain
DOMAIN_MIN 0.0 0.0 0.0
DOMAIN_MAX 1.0 1.0 1.0
# LUT data points
0.32791569828987122 0.38823530077934265 0.29411765933036804
0.31943854689598083 0.38818162679672241 0.29531562328338623
0.32489228248596191 0.38436195254325867 0.29411765933036804
0.40196999907493591 0.38584735989570618 0.29065999388694763
0.5942683219909668 0.39586576819419861 0.28076958656311035
0.81751894950866699 0.44395613670349121 0.26929143071174622
0.94734674692153931 0.52037930488586426 0.27052989602088928
0.32050842046737671 0.38510867953300476 0.29416197538375854
0.32006928324699402 0.38796290755271912 0.29786613583564758
0.34234976768493652 0.38859307765960693 0.29519042372703552
0.43487471342086792 0.3906073272228241 0.29184743762016296
0.6189388632774353 0.41129273176193237 0.2810325026512146
0.83057904243469238 0.47131079435348511 0.26663950085639954
0.9514235258102417 0.54806429147720337 0.26752001047134399
0.32169243693351746 0.41381004452705383 0.29067394137382507
0.33271652460098267 0.42041686177253723 0.2911173403263092
0.37816536426544189 0.42585676908493042 0.28877916932106018
0.48946857452392578 0.43416917324066162 0.28389143943786621
0.65912723541259766 0.46084839105606079 0.27152979373931885
0.84493440389633179 0.52255672216415405 0.25479528307914734
0.94207960367202759 0.59015029668807983 0.26066026091575623
0.34811624884605408 0.50977331399917603 0.2783835232257843
0.37641271948814392 0.5184706449508667 0.27757161855697632
0.43727385997772217 0.52431249618530273 0.27428558468818665
0.56436777114868164 0.54051786661148071 0.26713892817497253
0.73044359683990479 0.57666337490081787 0.25136595964431763
0.85450780391693115 0.60484212636947632 0.23880620300769806
0.92929559946060181 0.63304752111434937 0.24667881429195404
0.45293149352073669 0.6646386981010437 0.26363512873649597
0.47474932670593262 0.65611922740936279 0.26714369654655457
0.54182291030883789 0.66947305202484131 0.2676880955696106
0.6365693211555481 0.67534333467483521 0.26338654756546021
0.76107341051101685 0.69501799345016479 0.25563102960586548
0.86218082904815674 0.71175527572631836 0.25525885820388794
0.92241519689559937 0.72294133901596069 0.27733573317527771
0.64181458950042725 0.76976215839385986 0.29798081517219543
0.64835196733474731 0.76713407039642334 0.30021592974662781
0.68057078123092651 0.76984304189682007 0.30251473188400269
0.73360753059387207 0.77260738611221313 0.30231231451034546
0.80765748023986816 0.77901506423950195 0.30460366606712341
0.8734162449836731 0.7880702018737793 0.31496158242225647
0.92065584659576416 0.79721826314926147 0.33872038125991821
0.83612054586410522 0.82511693239212036 0.37279412150382996
0.83384603261947632 0.82891619205474854 0.3689081072807312
0.83861762285232544 0.82461273670196533 0.37215074896812439
0.8601377010345459 0.82021266222000122 0.37650942802429199
0.88490688800811768 0.82251721620559692 0.37841284275054932
0.90874826908111572 0.82489484548568726 0.38572591543197632
0.93124645948410034 0.82519567012786865 0.40111806988716125
0.32645133137702942 0.38833096623420715 0.29361531138420105
0.32746431231498718 0.39201295375823975 0.29370692372322083
0.33208060264587402 0.3831825852394104 0.29321354627609253
0.41688072681427002 0.37570458650588989 0.29045170545578003
0.61325633525848389 0.38820174336433411 0.28780689835548401
0.83469909429550171 0.45738258957862854 0.28494107723236084
0.95001751184463501 0.54469692707061768 0.28935080766677856
0.32131555676460266 0.39051610231399536 0.29411765933036804
0.3265036940574646 0.39232149720191956 0.29417192935943604
0.35064321756362915 0.39060911536216736 0.29411765933036804
0.45375904440879822 0.39377886056900024 0.29407542943954468
0.64595937728881836 0.41895842552185059 0.28830170631408691
0.84454405307769775 0.48590925335884094 0.28086140751838684
0.94686371088027954 0.55289703607559204 0.28032374382019043
0.32684797048568726 0.42421954870223999 0.29301053285598755
0.34399145841598511 0.42633703351020813 0.29343819618225098
0.39357715845108032 0.43081095814704895 0.29161405563354492
0.51636558771133423 0.4438815712928772 0.28817108273506165
0.69401949644088745 0.47354939579963684 0.27732944488525391
0.85206538438796997 0.52356123924255371 0.26658433675765991
0.93945920467376709 0.5890498161315918 0.27405434846878052
0.36459428071975708 0.52131277322769165 0.28302323818206787
0.3908456563949585 0.52536964416503906 0.2823539674282074
0.4571591317653656 0.5312497615814209 0.27997052669525146
0.57890856266021729 0.54536420106887817 0.27436357736587524
0.74187970161437988 0.58109086751937866 0.26078489422798157
0.86197060346603394 0.60578739643096924 0.25276175141334534
0.9309699535369873 0.64267027378082275 0.26687765121459961
0.47968149185180664 0.67312151193618774 0.27378296852111816
0.49930569529533386 0.67012399435043335 0.27363809943199158
0.55365431308746338 0.66903245449066162 0.27695295214653015
0.64682412147521973 0.67597705125808716 0.27683746814727783
0.77066338062286377 0.70253521203994751 0.27112248539924622
0.86764180660247803 0.71629089117050171 0.27211302518844604
0.92453187704086304 0.72819435596466064 0.29189184308052063
0.66570818424224854 0.77906602621078491 0.30550944805145264
0.6637721061706543 0.77413332462310791 0.30571287870407104
0.69392669200897217 0.77332955598831177 0.31211459636688232
0.74553871154785156 0.77386105060577393 0.31706288456916809
0.81397861242294312 0.78456085920333862 0.31939107179641724
0.87681633234024048 0.79378026723861694 0.32665324211120605
0.92227315902709961 0.79890823364257812 0.34489721059799194
0.84624463319778442 0.83353763818740845 0.37139561772346497
0.84259021282196045 0.83282941579818726 0.37288194894790649
0.84710770845413208 0.82744777202606201 0.37827059626579285
0.86806243658065796 0.82299274206161499 0.38636291027069092
0.88938760757446289 0.82677286863327026 0.3874189555644989
0.91224783658981323 0.83086669445037842 0.39164808392524719
0.93708890676498413 0.83225131034851074 0.40306109189987183
0.32165205478668213 0.38823530077934265 0.2930263876914978
0.32164523005485535 0.38823530077934265 0.29039844870567322
0.33856788277626038 0.38407173752784729 0.29314258694648743
0.42046603560447693 0.37897187471389771 0.29564204812049866
0.6248396635055542 0.37621524930000305 0.29970231652259827
0.85710078477859497 0.43815633654594421 0.30731004476547241
0.95076888799667358 0.56679004430770874 0.3231101930141449
0.31903174519538879 0.39554765820503235 0.29777970910072327
0.32795235514640808 0.39467191696166992 0.29613777995109558
0.35842105746269226 0.39518970251083374 0.29598784446716309
0.46301719546318054 0.40228432416915894 0.29912135004997253
0.66293168067932129 0.41862109303474426 0.30334407091140747
0.86336284875869751 0.49952796101570129 0.31250765919685364
0.94610810279846191 0.60882198810577393 0.32569774985313416
0.33991307020187378 0.43454140424728394 0.30154252052307129
0.3642522394657135 0.43437162041664124 0.30201879143714905
0.41391289234161377 0.43781876564025879 0.30070093274116516
0.53990882635116577 0.45686939358711243 0.30352598428726196
0.72366088628768921 0.48983597755432129 0.30286577343940735
0.86623257398605347 0.56513488292694092 0.3078039288520813
0.9373278021812439 0.63031619787216187 0.31844308972358704
0.41952875256538391 0.53782665729522705 0.30208256840705872
0.44893139600753784 0.53897923231124878 0.30267632007598877
0.49701887369155884 0.53722590208053589 0.2996838390827179
0.60356408357620239 0.54669857025146484 0.2976280152797699
0.75470256805419922 0.57994049787521362 0.29224053025245667
0.86282598972320557 0.61779946088790894 0.29224997758865356
0.92845660448074341 0.66769969463348389 0.30793452262878418
0.54723608493804932 0.67867422103881836 0.30222567915916443
0.55371576547622681 0.67482703924179077 0.29935485124588013
0.60390830039978027 0.67836457490921021 0.30131122469902039
0.68308711051940918 0.68133407831192017 0.30340191721916199
0.78675752878189087 0.70239770412445068 0.30067327618598938
0.86891031265258789 0.72112482786178589 0.30466577410697937
0.92486011981964111 0.73807668685913086 0.3218950629234314
0.68994772434234619 0.77698469161987305 0.32501548528671265
0.69467931985855103 0.77755260467529297 0.32518115639686584
0.72160398960113525 0.77676427364349365 0.32979705929756165
0.76443213224411011 0.77727758884429932 0.33520454168319702
0.8215630054473877 0.78592061996459961 0.3398248553276062
0.87994468212127686 0.79560428857803345 0.34670296311378479
0.92675244808197021 0.79989522695541382 0.36056715250015259
0.85123640298843384 0.82850766181945801 0.37841209769248962
0.84779495000839233 0.82741570472717285 0.38064390420913696
0.85146939754486084 0.82700508832931519 0.38418120145797729
0.86703240871429443 0.82665812969207764 0.38964006304740906
0.88935041427612305 0.82926887273788452 0.39353898167610168
0.91566300392150879 0.83220100402832031 0.39838820695877075
0.94317060708999634 0.83362108469009399 0.40761229395866394
0.33031788468360901 0.38927620649337769 0.30827429890632629
0.34239155054092407 0.38847574591636658 0.30582299828529358
0.39347571134567261 0.39550992846488953 0.31388244032859802
0.47344005107879639 0.41375616192817688 0.31813013553619385
0.63371139764785767 0.40751653909683228 0.3286820650100708
0.8505626916885376 0.43414980173110962 0.34547865390777588
0.95446252822875977 0.53606712818145752 0.35397288203239441
0.33578848838806152 0.40270152688026428 0.31886371970176697
0.35536032915115356 0.40046808123588562 0.31664866209030151
0.41737863421440125 0.41329342126846313 0.31731069087982178
0.51648998260498047 0.43639811873435974 0.31805959343910217
0.66453003883361816 0.43340069055557251 0.33167004585266113
0.86723369359970093 0.4721142053604126 0.34760448336601257
0.95343446731567383 0.58556503057479858 0.359566330909729
0.3511357307434082 0.44702699780464172 0.32701241970062256
0.38415065407752991 0.44507265090942383 0.32712677121162415
0.45952335000038147 0.45794963836669922 0.32676708698272705
0.58309262990951538 0.4940589964389801 0.32915303111076355
0.72742217779159546 0.50948554277420044 0.33937209844589233
0.87523853778839111 0.58280134201049805 0.35433593392372131
0.94222205877304077 0.65888619422912598 0.36385220289230347
0.4165617823600769 0.54664182662963867 0.32771804928779602
0.45776265859603882 0.54536890983581543 0.33047175407409668
0.52509975433349609 0.54646056890487671 0.33371472358703613
0.64540833234786987 0.5734018087387085 0.33722662925720215
0.78164124488830566 0.62172311544418335 0.34526169300079346
0.8759574294090271 0.66696321964263916 0.34947007894515991
0.93177574872970581 0.71415442228317261 0.36130556464195251
0.57875227928161621 0.68117976188659668 0.33659824728965759
0.60325080156326294 0.68257266283035278 0.33610019087791443
0.66209656000137329 0.68979465961456299 0.33891779184341431
0.72340184450149536 0.69347965717315674 0.33942070603370667
0.80549371242523193 0.70400100946426392 0.33841747045516968
0.87466448545455933 0.72676247358322144 0.34347802400588989
0.9292413592338562 0.7613074779510498 0.36184647679328918
0.7436976432800293 0.78101074695587158 0.35864153504371643
0.73931831121444702 0.78040421009063721 0.35485160350799561
0.75590336322784424 0.78240430355072021 0.35427811741828918
0.78983467817306519 0.78235596418380737 0.35697847604751587
0.83956444263458252 0.78383654356002808 0.36159631609916687
0.88928455114364624 0.79409843683242798 0.36960428953170776
0.93195056915283203 0.80577248334884644 0.38293176889419556
0.86484634876251221 0.82504475116729736 0.39193186163902283
0.86000388860702515 0.8226436972618103 0.39279475808143616
0.86234176158905029 0.82662779092788696 0.3926907479763031
0.87491118907928467 0.82753616571426392 0.39573496580123901
0.89548766613006592 0.82709360122680664 0.40045878291130066
0.92071807384490967 0.82908457517623901 0.40644592046737671
0.94709569215774536 0.83219486474990845 0.41488125920295715
0.38745066523551941 0.39093446731567383 0.35828211903572083
0.42576676607131958 0.39232787489891052 0.35780370235443115
0.5222664475440979 0.41023117303848267 0.37089303135871887
0.64050441980361938 0.46788215637207031 0.37281545996665955
0.74813467264175415 0.51549321413040161 0.37491434812545776
0.85063481330871582 0.51683735847473145 0.38771134614944458
0.93026375770568848 0.58247995376586914 0.39189186692237854
0.40559333562850952 0.41653433442115784 0.37235435843467712
0.44038417935371399 0.41319748759269714 0.37179481983184814
0.54060721397399902 0.43824541568756104 0.37366661429405212
0.66822171211242676 0.50022530555725098 0.37213724851608276
0.76172548532485962 0.55601906776428223 0.37597003579139709
0.85823750495910645 0.55394017696380615 0.38778278231620789
0.93559545278549194 0.61696523427963257 0.39434263110160828
0.4149935245513916 0.47822755575180054 0.37819156050682068
0.45593884587287903 0.47516372799873352 0.3803558349609375
0.55586683750152588 0.49326011538505554 0.37928617000579834
0.70511150360107422 0.56207370758056641 0.37749874591827393
0.78636085987091064 0.61152434349060059 0.38011443614959717
0.86802929639816284 0.62520140409469604 0.38762739300727844
0.93263280391693115 0.66132980585098267 0.39209827780723572
0.4445311427116394 0.5790870189666748 0.37349560856819153
0.48473823070526123 0.57899326086044312 0.37550860643386841
0.56520062685012817 0.57712358236312866 0.37831887602806091
0.71270793676376343 0.61754125356674194 0.38088533282279968
0.81700295209884644 0.68101072311401367 0.38177686929702759
0.86927467584609985 0.6878807544708252 0.38722562789916992
0.93072199821472168 0.73005789518356323 0.39756003022193909
0.59967440366744995 0.69824177026748657 0.37636134028434753
0.61669111251831055 0.69759976863861084 0.37219613790512085
0.66334205865859985 0.69545567035675049 0.37396839261054993
0.74334484338760376 0.70517182350158691 0.37781253457069397
0.81999409198760986 0.72454118728637695 0.37781861424446106
0.8824126124382019 0.74812102317810059 0.384979248046875
0.93360674381256104 0.78492271900177002 0.39857149124145508
0.74412572383880615 0.78093427419662476 0.38311797380447388
0.75070822238922119 0.78384250402450562 0.37915182113647461
0.77956372499465942 0.78619933128356934 0.38029798865318298
0.81506747007369995 0.78532546758651733 0.38384681940078735
0.85462766885757446 0.78428369760513306 0.38787075877189636
0.89933621883392334 0.79578489065170288 0.39477449655532837
0.93667894601821899 0.8116610050201416 0.40470844507217407
0.87077921628952026 0.82581865787506104 0.40294387936592102
0.86785382032394409 0.82656633853912354 0.40199819207191467
0.87717574834823608 0.82899940013885498 0.40327191352844238
0.88873416185379028 0.82603311538696289 0.40694394707679749
0.90332937240600586 0.82233625650405884 0.41119450330734253
0.925323486328125 0.8237500786781311 0.4160296618938446
0.94813233613967896 0.82883942127227783 0.42246788740158081
0.53316205739974976 0.41668567061424255 0.44255325198173523
0.58471184968948364 0.42838868498802185 0.43964976072311401
0.67576229572296143 0.46278125047683716 0.44092971086502075
0.78638875484466553 0.53476595878601074 0.43610301613807678
0.86360979080200195 0.6529921293258667 0.42108973860740662
0.89103180170059204 0.68973976373672485 0.4141058623790741
0.92139565944671631 0.68710458278656006 0.41575771570205688
0.54365140199661255 0.45778435468673706 0.44334903359413147
0.59090888500213623 0.46701803803443909 0.44144773483276367
0.6809154748916626 0.50148290395736694 0.43648627400398254
0.79142242670059204 0.56907349824905396 0.42906606197357178
0.86846822500228882 0.67709600925445557 0.41967681050300598
0.89777678251266479 0.70724999904632568 0.41679120063781738
0.92677301168441772 0.70823377370834351 0.41720908880233765
0.5514339804649353 0.5285220742225647 0.44375309348106384
0.5904538631439209 0.5310056209564209 0.4420916736125946
0.6818382740020752 0.55539959669113159 0.43475547432899475
0.80113208293914795 0.62450873851776123 0.42529365420341492
0.87326967716217041 0.71582156419754028 0.41767063736915588
0.90229004621505737 0.73969709873199463 0.41474610567092896
0.93108940124511719 0.73236358165740967 0.41514983773231506
0.53491568565368652 0.62364035844802856 0.42884185910224915
0.58508861064910889 0.62645488977432251 0.42849284410476685
0.68189215660095215 0.63593560457229614 0.42691606283187866
0.79202234745025635 0.67170780897140503 0.42124125361442566
0.86530941724777222 0.74250346422195435 0.41485410928726196
0.89892101287841797 0.75972777605056763 0.41310551762580872
0.93210810422897339 0.7621728777885437 0.41547533869743347
0.62540823221206665 0.71816098690032959 0.41539537906646729
0.6414676308631897 0.71531432867050171 0.41224139928817749
0.6731865406036377 0.70937371253967285 0.41261696815490723
0.76602327823638916 0.72275400161743164 0.41391417384147644
0.84361428022384644 0.75634288787841797 0.4117368757724762
0.90223228931427002 0.78185063600540161 0.41327130794525146
0.93842750787734985 0.79707270860671997 0.41713908314704895
0.75319057703018188 0.78482729196548462 0.40795859694480896
0.76253694295883179 0.78811407089233398 0.40489333868026733
0.79141753911972046 0.78853553533554077 0.40820515155792236
0.81856721639633179 0.78332626819610596 0.41209769248962402
0.85967117547988892 0.78813350200653076 0.41379639506340027
0.91103720664978027 0.80471253395080566 0.41600701212882996
0.94145995378494263 0.81576406955718994 0.41898766160011292
0.86816346645355225 0.82213324308395386 0.41312357783317566
0.87389695644378662 0.82630461454391479 0.41279470920562744
0.88811862468719482 0.82712256908416748 0.41697689890861511
0.89468002319335938 0.82148230075836182 0.42129436135292053
0.90529978275299072 0.81711608171463013 0.42379182577133179
0.92660766839981079 0.81930023431777954 0.42495438456535339
0.94588404893875122 0.82395625114440918 0.42732498049736023
0.74485719203948975 0.57585501670837402 0.48021256923675537
0.77058416604995728 0.58168995380401611 0.47754675149917603
0.81272667646408081 0.62434262037277222 0.46683624386787415
0.87086689472198486 0.68756818771362305 0.45347803831100464
0.91262638568878174 0.76582062244415283 0.4394131600856781
0.92660361528396606 0.80825918912887573 0.42986714839935303
0.9367755651473999 0.79493558406829834 0.42951959371566772
0.75684887170791626 0.61399847269058228 0.47197642922401428
0.78185129165649414 0.62192708253860474 0.47101554274559021
0.81767445802688599 0.65325915813446045 0.46028023958206177
0.87295949459075928 0.70061719417572021 0.4481598436832428
0.90998303890228271 0.76109015941619873 0.43669325113296509
0.92815697193145752 0.80802071094512939 0.4307633638381958
0.9401128888130188 0.8055872917175293 0.4303838312625885
0.74614304304122925 0.65105843544006348 0.46593263745307922
0.78034478425979614 0.66201180219650269 0.46462753415107727
0.81833326816558838 0.68319565057754517 0.45548757910728455
0.87798386812210083 0.72048723697662354 0.44511294364929199
0.91144472360610962 0.77163678407669067 0.43496578931808472
0.92836421728134155 0.81016999483108521 0.42997467517852783
0.9420592188835144 0.81002515554428101 0.42878273129463196
0.74380546808242798 0.70136070251464844 0.45593595504760742
0.76007330417633057 0.70199841260910034 0.45501500368118286
0.81181138753890991 0.71613508462905884 0.45015349984169006
0.87094467878341675 0.74507379531860352 0.44277134537696838
0.90499758720397949 0.78766578435897827 0.43458732962608337
0.92591184377670288 0.81365954875946045 0.42939379811286926
0.94076210260391235 0.81173908710479736 0.4267156720161438
0.70691072940826416 0.74573534727096558 0.44565165042877197
0.72233152389526367 0.74424147605895996 0.44433802366256714
0.75772929191589355 0.74801158905029297 0.44356000423431396
0.82250434160232544 0.76357454061508179 0.4396548867225647
0.87726056575775146 0.78993707895278931 0.43326181173324585
0.92126047611236572 0.81230998039245605 0.42898190021514893
0.94292926788330078 0.81700646877288818 0.42643505334854126
0.78862744569778442 0.79206275939941406 0.43141722679138184
0.80669891834259033 0.79671269655227661 0.43187841773033142
0.81805872917175293 0.79563808441162109 0.43446937203407288
0.83632516860961914 0.79290735721588135 0.43476709723472595
0.8714413046836853 0.7989916205406189 0.4317779541015625
0.91955983638763428 0.81573987007141113 0.42839768528938293
0.94364356994628906 0.8226972222328186 0.42663228511810303
0.89061486721038818 0.82157093286514282 0.42512255907058716
0.90425330400466919 0.82920223474502563 0.42741873860359192
0.90971392393112183 0.82979506254196167 0.43215066194534302
0.90663772821426392 0.82304519414901733 0.434610515832901
0.91324281692504883 0.8191152811050415 0.43412554264068604
0.93113398551940918 0.82096433639526367 0.43126407265663147
0.94535285234451294 0.82370209693908691 0.42914757132530212
