luts/instant_consumer/polaroid_px-100uv+_cold_+.cube
# Created by: G'MIC (https://gmic.eu)
TITLE "polaroid_px-100uv+_cold_+"
# LUT size
LUT_3D_SIZE 5
# Data domain
DOMAIN_MIN 0.0 0.0 0.0
DOMAIN_MAX 1.0 1.0 1.0
# LUT data points
0.23458562791347504 0.30042597651481628 0.31274396181106567
0.25484320521354675 0.31621807813644409 0.33028611540794373
0.33106893301010132 0.37978276610374451 0.39016065001487732
0.44910719990730286 0.48071286082267761 0.48179930448532104
0.59537649154663086 0.61491101980209351 0.5951201319694519
0.2670339047908783 0.3261171281337738 0.33820119500160217
0.2880060076713562 0.3418782651424408 0.35594621300697327
0.35064226388931274 0.39495545625686646 0.40575891733169556
0.45392939448356628 0.48279806971549988 0.48532462120056152
0.60148268938064575 0.61893749237060547 0.59842592477798462
0.37044227123260498 0.40965366363525391 0.41885131597518921
0.37691196799278259 0.41295692324638367 0.42386680841445923
0.42390400171279907 0.4541875422000885 0.46094119548797607
0.49448829889297485 0.51821994781494141 0.51665109395980835
0.62576287984848022 0.64177209138870239 0.61661916971206665
0.51295268535614014 0.53384220600128174 0.52964222431182861
0.50947082042694092 0.5299675464630127 0.52575552463531494
0.53278404474258423 0.55344080924987793 0.54448074102401733
0.59943342208862305 0.61824482679367065 0.59740626811981201
0.68905359506607056 0.7024417519569397 0.6652793288230896
0.72561299800872803 0.7407829761505127 0.69301116466522217
0.72384661436080933 0.73632335662841797 0.69103366136550903
0.72674137353897095 0.74176764488220215 0.69551151990890503
0.75629943609237671 0.77122312784194946 0.71916705369949341
0.79322332143783569 0.80295181274414062 0.74475812911987305
0.29132959246635437 0.34727069735527039 0.35752317309379578
0.31135386228561401 0.36214303970336914 0.37381669878959656
0.38390108942985535 0.42266407608985901 0.43000063300132751
0.51096868515014648 0.53387880325317383 0.52964669466018677
0.64362674951553345 0.65822863578796387 0.63105911016464233
0.31816005706787109 0.37013742327690125 0.37806910276412964
0.35128042101860046 0.39439919590950012 0.40353715419769287
0.41668701171875 0.44890233874320984 0.45380762219429016
0.51514065265655518 0.53680258989334106 0.53165668249130249
0.64704692363739014 0.66187047958374023 0.63420116901397705
0.44155579805374146 0.47328150272369385 0.47348761558532715
0.44327554106712341 0.47273367643356323 0.47450047731399536
0.46805411577224731 0.49444934725761414 0.49449062347412109
0.53436106443405151 0.55570149421691895 0.54782271385192871
0.65735495090484619 0.67266321182250977 0.64278334379196167
0.56433022022247314 0.58396822214126587 0.56971985101699829
0.56712526082992554 0.58614188432693481 0.57041382789611816
0.56615179777145386 0.58650517463684082 0.5696861743927002
0.62395644187927246 0.64213472604751587 0.6165156364440918
0.71027988195419312 0.72368752956390381 0.68300485610961914
0.74096697568893433 0.75470888614654541 0.70506709814071655
0.74294722080230713 0.75551265478134155 0.70585626363754272
0.74100327491760254 0.75498491525650024 0.70533323287963867
0.76858788728713989 0.78135335445404053 0.72723668813705444
0.80548256635665894 0.81458139419555664 0.75468909740447998
0.42599502205848694 0.46045225858688354 0.46282199025154114
0.44490456581115723 0.47380846738815308 0.47816634178161621
0.48215153813362122 0.50562781095504761 0.50555408000946045
0.56127440929412842 0.58012950420379639 0.56723356246948242
0.70168471336364746 0.71620118618011475 0.67534470558166504
0.45624545216560364 0.4824446439743042 0.48539561033248901
0.4689774215221405 0.49422678351402283 0.49524030089378357
0.4987451434135437 0.52278608083724976 0.51836270093917847
0.58704733848571777 0.60787540674209595 0.58788466453552246
0.71071672439575195 0.72663235664367676 0.68392401933670044
0.49154847860336304 0.51455718278884888 0.51378542184829712
0.52467066049575806 0.54622852802276611 0.53848201036453247
0.55434137582778931 0.57674366235733032 0.56232291460037231
0.62342804670333862 0.64383399486541748 0.61797702312469482
0.724090576171875 0.74029970169067383 0.69550555944442749
0.63186734914779663 0.64805907011032104 0.62193173170089722
0.63801652193069458 0.65508085489273071 0.62679147720336914
0.64938890933990479 0.66828525066375732 0.63710236549377441
0.68290597200393677 0.70102393627166748 0.66368889808654785
0.75107520818710327 0.76522928476333618 0.7158278226852417
0.76869380474090576 0.78116077184677124 0.72579115629196167
0.77703756093978882 0.78936821222305298 0.732718825340271
0.7762640118598938 0.78977155685424805 0.73408496379852295
0.78611820936203003 0.79861783981323242 0.74181818962097168
0.81695699691772461 0.82646399736404419 0.76483726501464844
0.60018390417098999 0.62015223503112793 0.59865272045135498
0.61398029327392578 0.62884402275085449 0.60861623287200928
0.66073387861251831 0.6725001335144043 0.643288254737854
0.67551100254058838 0.68993610143661499 0.65357321500778198
0.74060255289077759 0.75544214248657227 0.70563971996307373
0.62182557582855225 0.63712698221206665 0.61409240961074829
0.63451999425888062 0.64808493852615356 0.62315165996551514
0.66810578107833862 0.68239039182662964 0.64882105588912964
0.69357883930206299 0.71016055345535278 0.66880267858505249
0.74575096368789673 0.76039677858352661 0.7108803391456604
0.63059383630752563 0.64748108386993408 0.62021738290786743
0.64511489868164062 0.66000986099243164 0.63050556182861328
0.68222713470458984 0.69894611835479736 0.66065829992294312
0.70434874296188354 0.72255182266235352 0.67911303043365479
0.76220846176147461 0.77654337882995605 0.7245795726776123
0.67901265621185303 0.69628453254699707 0.65793830156326294
0.68983471393585205 0.70384508371353149 0.66547197103500366
0.72288042306900024 0.73774141073226929 0.69345152378082275
0.7471194863319397 0.76244461536407471 0.71306377649307251
0.78781324625015259 0.80045950412750244 0.74454015493392944
0.77914577722549438 0.79120820760726929 0.73508495092391968
0.78846204280853271 0.79858380556106567 0.74228775501251221
0.79763561487197876 0.80765241384506226 0.75111240148544312
0.80455517768859863 0.81488502025604248 0.75703829526901245
0.82429492473602295 0.83293896913528442 0.77182859182357788
0.78808116912841797 0.79981809854507446 0.745441734790802
0.79199773073196411 0.80001884698867798 0.74664044380187988
0.80841708183288574 0.81540274620056152 0.75773447751998901
0.81987327337265015 0.82817894220352173 0.7663530707359314
0.81700694561004639 0.8258398175239563 0.76531970500946045
0.80321896076202393 0.81276750564575195 0.75460076332092285
0.80407387018203735 0.81162703037261963 0.75321656465530396
0.80970871448516846 0.81783866882324219 0.75802350044250488
0.81236201524734497 0.82171189785003662 0.76070261001586914
0.81249874830245972 0.82097697257995605 0.76229453086853027
0.80702346563339233 0.81749194860458374 0.75606518983840942
0.80512791872024536 0.81439948081970215 0.75324767827987671
0.81091701984405518 0.82048487663269043 0.75888228416442871
0.81312817335128784 0.82350784540176392 0.7619398832321167
0.82128369808197021 0.82958817481994629 0.76922208070755005
0.79997271299362183 0.81168138980865479 0.75107687711715698
0.80703067779541016 0.81568640470504761 0.75530159473419189
0.81087362766265869 0.81922000646591187 0.75992095470428467
0.82195472717285156 0.83082813024520874 0.7697218656539917
0.83672887086868286 0.84416157007217407 0.78159850835800171
0.82055401802062988 0.82932400703430176 0.76875603199005127
0.82400023937225342 0.82905369997024536 0.76971763372421265
0.83001077175140381 0.83455270528793335 0.7751467227935791
0.83596962690353394 0.84149646759033203 0.78068739175796509
0.84113907814025879 0.84654641151428223 0.78503894805908203
