luts/instant_consumer/polaroid_px-70_cold_-.cube
# Created by: G'MIC (https://gmic.eu)
TITLE "polaroid_px-70_cold_-"
# LUT size
LUT_3D_SIZE 5
# Data domain
DOMAIN_MIN 0.0 0.0 0.0
DOMAIN_MAX 1.0 1.0 1.0
# LUT data points
0 0.11379973590373993 0.1851184219121933
0.069635070860385895 0.13189052045345306 0.19423817098140717
0.44006267189979553 0.18247802555561066 0.22052280604839325
0.82342320680618286 0.32629719376564026 0.23390558362007141
0.9969819188117981 0.5284079909324646 0.27563172578811646
0 0.25165227055549622 0.22218438982963562
0.055257461965084076 0.26071324944496155 0.21741904318332672
0.47104290127754211 0.29834184050559998 0.2171684205532074
0.82272374629974365 0.42986372113227844 0.22183023393154144
0.99199861288070679 0.58682835102081299 0.27123284339904785
0 0.5474931001663208 0.25669771432876587
0.0095395408570766449 0.55076050758361816 0.25428053736686707
0.50637900829315186 0.58015573024749756 0.23398187756538391
0.81351429224014282 0.62878203392028809 0.208181232213974
0.9779389500617981 0.67584741115570068 0.23440322279930115
0.17378218472003937 0.81204026937484741 0.31949087977409363
0.32970520853996277 0.80381113290786743 0.32625141739845276
0.5730212926864624 0.80607438087463379 0.32440713047981262
0.8009037971496582 0.81349021196365356 0.30960941314697266
0.95446759462356567 0.82531845569610596 0.32799023389816284
0.70101821422576904 0.9364311695098877 0.50291186571121216
0.71365034580230713 0.93267333507537842 0.50331985950469971
0.77916240692138672 0.93299108743667603 0.51661044359207153
0.86248499155044556 0.93639135360717773 0.51819783449172974
0.95091050863265991 0.94336259365081787 0.5296822190284729
0 0.13789324462413788 0.26119592785835266
0.043980512768030167 0.17310921847820282 0.26426085829734802
0.45181280374526978 0.18933208286762238 0.29801121354103088
0.84658437967300415 0.3626093864440918 0.34219449758529663
0.99116158485412598 0.58727109432220459 0.39445620775222778
0 0.27502554655075073 0.29167479276657104
0.12065492570400238 0.28704619407653809 0.29869285225868225
0.51263105869293213 0.3494991660118103 0.31704652309417725
0.84099370241165161 0.48310968279838562 0.33819937705993652
0.98785936832427979 0.63220971822738647 0.38697424530982971
0.0099361641332507133 0.56719756126403809 0.33175069093704224
0.15725377202033997 0.57041621208190918 0.32577389478683472
0.54881918430328369 0.59318095445632935 0.3192385733127594
0.82434511184692383 0.63161766529083252 0.3086390495300293
0.9765019416809082 0.696541428565979 0.34615162014961243
0.3201756477355957 0.81323480606079102 0.38004311919212341
0.41859626770019531 0.80415862798690796 0.38710588216781616
0.60595577955245972 0.81131559610366821 0.39330798387527466
0.8129839301109314 0.81898641586303711 0.38503456115722656
0.95713591575622559 0.82677572965621948 0.39424771070480347
0.71831846237182617 0.93390554189682007 0.52218461036682129
0.73922944068908691 0.93274509906768799 0.52703374624252319
0.79412376880645752 0.93336504697799683 0.534900963306427
0.86686831712722778 0.93689459562301636 0.53626048564910889
0.95085883140563965 0.94399291276931763 0.54872506856918335
0.012024239636957645 0.20925311744213104 0.41597828269004822
0.27945730090141296 0.26033517718315125 0.42077839374542236
0.53229475021362305 0.36958631873130798 0.42795652151107788
0.82518351078033447 0.37056249380111694 0.46781125664710999
0.9912714958190918 0.57070839405059814 0.49868819117546082
0.0052885017357766628 0.34636545181274414 0.43456503748893738
0.29009944200515747 0.36963334679603577 0.43924605846405029
0.57444161176681519 0.47124969959259033 0.44705033302307129
0.83713436126708984 0.498310387134552 0.4780573844909668
0.98825830221176147 0.66534233093261719 0.51018017530441284
0.039297755807638168 0.58689612150192261 0.44571924209594727
0.31855639815330505 0.59465312957763672 0.45221585035324097
0.61483645439147949 0.62498635053634644 0.46427431702613831
0.83864665031433105 0.69306260347366333 0.48467794060707092
0.97048056125640869 0.76989507675170898 0.51328659057617188
0.50610136985778809 0.81488335132598877 0.48776927590370178
0.569996178150177 0.81464314460754395 0.49152696132659912
0.68339961767196655 0.81820815801620483 0.49316218495368958
0.82636886835098267 0.82372218370437622 0.49115505814552307
0.95834201574325562 0.82949012517929077 0.49126225709915161
0.76270097494125366 0.93332880735397339 0.56149137020111084
0.77595800161361694 0.93119925260543823 0.56202751398086548
0.81692564487457275 0.9355156421661377 0.56923979520797729
0.88325369358062744 0.94031566381454468 0.57778090238571167
0.95855820178985596 0.94615042209625244 0.58227348327636719
0.41414651274681091 0.36328741908073425 0.59382122755050659
0.56670427322387695 0.41451284289360046 0.59362655878067017
0.75993955135345459 0.57451862096786499 0.58491992950439453
0.86365824937820435 0.6842496395111084 0.5803673267364502
0.96500575542449951 0.68112999200820923 0.58867788314819336
0.38941603899002075 0.4731408953666687 0.59502220153808594
0.55205434560775757 0.51279109716415405 0.59303611516952515
0.76423013210296631 0.64430528879165649 0.5899011492729187
0.8661806583404541 0.73106390237808228 0.58485692739486694
0.9618116021156311 0.7307705283164978 0.59354656934738159
0.2269531637430191 0.65412384271621704 0.57328081130981445
0.42553788423538208 0.65753334760665894 0.57531106472015381
0.72734940052032471 0.71618372201919556 0.58519476652145386
0.8645818829536438 0.79245907068252563 0.58788156509399414
0.96079403162002563 0.79663932323455811 0.59955054521560669
0.51474595069885254 0.81843107938766479 0.57296288013458252
0.57616698741912842 0.81791192293167114 0.5715019702911377
0.71459823846817017 0.82082438468933105 0.58207672834396362
0.85804170370101929 0.84433406591415405 0.5890381932258606
0.96333020925521851 0.87081760168075562 0.60518413782119751
0.77514690160751343 0.93666976690292358 0.61283290386199951
0.79190492630004883 0.93363893032073975 0.61122351884841919
0.8434949517250061 0.93558287620544434 0.62436872720718384
0.90489286184310913 0.9403948187828064 0.63877213001251221
0.96424448490142822 0.94517624378204346 0.64828169345855713
0.73963868618011475 0.68112266063690186 0.70675349235534668
0.78284204006195068 0.70835793018341064 0.70254546403884888
0.86705881357192993 0.7752150297164917 0.69553941488265991
0.93324935436248779 0.84808164834976196 0.68575644493103027
0.9674067497253418 0.86724841594696045 0.68902289867401123
0.74196189641952515 0.72575652599334717 0.70673561096191406
0.78488010168075562 0.74555844068527222 0.70137089490890503
0.86588281393051147 0.79979348182678223 0.69691616296768188
0.93343335390090942 0.86037915945053101 0.69105255603790283
0.965675950050354 0.8786194920539856 0.69442415237426758
0.69303232431411743 0.78179353475570679 0.69874149560928345
0.74272465705871582 0.7893139123916626 0.69654351472854614
0.84438908100128174 0.82290363311767578 0.69936096668243408
0.9265817403793335 0.87400174140930176 0.69786328077316284
0.96674168109893799 0.90051901340484619 0.7071913480758667
0.62494134902954102 0.85583394765853882 0.68951863050460815
0.66028386354446411 0.85254484415054321 0.68815380334854126
0.75118166208267212 0.85501384735107422 0.6914365291595459
0.90591323375701904 0.88915354013442993 0.70744264125823975
0.96842789649963379 0.9283454418182373 0.7248532772064209
0.78577291965484619 0.94734102487564087 0.72138088941574097
0.80309242010116577 0.94729399681091309 0.72020190954208374
0.84366345405578613 0.94872856140136719 0.72710436582565308
0.90334397554397583 0.94628959894180298 0.73192447423934937
0.96664690971374512 0.95875614881515503 0.75834804773330688
