luts/instant_consumer/polaroid_time_zero_expired_cold_---.cube
# Created by: G'MIC (https://gmic.eu)
TITLE "polaroid_time_zero_expired_cold_---"
# LUT size
LUT_3D_SIZE 13
# Data domain
DOMAIN_MIN 0.0 0.0 0.0
DOMAIN_MAX 1.0 1.0 1.0
# LUT data points
0.12733322381973267 0.022905148565769196 0.033384568989276886
0.13248553872108459 0.020349361002445221 0.031757984310388565
0.15184164047241211 0.018059270456433296 0.031564481556415558
0.20475210249423981 0.013784805312752724 0.031894505023956299
0.27434661984443665 0.0061192531138658524 0.028799707069993019
0.35469761490821838 0.0010466482490301132 0.027160240337252617
0.44900479912757874 0.0021843255963176489 0.028832679614424706
0.53766685724258423 0.0020882550161331892 0.031406626105308533
0.62142616510391235 0.001890085288323462 0.03817049041390419
0.69744706153869629 0.00093190808547660708 0.046544019132852554
0.77085697650909424 0.0023803561925888062 0.061756134033203125
0.83813846111297607 0.0047124228440225124 0.085541248321533203
0.90505462884902954 0.063279427587985992 0.11784135550260544
0.13070864975452423 0.035058505833148956 0.029814627021551132
0.13735993206501007 0.031301580369472504 0.028568431735038757
0.16334289312362671 0.032419405877590179 0.027731996029615402
0.21165388822555542 0.031582102179527283 0.026168150827288628
0.28347611427307129 0.021246651187539101 0.024046653881669044
0.36615905165672302 0.0099028041586279869 0.022543409839272499
0.45779868960380554 0.0069771111011505127 0.024235190823674202
0.54776346683502197 0.0046574161387979984 0.023866930976510048
0.6302037239074707 0.0047626420855522156 0.027983527630567551
0.70306122303009033 0.0027864943258464336 0.038275700062513351
0.77311557531356812 0.0050950441509485245 0.05547747015953064
0.84197813272476196 0.033092498779296875 0.081874355673789978
0.90765464305877686 0.1269533783197403 0.11765232682228088
0.14436797797679901 0.082118630409240723 0.020272886380553246
0.15985292196273804 0.085819348692893982 0.017671696841716766
0.18547098338603973 0.08316415548324585 0.020706774666905403
0.23817473649978638 0.088360339403152466 0.018731839954853058
0.30150574445724487 0.086747340857982635 0.012679634615778923
0.38305622339248657 0.078117460012435913 0.0096653960645198822
0.47129487991333008 0.063871167600154877 0.013843416236341
0.55737870931625366 0.05071219801902771 0.012572913430631161
0.63605070114135742 0.045792747288942337 0.013347282074391842
0.7091294527053833 0.048666935414075851 0.023192865774035454
0.77808940410614014 0.080115377902984619 0.039755307137966156
0.84503036737442017 0.13766972720623016 0.070969633758068085
0.90949386358261108 0.2092202752828598 0.11242964863777161
0.15988489985466003 0.16958548128604889 0.005468031857162714
0.18159396946430206 0.17149308323860168 0.0038398592732846737
0.22041584551334381 0.17674140632152557 0.010372835211455822
0.27078863978385925 0.17952781915664673 0.01302019041031599
0.33298471570014954 0.18234501779079437 0.0051162121817469597
0.41139668226242065 0.18521155416965485 0.0025674109347164631
0.49267286062240601 0.18207132816314697 0.0043165618553757668
0.57426631450653076 0.17676258087158203 0.0048725800588726997
0.64424800872802734 0.17598098516464233 0.0064622615464031696
0.71356672048568726 0.18250115215778351 0.0098131513223052025
0.78202486038208008 0.2079024463891983 0.017127333208918571
0.84704649448394775 0.2442629337310791 0.046650949865579605
0.91007649898529053 0.2888031005859375 0.099372491240501404
0.16798156499862671 0.28197810053825378 0.00014857872156426311
0.19821992516517639 0.28071185946464539 0.0013712116051465273
0.24469934403896332 0.2810606062412262 0.0052350214682519436
0.30275261402130127 0.28592544794082642 0.0068911234848201275
0.37082579731941223 0.29098907113075256 0.0040293973870575428
0.44508758187294006 0.29476886987686157 0.0027841005939990282
0.52077877521514893 0.29402664303779602 0.0039258771575987339
0.59382587671279907 0.29303792119026184 0.0051859091036021709
0.65631216764450073 0.29302924871444702 0.0064005982130765915
0.71733951568603516 0.29599061608314514 0.0051129958592355251
0.78329509496688843 0.31139299273490906 0.0047325133346021175
0.84662938117980957 0.33477902412414551 0.021098177880048752
0.9054872989654541 0.36792740225791931 0.076244369149208069
0.1811734139919281 0.38746166229248047 0
0.21609213948249817 0.3889506459236145 0.00038871017750352621
0.26776757836341858 0.38851156830787659 0.0034352021757513285
0.33054092526435852 0.38894250988960266 0.0040121939964592457
0.4004112184047699 0.39355659484863281 0.0039143878966569901
0.47251620888710022 0.39939031004905701 0.0043650008738040924
0.54571950435638428 0.40165284276008606 0.0039880340918898582
0.61213070154190063 0.40107327699661255 0.0032711850944906473
0.67142689228057861 0.39981108903884888 0.0037660486996173859
0.72645688056945801 0.39882594347000122 0.0038616405799984932
0.78450316190719604 0.40619820356369019 0.0036355562042444944
0.84661245346069336 0.42097240686416626 0.0064922110177576542
0.90682429075241089 0.44361039996147156 0.048405814915895462
0.20961669087409973 0.47993695735931396 0
0.24066098034381866 0.48585540056228638 0
0.29344546794891357 0.48750028014183044 0.00013212316844146699
0.35385322570800781 0.48633226752281189 0.0012178907636553049
0.42315620183944702 0.49049755930900574 0.0026061113458126783
0.49569946527481079 0.49655672907829285 0.0049858842976391315
0.56482350826263428 0.49764007329940796 0.0053916480392217636
0.63052463531494141 0.49689009785652161 0.0022562213707715273
0.6900782585144043 0.49791103601455688 0.006249790545552969
0.74370437860488892 0.49604126811027527 0.0057137580588459969
0.79581016302108765 0.49761834740638733 0.0065684448927640915
0.85118705034255981 0.50600403547286987 0.0050438973121345043
0.90852075815200806 0.51920336484909058 0.023834707215428352
0.26589074730873108 0.56203740835189819 0
0.28870502114295959 0.56489676237106323 0
0.32894232869148254 0.56642848253250122 0
0.38191154599189758 0.56882345676422119 0
0.44512203335762024 0.57173895835876465 0.00024517285055480897
0.5160517692565918 0.57506531476974487 0.0032288345973938704
0.58424991369247437 0.57645058631896973 0.0030532388482242823
0.64931696653366089 0.57824897766113281 0.0013933219015598297
0.70889472961425781 0.58309131860733032 0.02499757707118988
0.76328831911087036 0.58551621437072754 0.068206682801246643
0.81298553943634033 0.58623141050338745 0.067095860838890076
0.86327004432678223 0.58712905645370483 0.06031818687915802
0.91345220804214478 0.59429138898849487 0.070977933704853058
0.32524523138999939 0.63604635000228882 0
0.34480577707290649 0.63525247573852539 0
0.37041524052619934 0.63564687967300415 0
0.41874101758003235 0.63685232400894165 0
0.47782880067825317 0.63911432027816772 0
0.54219889640808105 0.64141005277633667 0.00089763564756140113
0.60822480916976929 0.64361494779586792 0.002859706524759531
0.66933327913284302 0.64717447757720947 0.0037018121220171452
0.726970374584198 0.65064454078674316 0.0078961839899420738
0.78105783462524414 0.65738403797149658 0.10478442162275314
0.83022928237915039 0.66188305616378784 0.181597501039505
0.87733572721481323 0.66097015142440796 0.18714983761310577
0.92390841245651245 0.66536164283752441 0.19639645516872406
0.38401538133621216 0.70087218284606934 0
0.40256968140602112 0.6996617317199707 0
0.42608839273452759 0.70032989978790283 0
0.46229949593544006 0.70148241519927979 0
0.51026946306228638 0.70179843902587891 0
0.56914138793945312 0.70347446203231812 1.2251910447957925e-05
0.63060784339904785 0.706168532371521 0.0020308699458837509
0.6914716362953186 0.70956099033355713 0.003429667092859745
0.74552422761917114 0.71274757385253906 0.0047617442905902863
0.79744511842727661 0.71725666522979736 0.071987614035606384
0.84652113914489746 0.72392106056213379 0.21162065863609314
0.89070433378219604 0.72860288619995117 0.28629815578460693
0.93410861492156982 0.73318737745285034 0.30534368753433228
0.45089548826217651 0.76410049200057983 0
0.46111756563186646 0.76446950435638428 5.1341336074983701e-05
0.48851689696311951 0.7656327486038208 3.9672850107308477e-05
0.521614670753479 0.76654541492462158 0
0.55500161647796631 0.76547551155090332 0
0.59818953275680542 0.76550734043121338 0
0.65473049879074097 0.76679235696792603 0.00060773361474275589
0.71335119009017944 0.76994717121124268 0.0032096863724291325
0.76806408166885376 0.77347433567047119 0.0034081402700394392
0.81881135702133179 0.77582395076751709 0.052092593163251877
0.86495190858840942 0.78057265281677246 0.20005987584590912
0.90591627359390259 0.78696548938751221 0.31440192461013794
0.94456231594085693 0.79188394546508789 0.39397314190864563
0.52710473537445068 0.82887160778045654 0
0.53083157539367676 0.82769852876663208 0
0.55181318521499634 0.82996839284896851 0
0.58249753713607788 0.83268928527832031 0
0.61193400621414185 0.83074307441711426 0
0.64390319585800171 0.828197181224823 0
0.691489577293396 0.83021974563598633 0.00046323888818733394
0.74625247716903687 0.8332054615020752 0.0032594718504697084
0.79705983400344849 0.8335731029510498 0.0041979174129664898
0.84597659111022949 0.83562535047531128 0.057407349348068237
0.88866555690765381 0.83867603540420532 0.20990505814552307
0.92504775524139404 0.84175020456314087 0.32222205400466919
0.96003150939941406 0.84576338529586792 0.41906878352165222
0.60048770904541016 0.89375096559524536 0
0.60396403074264526 0.88979005813598633 0
0.61718422174453735 0.88963907957077026 0
0.64135342836380005 0.89547711610794067 0
0.6680482029914856 0.89299142360687256 0
0.69694572687149048 0.8892485499382019 0
0.73691457509994507 0.8925706148147583 0
0.78551596403121948 0.89897668361663818 0.0016391080571338534
0.8314979076385498 0.89679253101348877 0.0060639027506113052
0.87867748737335205 0.89800882339477539 0.080114670097827911
0.91730260848999023 0.8976406455039978 0.2403569221496582
0.95248419046401978 0.89906519651412964 0.35917368531227112
0.9798770546913147 0.90098309516906738 0.44990628957748413
0.12752163410186768 0.019651809707283974 0.039320986717939377
0.13543452322483063 0.018230197951197624 0.041935309767723083
0.15405960381031036 0.0153159499168396 0.04381706565618515
0.20422647893428802 0.0077986023388803005 0.050272610038518906
0.2800176739692688 0.0027796127833425999 0.054723598062992096
0.36533078551292419 0.002194632776081562 0.057875044643878937
0.4592253565788269 0.0016376570565626025 0.063045933842658997
0.54659402370452881 0.0013266918249428272 0.068035364151000977
0.62572789192199707 0.0020322462078183889 0.076191887259483337
0.69799071550369263 0.0016991110751405358 0.086971744894981384
0.7700728178024292 0.0028247309383004904 0.10464164614677429
0.83954763412475586 0.010977067984640598 0.12362197041511536
0.90304791927337646 0.091349489986896515 0.15214206278324127
0.13100817799568176 0.030525462701916695 0.040227402001619339
0.14116007089614868 0.031773421913385391 0.041328012943267822
0.16853690147399902 0.03380521759390831 0.042335227131843567
0.22286050021648407 0.029436627402901649 0.04566255584359169
0.2935212254524231 0.013436096720397472 0.047220103442668915
0.37803798913955688 0.0086232200264930725 0.049899455159902573
0.46761098504066467 0.0068415622226893902 0.055208213627338409
0.55327397584915161 0.0043385974131524563 0.06024710088968277
0.63128566741943359 0.0058276904746890068 0.069540224969387054
0.70230966806411743 0.0045440974645316601 0.08054797351360321
0.77456092834472656 0.011403461918234825 0.096605055034160614
0.8432428240776062 0.058011926710605621 0.11911359429359436
0.90676361322402954 0.15200737118721008 0.15011434257030487
0.14336642622947693 0.083939388394355774 0.038721509277820587
0.15968912839889526 0.087441116571426392 0.036557786166667938
0.19109919667243958 0.086038090288639069 0.037036266177892685
0.24280650913715363 0.084050737321376801 0.038448918610811234
0.31260305643081665 0.082601092755794525 0.03771025687456131
0.39441072940826416 0.073510743677616119 0.035486903041601181
0.4789617657661438 0.06036396324634552 0.041112862527370453
0.56192141771316528 0.052304930984973907 0.045996692031621933
0.63688760995864868 0.053419433534145355 0.05420328676700592
0.70906472206115723 0.065335281193256378 0.068105898797512054
0.77933788299560547 0.10204815119504929 0.086162164807319641
0.84611934423446655 0.15763713419437408 0.11239399760961533
0.90593791007995605 0.22137276828289032 0.14736506342887878
0.15429194271564484 0.17056767642498016 0.020913606509566307
0.17570863664150238 0.17449770867824554 0.016322340816259384
0.21753954887390137 0.17952865362167358 0.017856746912002563
0.27142247557640076 0.17755690217018127 0.028241401538252831
0.34265783429145813 0.18660442531108856 0.025684820488095284
0.41990756988525391 0.188200443983078 0.020620008930563927
0.49587461352348328 0.18488550186157227 0.022866910323500633
0.57412075996398926 0.18200716376304626 0.024369781836867332
0.64528703689575195 0.1825195848941803 0.030220780521631241
0.71388953924179077 0.19173771142959595 0.044307857751846313
0.78157562017440796 0.21819141507148743 0.065780535340309143
0.84623175859451294 0.2582307755947113 0.093596242368221283
0.9087672233581543 0.29869499802589417 0.13775856792926788
0.16507308185100555 0.27948105335235596 0.0025769700296223164
0.19489707052707672 0.28347891569137573 0.0040360991843044758
0.24309100210666656 0.28701171278953552 0.0061587314121425152
0.30688667297363281 0.29078271985054016 0.0084730107337236404
0.37767383456230164 0.29528915882110596 0.0090741626918315887
0.45002985000610352 0.29860112071037292 0.015764856711030006
0.52055960893630981 0.2975650429725647 0.015313436277210712
0.5900493860244751 0.29633349180221558 0.0088094072416424751
0.65490078926086426 0.29609549045562744 0.012963224202394485
0.71769100427627563 0.30110204219818115 0.019239239394664764
0.78319787979125977 0.31737259030342102 0.03527463972568512
0.84692132472991943 0.34481027722358704 0.06914018839597702
0.90837371349334717 0.37333989143371582 0.12265186756849289
0.1839790940284729 0.38973724842071533 6.4326268329750746e-05
0.21367807686328888 0.39276081323623657 0.00089616962941363454
0.26644399762153625 0.39263862371444702 0.0040556066669523716
0.33304908871650696 0.39443525671958923 0.0042923721484839916
0.4067872166633606 0.399282306432724 0.0037554122973233461
0.47821080684661865 0.4050193727016449 0.006741497665643692
0.54670363664627075 0.40617412328720093 0.013415737077593803
0.61003094911575317 0.40315324068069458 0.015711197629570961
0.66941088438034058 0.40030708909034729 0.010259171947836876
0.72638583183288574 0.40051540732383728 0.0092028453946113586
0.78628033399581909 0.40974140167236328 0.0116322236135602
0.84718614816665649 0.42614880204200745 0.038064096122980118
0.90694707632064819 0.44746324419975281 0.098527200520038605
0.21081949770450592 0.48177069425582886 0
0.24049940705299377 0.48725321888923645 0.00015649234410375357
0.28888702392578125 0.48944947123527527 0.0011426738929003477
0.35615813732147217 0.49050226807594299 0.0016373129328712821
0.42986464500427246 0.49354308843612671 0.0014653822872787714
0.50011169910430908 0.49938982725143433 0.0032642139121890068
0.56774336099624634 0.49971157312393188 0.0059654084034264088
0.6318666934967041 0.50044041872024536 0.026508720591664314
0.68919748067855835 0.50031948089599609 0.0415496826171875
0.74311202764511108 0.49779507517814636 0.029657162725925446
0.79526346921920776 0.49933671951293945 0.023901278153061867
0.85057723522186279 0.50702834129333496 0.022697193548083305
0.90821987390518188 0.52120113372802734 0.072303071618080139
0.26171013712882996 0.56245511770248413 7.915122841950506e-05
0.28449884057044983 0.5657048225402832 0.0002415675699012354
0.32748579978942871 0.56698405742645264 0.00095820706337690353
0.3846222460269928 0.56994259357452393 0.001209259033203125
0.45064014196395874 0.57277041673660278 0.00085302616935223341
0.51978123188018799 0.57494795322418213 0.0033771141897886992
0.58656537532806396 0.57662409543991089 0.0043201372027397156
0.65138667821884155 0.58008491992950439 0.0098853763192892075
0.71051526069641113 0.58499282598495483 0.072081968188285828
0.76308625936508179 0.58649581670761108 0.11993372440338135
0.81279861927032471 0.58632224798202515 0.11101111769676208
0.86287355422973633 0.58705836534500122 0.1000131219625473
0.91267311573028564 0.59262275695800781 0.11666596680879593
0.32099160552024841 0.63438564538955688 0.00036359301884658635
0.34611734747886658 0.63491159677505493 0.0014096727827563882
0.37586131691932678 0.63409554958343506 0.0024020175915211439
0.42203590273857117 0.63666105270385742 0.0014967526076361537
0.4794260561466217 0.64069294929504395 3.7159639759920537e-05
0.54375761747360229 0.64161145687103271 0.002205089433118701
0.60710322856903076 0.64386695623397827 0.0036544499453157187
0.6694524884223938 0.6490178108215332 0.0057872994802892208
0.72693341970443726 0.65201872587203979 0.03418305516242981
0.78081023693084717 0.65872418880462646 0.15215082466602325
0.83080571889877319 0.66312921047210693 0.21397382020950317
0.87705332040786743 0.66140478849411011 0.21926379203796387
0.92109012603759766 0.66183483600616455 0.22411571443080902
0.38347411155700684 0.69992160797119141 0.00076961144804954529
0.40519115328788757 0.69972819089889526 0.0021126540377736092
0.42939907312393188 0.69980424642562866 0.0033579508308321238
0.46542346477508545 0.70114350318908691 0.00042968449997715652
0.51173955202102661 0.70261412858963013 0
0.57011014223098755 0.70451623201370239 0.00021956200362183154
0.62981098890304565 0.70639413595199585 0.0014134126249700785
0.68898946046829224 0.70932990312576294 0.0025833877734839916
0.74508750438690186 0.71305429935455322 0.014435547403991222
0.79758089780807495 0.71878409385681152 0.1192595511674881
0.84541922807693481 0.72516882419586182 0.24272023141384125
0.88968175649642944 0.72669875621795654 0.30887660384178162
0.9316592812538147 0.72910189628601074 0.32718199491500854
0.45228844881057739 0.76504677534103394 3.9493338590546045e-06
0.46496903896331787 0.76352995634078979 0.00051677925512194633
0.48990434408187866 0.76552152633666992 0.003537286538630724
0.52190303802490234 0.76694977283477783 0.0010508818086236715
0.55509090423583984 0.76463943719863892 1.3164445817892556e-06
0.60037672519683838 0.76576966047286987 0
0.65635079145431519 0.76702642440795898 2.7809890525531955e-05
0.71317100524902344 0.76917064189910889 0.0014070398174226284
0.76717090606689453 0.77236413955688477 0.007369067519903183
0.81874459981918335 0.77632087469100952 0.09981207549571991
0.8640364408493042 0.78137707710266113 0.22774417698383331
0.90464556217193604 0.78715986013412476 0.33550667762756348
0.94450622797012329 0.79294425249099731 0.41151472926139832
0.52767360210418701 0.83014321327209473 0.00085488113109022379
0.53450900316238403 0.82807439565658569 0.0026333527639508247
0.55359858274459839 0.83027178049087524 0.002213392173871398
0.58214449882507324 0.8322412371635437 0.0009400311391800642
0.61213624477386475 0.83023601770401001 3.2911113521549851e-05
0.64800381660461426 0.83071607351303101 0
0.69788545370101929 0.83199846744537354 0
0.74686884880065918 0.83286744356155396 0.0010216057999059558
0.79633092880249023 0.83423441648483276 0.0047589470632374287
0.8450545072555542 0.83628159761428833 0.093835316598415375
0.88705694675445557 0.83954787254333496 0.23284508287906647
0.92486047744750977 0.84271985292434692 0.34238886833190918
0.96006220579147339 0.84636098146438599 0.43406489491462708
0.60159206390380859 0.89449948072433472 0.001465531880967319
0.60693532228469849 0.89155864715576172 0.002409317996352911
0.61848580837249756 0.88997304439544678 0.00046816057874821126
0.64068645238876343 0.89479702711105347 0
0.66875988245010376 0.89475005865097046 0
0.70054155588150024 0.89569234848022461 0
0.74128681421279907 0.89661741256713867 0
0.78427523374557495 0.89690184593200684 0.00027452356880530715
0.83135586977005005 0.89763844013214111 0.0051157781854271889
0.87787455320358276 0.89886963367462158 0.11350272595882416
0.91820305585861206 0.89839249849319458 0.26766207814216614
0.95210504531860352 0.89955329895019531 0.37563440203666687
0.9794887900352478 0.90180689096450806 0.46196606755256653
0.14225712418556213 0.016181826591491699 0.075190357863903046
0.15039785206317902 0.014014015905559063 0.078372463583946228
0.16777606308460236 0.013524642214179039 0.079644806683063507
0.20899710059165955 0.0070094838738441467 0.086559906601905823
0.28583258390426636 0.0021493949461728334 0.10338469594717026
0.37415996193885803 0.001902411924675107 0.11347147822380066
0.46665969491004944 0.00035300161107443273 0.11952700465917587
0.5526198148727417 0.0024605544749647379 0.12546195089817047
0.63109672069549561 0.0035670113284140825 0.13185460865497589
0.70330679416656494 0.0034201827365905046 0.142847940325737
0.77366656064987183 0.0037972843274474144 0.15679505467414856
0.84209048748016357 0.0379665307700634 0.17313314974308014
0.90567493438720703 0.14089661836624146 0.20136687159538269
0.14329122006893158 0.02900727279484272 0.077918365597724915
0.15731486678123474 0.032854821532964706 0.080714374780654907
0.18204750120639801 0.03614870086312294 0.084693059325218201
0.22877801954746246 0.028478285297751427 0.092217676341533661
0.30159136652946472 0.013613487593829632 0.10320636630058289
0.38758084177970886 0.0071377772837877274 0.10617870092391968
0.47736772894859314 0.0055445502512156963 0.1159307137131691
0.56027328968048096 0.0075114532373845577 0.12030012905597687
0.63676267862319946 0.0068294601514935493 0.12903791666030884
0.70788609981536865 0.011782178655266762 0.13883823156356812
0.77778512239456177 0.034225434064865112 0.15242388844490051
0.84488821029663086 0.10226476192474365 0.17263056337833405
0.90570801496505737 0.18277342617511749 0.20027230679988861
0.15128029882907867 0.076473236083984375 0.078632041811943054
0.16858062148094177 0.0819382444024086 0.079658344388008118
0.20136919617652893 0.089710026979446411 0.081171087920665741
0.25298947095870972 0.092211738228797913 0.088548295199871063
0.32739260792732239 0.088140211999416351 0.096746571362018585
0.40874800086021423 0.080484800040721893 0.097261033952236176
0.49248331785202026 0.073181644082069397 0.103812076151371
0.57073181867599487 0.069581322371959686 0.11006145179271698
0.64248132705688477 0.076796770095825195 0.11943529546260834
0.7122194766998291 0.098143406212329865 0.13368292152881622
0.7808387279510498 0.13661287724971771 0.14910170435905457
0.84514486789703369 0.1853393018245697 0.17089375853538513
0.90536141395568848 0.24003618955612183 0.1971413791179657
0.15785151720046997 0.16309863328933716 0.068817958235740662
0.18124507367610931 0.17212094366550446 0.07068450003862381
0.22811931371688843 0.18522389233112335 0.067253664135932922
0.28454828262329102 0.18691284954547882 0.078313790261745453
0.35639262199401855 0.19133077561855316 0.090532310307025909
0.43263036012649536 0.19463597238063812 0.087965808808803558
0.50868088006973267 0.19366191327571869 0.087974116206169128
0.58270716667175293 0.1965690553188324 0.094352170825004578
0.64973205327987671 0.20100852847099304 0.10612773150205612
0.71649003028869629 0.21342486143112183 0.1203361377120018
0.78194653987884521 0.23474253714084625 0.13801105320453644
0.84572994709014893 0.27022317051887512 0.15963202714920044
0.90822446346282959 0.30820959806442261 0.19238254427909851
0.16447210311889648 0.27989393472671509 0.049002926796674728
0.19627015292644501 0.28669983148574829 0.047938253730535507
0.24706454575061798 0.29395845532417297 0.038238778710365295
0.31197583675384521 0.29920962452888489 0.035857107490301132
0.38500803709030151 0.30141288042068481 0.063200406730175018
0.45760616660118103 0.30487295985221863 0.085111670196056366
0.52689772844314575 0.30452921986579895 0.08200632780790329
0.59187179803848267 0.30465897917747498 0.073718085885047913
0.65579795837402344 0.30589407682418823 0.079935826361179352
0.71946555376052856 0.31152531504631042 0.092712357640266418
0.78465801477432251 0.32583329081535339 0.11630591750144958
0.84703993797302246 0.35219341516494751 0.14536666870117188
