luts/instant_consumer/polaroid_px-680_cold.cube
# Created by: G'MIC (https://gmic.eu)
TITLE "polaroid_px-680_cold"
# LUT size
LUT_3D_SIZE 7
# Data domain
DOMAIN_MIN 0.0 0.0 0.0
DOMAIN_MAX 1.0 1.0 1.0
# LUT data points
0.16615411639213562 0.22521123290061951 0.25098040699958801
0.17369326949119568 0.21732883155345917 0.25071123242378235
0.1904931515455246 0.2117919921875 0.24820394814014435
0.37360534071922302 0.21053832769393921 0.24568866193294525
0.68869239091873169 0.23648829758167267 0.23635204136371613
0.8687589168548584 0.34111300110816956 0.23100098967552185
0.9548649787902832 0.45337224006652832 0.2725147008895874
0.16148911416530609 0.22728022933006287 0.24914148449897766
0.17338745296001434 0.22005528211593628 0.24786631762981415
0.21124699711799622 0.22165317833423615 0.24705882370471954
0.41781178116798401 0.24965797364711761 0.2385173887014389
0.70681673288345337 0.3008267879486084 0.22424700856208801
0.86818677186965942 0.38440981507301331 0.21857792139053345
0.95060569047927856 0.48717281222343445 0.27849826216697693
0.12821957468986511 0.25917845964431763 0.24506902694702148
0.14693847298622131 0.26971724629402161 0.24334679543972015
0.24024727940559387 0.29994070529937744 0.23775149881839752
0.48831474781036377 0.37258210778236389 0.21732413768768311
0.71154028177261353 0.41231581568717957 0.20029707252979279
0.85389578342437744 0.46875333786010742 0.21217454969882965
0.9349745512008667 0.5440635085105896 0.2821052074432373
0.005591418594121933 0.44161629676818848 0.23145470023155212
0.0066223591566085815 0.44683510065078735 0.23031871020793915
0.16808329522609711 0.48131820559501648 0.22439341247081757
0.47083303332328796 0.53304678201675415 0.20970314741134644
0.70535999536514282 0.58552283048629761 0.20108051598072052
0.82687872648239136 0.58209079504013062 0.2216639518737793
0.91403764486312866 0.61126887798309326 0.28374069929122925
0 0.61456161737442017 0.24324573576450348
0.00049284391570836306 0.61113607883453369 0.24719473719596863
0.080276206135749817 0.62699496746063232 0.25434300303459167
0.41911908984184265 0.65051168203353882 0.26418349146842957
0.63910788297653198 0.68721789121627808 0.28615310788154602
0.796028733253479 0.71818369626998901 0.33083736896514893
0.88634723424911499 0.73126041889190674 0.37977230548858643
0.030376898124814034 0.73813974857330322 0.32824888825416565
0.081206180155277252 0.73737925291061401 0.33094578981399536
0.26370406150817871 0.73963701725006104 0.34852802753448486
0.45646429061889648 0.75014007091522217 0.37158489227294922
0.62619823217391968 0.77009564638137817 0.4050934910774231
0.75909429788589478 0.79519885778427124 0.44198092818260193
0.86150097846984863 0.82732510566711426 0.49378189444541931
0.47605964541435242 0.8485596776008606 0.48940390348434448
0.48856952786445618 0.84676629304885864 0.48863667249679565
0.53858786821365356 0.84852015972137451 0.5016857385635376
0.61912345886230469 0.85549873113632202 0.5238988995552063
0.7046433687210083 0.86705094575881958 0.54460453987121582
0.78927302360534668 0.88314783573150635 0.57478165626525879
0.85462099313735962 0.89595943689346313 0.60487091541290283
0.16506296396255493 0.22061155736446381 0.2583974301815033
0.17834058403968811 0.21575272083282471 0.25586751103401184
0.19750517606735229 0.21125638484954834 0.25130414962768555
0.4048440158367157 0.19141937792301178 0.25355014204978943
0.71694695949554443 0.23271328210830688 0.26249271631240845
0.87252265214920044 0.35971984267234802 0.28887453675270081
0.9453614354133606 0.49560219049453735 0.36165067553520203
0.16010990738868713 0.22666779160499573 0.25557622313499451
0.174420565366745 0.2232881635427475 0.25325879454612732
0.22801798582077026 0.22238272428512573 0.25394999980926514
0.46601974964141846 0.2397637665271759 0.25676268339157104
0.72972279787063599 0.30893748998641968 0.26299488544464111
0.87101632356643677 0.41002130508422852 0.29294073581695557
0.94189131259918213 0.52493035793304443 0.36485463380813599
0.11857401579618454 0.27373316884040833 0.2546783983707428
0.14177651703357697 0.28715449571609497 0.25604408979415894
0.26501262187957764 0.31733852624893188 0.25331228971481323
0.51805633306503296 0.37192514538764954 0.24628250300884247
0.72755342721939087 0.41956409811973572 0.24909874796867371
0.85645675659179688 0.48849907517433167 0.28690430521965027
0.92398405075073242 0.56441748142242432 0.35626360774040222
0.0044290279038250446 0.45702311396598816 0.26337394118309021
0.0067143011838197708 0.46957877278327942 0.2607247531414032
0.19707058370113373 0.49844527244567871 0.26181197166442871
0.49133619666099548 0.54304963350296021 0.25914838910102844
0.71178096532821655 0.58289027214050293 0.26924407482147217
0.82932066917419434 0.58353006839752197 0.28803420066833496
0.91030228137969971 0.6323009729385376 0.35499751567840576
0.0022277531679719687 0.62380802631378174 0.28720301389694214
0.0036952148657292128 0.6241646409034729 0.29186809062957764
0.15478093922138214 0.63806009292602539 0.30089202523231506
0.44696372747421265 0.66040539741516113 0.31952828168869019
0.65276610851287842 0.6950002908706665 0.34151679277420044
0.79767227172851562 0.72453504800796509 0.37770789861679077
0.88247299194335938 0.7357826828956604 0.41686046123504639
0.10196923464536667 0.7443346381187439 0.36162355542182922
0.16280826926231384 0.7415427565574646 0.36299940943717957
0.32385310530662537 0.74704939126968384 0.38715344667434692
0.48636788129806519 0.75645536184310913 0.40956458449363708
0.63766372203826904 0.77524352073669434 0.43982163071632385
0.7682570219039917 0.79984217882156372 0.47380968928337097
0.86193972826004028 0.82684838771820068 0.51221901178359985
0.49057000875473022 0.8506321907043457 0.50001531839370728
0.50347220897674561 0.84788376092910767 0.50080424547195435
0.55622333288192749 0.85185801982879639 0.51762610673904419
0.62306100130081177 0.8554578423500061 0.53328758478164673
0.71352803707122803 0.86872774362564087 0.55871033668518066
0.79086410999298096 0.88033038377761841 0.58059173822402954
0.85922205448150635 0.89673906564712524 0.61900466680526733
0.15913893282413483 0.21532590687274933 0.27035638689994812
0.17515736818313599 0.2123822420835495 0.27009868621826172
0.21077732741832733 0.21301500499248505 0.26930621266365051
0.40926074981689453 0.18378959596157074 0.30483761429786682
0.72641891241073608 0.13154236972332001 0.34137839078903198
0.87556052207946777 0.34705445170402527 0.39679688215255737
0.92673605680465698 0.56864607334136963 0.48757737874984741
0.14803095161914825 0.22472235560417175 0.28205189108848572
0.17433491349220276 0.22461698949337006 0.28621581196784973
0.25400042533874512 0.23122623562812805 0.29712939262390137
0.48332417011260986 0.2249314934015274 0.3268316388130188
0.74822676181793213 0.27939057350158691 0.3649236261844635
0.86409997940063477 0.47278577089309692 0.4369911253452301
0.92159509658813477 0.60898494720458984 0.50112563371658325
0.079640738666057587 0.29332420229911804 0.30477696657180786
0.14312444627285004 0.31056290864944458 0.3168540894985199
0.32005909085273743 0.35194218158721924 0.33944302797317505
0.56012791395187378 0.39282289147377014 0.35996022820472717
0.74146163463592529 0.47488099336624146 0.39698761701583862
0.84356629848480225 0.56138163805007935 0.4367220401763916
0.90910494327545166 0.63400810956954956 0.48309636116027832
0.0069726384244859219 0.47783738374710083 0.34368303418159485
0.1358720064163208 0.49815830588340759 0.35230132937431335
0.31564709544181824 0.52101176977157593 0.36321979761123657
0.54712241888046265 0.56650108098983765 0.37921416759490967
0.72234845161437988 0.5862046480178833 0.3906702995300293
0.82457506656646729 0.61620575189590454 0.41439375281333923
0.89850157499313354 0.67725682258605957 0.47118827700614929
0.15622344613075256 0.64386826753616333 0.38769230246543884
0.1809374988079071 0.64400237798690796 0.38062295317649841
0.32345092296600342 0.65000045299530029 0.38788303732872009
0.50909209251403809 0.66888207197189331 0.40987512469291687
0.68751418590545654 0.70426124334335327 0.43995076417922974
0.80347037315368652 0.72008734941482544 0.45673534274101257
0.88077342510223389 0.73777300119400024 0.48180937767028809
0.28957927227020264 0.7460663914680481 0.42718967795372009
0.31071680784225464 0.74320167303085327 0.42365553975105286
0.409616619348526 0.74767827987670898 0.43950918316841125
0.52978086471557617 0.75829011201858521 0.46212583780288696
0.65570247173309326 0.77867257595062256 0.48953929543495178
0.7765992283821106 0.80426979064941406 0.52596807479858398
0.86358857154846191 0.83048254251480103 0.54995983839035034
0.50980138778686523 0.85004496574401855 0.52165967226028442
0.52478265762329102 0.84733027219772339 0.52273368835449219
0.57070589065551758 0.8507118821144104 0.53589391708374023
0.63394218683242798 0.85618257522583008 0.55320894718170166
0.71120882034301758 0.8660997748374939 0.57565176486968994
0.79041546583175659 0.87824440002441406 0.6021227240562439
0.85957252979278564 0.89930844306945801 0.63396543264389038
0.10751902312040329 0.21176470816135406 0.38349923491477966
0.19776064157485962 0.21185354888439178 0.39037805795669556
0.34552872180938721 0.22919660806655884 0.4046042263507843
0.51155966520309448 0.28443244099617004 0.43652963638305664
0.70160269737243652 0.2663189172744751 0.47251251339912415
0.85380047559738159 0.37372115254402161 0.50746101140975952
0.92396289110183716 0.53989160060882568 0.5405997633934021
0.080645330250263214 0.23625506460666656 0.41680112481117249
0.19867180287837982 0.24087058007717133 0.42521154880523682
0.39160957932472229 0.28327393531799316 0.44452789425849915
0.55575954914093018 0.36731097102165222 0.46295514702796936
0.72046470642089844 0.36194527149200439 0.48917073011398315
0.84398454427719116 0.46324902772903442 0.52081203460693359
0.91782814264297485 0.59525555372238159 0.55850702524185181
0.0083215450868010521 0.35588940978050232 0.44343623518943787
0.086783990263938904 0.36320570111274719 0.4550553560256958
0.39386096596717834 0.40423920750617981 0.47765460610389709
0.58820480108261108 0.49141213297843933 0.49356791377067566
0.73034286499023438 0.50974458456039429 0.51245772838592529
0.8308289647102356 0.59294599294662476 0.54528939723968506
0.89985936880111694 0.67866510152816772 0.58022111654281616
0.0029933257028460503 0.50219124555587769 0.44708970189094543
0.13088738918304443 0.51458120346069336 0.45414310693740845
0.38345050811767578 0.53901773691177368 0.47680196166038513
0.59591341018676758 0.59737551212310791 0.50819700956344604
0.73173362016677856 0.63511484861373901 0.52931791543960571
0.82047790288925171 0.68031984567642212 0.55248469114303589
0.89024996757507324 0.72442251443862915 0.57624644041061401
0.20071971416473389 0.63675463199615479 0.45854485034942627
0.29288384318351746 0.63980668783187866 0.46725323796272278
0.45301675796508789 0.65873187780380249 0.48832866549491882
0.58173924684524536 0.68495720624923706 0.50921094417572021
0.70617079734802246 0.71429985761642456 0.53057479858398438
0.80718487501144409 0.72993642091751099 0.54292863607406616
0.88193809986114502 0.75176763534545898 0.55387765169143677
0.41939368844032288 0.74508589506149292 0.50259864330291748
0.44416597485542297 0.7444610595703125 0.50516659021377563
0.5031542181968689 0.75334209203720093 0.51101315021514893
0.58389806747436523 0.76460152864456177 0.52525418996810913
0.68564403057098389 0.78470075130462646 0.54904627799987793
0.78186666965484619 0.8077847957611084 0.57160758972167969
0.87024235725402832 0.83557522296905518 0.59371739625930786
0.55227327346801758 0.84893667697906494 0.5635027289390564
0.56032466888427734 0.84922468662261963 0.56109726428985596
0.58606868982315063 0.85343748331069946 0.5623401403427124
0.64619195461273193 0.86252671480178833 0.57959234714508057
0.71758347749710083 0.87225747108459473 0.60529410839080811
0.79125130176544189 0.88255172967910767 0.62991893291473389
0.86131292581558228 0.90179651975631714 0.65775942802429199
0.19915272295475006 0.22835527360439301 0.56090092658996582
0.31842166185379028 0.2406078428030014 0.56480568647384644
0.49436575174331665 0.28949913382530212 0.57417851686477661
0.65306490659713745 0.45039555430412292 0.58216196298599243
0.74521017074584961 0.53444331884384155 0.58856534957885742
0.81655359268188477 0.53343838453292847 0.59732890129089355
0.90170693397521973 0.59607714414596558 0.61901634931564331
0.20417560636997223 0.2880459725856781 0.57831788063049316
0.32311353087425232 0.31062802672386169 0.57843697071075439
0.50854241847991943 0.37115663290023804 0.5841478705406189
0.66465646028518677 0.51356649398803711 0.591045081615448
0.75142890214920044 0.59253162145614624 0.59821927547454834
0.81791722774505615 0.58170372247695923 0.60285758972167969
0.89840865135192871 0.63350498676300049 0.62631899118423462
0.14939811825752258 0.42534419894218445 0.58119124174118042
0.29774707555770874 0.43106159567832947 0.58332991600036621
0.49801695346832275 0.48122552037239075 0.58967530727386475
0.6627124547958374 0.58885222673416138 0.59592157602310181
0.74766522645950317 0.64104342460632324 0.60564923286437988
0.81354451179504395 0.64263367652893066 0.61179983615875244
0.89277809858322144 0.67934679985046387 0.63232088088989258
0.023900259286165237 0.54733842611312866 0.56042581796646118
0.19982169568538666 0.55176103115081787 0.5639340877532959
0.42948415875434875 0.57171988487243652 0.57412910461425781
0.64166903495788574 0.63557636737823486 0.59745192527770996
0.74921554327011108 0.69858855009078979 0.61504656076431274
0.81624507904052734 0.70083427429199219 0.62277990579605103
0.88516658544540405 0.73573106527328491 0.64228159189224243
0.25390976667404175 0.65337026119232178 0.54961866140365601
0.32604268193244934 0.65414410829544067 0.54889172315597534
0.45515727996826172 0.66541922092437744 0.55901408195495605
0.60162001848220825 0.69001519680023193 0.58045625686645508
0.72979611158370972 0.73115867376327515 0.60844606161117554
0.81688529253005981 0.75648671388626099 0.62323766946792603
0.88253903388977051 0.79184311628341675 0.64935046434402466
0.3392278254032135 0.73145461082458496 0.53844141960144043
0.38590565323829651 0.73323917388916016 0.54587572813034058
0.49057227373123169 0.74400126934051514 0.55899506807327271
0.61865794658660889 0.76490342617034912 0.58466202020645142
0.71873992681503296 0.79080295562744141 0.60876435041427612
0.80139285326004028 0.81690335273742676 0.63425034284591675
0.87560474872589111 0.83273237943649292 0.64239394664764404
0.52899014949798584 0.84621173143386841 0.59856736660003662
0.54888767004013062 0.84688454866409302 0.60152655839920044
0.5978209376335144 0.85030335187911987 0.60798650979995728
0.65439146757125854 0.85842686891555786 0.6144794225692749
0.72370195388793945 0.87329119443893433 0.63539475202560425
0.7971382737159729 0.88591969013214111 0.66682183742523193
0.86927706003189087 0.90713018178939819 0.70017147064208984
0.44422295689582825 0.36802038550376892 0.68269896507263184
0.50562590360641479 0.39682310819625854 0.67907047271728516
0.62194770574569702 0.47294414043426514 0.67747342586517334
0.72753971815109253 0.58209896087646484 0.67861419916152954
0.79450464248657227 0.69457393884658813 0.68249130249023438
0.83676391839981079 0.71509796380996704 0.68481433391571045
0.88790357112884521 0.71504908800125122 0.69795936346054077
0.46125927567481995 0.4425276517868042 0.68367713689804077
0.51566356420516968 0.46627071499824524 0.67985612154006958
0.63046735525131226 0.52629607915878296 0.67794227600097656
0.72801607847213745 0.61499851942062378 0.68271642923355103
0.79424065351486206 0.71061944961547852 0.68740028142929077
0.83729779720306396 0.73364567756652832 0.68981540203094482
0.88204407691955566 0.73223429918289185 0.70079463720321655
0.45047494769096375 0.53188008069992065 0.67527437210083008
0.50058603286743164 0.54844945669174194 0.67373335361480713
0.61577111482620239 0.58753877878189087 0.67682141065597534
0.72139519453048706 0.66618633270263672 0.6834406852722168
0.79319578409194946 0.73988252878189087 0.69314491748809814
0.83612370491027832 0.75806403160095215 0.69667297601699829
0.86967337131500244 0.74601322412490845 0.69672000408172607
0.32737761735916138 0.60473096370697021 0.65697389841079712
0.41453912854194641 0.61119312047958374 0.65721184015274048
0.55259132385253906 0.63785064220428467 0.66515278816223145
0.68977290391921997 0.68945086002349854 0.67863357067108154
0.78610390424728394 0.75297290086746216 0.69245725870132446
0.83467680215835571 0.78466147184371948 0.70065796375274658
0.87697112560272217 0.78161001205444336 0.70741003751754761
0.33051958680152893 0.68533575534820557 0.639839768409729
0.37289893627166748 0.68120956420898438 0.63737761974334717
0.48880907893180847 0.69174695014953613 0.64267623424530029
0.61582422256469727 0.71212786436080933 0.65877628326416016
0.7553398609161377 0.76320904493331909 0.68554055690765381
0.83208769559860229 0.80773866176605225 0.70562136173248291
0.88002276420593262 0.81561940908432007 0.71897929906845093
0.39967525005340576 0.75223040580749512 0.62171202898025513
0.43030449748039246 0.75311565399169922 0.62165385484695435
0.5118834376335144 0.76080334186553955 0.63059538602828979
0.6088220477104187 0.77025789022445679 0.64162248373031616
0.71183687448501587 0.79536950588226318 0.66520601511001587
0.81705778837203979 0.83972609043121338 0.70678949356079102
0.88103359937667847 0.86244320869445801 0.72916477918624878
0.43241626024246216 0.83724755048751831 0.62695455551147461
0.45225179195404053 0.8357129693031311 0.62667810916900635
0.52114099264144897 0.8411179780960083 0.63543730974197388
0.61378747224807739 0.85210490226745605 0.65198975801467896
0.71529138088226318 0.86914551258087158 0.67809092998504639
0.80344492197036743 0.89078837633132935 0.7124820351600647
0.8744475245475769 0.91262400150299072 0.7541961669921875
0.67521101236343384 0.63140189647674561 0.77862000465393066
0.69461154937744141 0.63734608888626099 0.77511751651763916
0.74017179012298584 0.66678923368453979 0.77055436372756958
0.79820799827575684 0.71693539619445801 0.77063018083572388
0.83966523408889771 0.77089005708694458 0.76872318983078003
0.86817735433578491 0.81705105304718018 0.76913952827453613
0.88484293222427368 0.8305060863494873 0.77111172676086426
0.67101150751113892 0.65344882011413574 0.77855080366134644
0.69130116701126099 0.65683037042617798 0.77574998140335083
0.74077779054641724 0.68792474269866943 0.77265310287475586
0.79384815692901611 0.73022341728210449 0.77145290374755859
0.83596813678741455 0.78028655052185059 0.76984477043151855
0.86803251504898071 0.82812690734863281 0.77247315645217896
0.88571619987487793 0.83590251207351685 0.77626806497573853
0.65402686595916748 0.68154627084732056 0.77467399835586548
0.67691135406494141 0.68724101781845093 0.77228963375091553
0.72554165124893188 0.70916301012039185 0.77242010831832886
0.78677952289581299 0.75096803903579712 0.77379590272903442
0.8342740535736084 0.79562783241271973 0.77244168519973755
0.86829084157943726 0.83763235807418823 0.77653706073760986
0.88034498691558838 0.8438001275062561 0.77403849363327026
0.60494852066040039 0.71586281061172485 0.76588195562362671
0.63292640447616577 0.71944499015808105 0.7673037052154541
0.68513834476470947 0.73003131151199341 0.76758378744125366
0.7618110179901123 0.76424598693847656 0.77279508113861084
0.82433754205703735 0.80434632301330566 0.77437305450439453
0.8669050931930542 0.84937626123428345 0.7805788516998291
0.88495713472366333 0.86427807807922363 0.78284621238708496
0.48177686333656311 0.75760293006896973 0.75371718406677246
0.50559538602828979 0.75593107938766479 0.75224244594573975
0.58015608787536621 0.75854694843292236 0.75512039661407471
0.69253718852996826 0.77422571182250977 0.76504683494567871
0.79211372137069702 0.81182903051376343 0.77386242151260376
0.86087971925735474 0.8599931001663208 0.78638476133346558
0.88403177261352539 0.87803429365158081 0.79120618104934692
0.4987761378288269 0.82000172138214111 0.74730587005615234
0.51816201210021973 0.81701183319091797 0.7438584566116333
0.56149482727050781 0.81804418563842773 0.74921888113021851
0.62709832191467285 0.81756103038787842 0.75031876564025879
0.72262227535247803 0.82770144939422607 0.76426976919174194
0.83434754610061646 0.86741781234741211 0.78857660293579102
0.8829159140586853 0.89719080924987793 0.8030884861946106
0.53672188520431519 0.88185912370681763 0.75045156478881836
0.54815846681594849 0.88176298141479492 0.75039154291152954
0.57992273569107056 0.88353186845779419 0.75401180982589722
0.6316225528717041 0.8850286602973938 0.75649505853652954
0.70799940824508667 0.89301681518554688 0.76925754547119141
0.79565399885177612 0.89780235290527344 0.78145480155944824
0.88059359788894653 0.9246293306350708 0.81860274076461792
