luts/instant_consumer/polaroid_px-70_cold_+.cube
# Created by: G'MIC (https://gmic.eu)
TITLE "polaroid_px-70_cold_+"
# LUT size
LUT_3D_SIZE 5
# Data domain
DOMAIN_MIN 0.0 0.0 0.0
DOMAIN_MAX 1.0 1.0 1.0
# LUT data points
0 0.23137255012989044 0.31764706969261169
0.0047589768655598164 0.22909972071647644 0.31488323211669922
0.17936556041240692 0.23406949639320374 0.31535273790359497
0.72559821605682373 0.31001368165016174 0.3125188946723938
0.97975647449493408 0.52285164594650269 0.3362160325050354
0 0.25026300549507141 0.31547808647155762
0.00084496295312419534 0.26397690176963806 0.31440171599388123
0.29455193877220154 0.30290353298187256 0.31132316589355469
0.75366520881652832 0.4153047502040863 0.3049696683883667
0.97630167007446289 0.59009444713592529 0.34186685085296631
0 0.4931732714176178 0.32868477702140808
0.0033728654962033033 0.49387368559837341 0.32783281803131104
0.41884160041809082 0.54400259256362915 0.31895577907562256
0.77897197008132935 0.62519192695617676 0.30535513162612915
0.95540356636047363 0.69231563806533813 0.34089654684066772
0.10580285638570786 0.8095964789390564 0.39315369725227356
0.26704585552215576 0.80004036426544189 0.39722248911857605
0.53751653432846069 0.80472856760025024 0.40703004598617554
0.77388805150985718 0.82390075922012329 0.40987825393676758
0.93874698877334595 0.83659714460372925 0.44662362337112427
0.73462212085723877 0.93354690074920654 0.55641627311706543
0.74790322780609131 0.92736989259719849 0.55413776636123657
0.80504059791564941 0.92773592472076416 0.56041789054870605
0.87813681364059448 0.92975914478302002 0.56546813249588013
0.95124858617782593 0.93378788232803345 0.57957679033279419
0 0.22745098173618317 0.32723084092140198
0.0068032359704375267 0.22763587534427643 0.33027631044387817
0.22031170129776001 0.22854602336883545 0.33756169676780701
0.76651906967163086 0.31477841734886169 0.37291398644447327
0.97937160730361938 0.57521188259124756 0.44194674491882324
0 0.2606864869594574 0.33389657735824585
0.0016689525218680501 0.2783905565738678 0.33923971652984619
0.36140838265419006 0.3168368935585022 0.35215896368026733
0.78634148836135864 0.45147609710693359 0.385051429271698
0.97377324104309082 0.63367784023284912 0.44422537088394165
0.002068493515253067 0.51621395349502563 0.37620565295219421
0.016038304194808006 0.52128881216049194 0.37575918436050415
0.46784740686416626 0.56509512662887573 0.37782719731330872
0.79288786649703979 0.6317017674446106 0.37607565522193909
0.96001577377319336 0.71833759546279907 0.4265626072883606
0.25153964757919312 0.81819266080856323 0.44269844889640808
0.37481236457824707 0.81195956468582153 0.44819581508636475
0.58740717172622681 0.80919861793518066 0.46172323822975159
0.78877395391464233 0.82935363054275513 0.47416576743125916
0.93495017290115356 0.84603410959243774 0.49647349119186401
0.75007516145706177 0.9311632513999939 0.56368190050125122
0.76573657989501953 0.92956751585006714 0.56350475549697876
0.82109361886978149 0.92550528049468994 0.57141768932342529
0.88287019729614258 0.93058097362518311 0.57540053129196167
0.95132476091384888 0.93315970897674561 0.58461439609527588
0 0.23266783356666565 0.40887290239334106
0.019327949732542038 0.24396553635597229 0.40600067377090454
0.34264376759529114 0.31296265125274658 0.42989540100097656
0.75886934995651245 0.31965062022209167 0.49548625946044922
0.98236072063446045 0.54239159822463989 0.53852486610412598
3.5903034586226568e-05 0.31212398409843445 0.438018798828125
0.055546075105667114 0.31948310136795044 0.44429734349250793
0.44454219937324524 0.41013044118881226 0.46494960784912109
0.78765326738357544 0.45788145065307617 0.50949066877365112
0.97967493534088135 0.65756070613861084 0.54970270395278931
0.001460400759242475 0.54717236757278442 0.47669458389282227
0.14967551827430725 0.55584269762039185 0.48455938696861267
0.55532103776931763 0.60417622327804565 0.50523775815963745
0.81249558925628662 0.69080764055252075 0.52867639064788818
0.94856220483779907 0.78477299213409424 0.55261540412902832
0.47333326935768127 0.82514357566833496 0.5357975959777832
0.53270697593688965 0.81750690937042236 0.53347218036651611
0.66308724880218506 0.82462745904922485 0.53582459688186646
0.81594222784042358 0.84117335081100464 0.53916758298873901
0.94773036241531372 0.85502272844314575 0.55561000108718872
0.79360061883926392 0.92882704734802246 0.58401405811309814
0.80242621898651123 0.92831307649612427 0.58292055130004883
0.8450998067855835 0.9296603798866272 0.58554470539093018
0.9074103832244873 0.93393194675445557 0.59469068050384521
0.95750832557678223 0.93697291612625122 0.5986400842666626
0.18919685482978821 0.29342406988143921 0.60736358165740967
0.42102670669555664 0.33002379536628723 0.60463231801986694
0.70441973209381104 0.49030902981758118 0.60954660177230835
0.84247791767120361 0.66263943910598755 0.60490268468856812
0.95489048957824707 0.67925393581390381 0.60695898532867432
0.15580302476882935 0.40682563185691833 0.61821264028549194
0.4388454258441925 0.44444268941879272 0.61557686328887939
0.71604675054550171 0.59522223472595215 0.60678845643997192
0.8447144627571106 0.72529482841491699 0.60049617290496826
0.95469993352890015 0.74254673719406128 0.60605025291442871
0.020094823092222214 0.64433610439300537 0.60349977016448975
0.30731725692749023 0.63848757743835449 0.60253727436065674
0.68511092662811279 0.70474064350128174 0.60441070795059204
0.84989261627197266 0.80436652898788452 0.59905803203582764
0.94869619607925415 0.82387435436248779 0.60451614856719971
0.49099484086036682 0.82849854230880737 0.59292620420455933
0.55337488651275635 0.82153093814849854 0.59003537893295288
0.70843786001205444 0.83252131938934326 0.59540718793869019
0.85324019193649292 0.86384111642837524 0.5990176796913147
0.95228004455566406 0.87950831651687622 0.60605055093765259
0.81118875741958618 0.93047195672988892 0.60388875007629395
0.82518428564071655 0.92944836616516113 0.60536003112792969
0.8664742112159729 0.93004399538040161 0.60823619365692139
0.92572736740112305 0.93332141637802124 0.61798727512359619
0.96320885419845581 0.93636000156402588 0.6265876293182373
0.70852053165435791 0.6472630500793457 0.67367088794708252
0.76156860589981079 0.68115031719207764 0.66727721691131592
0.85641926527023315 0.77092009782791138 0.65307527780532837
0.9311901330947876 0.86024260520935059 0.63978725671768188
0.96619421243667603 0.88364535570144653 0.63714569807052612
0.71272629499435425 0.71097028255462646 0.66709631681442261
0.75634253025054932 0.73736381530761719 0.66054326295852661
0.85993474721908569 0.81087273359298706 0.64881700277328491
0.92882907390594482 0.86925143003463745 0.6389196515083313
0.96487629413604736 0.88502699136734009 0.63656455278396606
0.67294520139694214 0.78938108682632446 0.6563410758972168
0.72416114807128906 0.7956688404083252 0.65443474054336548
0.84184473752975464 0.83850789070129395 0.64822512865066528
0.93231970071792603 0.88811308145523071 0.64133763313293457
0.97026258707046509 0.91058945655822754 0.64075356721878052
0.65094232559204102 0.86804533004760742 0.64390480518341064
0.67434334754943848 0.86294466257095337 0.6431308388710022
0.76921242475509644 0.86785262823104858 0.64183223247528076
0.91725939512252808 0.90174967050552368 0.64251387119293213
0.96052080392837524 0.91775524616241455 0.64447349309921265
0.85346239805221558 0.9408266544342041 0.64824575185775757
0.86632508039474487 0.94116216897964478 0.64502876996994019
0.89509755373001099 0.93972420692443848 0.6486278772354126
0.94180881977081299 0.9421086311340332 0.65339410305023193
0.98311173915863037 0.94702178239822388 0.66040557622909546
