luts/instant_consumer/polaroid_px-680_cold_++.cube
# Created by: G'MIC (https://gmic.eu)
TITLE "polaroid_px-680_cold_++"
# LUT size
LUT_3D_SIZE 7
# Data domain
DOMAIN_MIN 0.0 0.0 0.0
DOMAIN_MAX 1.0 1.0 1.0
# LUT data points
0 0.23514476418495178 0.293905109167099
0.00087699142750352621 0.2273527979850769 0.29192924499511719
0.15667356550693512 0.22667954862117767 0.29214683175086975
0.48597478866577148 0.24822515249252319 0.29240190982818604
0.73036020994186401 0.31329655647277832 0.29508677124977112
0.87560427188873291 0.42734572291374207 0.30657339096069336
0.94660508632659912 0.54043269157409668 0.33233234286308289
0 0.24686329066753387 0.29302740097045898
0.0064062532037496567 0.25679430365562439 0.29265761375427246
0.23356032371520996 0.26985204219818115 0.2908596396446228
0.52833408117294312 0.30543255805969238 0.29167839884757996
0.74365216493606567 0.37188005447387695 0.29289305210113525
0.86653155088424683 0.46678054332733154 0.30547827482223511
0.94589507579803467 0.57190418243408203 0.33449822664260864
0.00020237342687323689 0.3576604425907135 0.29919326305389404
0.0014281179755926132 0.36970001459121704 0.29625040292739868
0.27223768830299377 0.39943751692771912 0.2910025417804718
0.56152075529098511 0.43884891271591187 0.28496429324150085
0.73461318016052246 0.46373069286346436 0.28636610507965088
0.85101139545440674 0.53401517868041992 0.30048182606697083
0.9331783652305603 0.61167025566101074 0.32809370756149292
0.0039215688593685627 0.50959199666976929 0.30859506130218506
0.00450159702450037 0.51707017421722412 0.30293521285057068
0.24353562295436859 0.53630346059799194 0.30000185966491699
0.52575230598449707 0.57567000389099121 0.29399552941322327
0.72459512948989868 0.61788523197174072 0.29423892498016357
0.83171874284744263 0.62211984395980835 0.30047416687011719
0.91311728954315186 0.66753476858139038 0.3189581036567688
0.010036423802375793 0.64077627658843994 0.31224164366722107
0.05565236508846283 0.64103585481643677 0.30961281061172485
0.28001505136489868 0.64826709032058716 0.31517454981803894
0.5032726526260376 0.67589324712753296 0.31915876269340515
0.67513453960418701 0.70990830659866333 0.32070636749267578
0.80873489379882812 0.75201082229614258 0.33562847971916199
0.89347749948501587 0.76722270250320435 0.35042047500610352
0.252888023853302 0.75739651918411255 0.33104363083839417
0.29501083493232727 0.75289279222488403 0.33242180943489075
0.3936346173286438 0.75626146793365479 0.3451799750328064
0.5317804217338562 0.77035444974899292 0.35276210308074951
0.66289299726486206 0.79263222217559814 0.36735832691192627
0.77905040979385376 0.82004702091217041 0.38782587647438049
0.884135901927948 0.85361438989639282 0.42633295059204102
0.52561742067337036 0.87092071771621704 0.41498798131942749
0.53937667608261108 0.86773806810379028 0.41465172171592712
0.58591717481613159 0.87113898992538452 0.42611074447631836
0.65290910005569458 0.8750954270362854 0.44385427236557007
0.73068296909332275 0.88402235507965088 0.46493545174598694
0.8102651834487915 0.89670538902282715 0.49679699540138245
0.88303625583648682 0.91009300947189331 0.52929019927978516
0 0.23042899370193481 0.3057025671005249
0.0036933750379830599 0.23451374471187592 0.30573436617851257
0.18401886522769928 0.22847028076648712 0.30658698081970215
0.52426338195800781 0.24746526777744293 0.31930974125862122
0.75621867179870605 0.35420152544975281 0.33746984601020813
0.87226217985153198 0.47525632381439209 0.35632580518722534
0.94473809003829956 0.58377110958099365 0.37926080822944641
0.00080799777060747147 0.25546371936798096 0.30860164761543274
0.013466988690197468 0.26395556330680847 0.31031954288482666
0.27876418828964233 0.28214594721794128 0.31444823741912842
0.55793017148971558 0.32148385047912598 0.32383143901824951
0.75762861967086792 0.41181287169456482 0.33548069000244141
0.86996239423751831 0.50933349132537842 0.35327780246734619
0.94126689434051514 0.60352087020874023 0.37691959738731384
0.003003348596394062 0.38287621736526489 0.32182839512825012
0.037276774644851685 0.38529327511787415 0.31861266493797302
0.33197715878486633 0.41587427258491516 0.3187277615070343
0.5816156268119812 0.44728538393974304 0.31787839531898499
0.74408125877380371 0.48909518122673035 0.32317161560058594
0.85263383388519287 0.55724143981933594 0.34171399474143982
0.92530417442321777 0.63036388158798218 0.36649838089942932
0.010977561585605145 0.53374147415161133 0.32531541585922241
0.061659179627895355 0.53262412548065186 0.3221060037612915
0.30656999349594116 0.54511624574661255 0.32651180028915405
0.54941874742507935 0.58435732126235962 0.32418414950370789
0.7279355525970459 0.62001258134841919 0.32635983824729919
0.82942426204681396 0.63784193992614746 0.3320748507976532
0.91594117879867554 0.68643426895141602 0.35468760132789612
0.080093488097190857 0.6526528000831604 0.32678726315498352
0.18562212586402893 0.6488037109375 0.32954677939414978
0.33761677145957947 0.65668600797653198 0.33568716049194336
0.52665561437606812 0.68050611019134521 0.34185606241226196
0.68702882528305054 0.71850216388702393 0.3496265709400177
0.81272101402282715 0.75237786769866943 0.36468246579170227
0.89444780349731445 0.7659904956817627 0.3772415816783905
0.29538184404373169 0.75652921199798584 0.3469274640083313
0.33506065607070923 0.75549560785293579 0.35151448845863342
0.42599451541900635 0.75986796617507935 0.35849329829216003
0.54934108257293701 0.77419579029083252 0.37057816982269287
0.67405718564987183 0.79922151565551758 0.38597670197486877
0.78602010011672974 0.82480525970458984 0.40852281451225281
0.88632571697235107 0.85449481010437012 0.44498938322067261
0.53309863805770874 0.87156581878662109 0.42109811305999756
0.54946613311767578 0.87131136655807495 0.42410469055175781
0.59628307819366455 0.8733675479888916 0.43838974833488464
0.65416437387466431 0.87518727779388428 0.45009329915046692
0.73260468244552612 0.8841249942779541 0.47392034530639648
0.81334382295608521 0.89859431982040405 0.50362998247146606
0.88485634326934814 0.91077303886413574 0.53939187526702881
0.0030878554098308086 0.23078164458274841 0.33979496359825134
0.050448518246412277 0.23966777324676514 0.34011608362197876
0.26243865489959717 0.26312887668609619 0.35032203793525696
0.51825308799743652 0.26980212330818176 0.36800223588943481
0.75476729869842529 0.33241134881973267 0.3851926326751709
0.87719404697418213 0.47557505965232849 0.40739446878433228
0.93825000524520874 0.62443083524703979 0.44626051187515259
0.0012950074160471559 0.27927044034004211 0.35896971821784973
0.10479601472616196 0.28970697522163391 0.35881006717681885
0.33658456802368164 0.3272908627986908 0.36387443542480469
0.56803160905838013 0.34857380390167236 0.37984752655029297
0.76920610666275024 0.42401093244552612 0.39463695883750916
0.87165206670761108 0.553172767162323 0.42082029581069946
0.93154430389404297 0.65367567539215088 0.44978979229927063
0.0048178131692111492 0.39690840244293213 0.36410114169120789
0.17107440531253815 0.41049110889434814 0.36931180953979492
0.41446509957313538 0.44338700175285339 0.37885987758636475
0.61288297176361084 0.48234406113624573 0.3872126042842865
0.75837528705596924 0.54282015562057495 0.3978765606880188
0.85107332468032837 0.61531656980514526 0.41742479801177979
0.92361444234848022 0.68179267644882202 0.4404844343662262
0.20920775830745697 0.54084891080856323 0.37061616778373718
0.30636289715766907 0.55140203237533569 0.3745301365852356
0.43561610579490662 0.56753063201904297 0.38006910681724548
0.60263639688491821 0.60508531332015991 0.38618096709251404
0.73974257707595825 0.62848788499832153 0.38637062907218933
0.8372032642364502 0.66213953495025635 0.39636451005935669
0.91188544034957886 0.71118015050888062 0.4179532527923584
0.34803718328475952 0.66587162017822266 0.38073283433914185
0.36155006289482117 0.66385036706924438 0.37576061487197876
0.43827542662620544 0.66889363527297974 0.37884795665740967
0.56462836265563965 0.68917948007583618 0.39048328995704651
0.70661795139312744 0.72522372007369995 0.4007047712802887
0.82203668355941772 0.75881290435791016 0.41126421093940735
0.89565682411193848 0.76934409141540527 0.41739991307258606
0.3908475935459137 0.7613527774810791 0.3850727379322052
0.40606239438056946 0.7619251012802124 0.38079142570495605
0.48346185684204102 0.76714253425598145 0.39228996634483337
0.57878017425537109 0.77883321046829224 0.40519091486930847
0.69201034307479858 0.8028215765953064 0.42211318016052246
0.7942124605178833 0.82907009124755859 0.44393914937973022
0.88846814632415771 0.85552471876144409 0.47548025846481323
0.54467552900314331 0.87236028909683228 0.43731516599655151
0.55862319469451904 0.87235802412033081 0.43938183784484863
0.60113734006881714 0.87443768978118896 0.45136862993240356
0.66718930006027222 0.87863022089004517 0.47400543093681335
0.74096941947937012 0.88754075765609741 0.49831083416938782
0.81760293245315552 0.89884340763092041 0.52835649251937866
0.88715344667434692 0.91246908903121948 0.55860203504562378
0.076169796288013458 0.25612643361091614 0.41747501492500305
0.24236080050468445 0.27278006076812744 0.42196941375732422
0.45201286673545837 0.35024899244308472 0.43197020888328552
0.60513770580291748 0.41988486051559448 0.43729442358016968
0.73942476511001587 0.41895169019699097 0.45080149173736572
0.86039608716964722 0.48324531316757202 0.46923279762268066
0.93642473220825195 0.6047508716583252 0.49001464247703552
0.12084178626537323 0.31896394491195679 0.43399760127067566
0.28055742383003235 0.341014564037323 0.43578866124153137
0.49068334698677063 0.40597137808799744 0.44063937664031982
0.62747776508331299 0.47821786999702454 0.44646203517913818
0.74985235929489136 0.47726589441299438 0.4564051628112793
0.86130112409591675 0.54002922773361206 0.47279965877532959
0.93823027610778809 0.63937795162200928 0.49504971504211426
0.082977443933486938 0.4374815821647644 0.43190523982048035
0.27153667807579041 0.44730708003044128 0.43699690699577332
0.49491402506828308 0.49372690916061401 0.44720420241355896
0.64782631397247314 0.55994093418121338 0.45552536845207214
0.75635641813278198 0.57089650630950928 0.46572220325469971
0.85482120513916016 0.63171970844268799 0.48314014077186584
0.92185801267623901 0.70679008960723877 0.51004904508590698
0.25534087419509888 0.55733346939086914 0.42443761229515076
0.33849668502807617 0.55988997220993042 0.42597466707229614
0.48982918262481689 0.58284515142440796 0.43791934847831726
0.65013992786407471 0.63124096393585205 0.45627960562705994
0.75894647836685181 0.66653496026992798 0.47073620557785034
0.84256565570831299 0.70913141965866089 0.48480337858200073
0.91209405660629272 0.75542724132537842 0.50556427240371704
0.36345982551574707 0.65336567163467407 0.41907808184623718
0.42225161194801331 0.66078454256057739 0.42373570799827576
0.52506071329116821 0.68123912811279297 0.43530339002609253
0.62726670503616333 0.70677649974822998 0.45096445083618164
0.73117733001708984 0.73913908004760742 0.46684420108795166
0.83018022775650024 0.76215589046478271 0.4720018208026886
0.90119761228561401 0.77957838773727417 0.48340746760368347
0.47934472560882568 0.7635992169380188 0.43925592303276062
0.50218492746353149 0.7654109001159668 0.43694049119949341
0.54651719331741333 0.77377021312713623 0.43867024779319763
0.61544561386108398 0.78709906339645386 0.44897937774658203
0.71193456649780273 0.81059211492538452 0.47092032432556152
0.81109189987182617 0.83862560987472534 0.49518930912017822
0.89584958553314209 0.85509353876113892 0.5188976526260376
0.58499562740325928 0.87201380729675293 0.48032715916633606
0.59354788064956665 0.87203007936477661 0.48043814301490784
0.61965835094451904 0.87494975328445435 0.4817880392074585
0.67174756526947021 0.88016104698181152 0.49706816673278809
0.74403828382492065 0.88959354162216187 0.524463951587677
0.82240289449691772 0.89979559183120728 0.55700618028640747
0.89313340187072754 0.91413301229476929 0.59032708406448364
0.33759030699729919 0.32699799537658691 0.51348602771759033
0.42993289232254028 0.35228332877159119 0.51337569952011108
0.57860106229782104 0.42225161194801331 0.51766186952590942
0.71138554811477661 0.54448980093002319 0.52479565143585205
0.77757173776626587 0.60539078712463379 0.52904027700424194
0.83936482667922974 0.59696072340011597 0.53682631254196167
0.92125749588012695 0.63642096519470215 0.55134111642837524
0.36149320006370544 0.3948427140712738 0.51997405290603638
0.45862659811973572 0.42581790685653687 0.52242094278335571
0.59674602746963501 0.47834682464599609 0.52330136299133301
0.71428662538528442 0.58377152681350708 0.52799946069717407
0.77843284606933594 0.63949543237686157 0.53536921739578247
0.84275650978088379 0.63075470924377441 0.53938168287277222
0.91911596059799194 0.66651356220245361 0.55639272928237915
0.36039680242538452 0.4997965395450592 0.51480382680892944
0.43889978528022766 0.50700652599334717 0.51682090759277344
0.57997751235961914 0.54879307746887207 0.52284932136535645
0.70691752433776855 0.62977468967437744 0.52849817276000977
0.7775692343711853 0.68287771940231323 0.53815758228302002
0.84162366390228271 0.68096363544464111 0.54431509971618652
0.91736871004104614 0.71797305345535278 0.56453853845596313
0.32142341136932373 0.58693516254425049 0.49510031938552856
0.38642057776451111 0.58844417333602905 0.49713420867919922
0.5209997296333313 0.61071991920471191 0.50703537464141846
0.67783552408218384 0.66949331760406494 0.52485513687133789
0.77740973234176636 0.72749274969100952 0.54351019859313965
0.83991020917892456 0.7397686243057251 0.55218124389648438
0.90776628255844116 0.76931673288345337 0.5750996470451355
0.40265998244285583 0.67227464914321899 0.47981131076812744
0.44283208250999451 0.67399466037750244 0.48159897327423096
0.53320467472076416 0.68865180015563965 0.49069303274154663
0.64749068021774292 0.71563011407852173 0.50952529907226562
0.76057064533233643 0.76131904125213623 0.53573900461196899
0.84063780307769775 0.79119890928268433 0.55696225166320801
0.90765130519866943 0.82120305299758911 0.58221042156219482
0.42398902773857117 0.74601340293884277 0.4680531919002533
0.46055057644844055 0.74879926443099976 0.47135517001152039
0.54337596893310547 0.76355332136154175 0.48079097270965576
0.64904302358627319 0.78765738010406494 0.503822922706604
0.74121195077896118 0.81877535581588745 0.53361725807189941
0.82914119958877563 0.84589648246765137 0.56067591905593872
0.90162831544876099 0.85611057281494141 0.57266455888748169
0.55963152647018433 0.86578744649887085 0.51573580503463745
0.57292139530181885 0.86526995897293091 0.51848912239074707
0.6287391185760498 0.87002325057983398 0.5250592827796936
0.68653082847595215 0.88189184665679932 0.53833848237991333
0.74978733062744141 0.89072579145431519 0.55854660272598267
0.83210402727127075 0.9037286639213562 0.60240656137466431
0.90202224254608154 0.92050504684448242 0.63614237308502197
0.55903440713882446 0.46792569756507874 0.61561113595962524
0.60580277442932129 0.48561882972717285 0.61085885763168335
0.68642878532409668 0.54556608200073242 0.61007529497146606
0.76907455921173096 0.63430500030517578 0.61533385515213013
0.82045865058898926 0.72670334577560425 0.61974108219146729
0.86160701513290405 0.74761474132537842 0.62110394239425659
0.90330237150192261 0.73748457431793213 0.62556946277618408
0.56516319513320923 0.51689392328262329 0.61683183908462524
0.60733932256698608 0.5296781063079834 0.61011642217636108
0.68603432178497314 0.57509791851043701 0.61152255535125732
0.76841562986373901 0.66196143627166748 0.6164976954460144
0.82237762212753296 0.74689584970474243 0.62327867746353149
0.85999441146850586 0.75546634197235107 0.62404078245162964
0.89711600542068481 0.75137937068939209 0.62535852193832397
0.53869116306304932 0.57524371147155762 0.60515415668487549
0.58078312873840332 0.58477753400802612 0.60644346475601196
0.67369323968887329 0.62848639488220215 0.61151409149169922
0.75696021318435669 0.68833190202713013 0.61460614204406738
0.81880521774291992 0.76305723190307617 0.62618666887283325
0.8594323992729187 0.7863050103187561 0.63133567571640015
0.90077745914459229 0.78161174058914185 0.63667380809783936
0.44317689538002014 0.64054840803146362 0.58376580476760864
0.50050103664398193 0.64515691995620728 0.58692210912704468
0.61119705438613892 0.66524767875671387 0.59588634967803955
0.72546148300170898 0.71074819564819336 0.60893505811691284
0.81199550628662109 0.78424334526062012 0.63048321008682251
0.86105555295944214 0.81610411405563354 0.64050769805908203
0.90073084831237793 0.80704176425933838 0.64326125383377075
0.42143353819847107 0.70840024948120117 0.5616193413734436
0.46148785948753357 0.7100633978843689 0.56480497121810913
0.54050725698471069 0.71627539396286011 0.57116401195526123
0.64833813905715942 0.7357935905456543 0.58503443002700806
0.78084373474121094 0.78992956876754761 0.61822354793548584
0.85680133104324341 0.83720177412033081 0.64532357454299927
0.90087795257568359 0.84342247247695923 0.65701866149902344
0.46382951736450195 0.77549397945404053 0.54567700624465942
0.48878335952758789 0.77607101202011108 0.54757797718048096
0.54877525568008423 0.78038674592971802 0.55218207836151123
0.63605493307113647 0.79323208332061768 0.56718313694000244
0.7346147894859314 0.81818801164627075 0.5944790244102478
0.84589582681655884 0.86130446195602417 0.64298564195632935
0.90816003084182739 0.87933629751205444 0.66983485221862793
0.46838140487670898 0.86352527141571045 0.55203211307525635
0.4886462390422821 0.86127942800521851 0.55235511064529419
0.54637902975082397 0.86254262924194336 0.55938953161239624
0.63897913694381714 0.8745306134223938 0.57809579372406006
0.74021428823471069 0.88745111227035522 0.60601556301116943
0.83555620908737183 0.90388870239257812 0.65137231349945068
0.91122603416442871 0.92390108108520508 0.69224560260772705
0.71706801652908325 0.66710102558135986 0.71729803085327148
0.73410981893539429 0.67583906650543213 0.71415477991104126
0.77229565382003784 0.70131546258926392 0.71104007959365845
0.82037168741226196 0.74862170219421387 0.70953530073165894
0.85866916179656982 0.80121123790740967 0.70581835508346558
0.8911709189414978 0.84455043077468872 0.709755539894104
0.90916180610656738 0.8487125039100647 0.70931315422058105
0.71233516931533813 0.68437081575393677 0.71704232692718506
0.72935134172439575 0.69293957948684692 0.714405357837677
0.76937460899353027 0.71951282024383545 0.71206015348434448
0.81626445055007935 0.76100629568099976 0.70943409204483032
0.86006075143814087 0.8098149299621582 0.70953845977783203
0.88974827527999878 0.83835858106613159 0.71047204732894897
0.90949946641921997 0.85846775770187378 0.71612745523452759
0.69259142875671387 0.71479135751724243 0.71457976102828979
0.71282142400741577 0.72025763988494873 0.71302652359008789
0.75911581516265869 0.74515223503112793 0.71176648139953613
0.81168806552886963 0.77990669012069702 0.71048998832702637
0.85592442750930786 0.8187451958656311 0.70832115411758423
0.88945001363754272 0.85169631242752075 0.71256691217422485
0.90647131204605103 0.86566728353500366 0.71720850467681885
0.64667946100234985 0.74796199798583984 0.70815974473953247
0.66918724775314331 0.74631816148757935 0.70681661367416382
0.71990126371383667 0.75890070199966431 0.7065320611000061
0.78658485412597656 0.78867387771606445 0.71139836311340332
0.84999984502792358 0.83135885000228882 0.71589046716690063
0.89322346448898315 0.86727297306060791 0.72213011980056763
0.90821772813796997 0.8722568154335022 0.71949023008346558
0.5245252251625061 0.78314149379730225 0.69302594661712646
0.55018472671508789 0.7796025276184082 0.6917760968208313
0.61668318510055542 0.78283751010894775 0.69421112537384033
0.72029572725296021 0.7989380955696106 0.70247817039489746
0.82344114780426025 0.83699315786361694 0.71740114688873291
0.88481658697128296 0.87514239549636841 0.72608137130737305
0.91385859251022339 0.88960373401641846 0.73244750499725342
0.53798699378967285 0.84208160638809204 0.68783724308013916
0.55181300640106201 0.83904480934143066 0.68479353189468384
0.5940786600112915 0.83828979730606079 0.68831658363342285
0.65432411432266235 0.84045219421386719 0.6934739351272583
0.7502213716506958 0.85260725021362305 0.70963281393051147
0.86519968509674072 0.88203185796737671 0.73231273889541626
0.92245197296142578 0.91201549768447876 0.75517523288726807
0.57025223970413208 0.90170419216156006 0.69311296939849854
0.58129417896270752 0.89927148818969727 0.6900177001953125
0.61232125759124756 0.90082943439483643 0.6931689977645874
0.67011022567749023 0.90397697687149048 0.70242595672607422
0.74034035205841064 0.90731185674667358 0.71197235584259033
0.82722353935241699 0.91325604915618896 0.72724491357803345
0.92333865165710449 0.93954646587371826 0.77294456958770752
