luts/instant_consumer/polaroid_px-70.cube
# Created by: G'MIC (https://gmic.eu)
TITLE "polaroid_px-70"
# LUT size
LUT_3D_SIZE 5
# Data domain
DOMAIN_MIN 0.0 0.0 0.0
DOMAIN_MAX 1.0 1.0 1.0
# LUT data points
0 0.16399119794368744 0.20392157137393951
0.010785076767206192 0.16128760576248169 0.20412693917751312
0.33699476718902588 0.18561804294586182 0.20866721868515015
0.82075941562652588 0.2908080518245697 0.18857838213443756
0.98823881149291992 0.52867609262466431 0.21249088644981384
0 0.22260503470897675 0.20784313976764679
0.040736209601163864 0.23339109122753143 0.20655938982963562
0.42824950814247131 0.27742582559585571 0.19724155962467194
0.83762544393539429 0.41352802515029907 0.1683172881603241
0.98262935876846313 0.58453327417373657 0.20431840419769287
0.0015551099786534905 0.52597635984420776 0.19754359126091003
0.076145663857460022 0.52348560094833374 0.19512513279914856
0.55625778436660767 0.56999564170837402 0.17041191458702087
0.83876717090606689 0.628792405128479 0.14476501941680908
0.95854109525680542 0.67500197887420654 0.19380924105644226
0.43723765015602112 0.78676575422286987 0.26605421304702759
0.50000953674316406 0.77814006805419922 0.27247822284698486
0.66040819883346558 0.78161400556564331 0.28238692879676819
0.82569205760955811 0.79623270034790039 0.29058435559272766
0.92950695753097534 0.8122020959854126 0.33702960610389709
0.77672743797302246 0.90529066324234009 0.49316656589508057
0.78799837827682495 0.90518176555633545 0.49405315518379211
0.82089561223983765 0.90833646059036255 0.50606811046600342
0.87207275629043579 0.9130750298500061 0.51593756675720215
0.92851799726486206 0.92647367715835571 0.531516432762146
0.00038927863352000713 0.16272646188735962 0.21894626319408417
0.012966111302375793 0.17476879060268402 0.22127665579319
0.37364855408668518 0.17909726500511169 0.2388814389705658
0.85328644514083862 0.32363989949226379 0.26485562324523926
0.98069578409194946 0.59352177381515503 0.33207607269287109
0 0.25380375981330872 0.23803302645683289
0.10476256906986237 0.25250840187072754 0.2393462061882019
0.49335432052612305 0.30654332041740417 0.24730373919010162
0.85486316680908203 0.4626069962978363 0.2609952986240387
0.97348624467849731 0.62848728895187378 0.32452273368835449
0.080528229475021362 0.55317407846450806 0.25468000769615173
0.25211909413337708 0.54764002561569214 0.25318652391433716
0.5957217812538147 0.58305209875106812 0.24900506436824799
0.84723961353302002 0.63186043500900269 0.24227713048458099
0.95291304588317871 0.69331222772598267 0.29989314079284668
0.51611435413360596 0.79086631536483765 0.3317902684211731
0.57005506753921509 0.78381472826004028 0.34005060791969299
0.6922910213470459 0.78660839796066284 0.35590627789497375
0.83474183082580566 0.7995917797088623 0.36060306429862976
0.92667758464813232 0.81794685125350952 0.39622953534126282
0.78241491317749023 0.90536123514175415 0.5048980712890625
0.79597181081771851 0.9050336480140686 0.50951790809631348
0.8256833553314209 0.90675288438796997 0.51330530643463135
0.87649160623550415 0.91577059030532837 0.52799373865127563
0.93209338188171387 0.9274287223815918 0.54424911737442017
0.0097086438909173012 0.1866220086812973 0.30582776665687561
0.20728619396686554 0.21440307796001434 0.31495785713195801
0.49284437298774719 0.3070426881313324 0.33545920252799988
0.84623092412948608 0.33461761474609375 0.39686205983161926
0.97870641946792603 0.57907354831695557 0.44120147824287415
0.0087593374773859978 0.30332022905349731 0.34364265203475952
0.27043324708938599 0.31794542074203491 0.35040879249572754
0.58045107126235962 0.43236041069030762 0.36289620399475098
0.85509598255157471 0.48296979069709778 0.40815648436546326
0.95962321758270264 0.67052584886550903 0.46351808309555054
0.19961389899253845 0.57848066091537476 0.37490519881248474
0.38713639974594116 0.57639765739440918 0.37903282046318054
0.67032337188720703 0.61808103322982788 0.39987027645111084
0.85498911142349243 0.69097596406936646 0.43377059698104858
0.94100618362426758 0.7657807469367981 0.4792141318321228
0.63046956062316895 0.79384249448776245 0.44732624292373657
0.67360121011734009 0.78995519876480103 0.44772961735725403
0.74639570713043213 0.79284155368804932 0.45485424995422363
0.84419572353363037 0.80593967437744141 0.46547821164131165
0.93243014812469482 0.82199913263320923 0.47741824388504028
0.80559784173965454 0.90428465604782104 0.53389519453048706
0.81116294860839844 0.90420567989349365 0.5364450216293335
0.83582597970962524 0.90408784151077271 0.54157829284667969
0.88554853200912476 0.91528302431106567 0.55248892307281494
0.9364205002784729 0.92861270904541016 0.56553512811660767
0.3720182478427887 0.28305187821388245 0.532631516456604
0.54727143049240112 0.33700579404830933 0.53329408168792725
0.77889019250869751 0.52081495523452759 0.53567183017730713
0.86911940574645996 0.67391872406005859 0.53737831115722656
0.94345283508300781 0.68501728773117065 0.54571390151977539
0.3849845826625824 0.42330563068389893 0.54120194911956787
0.56365245580673218 0.46445944905281067 0.5377662181854248
0.78693622350692749 0.61382573843002319 0.53964132070541382
0.87156552076339722 0.72455030679702759 0.54334646463394165
0.94055110216140747 0.73058933019638062 0.54980701208114624
0.35636225342750549 0.64616656303405762 0.52781444787979126
0.51109516620635986 0.64410167932510376 0.5268937349319458
0.76629352569580078 0.70624238252639771 0.53972280025482178
0.86804658174514771 0.78139370679855347 0.54721355438232422
0.93157553672790527 0.79031527042388916 0.55727440118789673
0.64566236734390259 0.80195736885070801 0.53449445962905884
0.6805458664894104 0.79392093420028687 0.53531521558761597
0.76913893222808838 0.80066758394241333 0.54328930377960205
0.86069691181182861 0.82603532075881958 0.549346923828125
0.93549323081970215 0.85674405097961426 0.56221067905426025
0.81053400039672852 0.90973472595214844 0.56890785694122314
0.81856083869934082 0.90848290920257568 0.56792306900024414
0.84646427631378174 0.91071027517318726 0.57267999649047852
0.89581495523452759 0.92014032602310181 0.58193153142929077
0.94384604692459106 0.93219965696334839 0.5939214825630188
0.7689937949180603 0.65367287397384644 0.63793802261352539
0.80622893571853638 0.6817205548286438 0.6311461329460144
0.87183070182800293 0.75741744041442871 0.62259918451309204
0.91170352697372437 0.82520830631256104 0.60743981599807739
0.94493216276168823 0.85965871810913086 0.61083024740219116
0.77570396661758423 0.70606613159179688 0.63393324613571167
0.80809807777404785 0.72366797924041748 0.62916439771652222
0.86825823783874512 0.78203314542770386 0.61992067098617554
0.91891461610794067 0.84455734491348267 0.61389374732971191
0.94371294975280762 0.8687254786491394 0.61108368635177612
0.74442905187606812 0.7661089301109314 0.62396228313446045
0.779990553855896 0.77346944808959961 0.62308579683303833
0.85036516189575195 0.80403667688369751 0.61770713329315186
0.91231095790863037 0.85955321788787842 0.61418145895004272
0.93963587284088135 0.87083512544631958 0.60900342464447021
0.72041648626327515 0.83450937271118164 0.61315697431564331
0.73944401741027832 0.8321189284324646 0.61110806465148926
0.79974496364593506 0.83703255653381348 0.61219519376754761
0.89284098148345947 0.87537044286727905 0.61676466464996338
0.949817955493927 0.91389322280883789 0.62447160482406616
0.833526611328125 0.92813682556152344 0.62210983037948608
0.83875828981399536 0.92820453643798828 0.62012547254562378
0.8655129075050354 0.9288221001625061 0.62470138072967529
0.90527695417404175 0.93064987659454346 0.62779992818832397
0.9512665867805481 0.94699633121490479 0.64428257942199707
