luts/instant_consumer/polaroid_time_zero_expired_++.cube
# Created by: G'MIC (https://gmic.eu)
TITLE "polaroid_time_zero_expired_++"
# LUT size
LUT_3D_SIZE 5
# Data domain
DOMAIN_MIN 0.0 0.0 0.0
DOMAIN_MAX 1.0 1.0 1.0
# LUT data points
0.75151526927947998 0.50812208652496338 0.1336071640253067
0.75934886932373047 0.50431019067764282 0.12898313999176025
0.78039216995239258 0.50876414775848389 0.13612022995948792
0.82927078008651733 0.51748782396316528 0.13777646422386169
0.90261465311050415 0.53064239025115967 0.14148958027362823
0.75443649291992188 0.53402554988861084 0.12545286118984222
0.7633785605430603 0.52841222286224365 0.1299346536397934
0.78339612483978271 0.53019678592681885 0.13604088127613068
0.82912921905517578 0.54042786359786987 0.12741488218307495
0.9056740403175354 0.5602954626083374 0.12351087480783463
0.76063567399978638 0.57841736078262329 0.11292386800050735
0.77131640911102295 0.57093828916549683 0.11549655348062515
0.79459333419799805 0.57815057039260864 0.12089553475379944
0.83905494213104248 0.59642136096954346 0.11528448760509491
0.91187775135040283 0.61989736557006836 0.096224747598171234
0.77486175298690796 0.67061448097229004 0.021624412387609482
0.7860255241394043 0.6691584587097168 0.019202407449483871
0.8149343729019165 0.67682570219039917 0.035687688738107681
0.86746364831924438 0.70118415355682373 0.071978040039539337
0.93009215593338013 0.72632741928100586 0.15602667629718781
0.80921381711959839 0.81398254632949829 2.8004365958622657e-05
0.82217699289321899 0.81535571813583374 0.0010532753076404333
0.85188603401184082 0.81906288862228394 0.0034993789158761501
0.90505772829055786 0.82432842254638672 0.061519384384155273
0.9551202654838562 0.82894772291183472 0.30904850363731384
0.75648719072341919 0.50806647539138794 0.14480344951152802
0.76278501749038696 0.5049474835395813 0.14674575626850128
0.7820507287979126 0.510112464427948 0.16122156381607056
0.83293503522872925 0.51962733268737793 0.17724320292472839
0.91408514976501465 0.53285276889801025 0.1791406124830246
0.75903165340423584 0.52837455272674561 0.14729708433151245
0.76538002490997314 0.5241970419883728 0.15410970151424408
0.78586059808731079 0.5289798378944397 0.17136639356613159
0.83541792631149292 0.53729468584060669 0.17571921646595001
0.9179832935333252 0.55379635095596313 0.17006947100162506
0.76170986890792847 0.57284504175186157 0.14844036102294922
0.77134948968887329 0.57053285837173462 0.1499892920255661
0.79774171113967896 0.5809941291809082 0.16342349350452423
0.84404689073562622 0.59516972303390503 0.1566367894411087
0.92131471633911133 0.61785334348678589 0.14821426570415497
0.77325284481048584 0.67420738935470581 0.088561281561851501
0.78235143423080444 0.67322307825088501 0.079202301800251007
0.81540143489837646 0.68447661399841309 0.057925775647163391
0.87072610855102539 0.70792871713638306 0.13121844828128815
0.92954343557357788 0.7293776273727417 0.19707092642784119
0.80441474914550781 0.81581330299377441 0.022575767710804939
0.8157457709312439 0.81712234020233154 0.0065640918910503387
0.8486335277557373 0.81901472806930542 0.00012251909356564283
0.9043470025062561 0.82377451658248901 0.14818876981735229
0.95486998558044434 0.82795512676239014 0.34523093700408936
0.77495837211608887 0.51388108730316162 0.24217265844345093
0.78114843368530273 0.51131325960159302 0.24762184917926788
0.79634219408035278 0.52091509103775024 0.25490686297416687
0.83672988414764404 0.52760833501815796 0.26485228538513184
0.91242003440856934 0.53218263387680054 0.30137541890144348
0.77843135595321655 0.53183305263519287 0.2472938746213913
0.78279024362564087 0.53168296813964844 0.247353196144104
0.80114704370498657 0.54101312160491943 0.26112085580825806
0.84398478269577026 0.54218101501464844 0.26694813370704651
0.9212491512298584 0.55028301477432251 0.29316422343254089
0.7744063138961792 0.57854962348937988 0.22902309894561768
0.7821277379989624 0.57620036602020264 0.23432302474975586
0.80710774660110474 0.59059435129165649 0.23827920854091644
0.85297662019729614 0.59611600637435913 0.24846765398979187
0.9273790717124939 0.60607719421386719 0.25803893804550171
0.77245181798934937 0.67720121145248413 0.21314249932765961
0.7810899019241333 0.67009902000427246 0.20483829081058502
0.81022745370864868 0.68386751413345337 0.19748035073280334
0.87363547086715698 0.71412175893783569 0.26411840319633484
0.933338463306427 0.7260361909866333 0.28333541750907898
0.80009371042251587 0.8190314769744873 0.25538209080696106
0.80770516395568848 0.81311392784118652 0.22558879852294922
0.83892643451690674 0.82274782657623291 0.19538797438144684
0.8986695408821106 0.82744967937469482 0.23598426580429077
0.95309740304946899 0.83461123704910278 0.45077195763587952
0.81533622741699219 0.53379815816879272 0.49330618977546692
0.82030147314071655 0.53952687978744507 0.48189297318458557
0.83711206912994385 0.55268734693527222 0.49761620163917542
0.8628121018409729 0.56252342462539673 0.48405426740646362
0.92395603656768799 0.55339515209197998 0.48596087098121643
0.82110685110092163 0.56943053007125854 0.48445147275924683
0.82457560300827026 0.57266819477081299 0.48212596774101257
0.84191960096359253 0.58867979049682617 0.49627450108528137
0.86757612228393555 0.59727275371551514 0.48572668433189392
0.92539393901824951 0.58000171184539795 0.48339760303497314
0.81951510906219482 0.62647080421447754 0.46419805288314819
0.82328158617019653 0.62730687856674194 0.45485413074493408
0.84790509939193726 0.64859271049499512 0.47357740998268127
0.87207049131393433 0.65719485282897949 0.4711882472038269
0.93199038505554199 0.62701946496963501 0.49129638075828552
0.8018072247505188 0.69648414850234985 0.41195109486579895
0.80851876735687256 0.69259178638458252 0.4091448187828064
0.83190453052520752 0.70770847797393799 0.42650496959686279
0.87591946125030518 0.72972404956817627 0.45566344261169434
0.93804353475570679 0.72365647554397583 0.43943619728088379
0.80582648515701294 0.80837005376815796 0.43117263913154602
0.8235175609588623 0.80263024568557739 0.44200354814529419
0.83304733037948608 0.82069891691207886 0.44767671823501587
0.88366222381591797 0.82835692167282104 0.43826225399971008
0.94862037897109985 0.83721005916595459 0.57668733596801758
0.85697567462921143 0.62439465522766113 0.72363018989562988
0.86030483245849609 0.62225168943405151 0.7225271463394165
0.86941182613372803 0.63491344451904297 0.72435617446899414
0.88624638319015503 0.66030251979827881 0.72966563701629639
0.91506427526473999 0.67552304267883301 0.7149890661239624
0.86751323938369751 0.66946351528167725 0.72420996427536011
0.8702424168586731 0.6658700704574585 0.72837215662002563
0.87652432918548584 0.67667019367218018 0.71809369325637817
0.89050960540771484 0.69777840375900269 0.72987395524978638
0.91746634244918823 0.69934147596359253 0.71888858079910278
0.87378615140914917 0.72856682538986206 0.71348565816879272
0.87940913438796997 0.72569727897644043 0.70945781469345093
0.89299672842025757 0.73429566621780396 0.71834802627563477
0.89804565906524658 0.75341832637786865 0.72666692733764648
0.91787475347518921 0.75118380784988403 0.71689069271087646
0.857940673828125 0.771778404712677 0.71336597204208374
0.86813783645629883 0.76826709508895874 0.70246052742004395
0.88892030715942383 0.78141874074935913 0.7153085470199585
0.90470039844512939 0.79900443553924561 0.72956556081771851
0.93234312534332275 0.80065882205963135 0.73349142074584961
0.86009347438812256 0.82847034931182861 0.70274585485458374
0.8662223219871521 0.82562166452407837 0.69925618171691895
0.87732326984405518 0.83014827966690063 0.70311039686203003
0.89986550807952881 0.84256625175476074 0.72580111026763916
0.94115197658538818 0.84906274080276489 0.73802900314331055
