luts/instant_consumer/polaroid_px-70_warm_-.cube
# Created by: G'MIC (https://gmic.eu)
TITLE "polaroid_px-70_warm_-"
# LUT size
LUT_3D_SIZE 5
# Data domain
DOMAIN_MIN 0.0 0.0 0.0
DOMAIN_MAX 1.0 1.0 1.0
# LUT data points
0.025520579889416695 0.089914850890636444 0.099759720265865326
0.19372384250164032 0.088174872100353241 0.10170373320579529
0.5433804988861084 0.066264480352401733 0.13066822290420532
0.9205852746963501 0.29025575518608093 0.1257464736700058
1 0.54460203647613525 0.1720634251832962
0.056137114763259888 0.20946380496025085 0.13430546224117279
0.23563423752784729 0.2227918952703476 0.13274958729743958
0.58937090635299683 0.24403050541877747 0.11830291897058487
0.90971910953521729 0.41547378897666931 0.077547334134578705
1 0.59690290689468384 0.15285038948059082
0.0093764215707778931 0.54749757051467896 0.14410707354545593
0.28772306442260742 0.54663503170013428 0.14670220017433167
0.64321231842041016 0.58055102825164795 0.084939964115619659
0.89434093236923218 0.63326448202133179 0.0051171993836760521
0.99902689456939697 0.68771111965179443 0.060364875942468643
0.46205216646194458 0.81231534481048584 0.23993141949176788
0.53497809171676636 0.80321264266967773 0.24870213866233826
0.70242863893508911 0.80756866931915283 0.24543541669845581
0.86964285373687744 0.8181416392326355 0.22029189765453339
0.97807687520980835 0.82812356948852539 0.25287565588951111
0.77609771490097046 0.93395477533340454 0.4816778302192688
0.78987646102905273 0.93284893035888672 0.48487129807472229
0.83067452907562256 0.93191957473754883 0.49889987707138062
0.89078408479690552 0.93777990341186523 0.50431638956069946
0.9524531364440918 0.94481492042541504 0.51455062627792358
0.066168494522571564 0.10438048094511032 0.18608289957046509
0.20879112184047699 0.12728902697563171 0.1893390417098999
0.5715363621711731 0.065135613083839417 0.2251579612493515
0.93758445978164673 0.33443799614906311 0.27175545692443848
1 0.60191422700881958 0.33941882848739624
0.13180439174175262 0.23144012689590454 0.21944163739681244
0.2960762083530426 0.24602244794368744 0.22674864530563354
0.63920295238494873 0.30125996470451355 0.24287188053131104
0.92204296588897705 0.4808661937713623 0.2630559504032135
0.99893426895141602 0.64060789346694946 0.32773509621620178
0.27908980846405029 0.5710950493812561 0.25373217463493347
0.39361304044723511 0.56933510303497314 0.24890969693660736
0.67878156900405884 0.59791529178619385 0.23588129878044128
0.89826500415802002 0.63665997982025146 0.20871567726135254
0.99798786640167236 0.70560616254806519 0.26478192210197449
0.52593696117401123 0.81339019536972046 0.32242488861083984
0.59789341688156128 0.81025213003158569 0.33331644535064697
0.72941410541534424 0.81223708391189575 0.34438547492027283
0.87053358554840088 0.81911903619766235 0.32560473680496216
0.97559088468551636 0.83008182048797607 0.3495144248008728
0.78859657049179077 0.93360280990600586 0.50403791666030884
0.80309879779815674 0.93256056308746338 0.50984328985214233
0.84121167659759521 0.93201017379760742 0.52331185340881348
0.89430075883865356 0.93744206428527832 0.52486032247543335
0.95429611206054688 0.9458458423614502 0.53577786684036255
0.22883060574531555 0.16032706201076508 0.36679637432098389
0.42565411329269409 0.20066799223423004 0.37286823987960815
0.6630784273147583 0.32924187183380127 0.38464465737342834
0.91497635841369629 0.33751705288887024 0.43400660157203674
0.99910539388656616 0.58253371715545654 0.46797007322311401
0.24092161655426025 0.3135143518447876 0.39043372869491577
0.44879895448684692 0.33582046627998352 0.39849647879600525
0.70432209968566895 0.45961618423461914 0.40666759014129639
0.91843181848526001 0.49449193477630615 0.44418978691101074
0.99835002422332764 0.675994873046875 0.48582687973976135
0.3498150110244751 0.58953309059143066 0.4037996232509613
0.49489736557006836 0.59573960304260254 0.40812599658966064
0.73744642734527588 0.63263267278671265 0.42817133665084839
0.9040643572807312 0.70034760236740112 0.45098841190338135
0.98894834518432617 0.77656149864196777 0.49153605103492737
0.65098971128463745 0.81732910871505737 0.46265360713005066
0.69823020696640015 0.81479489803314209 0.46466881036758423
0.77944004535675049 0.81522238254547119 0.46534749865531921
0.8815765380859375 0.82464265823364258 0.46606689691543579
0.97886461019515991 0.83394801616668701 0.46414294838905334
0.82159918546676636 0.93376237154006958 0.55169022083282471
0.82527965307235718 0.93198865652084351 0.54835599660873413
0.85764890909194946 0.93306839466094971 0.55895984172821045
0.9014962911605835 0.93794852495193481 0.57011336088180542
0.95627474784851074 0.94494515657424927 0.57914793491363525
0.56385612487792969 0.31845414638519287 0.58279049396514893
0.69554859399795532 0.38268879055976868 0.58142268657684326
0.85199761390686035 0.57476454973220825 0.57409805059432983
0.92001092433929443 0.69733762741088867 0.57074952125549316
0.98753935098648071 0.69117027521133423 0.57599920034408569
0.5455358624458313 0.45655205845832825 0.57981085777282715
0.68005627393722534 0.50234025716781616 0.57891488075256348
0.84755641222000122 0.64750999212265015 0.57543957233428955
0.91630303859710693 0.74285942316055298 0.57500022649765015
0.98354893922805786 0.74222511053085327 0.58254057168960571
0.45700553059577942 0.66097491979598999 0.55724215507507324
0.58399957418441772 0.66199767589569092 0.55873775482177734
0.81509995460510254 0.72074419260025024 0.57186317443847656
0.90963268280029297 0.80062985420227051 0.57815241813659668
0.97025108337402344 0.80379831790924072 0.58866828680038452
0.64937984943389893 0.82065200805664062 0.56066173315048218
0.7005200982093811 0.82010549306869507 0.56315314769744873
0.8026728630065918 0.82362347841262817 0.57116621732711792
0.89721167087554932 0.84346115589141846 0.57961267232894897
0.9700356125831604 0.87685799598693848 0.60023164749145508
0.82523083686828613 0.93789172172546387 0.6035454273223877
0.84022760391235352 0.93473029136657715 0.60718119144439697
0.87796533107757568 0.93848323822021484 0.61957865953445435
0.91343837976455688 0.94005399942398071 0.63326913118362427
0.96000832319259644 0.94874775409698486 0.6426205039024353
0.82032746076583862 0.68667358160018921 0.70141416788101196
0.85231214761734009 0.71554559469223022 0.69755154848098755
0.90641921758651733 0.78397345542907715 0.68983876705169678
0.94465535879135132 0.85460710525512695 0.6818697452545166
0.96557867527008057 0.87365013360977173 0.68299651145935059
0.8163902759552002 0.72960036993026733 0.70037263631820679
0.84748667478561401 0.7482680082321167 0.69798427820205688
0.9006648063659668 0.80046647787094116 0.69139671325683594
0.944358229637146 0.86363512277603149 0.68628013134002686
0.96564346551895142 0.88577795028686523 0.69014137983322144
0.78271710872650146 0.78338289260864258 0.69387829303741455
0.81549620628356934 0.79052329063415527 0.6908714771270752
0.88328558206558228 0.82507026195526123 0.69250941276550293
0.93930232524871826 0.88117122650146484 0.69460922479629517
0.9625924825668335 0.90639674663543701 0.69964069128036499
0.73008811473846436 0.85203534364700317 0.6862102746963501
0.75604021549224854 0.85038429498672485 0.68473786115646362
0.82137662172317505 0.85298240184783936 0.6870841383934021
0.91954922676086426 0.89255636930465698 0.70141142606735229
0.95981448888778687 0.93239808082580566 0.71623009443283081
0.82963556051254272 0.94729876518249512 0.70818740129470825
0.83867567777633667 0.9445461630821228 0.7085111141204834
0.87007176876068115 0.94581693410873413 0.71502339839935303
0.90986102819442749 0.94837719202041626 0.72562229633331299
0.95329374074935913 0.96061402559280396 0.74832391738891602
