luts/instant_consumer/polaroid_time_zero_expired_++.cube
# Created by: G'MIC (https://gmic.eu)
TITLE "polaroid_time_zero_expired_++"
# LUT size
LUT_3D_SIZE 13
# Data domain
DOMAIN_MIN 0.0 0.0 0.0
DOMAIN_MAX 1.0 1.0 1.0
# LUT data points
0.75151526927947998 0.50812208652496338 0.1336071640253067
0.75314903259277344 0.50665497779846191 0.12987130880355835
0.75647705793380737 0.50561881065368652 0.12901367247104645
0.75934886932373047 0.50431019067764282 0.12898313999176025
0.76415443420410156 0.5052039623260498 0.12994338572025299
0.77107840776443481 0.5067715048789978 0.1330430805683136
0.78039216995239258 0.50876414775848389 0.13612022995948792
0.79270833730697632 0.51166129112243652 0.13888555765151978
0.80919116735458374 0.51446491479873657 0.13896451890468597
0.82927078008651733 0.51748782396316528 0.13777646422386169
0.85291051864624023 0.52112448215484619 0.13675680756568909
0.87755519151687622 0.52549237012863159 0.13748867809772491
0.90261465311050415 0.53064239025115967 0.14148958027362823
0.75279957056045532 0.51555681228637695 0.12996990978717804
0.75464808940887451 0.51380401849746704 0.12870329618453979
0.75696772336959839 0.51237952709197998 0.12754791975021362
0.76041138172149658 0.51163661479949951 0.12900842726230621
0.76502072811126709 0.51174503564834595 0.13071213662624359
0.7713468074798584 0.51259344816207886 0.13378247618675232
0.78062105178833008 0.51469153165817261 0.13624216616153717
0.7930031418800354 0.51717829704284668 0.13768292963504791
0.80919116735458374 0.52003580331802368 0.13710132241249084
0.82914942502975464 0.52356314659118652 0.13500386476516724
0.853107750415802 0.52778708934783936 0.13295873999595642
0.87820243835449219 0.53281056880950928 0.13244614005088806
0.90404927730560303 0.53879570960998535 0.13514119386672974
0.75301408767700195 0.52401101589202881 0.12765978276729584
0.75627702474594116 0.52191281318664551 0.12599557638168335
0.75804799795150757 0.52037125825881958 0.12728013098239899
0.76164114475250244 0.51934319734573364 0.1294465959072113
0.76633858680725098 0.51908552646636963 0.13174320757389069
0.77271044254302979 0.51981693506240845 0.13449175655841827
0.78175705671310425 0.5214158296585083 0.13618965446949005
0.79400211572647095 0.52387279272079468 0.13639916479587555
0.80920672416687012 0.52697658538818359 0.13458004593849182
0.82914942502975464 0.53083336353302002 0.13158349692821503
0.853107750415802 0.53573489189147949 0.12867799401283264
0.87854623794555664 0.54159188270568848 0.12737233936786652
0.90496194362640381 0.54820895195007324 0.12927274405956268
0.75443649291992188 0.53402554988861084 0.12545286118984222
0.75695329904556274 0.53194701671600342 0.12557430565357208
0.759987473487854 0.52989357709884644 0.12729868292808533
0.7633785605430603 0.52841222286224365 0.1299346536397934
0.76812577247619629 0.52800244092941284 0.13237333297729492
0.77470493316650391 0.52851682901382446 0.13458088040351868
0.78339612483978271 0.53019678592681885 0.13604088127613068
0.79522991180419922 0.53263616561889648 0.13461151719093323
0.80983471870422363 0.53600811958312988 0.13154779374599457
0.82912921905517578 0.54042786359786987 0.12741488218307495
0.8531305193901062 0.54612606763839722 0.12377104163169861
0.87884080410003662 0.55283164978027344 0.12204220145940781
0.9056740403175354 0.5602954626083374 0.12351087480783463
0.75655257701873779 0.54647988080978394 0.1230844259262085
0.75869345664978027 0.54423832893371582 0.12396854907274246
0.76162815093994141 0.54164969921112061 0.1263543963432312
0.76572972536087036 0.53993767499923706 0.1288638710975647
0.77076435089111328 0.53945422172546387 0.13134260475635529
0.77746391296386719 0.54033440351486206 0.13326896727085114
0.78606349229812622 0.54189848899841309 0.133755162358284
0.79717534780502319 0.54473304748535156 0.1322321891784668
0.81177973747253418 0.54857075214385986 0.12794637680053711
0.83019340038299561 0.5536152720451355 0.12246374785900116
0.85358244180679321 0.56006652116775513 0.11795634776353836
0.87976878881454468 0.56762301921844482 0.11566101014614105
0.9069589376449585 0.57583379745483398 0.11640468239784241
0.75797373056411743 0.56178766489028931 0.11905143409967422
0.7607877254486084 0.55893278121948242 0.12038997560739517
0.76405388116836548 0.55591261386871338 0.12300329655408859
0.76844531297683716 0.55432945489883423 0.12501080334186554
0.77413398027420044 0.55466306209564209 0.12666724622249603
0.78117579221725464 0.5553467869758606 0.12862369418144226
0.78977018594741821 0.55781245231628418 0.12977223098278046
0.80086439847946167 0.56124430894851685 0.12846718728542328
0.81492215394973755 0.56576985120773315 0.12398923933506012
0.83315658569335938 0.57184964418411255 0.11798015236854553
0.85600358247756958 0.57905691862106323 0.11247407644987106
0.8820497989654541 0.58713799715042114 0.10823205858469009
0.90879839658737183 0.59555250406265259 0.10671123117208481
0.76063567399978638 0.57841736078262329 0.11292386800050735
0.76334679126739502 0.57555866241455078 0.11361520737409592
0.76641744375228882 0.5728142261505127 0.11551637947559357
0.77131640911102295 0.57093828916549683 0.11549655348062515
0.77788490056991577 0.57344251871109009 0.1153709888458252
0.78546589612960815 0.57496601343154907 0.11779972165822983
0.79459333419799805 0.57815057039260864 0.12089553475379944
0.80603069067001343 0.58270895481109619 0.12135834246873856
0.82077580690383911 0.58899825811386108 0.1191047802567482
0.83905494213104248 0.59642136096954346 0.11528448760509491
0.86137855052947998 0.60434174537658691 0.10992345213890076
0.88631695508956909 0.61222732067108154 0.10255113244056702
0.91187775135040283 0.61989736557006836 0.096224747598171234
0.76343339681625366 0.59771233797073364 0.10144397616386414
0.76590228080749512 0.5957564115524292 0.099891096353530884
0.76924240589141846 0.59456801414489746 0.10016841441392899
0.77461349964141846 0.59516781568527222 0.096550002694129944
0.78179699182510376 0.59738218784332275 0.093004576861858368
0.79019147157669067 0.6002197265625 0.097011640667915344
0.80022108554840088 0.60381191968917847 0.10365249216556549
0.81308197975158691 0.6099013090133667 0.10734185576438904
0.82897424697875977 0.61802095174789429 0.10887349396944046
0.84798556566238403 0.62705498933792114 0.11158529669046402
0.86947822570800781 0.63608521223068237 0.11293228715658188
0.89282476902008057 0.64377635717391968 0.10569103807210922
0.91644859313964844 0.64994847774505615 0.093549914658069611
0.76783472299575806 0.62580561637878418 0.071981452405452728
0.77027601003646851 0.62645208835601807 0.06780165433883667
0.77327054738998413 0.6248779296875 0.071866057813167572
0.77906155586242676 0.62637478113174438 0.063284493982791901
0.7868422269821167 0.63006818294525146 0.055299364030361176
0.79581207036972046 0.63293832540512085 0.063543163239955902
0.80695509910583496 0.63620787858963013 0.074653521180152893
0.82092630863189697 0.64294862747192383 0.079721875488758087
0.83823531866073608 0.65200066566467285 0.085599325597286224
0.85758113861083984 0.6625598669052124 0.10042144358158112
0.87917470932006836 0.673145592212677 0.12013675272464752
0.90110784769058228 0.68105626106262207 0.12543192505836487
0.92273604869842529 0.68586522340774536 0.11169218271970749
0.77486175298690796 0.67061448097229004 0.021624412387609482
0.77703779935836792 0.67038947343826294 0.021916063502430916
0.78014189004898071 0.66780191659927368 0.029485439881682396
0.7860255241394043 0.6691584587097168 0.019202407449483871
0.79400551319122314 0.67237985134124756 0.011538770981132984
0.80313050746917725 0.67426013946533203 0.023865822702646255
0.8149343729019165 0.67682570219039917 0.035687688738107681
0.82976424694061279 0.68237447738647461 0.037742674350738525
0.84803920984268188 0.6903529167175293 0.043428923934698105
0.86746364831924438 0.70118415355682373 0.071978040039539337
0.88858604431152344 0.71256726980209351 0.12005423754453659
0.90960925817489624 0.72143495082855225 0.15404891967773438
0.93009215593338013 0.72632741928100586 0.15602667629718781
0.78313136100769043 0.71890521049499512 0.00031018725712783635
0.78574615716934204 0.7191959023475647 0.00034092922578565776
0.78943145275115967 0.71759188175201416 0.0019154866458848119
0.7951081395149231 0.71804332733154297 0.00021477493282873183
0.80272090435028076 0.71972739696502686 0
0.81222140789031982 0.72130781412124634 0.0015788358869031072
0.82454425096511841 0.72382587194442749 0.0058642816729843616
0.84023422002792358 0.72789955139160156 0.0037638046778738499
0.85797876119613647 0.73359370231628418 0.0040030237287282944
0.87719041109085083 0.7418510913848877 0.032430313527584076
0.89694631099700928 0.74952411651611328 0.097185410559177399
0.91591113805770874 0.75583177804946899 0.15757571160793304
0.93634504079818726 0.76539969444274902 0.21332372725009918
0.79402238130569458 0.76604759693145752 0
0.79709678888320923 0.76741337776184082 0
0.80120331048965454 0.76735842227935791 0
0.80694687366485596 0.7674795389175415 0
0.8141973614692688 0.76849377155303955 0
0.82367444038391113 0.77023333311080933 0
0.83648127317428589 0.77297991514205933 0
0.85254913568496704 0.77664029598236084 0
0.87026911973953247 0.78049266338348389 0
0.88914060592651367 0.78436183929443359 0.015583711676299572
0.90722781419754028 0.78614252805709839 0.09125952422618866
0.92419755458831787 0.78763341903686523 0.16108940541744232
0.9431423544883728 0.79520058631896973 0.23267009854316711
0.80921381711959839 0.81398254632949829 2.8004365958622657e-05
0.81259065866470337 0.81513106822967529 0.00089341704733669758
0.81698650121688843 0.81543660163879395 0.0015705781988799572
0.82217699289321899 0.81535571813583374 0.0010532753076404333
0.82949036359786987 0.81592923402786255 0.00094320258358493447
0.83885884284973145 0.81743097305297852 0.0021705327089875937
0.85188603401184082 0.81906288862228394 0.0034993789158761501
0.86850661039352417 0.82140141725540161 0.0023263071198016405
0.88758158683776855 0.82289022207260132 0.0066302279010415077
0.90505772829055786 0.82432842254638672 0.061519384384155273
0.92160028219223022 0.82397764921188354 0.14919589459896088
0.93768864870071411 0.82384884357452393 0.22952921688556671
0.9551202654838562 0.82894772291183472 0.30904850363731384
0.75283247232437134 0.50790214538574219 0.13363669812679291
0.75418579578399658 0.50662714242935181 0.1300169974565506
0.7568468451499939 0.50526201725006104 0.12941177189350128
0.75978410243988037 0.50428920984268188 0.13051587343215942
0.76418006420135498 0.50508725643157959 0.13355785608291626
0.77107840776443481 0.50689786672592163 0.13750158250331879
0.78040498495101929 0.50874102115631104 0.14166505634784698
0.79277896881103516 0.51169675588607788 0.14491188526153564
0.80919116735458374 0.51461917161941528 0.14661677181720734
0.83075559139251709 0.51790380477905273 0.14676646888256073
0.8548855185508728 0.52175521850585938 0.14586523175239563
0.88087910413742065 0.52621293067932129 0.14605885744094849
0.90703439712524414 0.53128784894943237 0.14903163909912109
0.75301426649093628 0.51484853029251099 0.13079723715782166
0.7560417652130127 0.51296651363372803 0.12941193580627441
0.7570614218711853 0.51170927286148071 0.12954539060592651
0.76063317060470581 0.51121383905410767 0.13152222335338593
0.76493316888809204 0.51125293970108032 0.13510231673717499
0.77121531963348389 0.51214826107025146 0.13924305140972137
0.78051257133483887 0.51441502571105957 0.14309790730476379
0.79290002584457397 0.51659059524536133 0.14554111659526825
0.80919116735458374 0.51976257562637329 0.14628924429416656
0.83055835962295532 0.52338796854019165 0.1454753577709198
0.85493355989456177 0.52756893634796143 0.14361812174320221
0.88149857521057129 0.53266680240631104 0.14251929521560669
0.90831655263900757 0.53848636150360107 0.14400212466716766
0.75417691469192505 0.52265334129333496 0.12963594496250153
0.75684541463851929 0.52072030305862427 0.12940403819084167
0.75844353437423706 0.51909613609313965 0.13037100434303284
0.76160776615142822 0.51810520887374878 0.13339483737945557
0.76619166135787964 0.51802486181259155 0.13730339705944061
0.77244752645492554 0.51898574829101562 0.14131022989749908
0.7813955545425415 0.52060633897781372 0.14458833634853363
0.79389506578445435 0.52306550741195679 0.14599372446537018
0.80923700332641602 0.52608633041381836 0.1457279771566391
0.83043199777603149 0.52996248006820679 0.14320191740989685
0.85481721162796021 0.53468507528305054 0.14076216518878937
0.88183343410491943 0.54050439596176147 0.13909801840782166
0.90914762020111084 0.54696720838546753 0.14002060890197754
0.7560659646987915 0.5324094295501709 0.12896193563938141
0.75705587863922119 0.53023236989974976 0.12938126921653748
0.76035964488983154 0.52833765745162964 0.13153457641601562
0.76315855979919434 0.5270460844039917 0.13507835566997528
0.76776927709579468 0.52655601501464844 0.13918550312519073
0.77425086498260498 0.52771812677383423 0.14292807877063751
0.78309017419815063 0.529022216796875 0.14549864828586578
0.79514330625534058 0.53161144256591797 0.14605429768562317
0.80993330478668213 0.5347520112991333 0.14374037086963654
0.83038049936294556 0.53896474838256836 0.14017778635025024
0.85460996627807617 0.54443866014480591 0.13680315017700195
0.88198518753051758 0.55115067958831787 0.13548748195171356
0.90992313623428345 0.558601975440979 0.13661913573741913
0.75686198472976685 0.54465633630752563 0.12776914238929749
0.75925570726394653 0.54217857122421265 0.12895086407661438
0.76159524917602539 0.5399850606918335 0.13182996213436127
0.76543992757797241 0.5382726788520813 0.13549228012561798
0.77038419246673584 0.53806239366531372 0.1395278126001358
0.77701032161712646 0.53886169195175171 0.14313302934169769
0.78566116094589233 0.54098355770111084 0.14531718194484711
0.7969743013381958 0.54367488622665405 0.14469343423843384
0.81194514036178589 0.54717111587524414 0.14096465706825256
0.83108812570571899 0.55183243751525879 0.13560029864311218
0.8549308180809021 0.55815696716308594 0.1315615177154541
0.88263428211212158 0.56578487157821655 0.13027003407478333
0.91102004051208496 0.57437670230865479 0.13210703432559967
0.75868171453475952 0.55956053733825684 0.12541693449020386
0.76085305213928223 0.55707073211669922 0.12651644647121429
0.76402872800827026 0.55433028936386108 0.12938201427459717
0.76796108484268188 0.5525326132774353 0.13258825242519379
0.77354425191879272 0.55253159999847412 0.13609634339809418
0.78044521808624268 0.55481988191604614 0.13987931609153748
0.78945243358612061 0.55676209926605225 0.14258794486522675
0.80076169967651367 0.5603872537612915 0.14214660227298737
0.81489378213882446 0.56480836868286133 0.13772456347942352
0.83329033851623535 0.57025188207626343 0.13120384514331818
0.85701662302017212 0.57737380266189575 0.12590479850769043
0.88432228565216064 0.5856134295463562 0.12276032567024231
0.91245532035827637 0.5944334864616394 0.12323448061943054
0.76082175970077515 0.57723832130432129 0.11991865932941437
0.76338082551956177 0.57464379072189331 0.11994200944900513
0.76617085933685303 0.57192659378051758 0.12175118178129196
0.77083778381347656 0.57090431451797485 0.12303700298070908
0.77716374397277832 0.57194006443023682 0.12550678849220276
0.784873366355896 0.57462817430496216 0.13028733432292938
0.79437631368637085 0.57799673080444336 0.13490179181098938
0.80615180730819702 0.58287656307220459 0.13637040555477142
0.82097983360290527 0.58888405561447144 0.13378602266311646
0.83922719955444336 0.59562325477600098 0.12859936058521271
0.86213415861129761 0.60333025455474854 0.1223599761724472
0.88786667585372925 0.61131948232650757 0.1152825728058815
0.91447567939758301 0.61934423446655273 0.1101289764046669
0.76367473602294922 0.59841275215148926 0.10688818991184235
0.76590359210968018 0.59665662050247192 0.10457286238670349
0.76920956373214722 0.59576874971389771 0.10429783165454865
0.77417731285095215 0.5959588885307312 0.10267208516597748
0.78110325336456299 0.59779828786849976 0.10315614938735962
0.78940474987030029 0.600597083568573 0.10984371602535248
0.80024725198745728 0.60479182004928589 0.11804420500993729
0.8133360743522644 0.61121225357055664 0.12290795892477036
0.82919323444366455 0.61905193328857422 0.12498702853918076
0.84804964065551758 0.6275213360786438 0.1254219114780426
0.8698384165763855 0.6359902024269104 0.12363386154174805
0.89355719089508057 0.64350271224975586 0.11554796993732452
0.91790139675140381 0.65009254217147827 0.10491591691970825
0.76774990558624268 0.62913757562637329 0.07539723813533783
0.77025419473648071 0.62928760051727295 0.071857661008834839
0.77324408292770386 0.62829804420471191 0.07244592159986496
0.77859753370285034 0.62938827276229858 0.067726790904998779
0.78607618808746338 0.63129538297653198 0.065546073019504547
0.79535561800003052 0.63426411151885986 0.07501714676618576
0.80698496103286743 0.63849979639053345 0.08671676367521286
0.82146370410919189 0.64554780721664429 0.094999738037586212
0.83841818571090698 0.65459954738616943 0.103476881980896
0.85780680179595947 0.66449117660522461 0.11415364593267441
0.87929123640060425 0.67398226261138916 0.12766970694065094
0.90098333358764648 0.68162024021148682 0.12991359829902649
0.92318606376647949 0.68683195114135742 0.12047775834798813
0.77418971061706543 0.67175173759460449 0.028653403744101524
0.77623242139816284 0.67211365699768066 0.027597241103649139
0.77937382459640503 0.6710936427116394 0.031663499772548676
0.78476893901824951 0.67185920476913452 0.025876123458147049
0.79256206750869751 0.67406195402145386 0.022031836211681366
0.80207765102386475 0.67586296796798706 0.031731609255075455
0.81451255083084106 0.679351806640625 0.042488757520914078
0.83039331436157227 0.68557083606719971 0.04815380647778511
0.84860366582870483 0.69399029016494751 0.058822855353355408
0.86845701932907104 0.70375066995620728 0.085504554212093353
0.88852947950363159 0.71319162845611572 0.12470598518848419
0.90901768207550049 0.72191524505615234 0.15323986113071442
0.92974507808685303 0.72817528247833252 0.16240529716014862
0.78167086839675903 0.71954751014709473 0.0014735502190887928
0.784027099609375 0.72031062841415405 0.0016977946506813169
0.78739768266677856 0.71985089778900146 0.0042966506443917751
0.79300510883331299 0.72009670734405518 0.0024693657178431749
0.8006940484046936 0.72131872177124023 0.0013217701343819499
0.81053411960601807 0.72298097610473633 0.0033747954294085503
0.82354211807250977 0.72568070888519287 0.0075354035943746567
0.84034532308578491 0.73042154312133789 0.0060203550383448601
0.85942536592483521 0.73694407939910889 0.0094397896900773048
0.87894564867019653 0.74464577436447144 0.049388542771339417
0.89815914630889893 0.75145584344863892 0.11127877235412598
0.91624099016189575 0.75811213254928589 0.16627980768680573
0.93646442890167236 0.76793748140335083 0.22110787034034729
0.79166513681411743 0.76722127199172974 0
0.79463428258895874 0.76892280578613281 0
0.79865181446075439 0.7693253755569458 0
0.80427098274230957 0.76907587051391602 0
0.81187552213668823 0.77010560035705566 0
0.82168841361999512 0.77120119333267212 0
0.83481466770172119 0.7737317681312561 0
0.85155999660491943 0.77793401479721069 0
0.87075537443161011 0.78287184238433838 0.00033902935683727264
0.89045244455337524 0.78689014911651611 0.03710506483912468
0.90852260589599609 0.78906387090682983 0.11792305111885071
0.92546838521957397 0.79048466682434082 0.17931759357452393
0.94453722238540649 0.79805386066436768 0.24763882160186768
0.80800050497055054 0.81551802158355713 0.00014935662329662591
0.81100815534591675 0.81675994396209717 0.0021329992450773716
0.81468570232391357 0.81712096929550171 0.0029628230258822441
0.82038408517837524 0.81682783365249634 0.0016549802385270596
0.82789808511734009 0.81720083951950073 0.00065051810815930367
0.83757442235946655 0.81816273927688599 0.00034247006988152862
0.85053354501724243 0.81980502605438232 0.00035861146170645952
0.86777192354202271 0.82268494367599487 0.0005620320443995297
0.88588994741439819 0.82385843992233276 0.0075317383743822575
0.90462297201156616 0.82594865560531616 0.073071107268333435
0.92200696468353271 0.82492417097091675 0.17380426824092865
0.93820440769195557 0.82443588972091675 0.24685750901699066
0.95554035902023315 0.82960641384124756 0.32038384675979614
0.75332558155059814 0.50780099630355835 0.13629786670207977
0.75620931386947632 0.5064932107925415 0.13370370864868164
0.75733500719070435 0.50488275289535522 0.13367281854152679
0.76077759265899658 0.50432944297790527 0.1358732283115387
0.76524192094802856 0.50522512197494507 0.13967032730579376
0.77136468887329102 0.50707542896270752 0.14433956146240234
0.78070628643035889 0.50909125804901123 0.14913104474544525
0.79389947652816772 0.51192373037338257 0.15367585420608521
0.80940639972686768 0.51511698961257935 0.15724581480026245
0.83217424154281616 0.51854264736175537 0.15939705073833466
0.85688972473144531 0.5224459171295166 0.15987604856491089
0.88376027345657349 0.52694606781005859 0.1587921679019928
0.91101741790771484 0.53222155570983887 0.16064649820327759
0.75497055053710938 0.51407241821289062 0.13453079760074615
0.75684815645217896 0.5120851993560791 0.13303476572036743
0.75823181867599487 0.51116406917572021 0.13398893177509308
0.7612234354019165 0.51080560684204102 0.13711278140544891
0.76569908857345581 0.51113671064376831 0.14167766273021698
0.7717822790145874 0.51193416118621826 0.14690853655338287
0.78087490797042847 0.51432979106903076 0.15190905332565308
0.7940373420715332 0.51671642065048218 0.15605622529983521
0.80959546566009521 0.51981627941131592 0.15870676934719086
0.83209741115570068 0.52340102195739746 0.16001304984092712
0.85713279247283936 0.52752864360809326 0.1581876128911972
0.88463425636291504 0.53240138292312622 0.15634378790855408
0.91237741708755493 0.53816324472427368 0.15692271292209625
0.75647908449172974 0.52114599943161011 0.13466346263885498
0.75694149732589722 0.51930516958236694 0.13390228152275085
0.75968831777572632 0.51775276660919189 0.13584661483764648
0.76216036081314087 0.51706826686859131 0.13970266282558441
0.7665601372718811 0.51726782321929932 0.14474290609359741
0.77298921346664429 0.51843464374542236 0.1500321626663208
0.78210538625717163 0.52030962705612183 0.15476348996162415
0.79468387365341187 0.52281433343887329 0.15799142420291901
0.81116330623626709 0.52582985162734985 0.15962333977222443
0.83244961500167847 0.52934849262237549 0.15866503119468689
0.85724127292633057 0.53384959697723389 0.1560768336057663
0.88500511646270752 0.53926640748977661 0.1537492424249649
0.9132307767868042 0.5456729531288147 0.15393945574760437
0.75685650110244751 0.53021788597106934 0.13571986556053162
0.75809121131896973 0.52816379070281982 0.13576796650886536
0.76075518131256104 0.52638357877731323 0.13825471699237823
0.76375526189804077 0.52567195892333984 0.14248058199882507
0.76829934120178223 0.52584230899810791 0.14770123362541199
0.77487611770629883 0.52674216032028198 0.15279540419578552
0.78386348485946655 0.52869623899459839 0.1569446474313736
0.79601645469665527 0.53100728988647461 0.15892168879508972
0.81261831521987915 0.53416901826858521 0.15840694308280945
0.83276426792144775 0.53793942928314209 0.155692458152771
0.85751509666442871 0.54299521446228027 0.1527097225189209
0.88548082113265991 0.5492897629737854 0.15093450248241425
0.91423988342285156 0.5565531849861145 0.15174195170402527
0.75732886791229248 0.54184627532958984 0.13608911633491516
0.76025629043579102 0.539497971534729 0.13691920042037964
0.76192700862884521 0.53767019510269165 0.13982048630714417
0.76571142673492432 0.5368151068687439 0.14401768147945404
0.77064692974090576 0.53700190782546997 0.14901334047317505
0.77754789590835571 0.53819316625595093 0.15393455326557159
0.78665709495544434 0.54065489768981934 0.15759602189064026
0.7985459566116333 0.54348456859588623 0.15838752686977386
0.81385201215744019 0.54669713973999023 0.15599408745765686
0.83340191841125488 0.55084294080734253 0.15130402147769928
0.85804742574691772 0.55655074119567871 0.14729629456996918
0.88620710372924805 0.56382495164871216 0.14617428183555603
