luts/instant_consumer/polaroid_time_zero_expired_cold_-.cube
# Created by: G'MIC (https://gmic.eu)
TITLE "polaroid_time_zero_expired_cold_-"
# LUT size
LUT_3D_SIZE 5
# Data domain
DOMAIN_MIN 0.0 0.0 0.0
DOMAIN_MAX 1.0 1.0 1.0
# LUT data points
0.38433957099914551 0.19319069385528564 0.07655741274356842
0.42949461936950684 0.1882636696100235 0.07885473221540451
0.56710010766983032 0.18469990789890289 0.077763035893440247
0.72934001684188843 0.21638824045658112 0.096128188073635101
0.90085768699645996 0.28284651041030884 0.13158811628818512
0.41123142838478088 0.28743165731430054 0.031908012926578522
0.47172755002975464 0.28918036818504333 0.039844483137130737
0.59473252296447754 0.29329097270965576 0.049676693975925446
0.74445480108261108 0.3173326849937439 0.073360592126846313
0.90600299835205078 0.36816444993019104 0.11734164506196976
0.47692465782165527 0.46699026226997375 0.0012431724462658167
0.53712922334671021 0.47243022918701172 0.0036467758473008871
0.6518128514289856 0.48499062657356262 0.014072822406888008
0.77396219968795776 0.4982963502407074 0.049258630722761154
0.90625780820846558 0.52839535474777222 0.052389346063137054
0.5732235312461853 0.65851610898971558 0
0.61034214496612549 0.66250866651535034 0
0.71067607402801514 0.67495626211166382 0.0038361942861229181
0.82584315538406372 0.69145572185516357 0.054996281862258911
0.92400705814361572 0.71354073286056519 0.23867928981781006
0.71008753776550293 0.82636398077011108 0.001394369057379663
0.73274439573287964 0.82578480243682861 0.00088557822164148092
0.79394781589508057 0.82252651453018188 0.0039495727978646755
0.88245433568954468 0.83096480369567871 0.17825359106063843
0.94796913862228394 0.83321034908294678 0.41708588600158691
0.40971770882606506 0.1889386773109436 0.14554552733898163
0.44408842921257019 0.19405637681484222 0.1515619158744812
0.58475619554519653 0.21326851844787598 0.18111912906169891
0.74011921882629395 0.25160232186317444 0.19338500499725342
0.90803450345993042 0.30443492531776428 0.2125072181224823
0.4404941201210022 0.28600788116455078 0.14711333811283112
0.49583637714385986 0.29895588755607605 0.153302863240242
0.60982316732406616 0.31763210892677307 0.1655210554599762
0.75786948204040527 0.33560442924499512 0.17890933156013489
0.91279381513595581 0.38159465789794922 0.20833544433116913
0.50157606601715088 0.47684544324874878 0.12120139598846436
0.54798269271850586 0.48023921251296997 0.099370323121547699
0.66241812705993652 0.49685081839561462 0.14778563380241394
0.77854782342910767 0.50240731239318848 0.1661316305398941
0.90865141153335571 0.53290164470672607 0.17628960311412811
0.57689481973648071 0.66704869270324707 0.034945648163557053
0.61131757497787476 0.66696727275848389 0.017542790621519089
0.70673912763595581 0.67642468214035034 0.017825452610850334
0.82990121841430664 0.69854515790939331 0.19812537729740143
0.922782301902771 0.71588683128356934 0.30061540007591248
0.71056747436523438 0.83038139343261719 0.11538482457399368
0.73128205537796021 0.83076095581054688 0.084765851497650146
0.791157066822052 0.83270490169525146 0.025702428072690964
0.88123291730880737 0.83018875122070312 0.25323769450187683
0.94851481914520264 0.83513230085372925 0.45439991354942322
0.52184504270553589 0.23481535911560059 0.33908224105834961
0.55351835489273071 0.25671327114105225 0.34553706645965576
0.62203872203826904 0.27718678116798401 0.35056889057159424
0.75372886657714844 0.27758830785751343 0.37117162346839905
0.9041745662689209 0.34300026297569275 0.40110191702842712
0.57016503810882568 0.34235408902168274 0.34718325734138489
0.59450453519821167 0.36047464609146118 0.34374251961708069
0.64990866184234619 0.37296786904335022 0.35022655129432678
0.76764404773712158 0.36297133564949036 0.36382067203521729
0.91281211376190186 0.41478574275970459 0.38752317428588867
0.56791406869888306 0.4742523729801178 0.31081691384315491
0.60344547033309937 0.48705205321311951 0.31239250302314758
0.68155562877655029 0.51140737533569336 0.32151225209236145
0.79069608449935913 0.51243376731872559 0.33579844236373901
0.92168509960174561 0.53938180208206177 0.35074922442436218
0.59181028604507446 0.6675141453742981 0.29192385077476501
0.62693768739700317 0.67242586612701416 0.29809698462486267
0.71190929412841797 0.67861050367355347 0.2819024920463562
0.83073484897613525 0.7013622522354126 0.36798498034477234
0.92565256357192993 0.71461635828018188 0.39438280463218689
0.72000801563262939 0.82673001289367676 0.36685431003570557
0.73653298616409302 0.82706159353256226 0.35261633992195129
0.79127508401870728 0.82710134983062744 0.32206651568412781
0.87020957469940186 0.83189475536346436 0.36767303943634033
0.94482386112213135 0.83643406629562378 0.53112602233886719
0.67824804782867432 0.3510725200176239 0.58185946941375732
0.69610226154327393 0.36566820740699768 0.58566164970397949
0.73793596029281616 0.39711111783981323 0.59004777669906616
0.80351465940475464 0.42348584532737732 0.58386456966400146
0.9099496603012085 0.41741403937339783 0.58723127841949463
0.71489900350570679 0.46590852737426758 0.57734161615371704
0.72759270668029785 0.47247973084449768 0.5750611424446106
0.75951540470123291 0.49245306849479675 0.58175265789031982
0.81520545482635498 0.5048224925994873 0.58049631118774414
0.91270983219146729 0.47597116231918335 0.58818203210830688
0.73132061958312988 0.56408315896987915 0.56393134593963623
0.75141662359237671 0.57987934350967407 0.56216210126876831
0.78825539350509644 0.61105585098266602 0.56700694561004639
0.83049356937408447 0.62036728858947754 0.57174205780029297
0.91806423664093018 0.57498478889465332 0.58235305547714233
0.69319671392440796 0.68279522657394409 0.51702320575714111
0.7174646258354187 0.68573093414306641 0.5181964635848999
0.77282953262329102 0.70114082098007202 0.528267502784729
0.84219455718994141 0.71772515773773193 0.54314452409744263
0.92036104202270508 0.71723824739456177 0.55040907859802246
0.75831258296966553 0.81906068325042725 0.54603415727615356
0.76665276288986206 0.82166743278503418 0.5462111234664917
0.80170375108718872 0.82605397701263428 0.55049043893814087
0.86655271053314209 0.82897251844406128 0.54472774267196655
0.9391254186630249 0.83780908584594727 0.6358458399772644
0.81121575832366943 0.55930429697036743 0.74857574701309204
0.81500446796417236 0.56531065702438354 0.74455630779266357
0.83481556177139282 0.58680462837219238 0.74489986896514893
0.86377781629562378 0.61875629425048828 0.74881505966186523
0.90073013305664062 0.63630586862564087 0.74365222454071045
0.83073359727859497 0.63286787271499634 0.74202877283096313
0.83356451988220215 0.63281238079071045 0.74048101902008057
0.84687542915344238 0.64413577318191528 0.74139010906219482
0.87092012166976929 0.66829907894134521 0.74501901865005493
0.90630275011062622 0.67618036270141602 0.74355179071426392
0.85106402635574341 0.70997810363769531 0.73565077781677246
0.85599201917648315 0.71373492479324341 0.73359239101409912
0.86719739437103271 0.7251465916633606 0.73809558153152466
0.88549494743347168 0.73546504974365234 0.74201774597167969
0.90774279832839966 0.73567777872085571 0.74391627311706543
0.84057581424713135 0.76157969236373901 0.72798722982406616
0.85147476196289062 0.76324117183685303 0.73091542720794678
0.87526208162307739 0.77556759119033813 0.73509210348129272
0.90039372444152832 0.79214978218078613 0.74201518297195435
0.91997599601745605 0.79606914520263672 0.74622648954391479
0.83986955881118774 0.83032530546188354 0.72882652282714844
0.84994590282440186 0.83157229423522949 0.73220956325531006
0.86866629123687744 0.83362311124801636 0.73477381467819214
0.89888054132461548 0.84081059694290161 0.74182987213134766
0.93841129541397095 0.84634321928024292 0.758797287940979
