luts/instant_consumer/polaroid_px-70.cube
# Created by: G'MIC (https://gmic.eu)
TITLE "polaroid_px-70"
# LUT size
LUT_3D_SIZE 13
# Data domain
DOMAIN_MIN 0.0 0.0 0.0
DOMAIN_MAX 1.0 1.0 1.0
# LUT data points
0 0.16399119794368744 0.20392157137393951
0.00051983102457597852 0.16459812223911285 0.20392157137393951
0.0038935344200581312 0.16430778801441193 0.20392157137393951
0.010785076767206192 0.16128760576248169 0.20412693917751312
0.081231899559497833 0.1661045104265213 0.20682635903358459
0.19215787947177887 0.17355775833129883 0.20787455141544342
0.33699476718902588 0.18561804294586182 0.20866721868515015
0.50648987293243408 0.20108391344547272 0.20604008436203003
0.67983347177505493 0.22464105486869812 0.19945533573627472
0.82075941562652588 0.2908080518245697 0.18857838213443756
0.91294181346893311 0.3786500096321106 0.17978657782077789
0.96498817205429077 0.46119317412376404 0.1852995753288269
0.98823881149291992 0.52867609262466431 0.21249088644981384
0 0.16681566834449768 0.20392157137393951
0.00061467487830668688 0.16789834201335907 0.20392157137393951
0.0040413951501250267 0.16938206553459167 0.20392157137393951
0.016835052520036697 0.16932503879070282 0.20397959649562836
0.1037890836596489 0.17774444818496704 0.20728252828121185
0.21597869694232941 0.18551535904407501 0.20803575217723846
0.35293835401535034 0.19774553179740906 0.20763710141181946
0.5249059796333313 0.21913629770278931 0.20368480682373047
0.68953067064285278 0.24989461898803711 0.19704967737197876
0.820995032787323 0.32224977016448975 0.18568867444992065
0.91449016332626343 0.4082409143447876 0.17754000425338745
0.96376883983612061 0.47989141941070557 0.18372783064842224
0.99012815952301025 0.54598963260650635 0.21207724511623383
0 0.18947325646877289 0.2070782333612442
0.00010449278488522395 0.1896052211523056 0.20757414400577545
0.0026915606576949358 0.18992409110069275 0.20597964525222778
0.032104760408401489 0.19090336561203003 0.20533256232738495
0.13372126221656799 0.2027733325958252 0.20728868246078491
0.24763666093349457 0.21177442371845245 0.20662832260131836
0.38521993160247803 0.22888100147247314 0.20406056940555573
0.54904818534851074 0.25444254279136658 0.19886231422424316
0.70391392707824707 0.29191741347312927 0.19144405424594879
0.82757711410522461 0.36371642351150513 0.17930862307548523
0.91367757320404053 0.44428101181983948 0.17313085496425629
0.95909583568572998 0.50908970832824707 0.18381212651729584
0.98829251527786255 0.56529843807220459 0.20849424600601196
0 0.22260503470897675 0.20784313976764679
0 0.2217201441526413 0.20838968455791473
0.00068416219437494874 0.22509314119815826 0.20798562467098236
0.040736209601163864 0.23339109122753143 0.20655938982963562
0.16517893970012665 0.24837568402290344 0.20560541749000549
0.28775686025619507 0.25845861434936523 0.20231339335441589
0.42824950814247131 0.27742582559585571 0.19724155962467194
0.58175569772720337 0.30405622720718384 0.19084912538528442
0.72227799892425537 0.3485887348651886 0.18075382709503174
0.83762544393539429 0.41352802515029907 0.1683172881603241
0.91028827428817749 0.48125201463699341 0.16539490222930908
0.95470976829528809 0.53940564393997192 0.17837557196617126
0.98262935876846313 0.58453327417373657 0.20431840419769287
0 0.29532811045646667 0.20810684561729431
0 0.29404100775718689 0.20895200967788696
0.001494867610745132 0.29469180107116699 0.20864808559417725
0.044673096388578415 0.30602890253067017 0.2069556713104248
0.19315432012081146 0.32634714245796204 0.20249445736408234
0.33393728733062744 0.34238731861114502 0.19625253975391388
0.4770658016204834 0.36206820607185364 0.18793152272701263
0.61758303642272949 0.38378763198852539 0.17834612727165222
0.73827135562896729 0.41893279552459717 0.16789647936820984
0.83738869428634644 0.47125124931335449 0.15483863651752472
0.90134280920028687 0.52439004182815552 0.15450070798397064
0.94478285312652588 0.57045483589172363 0.16909457743167877
0.97528058290481567 0.61117750406265259 0.20261427760124207
0.00031057620071806014 0.40077593922615051 0.20586328208446503
0 0.40280857682228088 0.20471757650375366
0.0036538965068757534 0.40519049763679504 0.203518345952034
0.050232607871294022 0.41021281480789185 0.20149213075637817
0.21718335151672363 0.42540588974952698 0.19711108505725861
0.36876478791236877 0.44184121489524841 0.18792045116424561
0.52129179239273071 0.46624353528022766 0.17601045966148376
0.65178549289703369 0.4912630021572113 0.16438984870910645
0.75223970413208008 0.51413589715957642 0.15198613703250885
0.83627873659133911 0.54226016998291016 0.14191707968711853
0.89247608184814453 0.57141846418380737 0.14236158132553101
0.93485558032989502 0.60721564292907715 0.15937021374702454
0.96739280223846436 0.64417314529418945 0.19822075963020325
0.0015551099786534905 0.52597635984420776 0.19754359126091003
0.00084957049693912268 0.52464443445205688 0.19605410099029541
0.0035761964973062277 0.52017617225646973 0.19648565351963043
0.076145663857460022 0.52348560094833374 0.19512513279914856
0.26372352242469788 0.53670120239257812 0.19006732106208801
0.4121222198009491 0.54928940534591675 0.18133865296840668
0.55625778436660767 0.56999564170837402 0.17041191458702087
0.67127776145935059 0.58576321601867676 0.15787111222743988
0.76466912031173706 0.6040031909942627 0.14485915005207062
0.83876717090606689 0.628792405128479 0.14476501941680908
0.89182585477828979 0.64163839817047119 0.14699274301528931
0.92760252952575684 0.65178805589675903 0.15865011513233185
0.95854109525680542 0.67500197887420654 0.19380924105644226
0.012921965681016445 0.63809365034103394 0.19170172512531281
0.023092592135071754 0.62939196825027466 0.19303058087825775
0.083146005868911743 0.62977278232574463 0.19444291293621063
0.20750550925731659 0.62963700294494629 0.19743110239505768
0.34463438391685486 0.63382494449615479 0.19601111114025116
0.47369182109832764 0.6466941237449646 0.19045116007328033
0.58950412273406982 0.65950620174407959 0.18408852815628052
0.69035547971725464 0.67097342014312744 0.17489154636859894
0.7772146463394165 0.68615126609802246 0.16415466368198395
0.83749693632125854 0.69859641790390015 0.16819176077842712
0.88078981637954712 0.70268851518630981 0.17553365230560303
0.91627752780914307 0.70586204528808594 0.18947143852710724
0.94609755277633667 0.71460574865341187 0.21579314768314362
0.23423038423061371 0.7276841402053833 0.2149604856967926
0.25742632150650024 0.72301989793777466 0.21539567410945892
0.30665150284767151 0.71876507997512817 0.21813176572322845
0.37503296136856079 0.71950727701187134 0.22446206212043762
0.4528728723526001 0.72144758701324463 0.22627879679203033
0.5385093092918396 0.72480130195617676 0.22435563802719116
0.62200450897216797 0.72862833738327026 0.22371035814285278
0.70026957988739014 0.73333758115768433 0.22008360922336578
0.7713121771812439 0.74209874868392944 0.2169228196144104
0.82732576131820679 0.7494049072265625 0.21503061056137085
0.87014168500900269 0.75428128242492676 0.2243705540895462
0.90604817867279053 0.75831139087677002 0.24416305124759674
0.93903523683547974 0.76869285106658936 0.27638447284698486
0.43723765015602112 0.78676575422286987 0.26605421304702759
0.44824698567390442 0.78447079658508301 0.26838231086730957
0.46695825457572937 0.78065371513366699 0.26885226368904114
0.50000953674316406 0.77814006805419922 0.27247822284698486
0.54501104354858398 0.77831250429153442 0.27890640497207642
0.60346579551696777 0.78029942512512207 0.28413677215576172
0.66040819883346558 0.78161400556564331 0.28238692879676819
0.72021174430847168 0.78615081310272217 0.28469374775886536
0.7779085636138916 0.79196542501449585 0.2911008894443512
0.82569205760955811 0.79623270034790039 0.29058435559272766
0.86362820863723755 0.80063831806182861 0.29474395513534546
0.89886724948883057 0.80519092082977295 0.3106268048286438
0.92950695753097534 0.8122020959854126 0.33702960610389709
0.58766597509384155 0.83209633827209473 0.34198814630508423
0.58779197931289673 0.82984268665313721 0.33966633677482605
0.59321713447570801 0.82593047618865967 0.33841362595558167
0.61318361759185791 0.82490789890289307 0.34171098470687866
0.63493806123733521 0.822532057762146 0.3461340069770813
0.67645120620727539 0.82571297883987427 0.35750055313110352
0.71480470895767212 0.82848334312438965 0.36113795638084412
0.75440585613250732 0.83348643779754639 0.36790135502815247
0.79251480102539062 0.83474361896514893 0.37126877903938293
0.8291897177696228 0.83803349733352661 0.37628868222236633
0.86320412158966064 0.8421592116355896 0.37773466110229492
0.89480382204055786 0.84781241416931152 0.38332107663154602
0.92249727249145508 0.85246425867080688 0.40283635258674622
0.69913077354431152 0.87126773595809937 0.42565366625785828
0.69898545742034912 0.86804568767547607 0.42127355933189392
0.70463979244232178 0.86752450466156006 0.42121550440788269
0.7145419716835022 0.86728227138519287 0.42416217923164368
0.72860878705978394 0.86628228425979614 0.42682734131813049
0.74605083465576172 0.86732369661331177 0.43084710836410522
0.76791393756866455 0.86925846338272095 0.43562614917755127
0.79233360290527344 0.87175971269607544 0.43935781717300415
0.81925612688064575 0.87396383285522461 0.44325315952301025
0.84516370296478271 0.87739044427871704 0.45074969530105591
0.87050765752792358 0.88157248497009277 0.45597407221794128
0.89638441801071167 0.88854914903640747 0.46386533975601196
0.92259705066680908 0.89203172922134399 0.47380810976028442
0.77672743797302246 0.90529066324234009 0.49316656589508057
0.77666747570037842 0.90423130989074707 0.49076792597770691
0.78240662813186646 0.90533339977264404 0.49244391918182373
0.78799837827682495 0.90518176555633545 0.49405315518379211
0.79592359066009521 0.90465331077575684 0.49592596292495728
0.8055759072303772 0.90490084886550903 0.4994889497756958
0.82089561223983765 0.90833646059036255 0.50606811046600342
0.83554267883300781 0.90923494100570679 0.5076136589050293
0.85361337661743164 0.91001296043395996 0.50962233543395996
0.87207275629043579 0.9130750298500061 0.51593756675720215
0.89079135656356812 0.91662096977233887 0.51963746547698975
0.90974783897399902 0.92187017202377319 0.52563929557800293
0.92851799726486206 0.92647367715835571 0.531516432762146
0 0.16079910099506378 0.20459559559822083
0.00091513840015977621 0.16245502233505249 0.20539741218090057
0.0039110970683395863 0.16268354654312134 0.20686161518096924
0.011081022210419178 0.16164530813694 0.20783580839633942
0.087289147078990936 0.16851985454559326 0.20890013873577118
0.20110096037387848 0.17754639685153961 0.21015766263008118
0.34741050004959106 0.18652215600013733 0.21287988126277924
0.52040189504623413 0.20616404712200165 0.21359765529632568
0.69623398780822754 0.23912537097930908 0.21049083769321442
0.83064574003219604 0.30630037188529968 0.20362785458564758
0.91691440343856812 0.39491713047027588 0.20034018158912659
0.96623635292053223 0.4787260890007019 0.21011707186698914
0.99101382493972778 0.54623973369598389 0.23551973700523376
0 0.16390345990657806 0.20467901229858398
0.00098093075212091208 0.16589565575122833 0.20533576607704163
0.0039765900000929832 0.16969841718673706 0.20695769786834717
0.020404770970344543 0.17147326469421387 0.20786371827125549
0.10952506214380264 0.18058978021144867 0.21022467315196991
0.22526755928993225 0.19038443267345428 0.21245121955871582
0.36770468950271606 0.20247292518615723 0.21282677352428436
0.5402756929397583 0.22512339055538177 0.21189434826374054
0.70635461807250977 0.26396802067756653 0.20734629034996033
0.83288419246673584 0.33424031734466553 0.20137353241443634
0.91838687658309937 0.42096143960952759 0.1995466947555542
0.96519988775253296 0.49771162867546082 0.21226693689823151
0.99063336849212646 0.56038075685501099 0.23812244832515717
0 0.18837948143482208 0.20815734565258026
4.8873003834160045e-05 0.1874101459980011 0.2089807540178299
0.0017140407580882311 0.19075146317481995 0.20993028581142426
0.040636502206325531 0.19497653841972351 0.21064259111881256
0.13944321870803833 0.2030775249004364 0.21157723665237427
0.25903242826461792 0.21367083489894867 0.211348757147789
0.40105676651000977 0.23248866200447083 0.20979183912277222
0.57104742527008057 0.2629036009311676 0.20687782764434814
0.71956056356430054 0.30661123991012573 0.20198097825050354
0.83444458246231079 0.37318781018257141 0.19646106660366058
0.91587567329406738 0.45326873660087585 0.19691595435142517
0.96256494522094727 0.52392292022705078 0.21046321094036102
0.98846006393432617 0.57912659645080566 0.2375132292509079
0 0.22631116211414337 0.21150106191635132
0 0.22591154277324677 0.21220108866691589
0.00057108263717964292 0.2306818962097168 0.21255660057067871
0.054154742509126663 0.23786996304988861 0.2123551070690155
0.17411129176616669 0.25170022249221802 0.21081280708312988
0.30050018429756165 0.26164573431015015 0.20728528499603271
0.44269576668739319 0.28253689408302307 0.20449110865592957
0.59740900993347168 0.31203114986419678 0.19943724572658539
0.73432332277297974 0.36426407098770142 0.19240154325962067
0.84227806329727173 0.42690661549568176 0.1866927444934845
0.91151988506317139 0.49219635128974915 0.18827179074287415
0.95658868551254272 0.55117636919021606 0.20406424999237061
0.98218059539794922 0.59299755096435547 0.22918704152107239
0 0.29865407943725586 0.21401220560073853
0 0.29953426122665405 0.21344806253910065
0.0023351632989943027 0.30351850390434265 0.21437658369541168
0.05856240913271904 0.31424465775489807 0.21274961531162262
0.20320364832878113 0.33450430631637573 0.20933660864830017
0.34648731350898743 0.35250303149223328 0.20257201790809631
0.49173069000244141 0.37224107980728149 0.19578874111175537
0.6254347562789917 0.38897126913070679 0.18935459852218628
0.7450554370880127 0.42859190702438354 0.18061797320842743
0.84232896566390991 0.48369243741035461 0.17362815141677856
0.90611022710800171 0.53483498096466064 0.1761208176612854
0.94429820775985718 0.57657003402709961 0.19539901614189148
0.97419637441635132 0.6186518669128418 0.22706057131290436
0.0008720248588360846 0.41158360242843628 0.21257182955741882
0.00010679656406864524 0.41392609477043152 0.21216697990894318
0.0036991792730987072 0.41308602690696716 0.21195906400680542
0.06329326331615448 0.41694656014442444 0.21008938550949097
0.23459753394126892 0.43303439021110535 0.20564030110836029
0.38359159231185913 0.44869121909141541 0.19748994708061218
0.53527873754501343 0.4728609025478363 0.18610906600952148
0.65834200382232666 0.49313253164291382 0.17761559784412384
0.75599503517150879 0.51661616563796997 0.16711120307445526
0.83783453702926636 0.5487443208694458 0.16141679883003235
0.89689987897872925 0.58155274391174316 0.16603511571884155
0.93490606546401978 0.61343204975128174 0.18642286956310272
0.96731865406036377 0.6498485803604126 0.22245945036411285
0.0031566245015710592 0.53358453512191772 0.20794068276882172
0.0013692668871954083 0.53392606973648071 0.20704147219657898
0.0067276000045239925 0.52828764915466309 0.20605075359344482
0.10917498916387558 0.53096610307693481 0.20565739274024963
0.28155630826950073 0.5398375391960144 0.20199260115623474
0.42281842231750488 0.55082541704177856 0.19327056407928467
0.5624462366104126 0.57199704647064209 0.18338344991207123
0.68299591541290283 0.59218037128448486 0.1720331609249115
0.77562451362609863 0.61356210708618164 0.16260705888271332
0.84260118007659912 0.63007140159606934 0.16339647769927979
0.89150136709213257 0.64042603969573975 0.17047713696956635
0.92908114194869995 0.65511173009872437 0.18117731809616089
0.9584389328956604 0.67800694704055786 0.2152368426322937
0.028632847592234612 0.64174294471740723 0.20363886654376984
0.051854375749826431 0.63873583078384399 0.2043159008026123
0.12779109179973602 0.6373443603515625 0.20651493966579437
0.24622587859630585 0.63514453172683716 0.20952111482620239
0.36821618676185608 0.64066112041473389 0.21037660539150238
0.48671334981918335 0.6484408974647522 0.20809219777584076
0.59658980369567871 0.66091018915176392 0.20069317519664764
0.6957823634147644 0.67390888929367065 0.19378644227981567
0.78128111362457275 0.68994462490081787 0.185533806681633
0.83658844232559204 0.69704443216323853 0.19123856723308563
0.88163328170776367 0.70324808359146118 0.1972883939743042
0.91860431432723999 0.708027184009552 0.21344910562038422
0.9484972357749939 0.71809810400009155 0.23822097480297089
0.27259498834609985 0.73113948106765747 0.23022961616516113
0.29351368546485901 0.72763621807098389 0.22953975200653076
0.33811190724372864 0.72436904907226562 0.23338669538497925
0.39747044444084167 0.72221511602401733 0.23934586346149445
0.47025880217552185 0.72449654340744019 0.24310274422168732
0.55290722846984863 0.72816485166549683 0.24303343892097473
0.63069039583206177 0.73082143068313599 0.24196767807006836
0.70497822761535645 0.73618519306182861 0.24208709597587585
0.77423644065856934 0.74523627758026123 0.23566640913486481
0.82698780298233032 0.75109672546386719 0.24049046635627747
0.8724600076675415 0.75606340169906616 0.24874353408813477
0.90823543071746826 0.7617374062538147 0.26405340433120728
0.93878692388534546 0.76984715461730957 0.29025834798812866
0.46382305026054382 0.79048681259155273 0.28376629948616028
0.46908679604530334 0.78723406791687012 0.2826206386089325
0.48463472723960876 0.78236383199691772 0.28452172875404358
0.51335018873214722 0.77837824821472168 0.28758922219276428
0.56077820062637329 0.77953022718429565 0.29819962382316589
0.61767691373825073 0.78262072801589966 0.30323109030723572
0.66847467422485352 0.78456467390060425 0.30276501178741455
0.72769099473953247 0.78922456502914429 0.3050321638584137
0.78088688850402832 0.79330319166183472 0.30444425344467163
0.82435566186904907 0.79731053113937378 0.31060761213302612
0.86610275506973267 0.80179071426391602 0.3170473575592041
0.90101128816604614 0.80759948492050171 0.32894057035446167
0.92912250757217407 0.81314700841903687 0.34927219152450562
0.60056102275848389 0.83352327346801758 0.3541291356086731
0.6006888747215271 0.83023548126220703 0.35134607553482056
0.60486036539077759 0.82681459188461304 0.35054013133049011
0.61812382936477661 0.82428097724914551 0.35298281908035278
0.6469607949256897 0.82486110925674438 0.36258372664451599
0.68423157930374146 0.82758790254592896 0.3727911114692688
0.71955937147140503 0.83004820346832275 0.37543082237243652
0.76028847694396973 0.83329945802688599 0.37808144092559814
0.79756802320480347 0.83596682548522949 0.38090795278549194
0.83212113380432129 0.83894169330596924 0.38721731305122375
0.86612415313720703 0.84290790557861328 0.39168605208396912
0.89639973640441895 0.8484845757484436 0.40061149001121521
0.92283344268798828 0.85394549369812012 0.41684475541114807
0.70272910594940186 0.87047135829925537 0.42893180251121521
0.6997867226600647 0.86765217781066895 0.42519938945770264
0.70676195621490479 0.86752450466156006 0.42666205763816833
0.71703571081161499 0.86679112911224365 0.42981293797492981
0.73194515705108643 0.86720007658004761 0.43539553880691528
0.75077766180038452 0.86813139915466309 0.44107317924499512
0.77246534824371338 0.87108904123306274 0.44479945302009583
0.79653823375701904 0.87305104732513428 0.44660112261772156
0.82520556449890137 0.87535762786865234 0.44982537627220154
0.84964263439178467 0.87833762168884277 0.45677852630615234
0.87349396944046021 0.88236087560653687 0.46259090304374695
0.89833164215087891 0.88811719417572021 0.4691435694694519
0.92242676019668579 0.89250779151916504 0.47890475392341614
0.77871686220169067 0.9053378701210022 0.49564144015312195
0.77852511405944824 0.90520060062408447 0.49509784579277039
0.78219568729400635 0.90421009063720703 0.49437150359153748
0.78964841365814209 0.90521281957626343 0.49698653817176819
0.79799306392669678 0.9050326943397522 0.50072252750396729
0.80944287776947021 0.90511316061019897 0.50401097536087036
0.82082682847976685 0.90678876638412476 0.50725704431533813
0.83579534292221069 0.90897452831268311 0.51044577360153198
0.85602998733520508 0.91232502460479736 0.51507902145385742
0.87362629175186157 0.9131464958190918 0.5177122950553894
0.89057141542434692 0.91636961698532104 0.52136778831481934
0.90982097387313843 0.92122006416320801 0.526725172996521
0.92917126417160034 0.9252324104309082 0.53140401840209961
0 0.16161331534385681 0.21082609891891479
0.0023667279165238142 0.16557075083255768 0.21190640330314636
0.0039215688593685627 0.16724057495594025 0.21304738521575928
0.010124281048774719 0.16654059290885925 0.21351230144500732
0.08612525463104248 0.17160734534263611 0.21545106172561646
0.21282941102981567 0.17742690443992615 0.21895460784435272
0.36541476845741272 0.18241885304450989 0.22160738706588745
0.54633516073226929 0.20450566709041595 0.22814245522022247
0.71569728851318359 0.25217095017433167 0.23023904860019684
0.84084618091583252 0.32609188556671143 0.23037926852703094
0.91683900356292725 0.41642865538597107 0.2375645786523819
0.96293824911117554 0.49871179461479187 0.25332427024841309
0.98769938945770264 0.56292355060577393 0.27575927972793579
0 0.16892348229885101 0.21215252578258514
0.0026257683057337999 0.1708722710609436 0.21316923201084137
0.0042102737352252007 0.17492885887622833 0.21438565850257874
0.02086983434855938 0.17703346908092499 0.21507269144058228
0.11112756282091141 0.18473157286643982 0.21774043142795563
0.24110312759876251 0.1944584995508194 0.22243958711624146
0.39434441924095154 0.20377252995967865 0.22553141415119171
0.56668579578399658 0.23354344069957733 0.22957977652549744
0.72442281246185303 0.2813296914100647 0.22970472276210785
0.84223002195358276 0.35351157188415527 0.23054531216621399
0.91960978507995605 0.43949943780899048 0.23583300411701202
0.96031409502029419 0.51160329580307007 0.25279003381729126
0.98776257038116455 0.57537192106246948 0.27792477607727051
0 0.19861245155334473 0.21802046895027161
0.0022811740636825562 0.19357015192508698 0.21778087317943573
0.0043303845450282097 0.1947815865278244 0.21815106272697449
0.047161146998405457 0.19974932074546814 0.21882657706737518
0.15358076989650726 0.20962156355381012 0.2217959463596344
0.27896872162818909 0.22088362276554108 0.22389750182628632
0.42821615934371948 0.23842237889766693 0.22459065914154053
0.59296917915344238 0.27507105469703674 0.22577795386314392
0.73597890138626099 0.32095971703529358 0.22444666922092438
0.84458667039871216 0.39098125696182251 0.22457772493362427
0.91974377632141113 0.46956130862236023 0.23095226287841797
0.9589158296585083 0.53423279523849487 0.24814413487911224
0.98626267910003662 0.58991444110870361 0.27395150065422058
0 0.24036325514316559 0.22270269691944122
0.0021451613865792751 0.23536165058612823 0.22254128754138947
0.0071045071817934513 0.23522055149078369 0.22215263545513153
0.07619793713092804 0.24341888725757599 0.22256240248680115
0.19532108306884766 0.25546905398368835 0.22298039495944977
0.32237419486045837 0.26996508240699768 0.2225034087896347
0.46712988615036011 0.29294174909591675 0.22098745405673981
0.61365079879760742 0.32438960671424866 0.21853725612163544
0.74870496988296509 0.37728208303451538 0.21573157608509064
0.84957277774810791 0.44204682111740112 0.21513380110263824
0.91346758604049683 0.50547242164611816 0.22475516796112061
0.95414382219314575 0.56209272146224976 0.24374127388000488
0.97970330715179443 0.60903596878051758 0.27239325642585754
0.00019405588682275265 0.30753439664840698 0.22577911615371704
0.0017977247480303049 0.30918452143669128 0.22613616287708282
0.0094219734892249107 0.30987149477005005 0.22528743743896484
0.088740251958370209 0.3207612931728363 0.22550895810127258
0.22745092213153839 0.33820250630378723 0.22326815128326416
0.36604490876197815 0.3551640510559082 0.21929551661014557
0.50802183151245117 0.37463626265525818 0.21387925744056702
0.63752424716949463 0.39622980356216431 0.2112397700548172
0.75464153289794922 0.44102990627288818 0.2060055285692215
0.84580999612808228 0.49330028891563416 0.20487676560878754
0.90274578332901001 0.54261636734008789 0.21684834361076355
0.94351506233215332 0.58792376518249512 0.23624062538146973
0.97147238254547119 0.6322447657585144 0.26947471499443054
