luts/instant_consumer/polaroid_px-70_+++.cube
# Created by: G'MIC (https://gmic.eu)
TITLE "polaroid_px-70_+++"
# LUT size
LUT_3D_SIZE 5
# Data domain
DOMAIN_MIN 0.0 0.0 0.0
DOMAIN_MAX 1.0 1.0 1.0
# LUT data points
0.32791569828987122 0.38823530077934265 0.29411765933036804
0.31774991750717163 0.3871178925037384 0.29481759667396545
0.40196999907493591 0.38584735989570618 0.29065999388694763
0.70985329151153564 0.4148503839969635 0.27459046244621277
0.94734674692153931 0.52037930488586426 0.27052989602088928
0.31793248653411865 0.39287623763084412 0.29409492015838623
0.33496052026748657 0.3991858959197998 0.29413619637489319
0.45904690027236938 0.40477532148361206 0.28942495584487915
0.74329239130020142 0.45855465531349182 0.26928776502609253
0.94745010137557983 0.56904417276382446 0.26598823070526123
0.34811624884605408 0.50977331399917603 0.2783835232257843
0.4017212986946106 0.52226549386978149 0.27600711584091187
0.56436777114868164 0.54051786661148071 0.26713892817497253
0.79779905080795288 0.59155964851379395 0.24327729642391205
0.92929559946060181 0.63304752111434937 0.24667881429195404
0.54125785827636719 0.72452247142791748 0.27206474542617798
0.57696527242660522 0.72142183780670166 0.27926239371299744
0.67981445789337158 0.73139482736587524 0.27637273073196411
0.82706177234649658 0.75024539232254028 0.27616497874259949
0.92075479030609131 0.76767653226852417 0.30742928385734558
0.83612054586410522 0.82511693239212036 0.37279412150382996
0.83362209796905518 0.82693237066268921 0.36979705095291138
0.8601377010345459 0.82021266222000122 0.37650942802429199
0.89705193042755127 0.82417023181915283 0.38091191649436951
0.93124645948410034 0.82519567012786865 0.40111806988716125
0.3238588273525238 0.38823530077934265 0.29158252477645874
0.3246416449546814 0.38704368472099304 0.29076573252677917
0.41991087794303894 0.37444004416465759 0.29213759303092957
0.74713432788848877 0.41023486852645874 0.29306447505950928
0.94903576374053955 0.56352877616882324 0.30587375164031982
0.32292693853378296 0.40524742007255554 0.29574263095855713
0.34912586212158203 0.40592142939567566 0.29517203569412231
0.49611252546310425 0.42060586810112 0.29641160368919373
0.77879601716995239 0.47888690233230591 0.29091042280197144
0.94070518016815186 0.59369230270385742 0.29807427525520325
0.394500732421875 0.5322069525718689 0.29118600487709045
0.44020995497703552 0.53243660926818848 0.28897634148597717
0.59116101264953613 0.54603129625320435 0.28368571400642395
0.81258475780487061 0.59354549646377563 0.26861736178398132
0.92904108762741089 0.65158522129058838 0.28461703658103943
0.58495235443115234 0.7346072793006897 0.29313290119171143
0.61769890785217285 0.73352712392807007 0.29575315117835999
0.70526289939880371 0.7334829568862915 0.30268266797065735
0.8353416919708252 0.75821501016616821 0.30482625961303711
0.92312759160995483 0.76956695318222046 0.32647502422332764
0.84774404764175415 0.83168262243270874 0.37392666935920715
0.84478175640106201 0.82868796586990356 0.37803781032562256
0.86703819036483765 0.82441216707229614 0.38789516687393188
0.90077728033065796 0.83056676387786865 0.39216175675392151
0.94031298160552979 0.83351296186447144 0.4048495888710022
0.33031788468360901 0.38927620649337769 0.30827429890632629
0.36377847194671631 0.38982689380645752 0.30996686220169067
0.47344005107879639 0.41375616192817688 0.31813013553619385
0.75032645463943481 0.41219612956047058 0.33841913938522339
0.95446252822875977 0.53606712818145752 0.35397288203239441
0.34236806631088257 0.41954338550567627 0.32366099953651428
0.39485910534858704 0.42072883248329163 0.32256871461868286
0.54300391674041748 0.45820909738540649 0.32334837317466736
0.7950255274772644 0.47995331883430481 0.34218809008598328
0.94760453701019287 0.62057328224182129 0.36126330494880676
0.4165617823600769 0.54664182662963867 0.32771804928779602
0.48765015602111816 0.54501700401306152 0.33163312077522278
0.64540833234786987 0.5734018087387085 0.33722662925720215
0.83708733320236206 0.64534276723861694 0.3473522961139679
0.93177574872970581 0.71415442228317261 0.36130556464195251
0.67179936170578003 0.73955869674682617 0.34691166877746582
0.68929576873779297 0.74144500494003296 0.34277361631393433
0.75675082206726074 0.74474197626113892 0.34513652324676514
0.85067719221115112 0.75419443845748901 0.34921535849571228
0.92949396371841431 0.78610944747924805 0.37047761678695679
0.86484634876251221 0.82504475116729736 0.39193186163902283
0.85993343591690063 0.82503217458724976 0.39244121313095093
0.87491118907928467 0.82753616571426392 0.39573496580123901
0.90765690803527832 0.82793122529983521 0.40323475003242493
0.94709569215774536 0.83219486474990845 0.41488125920295715
0.44992423057556152 0.3946259617805481 0.40047085285186768
0.54401695728302002 0.40812447667121887 0.40484565496444702
0.72209447622299194 0.49397224187850952 0.40795472264289856
0.84937912225723267 0.5980103611946106 0.4036765992641449
0.92136144638061523 0.62772840261459351 0.40560179948806763
0.47155442833900452 0.45804855227470398 0.41294872760772705
0.55444777011871338 0.46689048409461975 0.41117283701896667
0.74626606702804565 0.55935168266296387 0.40404316782951355
0.85682332515716553 0.6607549786567688 0.40121686458587646
0.9296383261680603 0.67280745506286621 0.40565586090087891
0.47328954935073853 0.5994376540184021 0.40232768654823303
0.55074679851531982 0.5992884635925293 0.40212267637252808
0.74671667814254761 0.63827574253082275 0.40183907747268677
0.85919737815856934 0.7170291543006897 0.39899975061416626
0.92965191602706909 0.73894745111465454 0.40717002749443054
0.68323761224746704 0.75142085552215576 0.39471381902694702
0.71155035495758057 0.75208812952041626 0.38970714807510376
0.78141671419143677 0.75127005577087402 0.3951040506362915
0.86996960639953613 0.77226060628890991 0.39926248788833618
0.93788450956344604 0.8039974570274353 0.41040533781051636
0.86838316917419434 0.82483047246932983 0.40791016817092896
0.87571465969085693 0.82843112945556641 0.40789693593978882
0.89313894510269165 0.82388830184936523 0.41384014487266541
0.91485720872879028 0.81966060400009155 0.41909593343734741
0.9473150372505188 0.82643002271652222 0.42543181777000427
0.74485719203948975 0.57585501670837402 0.48021256923675537
0.78954285383224487 0.59667956829071045 0.4739515483379364
0.87086689472198486 0.68756818771362305 0.45347803831100464
0.92165768146514893 0.79724621772766113 0.43296682834625244
0.9367755651473999 0.79493558406829834 0.42951959371566772
0.75405436754226685 0.63663250207901001 0.46673145890235901
0.79710501432418823 0.65377593040466309 0.46333211660385132
0.87474745512008667 0.70874792337417603 0.44630110263824463
0.91919976472854614 0.7882000207901001 0.43191546201705933
0.94152671098709106 0.80821400880813599 0.42963260412216187
0.74380546808242798 0.70136070251464844 0.45593595504760742
0.78508096933364868 0.70833361148834229 0.45288956165313721
0.87094467878341675 0.74507379531860352 0.44277134537696838
0.91643244028091431 0.80424422025680542 0.43151292204856873
0.94076210260391235 0.81173908710479736 0.4267156720161438
0.74025040864944458 0.77088993787765503 0.43872460722923279
0.76509100198745728 0.7715601921081543 0.43835723400115967
0.81674873828887939 0.77662467956542969 0.43727931380271912
0.89572972059249878 0.80439496040344238 0.43021953105926514
0.94451677799224854 0.82089084386825562 0.4265134334564209
0.89061486721038818 0.82157093286514282 0.42512255907058716
0.90918725728988647 0.83087044954299927 0.42967632412910461
0.90663772821426392 0.82304519414901733 0.434610515832901
0.92191654443740845 0.81977647542953491 0.4329780638217926
0.94535285234451294 0.82370209693908691 0.42914757132530212
