luts/instant_consumer/polaroid_px-680_cold_--.cube
# Created by: G'MIC (https://gmic.eu)
TITLE "polaroid_px-680_cold_--"
# LUT size
LUT_3D_SIZE 7
# Data domain
DOMAIN_MIN 0.0 0.0 0.0
DOMAIN_MAX 1.0 1.0 1.0
# LUT data points
0.012195452116429806 0.024148739874362946 0.030426908284425735
0.1076197475194931 0.042464748024940491 0.040413830429315567
0.33317127823829651 0.066847875714302063 0.064115919172763824
0.57949447631835938 0.11980804800987244 0.11578348278999329
0.75932085514068604 0.23742686212062836 0.17983348667621613
0.88391798734664917 0.36601346731185913 0.24642740190029144
0.97946399450302124 0.48110681772232056 0.31324845552444458
0.0017794291488826275 0.14022092521190643 0.071451924741268158
0.073467597365379333 0.16055329144001007 0.069125369191169739
0.35240256786346436 0.19071543216705322 0.070745460689067841
0.5832817554473877 0.21971513330936432 0.10724179446697235
0.74916189908981323 0.30938988924026489 0.17482420802116394
0.87626022100448608 0.41607078909873962 0.23967841267585754
0.97968775033950806 0.50446784496307373 0.30678629875183105
0.0014112883945927024 0.32899588346481323 0.14286331832408905
0.0086140800267457962 0.34488615393638611 0.14733663201332092
0.28599083423614502 0.38611313700675964 0.13665808737277985
0.5666930079460144 0.39992219209671021 0.13523858785629272
0.73218178749084473 0.40972191095352173 0.15570864081382751
0.86208087205886841 0.47597253322601318 0.22016705572605133
0.96805638074874878 0.5525130033493042 0.2872319221496582
0 0.49245935678482056 0.21141605079174042
0.0039644278585910797 0.50231611728668213 0.22083082795143127
0.14536698162555695 0.52218800783157349 0.22168193757534027
0.49021020531654358 0.5599358081817627 0.21472397446632385
0.70096731185913086 0.57761991024017334 0.21627524495124817
0.83895468711853027 0.584125816822052 0.22449788451194763
0.96188974380493164 0.61767798662185669 0.26068305969238281
0.00095155002782121301 0.62736380100250244 0.26875072717666626
0.0012063269969075918 0.62590384483337402 0.27608790993690491
0.10273022949695587 0.63479077816009521 0.2831014096736908
0.42078384757041931 0.66096764802932739 0.28676983714103699
0.63790643215179443 0.69255012273788452 0.28608191013336182
0.81532573699951172 0.72892814874649048 0.28975763916969299
0.9471430778503418 0.74225139617919922 0.30074992775917053
0.0036944521125406027 0.75886660814285278 0.32368165254592896
0.010782892815768719 0.75508451461791992 0.32430139183998108
0.21538586914539337 0.75974071025848389 0.33478468656539917
0.43011954426765442 0.77515214681625366 0.34447634220123291
0.61616462469100952 0.80084824562072754 0.35243082046508789
0.77068066596984863 0.82397085428237915 0.3535817563533783
0.93355858325958252 0.86187183856964111 0.36490434408187866
0.29838764667510986 0.91285550594329834 0.40636873245239258
0.34078302979469299 0.91208446025848389 0.41260775923728943
0.42661911249160767 0.913890540599823 0.42114731669425964
0.53308248519897461 0.91948443651199341 0.43331649899482727
0.65704602003097534 0.92587172985076904 0.43729570508003235
0.78947019577026367 0.944862961769104 0.45296305418014526
0.9189332127571106 0.95816034078598022 0.46417790651321411
9.4125782197806984e-05 0.053786333650350571 0.17615078389644623
0.087746515870094299 0.074969768524169922 0.1835668683052063
0.32577735185623169 0.069668352603912354 0.21459861099720001
0.58473438024520874 0.16599595546722412 0.26947218179702759
0.75181156396865845 0.31778925657272339 0.31715688109397888
0.87415701150894165 0.42867472767829895 0.35153555870056152
0.97554826736450195 0.51991575956344604 0.38604119420051575
0.0021932714153081179 0.1650688648223877 0.20896631479263306
0.096606433391571045 0.18492795526981354 0.22443002462387085
0.36269471049308777 0.21553835272789001 0.24170814454555511
0.58863449096679688 0.28801143169403076 0.2800535261631012
0.74425864219665527 0.37255200743675232 0.30898019671440125
0.86646366119384766 0.46183502674102783 0.34112408757209778
0.97026336193084717 0.54189908504486084 0.38099879026412964
0.0024669421836733818 0.35079053044319153 0.252298504114151
0.02878112718462944 0.36798447370529175 0.2637275755405426
0.34238442778587341 0.39802724123001099 0.26648595929145813
0.57895100116729736 0.41015297174453735 0.26608258485794067
0.73224008083343506 0.44174876809120178 0.27949410676956177
0.85919326543807983 0.50712555646896362 0.3156101405620575
0.9691765308380127 0.57754039764404297 0.36017328500747681
0.0040159937925636768 0.50832194089889526 0.2903631329536438
0.0064611099660396576 0.51460462808609009 0.2943357527256012
0.23900891840457916 0.52980077266693115 0.29904550313949585
0.5186271071434021 0.56503283977508545 0.29931741952896118
0.70331001281738281 0.5797237753868103 0.30121549963951111
0.83698290586471558 0.58927589654922485 0.30063369870185852
0.96028530597686768 0.63581341505050659 0.33275607228279114
0.0028465122450143099 0.63158363103866577 0.32369664311408997
0.0077841216698288918 0.63036233186721802 0.31850981712341309
0.21247638761997223 0.6415291428565979 0.32664203643798828
0.45023909211158752 0.6662830114364624 0.33306095004081726
0.64807331562042236 0.69766855239868164 0.33974459767341614
0.81722521781921387 0.7341686487197876 0.33840930461883545
0.9420965313911438 0.74318069219589233 0.34740442037582397
0.0049581639468669891 0.75639075040817261 0.34827333688735962
0.053619865328073502 0.75463324785232544 0.34838292002677917
0.25635561347007751 0.76224571466445923 0.36087450385093689
0.44749695062637329 0.77938306331634521 0.37297990918159485
0.61315429210662842 0.80011981725692749 0.37717849016189575
0.7746732234954834 0.82638835906982422 0.38254189491271973
0.9374050498008728 0.86348021030426025 0.39348325133323669
0.31320595741271973 0.91136646270751953 0.41833925247192383
0.35557827353477478 0.91090720891952515 0.4232882559299469
0.44242262840270996 0.91260850429534912 0.43295919895172119
0.53890907764434814 0.91648942232131958 0.44557157158851624
0.66387450695037842 0.9304882287979126 0.45825937390327454
0.79344761371612549 0.94211220741271973 0.46861505508422852
0.92107176780700684 0.95595139265060425 0.48056221008300781
0.0020530400797724724 0.10766980051994324 0.35184422135353088
0.16911329329013824 0.15521237254142761 0.35305169224739075
0.35534968972206116 0.22188818454742432 0.35921588540077209
0.5569337010383606 0.20979733765125275 0.38032928109169006
0.74490648508071899 0.2902061939239502 0.39983645081520081
0.87723052501678467 0.42271807789802551 0.43100351095199585
0.97483974695205688 0.5645676851272583 0.4699099063873291
0.0057231527753174305 0.22394105792045593 0.36523965001106262
0.16630576550960541 0.24679069221019745 0.37421569228172302
0.38802942633628845 0.3092048168182373 0.38029888272285461
0.57677179574966431 0.3193468451499939 0.39736700057983398
0.74650293588638306 0.39135986566543579 0.41672766208648682
0.86729139089584351 0.49975717067718506 0.44415336847305298
0.97285288572311401 0.59845483303070068 0.47235381603240967
0.0047134850174188614 0.36985677480697632 0.36504587531089783
0.13725046813488007 0.39334425330162048 0.38109937310218811
0.41120699048042297 0.42920544743537903 0.39532008767127991
0.5911291241645813 0.45469900965690613 0.40434980392456055
0.73751521110534668 0.50626766681671143 0.41998147964477539
0.8585318922996521 0.57071119546890259 0.4348815381526947
0.96818250417709351 0.6296887993812561 0.45691263675689697
0.091796189546585083 0.51418107748031616 0.37916305661201477
0.25054082274436951 0.52722817659378052 0.39193186163902283
0.38734534382820129 0.54584866762161255 0.40010160207748413
0.55889260768890381 0.57653844356536865 0.40261006355285645
0.71769422292709351 0.58894199132919312 0.40195491909980774
0.84173393249511719 0.6137128472328186 0.40451529622077942
0.95748835802078247 0.67052721977233887 0.4279421865940094
0.21811933815479279 0.63391375541687012 0.39648181200027466
0.25895798206329346 0.63917303085327148 0.3951619565486908
0.34638127684593201 0.65254181623458862 0.39607536792755127
0.50030136108398438 0.67081582546234131 0.40487825870513916
0.67143994569778442 0.70535856485366821 0.40937435626983643
0.82782626152038574 0.73338371515274048 0.41305133700370789
0.95171856880187988 0.74142247438430786 0.41189861297607422
0.15587024390697479 0.7532728910446167 0.39538794755935669
0.22228169441223145 0.75545233488082886 0.39720717072486877
0.3424372673034668 0.76240450143814087 0.40461695194244385
0.47575882077217102 0.77398526668548584 0.41471230983734131
0.63134574890136719 0.80263698101043701 0.42399272322654724
0.78675395250320435 0.83047199249267578 0.43229153752326965
0.94570153951644897 0.86404573917388916 0.44413986802101135
0.329345703125 0.90834766626358032 0.4417729377746582
0.37062874436378479 0.90840822458267212 0.44489917159080505
0.45224326848983765 0.91184228658676147 0.45541101694107056
0.55026644468307495 0.91852623224258423 0.4698326587677002
0.66905355453491211 0.93119126558303833 0.48578956723213196
0.79621893167495728 0.93845587968826294 0.49996685981750488
0.92666006088256836 0.9563555121421814 0.51653951406478882
0.13931505382061005 0.20101983845233917 0.47238907217979431
0.31034541130065918 0.25769844651222229 0.47110831737518311
0.48446500301361084 0.34556353092193604 0.47807875275611877
0.60243088006973267 0.41843423247337341 0.48016813397407532
0.71665674448013306 0.39253604412078857 0.48486429452896118
0.85446691513061523 0.43728408217430115 0.50211459398269653
0.96832525730133057 0.54309630393981934 0.52193880081176758
0.15429452061653137 0.29540973901748657 0.47706401348114014
0.30621269345283508 0.33670401573181152 0.47973871231079102
0.49298664927482605 0.40201777219772339 0.48178887367248535
0.61019492149353027 0.46555963158607483 0.48643121123313904
0.72510385513305664 0.44799241423606873 0.4911988377571106
0.85869956016540527 0.4990750253200531 0.50457757711410522
0.97410255670547485 0.57929927110671997 0.52566826343536377
0.034701671451330185 0.41444855928421021 0.46947577595710754
0.24941332638263702 0.43173995614051819 0.47657746076583862
0.47725778818130493 0.47686606645584106 0.48602378368377686
0.61860007047653198 0.53289139270782471 0.49348869919776917
0.73114311695098877 0.53677523136138916 0.49929741024971008
0.86016374826431274 0.58049148321151733 0.51440435647964478
0.97302556037902832 0.65585625171661377 0.53916770219802856
0.14573363959789276 0.52421659231185913 0.4521949291229248
0.27507942914962769 0.5343438982963562 0.45676326751708984
0.44755202531814575 0.56036514043807983 0.47437387704849243
0.60401588678359985 0.60232174396514893 0.48777711391448975
0.73207741975784302 0.6257249116897583 0.49753132462501526
0.85339993238449097 0.6694754958152771 0.51334196329116821
0.96434342861175537 0.7183414101600647 0.53472590446472168
0.25099608302116394 0.62009507417678833 0.445972740650177
0.3280278742313385 0.63301032781600952 0.45293927192687988
0.45767459273338318 0.65545010566711426 0.46597260236740112
0.57246828079223633 0.68266886472702026 0.47799223661422729
0.69646573066711426 0.70935052633285522 0.48528215289115906
0.83887577056884766 0.7336958646774292 0.49150633811950684
0.96142399311065674 0.74943679571151733 0.49208104610443115
0.33151009678840637 0.74823403358459473 0.4586949348449707
0.3757757842540741 0.75461870431900024 0.46192425489425659
0.43912836909294128 0.76376450061798096 0.4627017080783844
0.52659302949905396 0.77678894996643066 0.46829041838645935
0.65843790769577026 0.80464071035385132 0.48791772127151489
0.80889767408370972 0.83801078796386719 0.50238323211669922
0.95444047451019287 0.86561572551727295 0.51073431968688965
0.41421246528625488 0.90098363161087036 0.49385771155357361
0.43817731738090515 0.90626531839370728 0.4946587085723877
0.47077783942222595 0.91511780023574829 0.48992893099784851
0.55877053737640381 0.91727465391159058 0.50206261873245239
0.67657232284545898 0.92669987678527832 0.52711319923400879
0.80666345357894897 0.94557148218154907 0.54650735855102539
0.93800979852676392 0.96248525381088257 0.57363545894622803
0.35232403874397278 0.32567241787910461 0.56592673063278198
0.44349047541618347 0.36549979448318481 0.56700003147125244
0.58072048425674438 0.43567359447479248 0.56779104471206665
0.6825939416885376 0.53507804870605469 0.56835377216339111
0.75563347339630127 0.57249575853347778 0.56651967763900757
0.83404260873794556 0.54874920845031738 0.56961643695831299
0.95280241966247559 0.5839119553565979 0.59203720092773438
0.36382648348808289 0.38899675011634827 0.56235849857330322
0.45433956384658813 0.41496428847312927 0.566367506980896
0.57400029897689819 0.4746856689453125 0.5714074969291687
0.68188810348510742 0.5691145658493042 0.57640379667282104
0.76051658391952515 0.6031612753868103 0.57187986373901367
0.83555036783218384 0.58312433958053589 0.57554501295089722
0.95419234037399292 0.60802727937698364 0.59610438346862793
0.33504393696784973 0.47740164399147034 0.55309122800827026
0.41859135031700134 0.49195539951324463 0.55644512176513672
0.54675120115280151 0.53828257322311401 0.57029569149017334
0.67437571287155151 0.6112220287322998 0.57823127508163452
0.76143723726272583 0.64622378349304199 0.57916498184204102
0.84122943878173828 0.63735508918762207 0.5846254825592041
0.96121507883071899 0.66097992658615112 0.60652977228164673
0.24687427282333374 0.55464345216751099 0.53073734045028687
0.32887879014015198 0.56381219625473022 0.53527885675430298
0.47216671705245972 0.58227449655532837 0.54839468002319336
0.64717286825180054 0.63643068075180054 0.56857973337173462
0.76235413551330566 0.69729888439178467 0.58360844850540161
0.85054624080657959 0.69743573665618896 0.59478390216827393
0.96438300609588623 0.73014539480209351 0.61925613880157471
0.28721126914024353 0.63851422071456909 0.51372575759887695
0.34177833795547485 0.64171487092971802 0.51617217063903809
0.44375771284103394 0.65461456775665283 0.52443033456802368
0.58585381507873535 0.68561679124832153 0.54382973909378052
0.7419167160987854 0.74471580982208252 0.5763048529624939
0.85947906970977783 0.76517307758331299 0.59118318557739258
0.96871805191040039 0.80344957113265991 0.62327456474304199
0.23081216216087341 0.72306585311889648 0.49498739838600159
0.30422407388687134 0.73138171434402466 0.50036770105361938
0.41810387372970581 0.74629813432693481 0.51018494367599487
0.56588518619537354 0.77162736654281616 0.53221821784973145
0.69367760419845581 0.80734241008758545 0.55978178977966309
0.83622783422470093 0.84306681156158447 0.58115607500076294
0.96853125095367432 0.86324632167816162 0.5969434380531311
0.3826509416103363 0.89846706390380859 0.5480380654335022
0.41410627961158752 0.89361083507537842 0.54433953762054443
0.500263512134552 0.90711110830307007 0.55580061674118042
0.58904051780700684 0.9171103835105896 0.56370657682418823
0.68331527709960938 0.92490744590759277 0.57556635141372681
0.81764060258865356 0.94645178318023682 0.6122899055480957
0.95327609777450562 0.964591383934021 0.65089315176010132
0.53159213066101074 0.47434955835342407 0.6711965799331665
0.58127826452255249 0.50322359800338745 0.68008309602737427
0.66483908891677856 0.54292017221450806 0.67266792058944702
0.7462959885597229 0.61079615354537964 0.67308396100997925
0.82246702909469604 0.69809508323669434 0.68066245317459106
0.87462466955184937 0.71333235502243042 0.68028497695922852
0.93118435144424438 0.69010382890701294 0.68140298128128052
0.53373193740844727 0.50800108909606934 0.66614717245101929
0.57906591892242432 0.52723222970962524 0.67352384328842163
0.65599590539932251 0.56833928823471069 0.67559820413589478
0.74447500705718994 0.63272631168365479 0.68097507953643799
0.82088959217071533 0.71157610416412354 0.68781208992004395
0.87718409299850464 0.73169809579849243 0.68894404172897339
0.93946099281311035 0.712932288646698 0.69405072927474976
0.50083112716674805 0.5576404333114624 0.65665560960769653
0.5434272289276123 0.56633579730987549 0.6615709662437439
0.62919837236404419 0.60798609256744385 0.67175388336181641
0.73635601997375488 0.66962975263595581 0.68545842170715332
0.81625044345855713 0.73936516046524048 0.69258385896682739
0.87814950942993164 0.76306867599487305 0.6950376033782959
0.94688022136688232 0.74516838788986206 0.70676171779632568
0.37448740005493164 0.61222296953201294 0.63616019487380981
0.44343012571334839 0.62068504095077515 0.640411376953125
0.567138671875 0.64062792062759399 0.65337091684341431
0.69809865951538086 0.68741005659103394 0.67557930946350098
0.81224721670150757 0.76544070243835449 0.70141887664794922
0.8818436861038208 0.79742157459259033 0.70948797464370728
0.94832843542098999 0.78505605459213257 0.71824795007705688
0.30700847506523132 0.68264114856719971 0.61621862649917603
0.36265367269515991 0.68543267250061035 0.61861580610275269
0.45485639572143555 0.69018435478210449 0.6212230920791626
0.58976513147354126 0.70930022001266479 0.640583336353302
0.76386839151382446 0.76985019445419312 0.68407988548278809
0.89029556512832642 0.83686590194702148 0.72913450002670288
0.96258509159088135 0.8322330117225647 0.74202412366867065
0.26563185453414917 0.75379186868667603 0.58863574266433716
0.31832754611968994 0.75814974308013916 0.5918462872505188
0.41383817791938782 0.76405256986618042 0.59652072191238403
0.54616570472717285 0.7778322696685791 0.61219394207000732
0.68634086847305298 0.80339556932449341 0.64068078994750977
0.86110109090805054 0.86284226179122925 0.71193897724151611
0.97579938173294067 0.89582341909408569 0.76409602165222168
0.080476276576519012 0.88930821418762207 0.59676003456115723
0.16357673704624176 0.89168727397918701 0.59959131479263306
0.33091279864311218 0.89492690563201904 0.60713726282119751
0.49822038412094116 0.90707361698150635 0.62441635131835938
0.67312967777252197 0.92288893461227417 0.65834569931030273
0.83045274019241333 0.94437235593795776 0.71359312534332275
0.95947480201721191 0.96320319175720215 0.77201908826828003
0.67239868640899658 0.64142382144927979 0.82482278347015381
0.69686800241470337 0.65045779943466187 0.82308363914489746
0.74490755796432495 0.67563831806182861 0.81971246004104614
0.81165891885757446 0.72061246633529663 0.826873779296875
0.87871813774108887 0.77585458755493164 0.82919579744338989
0.92722535133361816 0.83333498239517212 0.82895797491073608
0.95531481504440308 0.83853179216384888 0.82977235317230225
0.66711699962615967 0.659434974193573 0.82580721378326416
0.69241231679916382 0.66778028011322021 0.82374465465545654
0.74352169036865234 0.69161051511764526 0.8275376558303833
0.8103901743888855 0.73405665159225464 0.83068740367889404
0.87832337617874146 0.78904598951339722 0.83514255285263062
0.92999184131622314 0.84050548076629639 0.83571732044219971
0.96412408351898193 0.8488239049911499 0.84408891201019287
0.6405564546585083 0.68177694082260132 0.83057224750518799
0.6706535816192627 0.6933976411819458 0.83263307809829712
0.72429484128952026 0.71321576833724976 0.83159178495407104
0.80244648456573486 0.75255930423736572 0.83655714988708496
0.87005537748336792 0.80432915687561035 0.83888155221939087
0.92826861143112183 0.85446012020111084 0.84492212533950806
0.96657299995422363 0.86532771587371826 0.85420984029769897
0.57613837718963623 0.71978986263275146 0.82573413848876953
0.60844850540161133 0.72373175621032715 0.82736432552337646
0.67296159267425537 0.74098926782608032 0.83274310827255249
0.76747137308120728 0.76868730783462524 0.83853280544281006
0.85988467931747437 0.81934869289398193 0.84957659244537354
0.92743217945098877 0.87274020910263062 0.85751533508300781
0.96415561437606812 0.89033013582229614 0.86452913284301758
0.38898450136184692 0.7672111988067627 0.81166523694992065
0.43586820363998413 0.76883506774902344 0.817271888256073
0.5295412540435791 0.7710375189781189 0.82068222761154175
0.67029815912246704 0.78870940208435059 0.83735215663909912
0.81674343347549438 0.83005356788635254 0.85494494438171387
0.921031653881073 0.89088255167007446 0.87782841920852661
0.97015947103500366 0.91784191131591797 0.88757526874542236
0.33459606766700745 0.84620487689971924 0.81099796295166016
0.37316355109214783 0.84834146499633789 0.81817519664764404
0.44691008329391479 0.84578126668930054 0.81920450925827026
0.54860204458236694 0.84642350673675537 0.82906979322433472
0.69028306007385254 0.85388469696044922 0.84712731838226318
0.87989598512649536 0.90107452869415283 0.88758379220962524
0.97389441728591919 0.9417647123336792 0.9161381721496582
0.24416297674179077 0.94466298818588257 0.83153033256530762
0.29211029410362244 0.94345760345458984 0.83195221424102783
0.37837868928909302 0.94524478912353516 0.835845947265625
0.49096629023551941 0.94631582498550415 0.84182989597320557
0.62575054168701172 0.9500730037689209 0.85233867168426514
0.79208070039749146 0.95446610450744629 0.87383395433425903
0.96913415193557739 0.97922348976135254 0.93580585718154907
