luts/instant_consumer/polaroid_px-100uv+_cold_+.cube
# Created by: G'MIC (https://gmic.eu)
TITLE "polaroid_px-100uv+_cold_+"
# LUT size
LUT_3D_SIZE 7
# Data domain
DOMAIN_MIN 0.0 0.0 0.0
DOMAIN_MAX 1.0 1.0 1.0
# LUT data points
0.23458562791347504 0.30042597651481628 0.31274396181106567
0.24257610738277435 0.30629843473434448 0.32044562697410583
0.27339464426040649 0.33149111270904541 0.34506005048751831
0.33106893301010132 0.37978276610374451 0.39016065001487732
0.40718880295753479 0.44443628191947937 0.44939768314361572
0.4941859245300293 0.52110284566879272 0.51678544282913208
0.59537649154663086 0.61491101980209351 0.5951201319694519
0.24777723848819733 0.31084272265434265 0.32339891791343689
0.258148193359375 0.31812408566474915 0.33242747187614441
0.2873898446559906 0.34238609671592712 0.35617777705192566
0.33969950675964355 0.3862265944480896 0.39722755551338196
0.4110875129699707 0.44598519802093506 0.45214861631393433
0.49377810955047607 0.5189969539642334 0.51584744453430176
0.59681922197341919 0.61478275060653687 0.59523874521255493
0.29554873704910278 0.34883105754852295 0.36052402853965759
0.30331498384475708 0.35396376252174377 0.36721628904342651
0.32642284035682678 0.37293443083763123 0.38597509264945984
0.37016451358795166 0.41024091839790344 0.42035168409347534
0.42874899506568909 0.45999166369438171 0.46577125787734985
0.50119483470916748 0.52508831024169922 0.52161300182342529
0.60853308439254761 0.62551635503768921 0.60344058275222778
0.37044227123260498 0.40965366363525391 0.41885131597518921
0.3724287748336792 0.40943524241447449 0.42018413543701172
0.3861948549747467 0.42110803723335266 0.4313264787197113
0.42390400171279907 0.4541875422000885 0.46094119548797607
0.47131407260894775 0.4967159628868103 0.49855145812034607
0.52698647975921631 0.54889446496963501 0.54171288013458252
0.62576287984848022 0.64177209138870239 0.61661916971206665
0.45921441912651062 0.48490962386131287 0.48806217312812805
0.45778784155845642 0.48251420259475708 0.48590409755706787
0.46043074131011963 0.48502025008201599 0.48784705996513367
0.48819842934608459 0.51148301362991333 0.51000922918319702
0.53299444913864136 0.55436724424362183 0.54588216543197632
0.58730858564376831 0.60588347911834717 0.58807015419006348
0.66210699081420898 0.67654776573181152 0.64470463991165161
0.57800096273422241 0.59547656774520874 0.57960611581802368
0.57649803161621094 0.59339743852615356 0.57772272825241089
0.57184350490570068 0.5892568826675415 0.57379436492919922
0.58995288610458374 0.60868924856185913 0.58890140056610107
0.62736588716506958 0.64590948820114136 0.6193346381187439
0.66943198442459106 0.68544536828994751 0.65158170461654663
0.72062134742736816 0.7328871488571167 0.68935388326644897
0.72561299800872803 0.7407829761505127 0.69301116466522217
0.72464203834533691 0.73753875494003296 0.6918063759803772
0.72225683927536011 0.73509675264358521 0.69054347276687622
0.72674137353897095 0.74176764488220215 0.69551151990890503
0.7465139627456665 0.76249289512634277 0.71210777759552002
0.76641571521759033 0.77973932027816772 0.72610414028167725
0.79322332143783569 0.80295181274414062 0.74475812911987305
0.26316377520561218 0.32475996017456055 0.33651959896087646
0.27352538704872131 0.33133718371391296 0.34417256712913513
0.30349323153495789 0.35557055473327637 0.36746698617935181
0.36613282561302185 0.40789052844047546 0.41594448685646057
0.4473855197429657 0.47724899649620056 0.47975841164588928
0.52890574932098389 0.55003184080123901 0.54316812753677368
0.62364381551742554 0.63913345336914062 0.61615002155303955
0.27224510908126831 0.33237460255622864 0.34261655807495117
0.28980043530464172 0.34462857246398926 0.35658654570579529
0.32404789328575134 0.37190195918083191 0.38284873962402344
0.38580366969108582 0.42320048809051514 0.43001845479011536
0.45517784357070923 0.48239469528198242 0.4846491813659668
0.52893275022506714 0.54926913976669312 0.54256725311279297
0.62476378679275513 0.63963907957077026 0.61661946773529053
0.32730275392532349 0.37765228748321533 0.38492676615715027
0.34068131446838379 0.38630422949790955 0.39543595910072327
0.36440488696098328 0.40483725070953369 0.41394254565238953
0.40712738037109375 0.44068247079849243 0.44719204306602478
0.4628719687461853 0.48901933431625366 0.49115234613418579
0.53375959396362305 0.55408132076263428 0.54671680927276611
0.63057643175125122 0.64587336778640747 0.62126690149307251
0.41490703821182251 0.44983503222465515 0.4527905285358429
0.41578912734985352 0.44862380623817444 0.45305076241493225
0.42221656441688538 0.45313432812690735 0.45827192068099976
0.44838529825210571 0.4759751558303833 0.47929200530052185
0.4907868504524231 0.5142330527305603 0.51314699649810791
0.55065947771072388 0.57056915760040283 0.56028938293457031
0.64225882291793823 0.65758264064788818 0.63054895401000977
0.49522635340690613 0.51964491605758667 0.51598453521728516
0.49646511673927307 0.51935923099517822 0.51614534854888916
0.49323645234107971 0.51609081029891968 0.512950599193573
0.50786346197128296 0.53016501665115356 0.52475583553314209
0.54694575071334839 0.56760025024414062 0.55666297674179077
0.60104542970657349 0.61910837888717651 0.59915363788604736
0.67489832639694214 0.68903487920761108 0.65555077791213989
0.60000252723693848 0.61780637502670288 0.59726297855377197
0.60272747278213501 0.61974942684173584 0.59834772348403931
0.59605586528778076 0.61339002847671509 0.59226131439208984
0.60335874557495117 0.6217343807220459 0.59864073991775513
0.63755792379379272 0.65532654523849487 0.62645959854125977
0.67978334426879883 0.69529861211776733 0.65946918725967407
0.73035013675689697 0.74246793985366821 0.69768738746643066
0.73307085037231445 0.74726670980453491 0.69898325204849243
0.73557424545288086 0.74798882007598877 0.70022124052047729
0.73122763633728027 0.74412518739700317 0.69693052768707275
0.73341333866119385 0.74776178598403931 0.699756920337677
0.75139343738555908 0.76579552888870239 0.71447479724884033
0.77370244264602661 0.78588098287582397 0.7310795783996582
0.80076724290847778 0.80979180335998535 0.75069206953048706
0.32913759350776672 0.37854307889938354 0.38742339611053467
0.33850434422492981 0.38432145118713379 0.39495766162872314
0.35968059301376343 0.40191727876663208 0.41148507595062256
0.40479838848114014 0.44004330039024353 0.4462943971157074
0.49033117294311523 0.51484936475753784 0.51454877853393555
0.5763545036315918 0.59400808811187744 0.57988417148590088
0.66481530666351318 0.67909246683120728 0.64766901731491089
0.34147387742996216 0.38817527890205383 0.39650511741638184
0.35551866888999939 0.39794278144836426 0.40739366412162781
0.38110104203224182 0.41903883218765259 0.42685917019844055
0.42759928107261658 0.45855754613876343 0.46268951892852783
0.49612468481063843 0.51960510015487671 0.51708567142486572
0.57918530702590942 0.59744882583618164 0.58176964521408081
0.66806745529174805 0.6826511025428772 0.65040099620819092
0.38524007797241211 0.42440399527549744 0.43015760183334351
0.39931127429008484 0.43487697839736938 0.44072580337524414
0.41862034797668457 0.45082762837409973 0.45559075474739075
0.45155975222587585 0.47983467578887939 0.48135471343994141
0.50694781541824341 0.530498206615448 0.5255247950553894
0.58384221792221069 0.60300785303115845 0.58606421947479248
0.67122596502304077 0.68652021884918213 0.653331458568573
0.45904487371444702 0.48739436268806458 0.48741236329078674
0.46712446212768555 0.4943757951259613 0.4935377836227417
0.47468692064285278 0.50125783681869507 0.499288409948349
0.49298188090324402 0.51794284582138062 0.5140535831451416
0.53229939937591553 0.55475848913192749 0.54589927196502686
0.59241598844528198 0.61204218864440918 0.5937575101852417
0.67754757404327393 0.69328445196151733 0.65891486406326294
0.54185479879379272 0.56276684999465942 0.55231130123138428
0.54951047897338867 0.56982213258743286 0.55755728483200073
0.54836606979370117 0.5698392391204834 0.55644744634628296
0.55266052484512329 0.57450318336486816 0.56029468774795532
0.5833895206451416 0.60395842790603638 0.58542639017105103
0.63371235132217407 0.6519591212272644 0.62524306774139404
0.70203369855880737 0.71690279245376587 0.67760056257247925
0.64272952079772949 0.65881294012069702 0.63013225793838501
0.6468956470489502 0.66276395320892334 0.63212800025939941
0.64039307832717896 0.65770161151885986 0.6274874210357666
0.63997060060501099 0.65819919109344482 0.6276819109916687
0.66487163305282593 0.68232893943786621 0.64790791273117065
0.70207518339157104 0.71743237972259521 0.67692220211029053
0.74856835603713989 0.76098436117172241 0.71246719360351562
0.75148361921310425 0.76450449228286743 0.71286129951477051
0.75619828701019287 0.76851117610931396 0.71614992618560791
0.75232774019241333 0.76570594310760498 0.71369260549545288
0.75173348188400269 0.76574993133544922 0.71395218372344971
0.76475018262863159 0.77808433771133423 0.72439819574356079
0.78480452299118042 0.79653787612915039 0.739693284034729
0.80993509292602539 0.81927502155303955 0.75853896141052246
0.42599502205848694 0.46045225858688354 0.46282199025154114
0.43321380019187927 0.46432718634605408 0.4689965546131134
0.46163293719291687 0.48825910687446594 0.4913443922996521
0.48215153813362122 0.50562781095504761 0.50555408000946045
0.51944965124130249 0.54002553224563599 0.53475230932235718
0.61232924461364746 0.62891501188278198 0.60538983345031738
0.70168471336364746 0.71620118618011475 0.67534470558166504
0.44624736905097961 0.4747471809387207 0.47798886895179749
0.45077955722808838 0.47788393497467041 0.48140910267829895
0.46912044286727905 0.49467095732688904 0.49576222896575928
0.49264428019523621 0.5163419246673584 0.51371854543685913
0.53368121385574341 0.55575293302536011 0.54657524824142456
0.62178701162338257 0.64054256677627563 0.61430352926254272
0.7072710394859314 0.72297710180282593 0.68089491128921509
0.46336859464645386 0.48853015899658203 0.49126726388931274
0.47478869557380676 0.49889621138572693 0.49957531690597534
0.49133247137069702 0.5154077410697937 0.51221275329589844
0.51224589347839355 0.53610408306121826 0.52893322706222534
0.56036341190338135 0.58281272649765015 0.56756412982940674
0.64091664552688599 0.66013032197952271 0.63070595264434814
0.7147257924079895 0.7308838963508606 0.68769466876983643
0.49154847860336304 0.51455718278884888 0.51378542184829712
0.5146712064743042 0.53597807884216309 0.5306428074836731
0.5337291955947876 0.55556422472000122 0.54553592205047607
0.55434137582778931 0.57674366235733032 0.56232291460037231
0.59373903274536133 0.615520179271698 0.59440964460372925
0.65545088052749634 0.67480599880218506 0.64312553405761719
0.724090576171875 0.74029970169067383 0.69550555944442749
0.57739448547363281 0.59592944383621216 0.57992720603942871
0.58778482675552368 0.60590773820877075 0.58759808540344238
0.6006239652633667 0.61990690231323242 0.5981939435005188
0.61224430799484253 0.63247919082641602 0.60792583227157593
0.63685089349746704 0.65688282251358032 0.6279110312461853
0.68009036779403687 0.69845795631408691 0.66187900304794312
0.73753279447555542 0.75274455547332764 0.70563089847564697
0.68034607172012329 0.69490510225296021 0.65868890285491943
0.68251156806945801 0.69738936424255371 0.66038727760314941
0.68817150592803955 0.70453733205795288 0.66624051332473755
0.69118964672088623 0.70849144458770752 0.66929072141647339
0.70307224988937378 0.72013241052627563 0.67865544557571411
0.730316162109375 0.74571907520294189 0.69971472024917603
0.76935714483261108 0.78213775157928467 0.72945302724838257
0.76869380474090576 0.78116077184677124 0.72579115629196167
0.7759087085723877 0.78795892000198364 0.73098760843276978
0.77714580297470093 0.79013383388519287 0.73405748605728149
0.7762640118598938 0.78977155685424805 0.73408496379852295
0.78054797649383545 0.79342585802078247 0.73755735158920288
0.79408138990402222 0.80569124221801758 0.74783992767333984
0.81695699691772461 0.82646399736404419 0.76483726501464844
0.5377611517906189 0.5616033673286438 0.54991692304611206
0.5424923300743103 0.56289434432983398 0.55347895622253418
0.56577885150909424 0.58246511220932007 0.57121318578720093
0.60350877046585083 0.61764252185821533 0.59915471076965332
0.61054253578186035 0.62644600868225098 0.60397446155548096
0.6432921290397644 0.65952646732330322 0.62834525108337402
0.72539442777633667 0.74098420143127441 0.69372576475143433
0.55539369583129883 0.57454991340637207 0.5627974271774292
0.56098639965057373 0.57813107967376709 0.56687390804290771
0.58010542392730713 0.59629982709884644 0.58146005868911743
0.60639607906341553 0.62232124805450439 0.60152316093444824
0.620094895362854 0.63784760236740112 0.61208885908126831
0.66106283664703369 0.67907023429870605 0.64403504133224487
0.73173576593399048 0.74753719568252563 0.69980859756469727
0.56476831436157227 0.58206659555435181 0.56956040859222412
0.57343560457229614 0.58998024463653564 0.57584995031356812
0.59065479040145874 0.60759061574935913 0.58901071548461914
0.61277508735656738 0.63098669052124023 0.60646730661392212
0.63382470607757568 0.65336120128631592 0.62362200021743774
0.67248398065567017 0.69095653295516968 0.6544005274772644
0.73769652843475342 0.75342404842376709 0.70526134967803955
0.57425206899642944 0.59304958581924438 0.57708561420440674
0.5863722562789917 0.60337632894515991 0.58554971218109131
0.60731488466262817 0.62445425987243652 0.6019054651260376
0.634368896484375 0.65317058563232422 0.62396442890167236
0.65754008293151855 0.67744714021682739 0.64311802387237549
0.69446301460266113 0.7132384181022644 0.67262172698974609
0.7514299750328064 0.76700079441070557 0.71654856204986572
0.61447501182556152 0.63352960348129272 0.60850709676742554
0.62214875221252441 0.63885146379470825 0.61330670118331909
0.64017170667648315 0.65639227628707886 0.62787646055221558
0.67032146453857422 0.68808084726333618 0.65278005599975586
0.6913374662399292 0.70955586433410645 0.66989928483963013
0.72122871875762939 0.7384263277053833 0.69326621294021606
0.76565104722976685 0.78030550479888916 0.7275879979133606
0.69400852918624878 0.71008890867233276 0.66939717531204224
0.69973605871200562 0.7142481803894043 0.67350172996520996
0.71396076679229736 0.72829955816268921 0.68622291088104248
0.72879493236541748 0.74396014213562012 0.69892823696136475
0.73952168226242065 0.7549247145652771 0.70743036270141602
0.75848525762557983 0.77295053005218506 0.7219390869140625
0.78816878795623779 0.80045795440673828 0.74447304010391235
0.77427798509597778 0.78678542375564575 0.73066198825836182
0.7812187671661377 0.7926555871963501 0.73596364259719849
0.78832745552062988 0.79945147037506104 0.74298197031021118
0.79177182912826538 0.80339950323104858 0.74700331687927246
0.79454225301742554 0.80607354640960693 0.74918633699417114
0.80340403318405151 0.81426370143890381 0.75597530603408813
0.82192039489746094 0.83102649450302124 0.76952391862869263
0.66484737396240234 0.68137943744659424 0.64895367622375488
0.66964870691299438 0.68312221765518188 0.6522020697593689
0.68756783008575439 0.69878190755844116 0.66519361734390259
0.71513372659683228 0.72494852542877197 0.68534380197525024
0.73319685459136963 0.74447578191757202 0.69860172271728516
0.73632544279098511 0.74985164403915405 0.70136177539825439
0.76370853185653687 0.77640712261199951 0.72305232286453247
0.67907363176345825 0.69294261932373047 0.65910112857818604
0.684173583984375 0.69573235511779785 0.66227978467941284
0.69896131753921509 0.70959997177124023 0.67313939332962036
0.72175693511962891 0.7326885461807251 0.69017785787582397
0.73728865385055542 0.74991375207901001 0.7017524242401123
0.7408633828163147 0.75422006845474243 0.70502674579620361
0.76460832357406616 0.7774730920791626 0.72497892379760742
0.68922477960586548 0.70232594013214111 0.66555958986282349
0.69277322292327881 0.7045014500617981 0.66795063018798828
0.70467519760131836 0.71644043922424316 0.67673063278198242
0.72586500644683838 0.73889845609664917 0.69325262308120728
0.74613386392593384 0.76014488935470581 0.70895320177078247
0.7450258731842041 0.75868219137191772 0.70908266305923462
0.76362746953964233 0.77595669031143188 0.72488868236541748
0.69258195161819458 0.70754539966583252 0.66767627000808716
0.69632750749588013 0.70926648378372192 0.6698298454284668
0.70821875333786011 0.7212643027305603 0.67917430400848389
0.73026567697525024 0.74442028999328613 0.69715827703475952
0.74232512712478638 0.75822049379348755 0.70757490396499634
0.75045204162597656 0.76543325185775757 0.71449726819992065
0.77749007940292358 0.79008573293685913 0.73606711626052856
0.70281362533569336 0.71888130903244019 0.67591667175292969
0.71015268564224243 0.72393137216567993 0.68038570880889893
0.72038280963897705 0.73328328132629395 0.68893814086914062
0.73968446254730225 0.75355815887451172 0.70531749725341797
0.75371247529983521 0.76837319135665894 0.71721547842025757
0.76864558458328247 0.78301358222961426 0.72933000326156616
0.79440760612487793 0.80638962984085083 0.74941813945770264
0.73804152011871338 0.75257104635238647 0.7038378119468689
0.74511778354644775 0.75758963823318481 0.70827239751815796
0.75417006015777588 0.76536071300506592 0.71602016687393188
0.76700085401535034 0.77843528985977173 0.72707140445709229
0.77784258127212524 0.79007512331008911 0.7363896369934082
0.79071551561355591 0.80241543054580688 0.74661308526992798
0.80893576145172119 0.81921082735061646 0.76068979501724243
0.78834360837936401 0.7998044490814209 0.74271529912948608
0.79271668195724487 0.80212295055389404 0.74562650918960571
0.79867559671401978 0.80686759948730469 0.75065559148788452
0.80503576993942261 0.8135305643081665 0.75649362802505493
0.81020891666412354 0.8189966082572937 0.76107382774353027
0.81577736139297485 0.82460004091262817 0.76568269729614258
0.82783967256546021 0.83560013771057129 0.77460724115371704
0.78808116912841797 0.79981809854507446 0.745441734790802
0.7896655797958374 0.79854398965835571 0.7454524040222168
0.7962266206741333 0.80351847410202026 0.74931305646896362
0.80841708183288574 0.81540274620056152 0.75773447751998901
0.81876063346862793 0.82674670219421387 0.76551812887191772
0.81669408082962036 0.82555699348449707 0.76405078172683716
0.81700694561004639 0.8258398175239563 0.76531970500946045
0.79863208532333374 0.80855810642242432 0.75211876630783081
0.80019205808639526 0.80794113874435425 0.75258767604827881
0.80353105068206787 0.81044590473175049 0.75374025106430054
0.80946445465087891 0.81696957349777222 0.75793051719665527
0.81351906061172485 0.82210588455200195 0.76102942228317261
0.81115347146987915 0.82031023502349854 0.75993901491165161
0.81385380029678345 0.82242649793624878 0.76291680335998535
0.80711948871612549 0.81660014390945435 0.75699108839035034
0.80598324537277222 0.81403446197509766 0.75583112239837646
0.8064340353012085 0.81449371576309204 0.75552558898925781
0.81144756078720093 0.81983721256256104 0.75863784551620483
0.81408029794692993 0.82342386245727539 0.76106017827987671
0.80964863300323486 0.81892341375350952 0.7589418888092041
0.81289637088775635 0.8211711049079895 0.76257514953613281
0.80702346563339233 0.81749194860458374 0.75606518983840942
0.80559980869293213 0.81494712829589844 0.75352448225021362
0.80613166093826294 0.8150639533996582 0.75459331274032593
0.81091701984405518 0.82048487663269043 0.75888228416442871
0.81425386667251587 0.82444101572036743 0.76232171058654785
0.81324672698974609 0.82295674085617065 0.76229816675186157
0.82128369808197021 0.82958817481994629 0.76922208070755005
0.79993647336959839 0.81172239780426025 0.7509722113609314
0.80556678771972656 0.81585347652435303 0.75411099195480347
0.80462610721588135 0.81482976675033569 0.7540595531463623
0.80960386991500854 0.8186182975769043 0.7585369348526001
0.81537103652954102 0.82495242357254028 0.76407688856124878
0.82265710830688477 0.8320157527923584 0.77031213045120239
0.8329358696937561 0.84076446294784546 0.77868050336837769
0.80238896608352661 0.81335961818695068 0.75384634733200073
0.80758291482925415 0.81670147180557251 0.7564888596534729
0.80969363451004028 0.81731051206588745 0.75839835405349731
0.81424576044082642 0.82154595851898193 0.76258188486099243
0.8210914134979248 0.82890021800994873 0.76890271902084351
0.82931292057037354 0.83708781003952026 0.77574247121810913
0.83737075328826904 0.84442329406738281 0.78234177827835083
0.82055401802062988 0.82932400703430176 0.76875603199005127
0.82277894020080566 0.82909196615219116 0.76934319734573364
0.82485812902450562 0.82911872863769531 0.77048486471176147
0.83001077175140381 0.83455270528793335 0.7751467227935791
0.83462655544281006 0.83989846706390381 0.77950513362884521
0.83680617809295654 0.84257000684738159 0.78149062395095825
0.84113907814025879 0.84654641151428223 0.78503894805908203
