luts/instant_consumer/polaroid_px-70_cold_+.cube
# Created by: G'MIC (https://gmic.eu)
TITLE "polaroid_px-70_cold_+"
# LUT size
LUT_3D_SIZE 7
# Data domain
DOMAIN_MIN 0.0 0.0 0.0
DOMAIN_MAX 1.0 1.0 1.0
# LUT data points
0 0.23137255012989044 0.31764706969261169
0.0022616966161876917 0.23129358887672424 0.31627035140991211
0.0078707672655582428 0.22716030478477478 0.3137628436088562
0.17936556041240692 0.23406949639320374 0.31535273790359497
0.56631195545196533 0.2679499089717865 0.31506550312042236
0.85360419750213623 0.38362985849380493 0.31027436256408691
0.97975647449493408 0.52285164594650269 0.3362160325050354
0 0.2334848940372467 0.31548956036567688
0.00020117666281294078 0.23056231439113617 0.31493645906448364
0.0045007294975221157 0.24289597570896149 0.31372550129890442
0.25802192091941833 0.26408141851425171 0.31439647078514099
0.58865833282470703 0.31347241997718811 0.31118336319923401
0.85612499713897705 0.43032404780387878 0.31017205119132996
0.98153483867645264 0.56369662284851074 0.34116852283477783
0 0.30642902851104736 0.31671974062919617
0.001504800864495337 0.30618759989738464 0.31782236695289612
0.025563992559909821 0.32282069325447083 0.31298366189002991
0.3468174934387207 0.36854088306427002 0.3093675971031189
0.62092739343643188 0.40924188494682312 0.30359160900115967
0.85267424583435059 0.52430343627929688 0.30576536059379578
0.97444969415664673 0.62271988391876221 0.34295493364334106
0 0.4931732714176178 0.32868477702140808
0.00072767969686537981 0.48289105296134949 0.33005028963088989
0.046131044626235962 0.50661790370941162 0.32367041707038879
0.41884160041809082 0.54400259256362915 0.31895577907562256
0.68176025152206421 0.59915781021118164 0.30942252278327942
0.85168939828872681 0.64663296937942505 0.3085484504699707
0.95540356636047363 0.69231563806533813 0.34089654684066772
0.005641294177621603 0.71928542852401733 0.36444312334060669
0.0086189117282629013 0.70801210403442383 0.36066135764122009
0.22307564318180084 0.71855521202087402 0.36326095461845398
0.49289023876190186 0.73473846912384033 0.36620011925697327
0.6896241307258606 0.75751668214797974 0.36527380347251892
0.83777523040771484 0.77680200338363647 0.36610338091850281
0.94132190942764282 0.79423600435256958 0.40280252695083618
0.38139775395393372 0.86643975973129272 0.44677639007568359
0.40899136662483215 0.86138415336608887 0.44757667183876038
0.49264180660247803 0.85707074403762817 0.45306810736656189
0.61352527141571045 0.85671418905258179 0.45652419328689575
0.72751343250274658 0.86643707752227783 0.46652171015739441
0.84130018949508667 0.86494499444961548 0.46763160824775696
0.93742358684539795 0.86977493762969971 0.49211773276329041
0.73462212085723877 0.93354690074920654 0.55641627311706543
0.73762375116348267 0.93068349361419678 0.55399197340011597
0.76455932855606079 0.92723679542541504 0.55747866630554199
0.80504059791564941 0.92773592472076416 0.56041789054870605
0.84865432977676392 0.93171864748001099 0.56503057479858398
0.89957821369171143 0.92885756492614746 0.56646192073822021
0.95124858617782593 0.93378788232803345 0.57957679033279419
0 0.22897939383983612 0.32206648588180542
0.0039487653411924839 0.22748646140098572 0.32258209586143494
0.0097112171351909637 0.22638820111751556 0.32314971089363098
0.22021247446537018 0.22928881645202637 0.32554951310157776
0.60192173719406128 0.28085315227508545 0.34015822410583496
0.86656469106674194 0.4104742705821991 0.35918056964874268
0.98071348667144775 0.55127573013305664 0.39549830555915833
0 0.23508284986019135 0.3214358389377594
0.0019235049840062857 0.2401861846446991 0.32388520240783691
0.007913895882666111 0.24503412842750549 0.32137197256088257
0.30001324415206909 0.27340781688690186 0.33205515146255493
0.63457971811294556 0.33406594395637512 0.34209805727005005
0.86723577976226807 0.45755288004875183 0.35643753409385681
0.97204697132110596 0.58302289247512817 0.39863172173500061
0 0.32028350234031677 0.33093059062957764
0.0043695336207747459 0.32392063736915588 0.33526149392127991
0.044784814119338989 0.33209088444709778 0.33007073402404785
0.37794026732444763 0.37269666790962219 0.3318181037902832
0.65469670295715332 0.43443796038627625 0.33626952767372131
0.865753173828125 0.53807467222213745 0.34800976514816284
0.97236371040344238 0.63919061422348022 0.39319467544555664
0.00032679238938726485 0.50329232215881348 0.34940332174301147
0.0061519546434283257 0.50956284999847412 0.35666659474372864
0.081188350915908813 0.52173393964767456 0.35075366497039795
0.44538426399230957 0.56223291158676147 0.3503795862197876
0.69201827049255371 0.60688889026641846 0.34524995088577271
0.8526422381401062 0.6498793363571167 0.35000663995742798
0.96094441413879395 0.70449745655059814 0.38471350073814392
0.0080364150926470757 0.72454303503036499 0.3885951042175293
0.036489091813564301 0.72464090585708618 0.38644048571586609
0.28188046813011169 0.72638165950775146 0.3953823447227478
0.52034008502960205 0.7463802695274353 0.39886662364006042
0.70372813940048218 0.7564513087272644 0.40114673972129822
0.84510082006454468 0.78224748373031616 0.40651395916938782
0.93690496683120728 0.79259151220321655 0.43420487642288208
0.42224580049514771 0.8685375452041626 0.46786400675773621
0.4476354718208313 0.86071896553039551 0.46955433487892151
0.53547519445419312 0.85846960544586182 0.47462755441665649
0.62768292427062988 0.86287969350814819 0.48227357864379883
0.73597240447998047 0.86637955904006958 0.49242240190505981
0.84210515022277832 0.8768841028213501 0.49826079607009888
0.93313741683959961 0.87821537256240845 0.52046924829483032
0.74388545751571655 0.93200302124023438 0.55981099605560303
0.75068223476409912 0.93050730228424072 0.5593264102935791
0.78082990646362305 0.92959868907928467 0.56360137462615967
0.81759750843048096 0.92766076326370239 0.56830090284347534
0.85861063003540039 0.93280154466629028 0.57230812311172485
0.8965873122215271 0.92915201187133789 0.57038801908493042
0.94847297668457031 0.93116813898086548 0.58067452907562256
0 0.22783304750919342 0.34608155488967896
0.00054859835654497147 0.22616258263587952 0.3366503119468689
0.0087948068976402283 0.23495581746101379 0.34084802865982056
0.22118765115737915 0.24207679927349091 0.35641473531723022
0.61086124181747437 0.23916402459144592 0.3857915997505188
0.89143747091293335 0.35646489262580872 0.42336317896842957
0.98423272371292114 0.58475500345230103 0.48346987366676331
0 0.24446684122085571 0.35279983282089233
0.002494617598131299 0.24949999153614044 0.35052987933158875
0.014016932807862759 0.26267728209495544 0.35139957070350647
0.31308844685554504 0.27903285622596741 0.37015926837921143
0.6583060622215271 0.31236979365348816 0.39689871668815613
0.88717406988143921 0.47369271516799927 0.44425773620605469
0.97928255796432495 0.64191520214080811 0.49615412950515747
0 0.33346551656723022 0.3703041672706604
0.0021665983367711306 0.34179171919822693 0.37296286225318909
0.106564961373806 0.35214892029762268 0.37758317589759827
0.42301490902900696 0.39296215772628784 0.39165312051773071
0.69622069597244263 0.46998849511146545 0.41724184155464172
0.87574028968811035 0.58330410718917847 0.44823926687240601
0.96574395895004272 0.6877981424331665 0.48752155900001526
0.0044812671840190887 0.52906876802444458 0.4082222580909729
0.014884395524859428 0.53176069259643555 0.40946400165557861
0.2286916971206665 0.5422673225402832 0.41113340854644775
0.48537382483482361 0.56665211915969849 0.41498774290084839
0.7164425253868103 0.61161065101623535 0.41793763637542725
0.85638469457626343 0.6676298975944519 0.43023550510406494
0.9547353982925415 0.73987883329391479 0.46950021386146545
0.20141990482807159 0.74755239486694336 0.45401951670646667
0.23082205653190613 0.73818314075469971 0.44785815477371216
0.38199308514595032 0.73430764675140381 0.45058515667915344
0.5511404275894165 0.74735492467880249 0.45910140872001648
0.72103369235992432 0.76692026853561401 0.46044695377349854
0.84445714950561523 0.78601950407028198 0.47205653786659241
0.9420238733291626 0.79972183704376221 0.47944468259811401
0.49270012974739075 0.86886382102966309 0.50304335355758667
0.50833839178085327 0.86465144157409668 0.50232279300689697
0.57314616441726685 0.86130070686340332 0.50681644678115845
0.66932284832000732 0.86047375202178955 0.51621043682098389
0.75624531507492065 0.87215268611907959 0.52271854877471924
0.85464149713516235 0.87995272874832153 0.53022128343582153
0.94212955236434937 0.88521033525466919 0.54262888431549072
0.76543104648590088 0.93072509765625 0.56991338729858398
0.76666337251663208 0.92884224653244019 0.56799817085266113
0.79544943571090698 0.92904675006866455 0.57095623016357422
0.82474184036254883 0.92532140016555786 0.57328224182128906
0.86095917224884033 0.92730087041854858 0.57635796070098877
0.90860116481781006 0.93103092908859253 0.58067291975021362
0.95663702487945557 0.93639767169952393 0.59254974126815796
0 0.23266783356666565 0.40887290239334106
0.004764168057590723 0.23765747249126434 0.4076322615146637
0.11544708907604218 0.2610374391078949 0.40925592184066772
0.34264376759529114 0.31296265125274658 0.42989540100097656
0.60535484552383423 0.3081149160861969 0.46888068318367004
0.87529176473617554 0.36730247735977173 0.51661807298660278
0.98236072063446045 0.54239159822463989 0.53852486610412598
0.0007054497255012393 0.2626723051071167 0.4237617552280426
0.0078671174123883247 0.27380397915840149 0.43110322952270508
0.18591654300689697 0.313407301902771 0.43415549397468567
0.40374457836151123 0.36366629600524902 0.44901493191719055
0.64482849836349487 0.37385100126266479 0.4827549159526825
0.87484115362167358 0.45033180713653564 0.51887756586074829
0.9834975004196167 0.61543327569961548 0.54715573787689209
9.3347887741401792e-05 0.37471380829811096 0.4494820237159729
0.0040242960676550865 0.37885183095932007 0.45721203088760376
0.23588208854198456 0.40208375453948975 0.46782892942428589
0.48763442039489746 0.46851760149002075 0.48008885979652405
0.6987375020980835 0.49137431383132935 0.50483059883117676
0.87614583969116211 0.59741604328155518 0.53543758392333984
0.96921449899673462 0.71677255630493164 0.55818307399749756
0.001460400759242475 0.54717236757278442 0.47669458389282227
0.022118901833891869 0.54992663860321045 0.48008280992507935
0.30637341737747192 0.56668126583099365 0.49057862162590027
0.55532103776931763 0.60417622327804565 0.50523775815963745
0.73910242319107056 0.65677917003631592 0.51861763000488281
0.86450564861297607 0.7239985466003418 0.53506964445114136
0.94856220483779907 0.78477299213409424 0.55261540412902832
0.29946446418762207 0.75363755226135254 0.51716709136962891
0.37010350823402405 0.75100255012512207 0.51795732975006104
0.49803763628005981 0.7556225061416626 0.51999568939208984
0.61560201644897461 0.76079511642456055 0.52270257472991943
0.75051647424697876 0.78358930349349976 0.52227836847305298
0.86153888702392578 0.79709219932556152 0.5277712345123291
0.94570839405059814 0.81800663471221924 0.54083347320556641
0.59992241859436035 0.87150520086288452 0.5525938868522644
0.61099648475646973 0.8656914234161377 0.54907894134521484
0.64846599102020264 0.86738842725753784 0.54905992746353149
0.72217166423797607 0.8671761155128479 0.55432248115539551
0.79414719343185425 0.87600952386856079 0.55582165718078613
0.87466728687286377 0.88453549146652222 0.56314271688461304
0.94850987195968628 0.88835722208023071 0.56854403018951416
0.79360061883926392 0.92882704734802246 0.58401405811309814
0.79725342988967896 0.92720586061477661 0.58330702781677246
0.81473338603973389 0.92912453413009644 0.58255809545516968
0.8450998067855835 0.9296603798866272 0.58554470539093018
0.88619202375411987 0.93175840377807617 0.59103339910507202
0.92533677816390991 0.93653720617294312 0.59618699550628662
0.95750832557678223 0.93697291612625122 0.5986400842666626
0.007032731082290411 0.25762712955474854 0.53619778156280518
0.11768931895494461 0.26623812317848206 0.53639525175094604
0.38900750875473022 0.31713205575942993 0.54578983783721924
0.60287779569625854 0.42665991187095642 0.56047946214675903
0.73969107866287231 0.52713233232498169 0.56666791439056396
0.85653573274612427 0.52022260427474976 0.58301055431365967
0.9713255763053894 0.60517424345016479 0.59180343151092529
0.012008262798190117 0.31152468919754028 0.55610364675521851
0.14070300757884979 0.32196632027626038 0.55499458312988281
0.41607779264450073 0.37752428650856018 0.56061935424804688
0.63008534908294678 0.4868931770324707 0.56865793466567993
0.74471491575241089 0.57535505294799805 0.56848043203353882
0.8592488169670105 0.57639878988265991 0.58280789852142334
0.96842151880264282 0.64991146326065063 0.5940360426902771
0.0070403455756604671 0.44962522387504578 0.56642097234725952
0.10619759559631348 0.4414488673210144 0.56930512189865112
0.42636436223983765 0.47849631309509277 0.5735938549041748
0.65766251087188721 0.58164173364639282 0.57819122076034546
0.76650762557983398 0.66483944654464722 0.57870709896087646
0.8645094633102417 0.66592866182327271 0.58275532722473145
0.95940369367599487 0.72611081600189209 0.59320199489593506
0.0035544151905924082 0.61438667774200439 0.56829750537872314
0.03713003545999527 0.60247033834457397 0.56730538606643677
0.35447585582733154 0.60913103818893433 0.57132327556610107
0.63891893625259399 0.66709530353546143 0.57981908321380615
0.77473729848861694 0.74133133888244629 0.57971370220184326
0.86706024408340454 0.75280916690826416 0.58628189563751221
0.95163840055465698 0.80192673206329346 0.59190076589584351
0.3252967894077301 0.76371163129806519 0.57190209627151489
0.38676953315734863 0.7628861665725708 0.57088494300842285
0.50138062238693237 0.76113623380661011 0.57353627681732178
0.65133386850357056 0.77210539579391479 0.57849472761154175
0.78411799669265747 0.81554371118545532 0.58060121536254883
0.87296706438064575 0.83330219984054565 0.58674806356430054
0.95238518714904785 0.84888732433319092 0.58710086345672607
0.59321272373199463 0.86335295438766479 0.58186328411102295
0.61473548412322998 0.8626897931098938 0.58178728818893433
0.68395864963531494 0.86910653114318848 0.57882207632064819
0.75303775072097778 0.87274640798568726 0.58281457424163818
0.82946205139160156 0.88111758232116699 0.58895707130432129
0.89322966337203979 0.89145410060882568 0.59513711929321289
0.95274138450622559 0.89260357618331909 0.59563428163528442
0.80826932191848755 0.92906022071838379 0.59899473190307617
0.81086939573287964 0.92677569389343262 0.59914171695709229
0.83772283792495728 0.92971545457839966 0.59902018308639526
0.86027055978775024 0.92909431457519531 0.60075229406356812
0.90348935127258301 0.93350422382354736 0.60571742057800293
0.93528282642364502 0.93397766351699829 0.61220574378967285
0.95984834432601929 0.93630611896514893 0.61701709032058716
0.42046883702278137 0.364479660987854 0.64947319030761719
0.50365054607391357 0.38331338763237 0.64801484346389771
0.64306366443634033 0.44817736744880676 0.64453363418579102
0.77253299951553345 0.57499152421951294 0.63525378704071045
0.84924137592315674 0.73244154453277588 0.62026476860046387
0.89892202615737915 0.76243710517883301 0.61353194713592529
0.94085317850112915 0.74712234735488892 0.61677926778793335
0.4195728600025177 0.43400004506111145 0.6493486762046814
0.50201249122619629 0.45282268524169922 0.64617824554443359
0.64392566680908203 0.51170194149017334 0.64087474346160889
0.77311301231384277 0.62240374088287354 0.63159745931625366
0.85061401128768921 0.75941181182861328 0.61727064847946167
0.90441334247589111 0.78634637594223022 0.61464184522628784
0.95512449741363525 0.78951930999755859 0.61684620380401611
0.38660484552383423 0.54507929086685181 0.64354145526885986
0.47049728035926819 0.55643188953399658 0.64019513130187988
0.62695568799972534 0.60343754291534424 0.63395953178405762
0.76376187801361084 0.70470643043518066 0.62260466814041138
0.85182052850723267 0.79967623949050903 0.61467677354812622
0.90101218223571777 0.81678330898284912 0.61291706562042236
0.9506189227104187 0.81424379348754883 0.61447036266326904
0.255178302526474 0.68046706914901733 0.62861782312393188
0.38239845633506775 0.67969179153442383 0.62807559967041016
0.5741955041885376 0.69588863849639893 0.62532335519790649
0.73654675483703613 0.74728834629058838 0.6212693452835083
0.84060752391815186 0.81880199909210205 0.6148984432220459
0.90467995405197144 0.84933727979660034 0.61263525485992432
0.94656080007553101 0.85115605592727661 0.61607521772384644
0.40333929657936096 0.79266667366027832 0.61469459533691406
0.44841876626014709 0.78630346059799194 0.61213493347167969
0.53640764951705933 0.7810778021812439 0.61330151557922363
0.67032808065414429 0.79664945602416992 0.61394363641738892
0.81492882966995239 0.83915430307388306 0.61236917972564697
0.90978753566741943 0.87481963634490967 0.61267459392547607
0.95480716228485107 0.87852990627288818 0.61747634410858154
0.62130367755889893 0.87573826313018799 0.60715067386627197
0.63874131441116333 0.87587600946426392 0.60481452941894531
0.69503659009933472 0.87515151500701904 0.6052175760269165
0.77102029323577881 0.87899529933929443 0.60936015844345093
0.84852486848831177 0.88780111074447632 0.61359816789627075
0.91805237531661987 0.90260189771652222 0.61866408586502075
0.95072275400161743 0.9067191481590271 0.62139737606048584
0.81744956970214844 0.93321883678436279 0.61471015214920044
0.82055938243865967 0.93210065364837646 0.61286920309066772
0.84282195568084717 0.93254053592681885 0.61352014541625977
0.87496554851531982 0.93298327922821045 0.61784356832504272
0.90928781032562256 0.93347501754760742 0.62647688388824463
0.94053322076797485 0.93023073673248291 0.62874191999435425
0.96822422742843628 0.93804836273193359 0.63712972402572632
0.70852053165435791 0.6472630500793457 0.67367088794708252
0.73570442199707031 0.66270452737808228 0.67086946964263916
0.79085451364517212 0.70536243915557861 0.66345095634460449
0.85641926527023315 0.77092009782791138 0.65307527780532837
0.91199499368667603 0.83543944358825684 0.64403617382049561
0.94771271944046021 0.87821322679519653 0.63772964477539062
0.96619421243667603 0.88364535570144653 0.63714569807052612
0.71346896886825562 0.68502599000930786 0.67000716924667358
0.73382812738418579 0.70061367750167847 0.66601407527923584
0.79009896516799927 0.73570245504379272 0.65942728519439697
0.86056256294250488 0.79073095321655273 0.65103322267532349
0.91080600023269653 0.84502911567687988 0.64188462495803833
0.94676876068115234 0.88292437791824341 0.63640773296356201
0.96526384353637695 0.88637298345565796 0.63635903596878052
0.70491480827331543 0.73875373601913452 0.66304898262023926
0.72953283786773682 0.75006949901580811 0.66135591268539429
0.78272634744644165 0.77076429128646851 0.65612244606018066
0.85479605197906494 0.82161825895309448 0.64753443002700806
0.90449321269989014 0.85683703422546387 0.64084410667419434
0.94993454217910767 0.89002543687820435 0.64027303457260132
0.96776014566421509 0.88932991027832031 0.63835901021957397
0.67294520139694214 0.78938108682632446 0.6563410758972168
0.69987565279006958 0.79255056381225586 0.65596294403076172
0.7550588846206665 0.80456024408340454 0.6523061990737915
0.84184473752975464 0.83850789070129395 0.64822512865066528
0.90593701601028442 0.87140083312988281 0.64276927709579468
0.95418304204940796 0.90177673101425171 0.64063119888305664
0.97026258707046509 0.91058945655822754 0.64075356721878052
0.58509057760238647 0.8325919508934021 0.64790600538253784
0.60860097408294678 0.83106404542922974 0.64697635173797607
0.68283003568649292 0.83673155307769775 0.64601916074752808
0.79290789365768433 0.85267764329910278 0.64630931615829468
0.88977903127670288 0.88267427682876587 0.64299249649047852
0.94321340322494507 0.90588808059692383 0.64138221740722656
0.96283018589019775 0.9147382378578186 0.64241737127304077
0.72786766290664673 0.89776778221130371 0.64247840642929077
0.7347564697265625 0.89684253931045532 0.64284437894821167
0.76094913482666016 0.8968927264213562 0.64249128103256226
0.79992949962615967 0.89293473958969116 0.63941383361816406
0.85811090469360352 0.89735257625579834 0.63677680492401123
0.94567608833312988 0.92016905546188354 0.64588528871536255
0.96199613809585571 0.92402821779251099 0.64742916822433472
0.85346239805221558 0.9408266544342041 0.64824575185775757
0.85725146532058716 0.94078344106674194 0.64579057693481445
0.87206113338470459 0.94018489122390747 0.64511525630950928
0.89509755373001099 0.93972420692443848 0.6486278772354126
0.92021501064300537 0.93980085849761963 0.65103793144226074
0.95808112621307373 0.94272375106811523 0.65479505062103271
0.98311173915863037 0.94702178239822388 0.66040557622909546
