luts/instant_consumer/polaroid_time_zero_expired_cold.cube
# Created by: G'MIC (https://gmic.eu)
TITLE "polaroid_time_zero_expired_cold"
# LUT size
LUT_3D_SIZE 13
# Data domain
DOMAIN_MIN 0.0 0.0 0.0
DOMAIN_MAX 1.0 1.0 1.0
# LUT data points
0.57260733842849731 0.35639950633049011 0.18808594346046448
0.5750536322593689 0.35392522811889648 0.18588058650493622
0.57912319898605347 0.35274586081504822 0.18566977977752686
0.58683031797409058 0.35336688160896301 0.18722207844257355
0.59895032644271851 0.35536852478981018 0.18854793906211853
0.61682331562042236 0.35834309458732605 0.18974654376506805
0.64115315675735474 0.36132192611694336 0.18975840508937836
0.67159968614578247 0.36440801620483398 0.18885895609855652
0.70663213729858398 0.36869272589683533 0.18820436298847198
0.7448846697807312 0.37466105818748474 0.18960963189601898
0.78465408086776733 0.38252702355384827 0.19289861619472504
0.8251723051071167 0.39263144135475159 0.19911499321460724
0.86425179243087769 0.40463218092918396 0.20873968303203583
0.57331234216690063 0.36198827624320984 0.18702118098735809
0.57664495706558228 0.35998129844665527 0.18706533312797546
0.58150899410247803 0.35975953936576843 0.18797500431537628
0.58983099460601807 0.36074343323707581 0.18902716040611267
0.60290420055389404 0.36323380470275879 0.19071197509765625
0.62131357192993164 0.36643046140670776 0.19150634109973907
0.64610612392425537 0.3700224757194519 0.19068138301372528
0.67660731077194214 0.37380358576774597 0.18909661471843719
0.71149462461471558 0.37853255867958069 0.18767604231834412
0.74972963333129883 0.38468879461288452 0.18789292871952057
0.79034852981567383 0.39248225092887878 0.19064348936080933
0.83066976070404053 0.4026084840297699 0.19654753804206848
0.87005949020385742 0.41469013690948486 0.20591512322425842
0.57598340511322021 0.37096163630485535 0.18600700795650482
0.57952076196670532 0.36987930536270142 0.18705521523952484
0.58543252944946289 0.37029695510864258 0.18859113752841949
0.59481996297836304 0.37242424488067627 0.19048205018043518
0.60867905616760254 0.37479421496391296 0.19223928451538086
0.62784284353256226 0.37827643752098083 0.19265954196453094
0.65282523632049561 0.38255137205123901 0.19091929495334625
0.68306869268417358 0.38725584745407104 0.18819518387317657
0.71797645092010498 0.39266940951347351 0.18552039563655853
0.75614452362060547 0.39893677830696106 0.1847202479839325
0.79575622081756592 0.40697342157363892 0.18723011016845703
0.83640778064727783 0.41673171520233154 0.19371388852596283
0.8760492205619812 0.42877036333084106 0.20363378524780273
0.58014136552810669 0.3874143660068512 0.18385110795497894
0.58446359634399414 0.38721290230751038 0.18548302352428436
0.59132826328277588 0.38773038983345032 0.1873110830783844
0.60151159763336182 0.3902246356010437 0.18964561820030212
0.61612188816070557 0.39237648248672485 0.1915886402130127
0.63597613573074341 0.39643824100494385 0.19200833141803741
0.66112315654754639 0.40147316455841064 0.18974007666110992
0.69102936983108521 0.40724390745162964 0.1857096254825592
0.72484904527664185 0.41315153241157532 0.18188938498497009
0.76176702976226807 0.41980129480361938 0.18004356324672699
0.80123913288116455 0.42768454551696777 0.18198151886463165
0.84167242050170898 0.43710440397262573 0.18883641064167023
0.88093757629394531 0.4484805166721344 0.20008018612861633
0.58680349588394165 0.41401132941246033 0.17846886813640594
0.59168058633804321 0.41316014528274536 0.18054363131523132
0.59909796714782715 0.41444283723831177 0.18251357972621918
0.61010593175888062 0.41608211398124695 0.18471036851406097
0.6254006028175354 0.41867473721504211 0.18732336163520813
0.64570730924606323 0.42273199558258057 0.18832927942276001
0.6712411642074585 0.42884665727615356 0.18597255647182465
0.70045500993728638 0.43548813462257385 0.18167760968208313
0.7329859733581543 0.44175824522972107 0.17711156606674194
0.76854163408279419 0.44851905107498169 0.17448580265045166
0.80661886930465698 0.45625543594360352 0.17521463334560394
0.84530788660049438 0.46521410346031189 0.18060307204723358
0.88297092914581299 0.47591260075569153 0.19118820130825043
0.59579890966415405 0.44999369978904724 0.16937485337257385
0.601176917552948 0.44813939929008484 0.17182387411594391
0.60907226800918579 0.44984006881713867 0.17299813032150269
0.62063890695571899 0.45176529884338379 0.17417964339256287
0.63670444488525391 0.45479634404182434 0.17636248469352722
0.65753281116485596 0.45925766229629517 0.17848454415798187
0.68286937475204468 0.46582108736038208 0.17819854617118835
0.71154296398162842 0.47256684303283691 0.17622844874858856
0.74266320466995239 0.47909078001976013 0.17304085195064545
0.77627640962600708 0.48589661717414856 0.17040425539016724
0.81172096729278564 0.49340662360191345 0.1695924699306488
0.84821349382400513 0.50173932313919067 0.17155089974403381
0.88379460573196411 0.5115053653717041 0.1779206395149231
0.60700660943984985 0.49349531531333923 0.15675936639308929
0.6126478910446167 0.49252450466156006 0.15911152958869934
0.62077856063842773 0.4930717945098877 0.15852025151252747
0.63258755207061768 0.49530544877052307 0.15761534869670868
0.64917904138565063 0.49875617027282715 0.15845340490341187
0.67040979862213135 0.50382798910140991 0.1622595489025116
0.69572198390960693 0.51023632287979126 0.16635806858539581
0.72374081611633301 0.51698696613311768 0.16928796470165253
0.7536090612411499 0.52360993623733521 0.17070528864860535
0.7851828932762146 0.53096991777420044 0.17096464335918427
0.81834310293197632 0.53831666707992554 0.1709233820438385
0.851249098777771 0.54591351747512817 0.16951239109039307
0.88406670093536377 0.55398166179656982 0.17152325809001923
0.61975783109664917 0.54273074865341187 0.13964369893074036
0.62536346912384033 0.54162287712097168 0.14200559258460999
0.63345068693161011 0.54247194528579712 0.13834169507026672
0.64546573162078857 0.54445689916610718 0.13366243243217468
0.66226154565811157 0.54786211252212524 0.13354270160198212
0.68388068675994873 0.55287224054336548 0.13981854915618896
0.70894932746887207 0.55908751487731934 0.1498674750328064
0.73648250102996826 0.56595796346664429 0.15996478497982025
0.76542001962661743 0.57307839393615723 0.16887925565242767
0.79550498723983765 0.58085966110229492 0.17726854979991913
0.82639646530151367 0.5888746976852417 0.18354052305221558
0.85639584064483643 0.59607440233230591 0.18514227867126465
0.88585036993026733 0.60202151536941528 0.1847655326128006
0.63315439224243164 0.59562206268310547 0.11645276099443436
0.63883179426193237 0.59500986337661743 0.11866471171379089
0.64684414863586426 0.59544229507446289 0.11231930553913116
0.65896165370941162 0.59699362516403198 0.10290966928005219
0.67600226402282715 0.59967887401580811 0.10048189014196396
0.69750887155532837 0.60406720638275146 0.11002469807863235
0.72239243984222412 0.60989022254943848 0.1278357058763504
0.74927717447280884 0.61667072772979736 0.146924689412117
0.77759158611297607 0.62403684854507446 0.16581594944000244
0.80695170164108276 0.63243728876113892 0.18613080680370331
0.83623075485229492 0.64178955554962158 0.20765411853790283
0.86493587493896484 0.64985054731369019 0.22331282496452332
0.89172184467315674 0.65456783771514893 0.22987349331378937
0.64873337745666504 0.65024286508560181 0.089580759406089783
0.65397506952285767 0.65007698535919189 0.092383444309234619
0.66226464509963989 0.65014970302581787 0.08301621675491333
0.67425626516342163 0.65083080530166626 0.067164190113544464
0.69066643714904785 0.65265119075775146 0.059840723872184753
0.71179348230361938 0.65630358457565308 0.070737771689891815
0.73609077930450439 0.66153723001480103 0.09905426949262619
0.76252520084381104 0.6675112247467041 0.12931144237518311
0.79037594795227051 0.67409151792526245 0.15867377817630768
0.81893438100814819 0.68239670991897583 0.1923610121011734
0.84774148464202881 0.6923491358757019 0.23232722282409668
0.87542033195495605 0.70181995630264282 0.26939877867698669
0.90059143304824829 0.70565742254257202 0.28864386677742004
0.66900873184204102 0.70473551750183105 0.066604644060134888
0.67385810613632202 0.70484167337417603 0.066560141742229462
0.68177354335784912 0.70483267307281494 0.055833164602518082
0.69343531131744385 0.70495271682739258 0.038874249905347824
0.70929843187332153 0.70588421821594238 0.023714281618595123
0.72851884365081787 0.70855927467346191 0.025410162284970284
0.75126689672470093 0.71319359540939331 0.063767679035663605
0.77756267786026001 0.71790724992752075 0.10934603959321976
0.80477690696716309 0.72243434190750122 0.15022937953472137
0.83228230476379395 0.7283598780632019 0.19466876983642578
0.85975080728530884 0.7365761399269104 0.24657295644283295
0.88592839241027832 0.74490141868591309 0.29818028211593628
0.91023850440979004 0.74944972991943359 0.3351290225982666
0.6986045241355896 0.75885093212127686 0.07233690470457077
0.70251655578613281 0.75919979810714722 0.067677482962608337
0.7089049220085144 0.75901156663894653 0.057593222707509995
0.72044825553894043 0.75818580389022827 0.046818885952234268
0.73447048664093018 0.75852000713348389 0.027096647769212723
0.75010406970977783 0.76045864820480347 0.0068647498264908791
0.77090412378311157 0.76410961151123047 0.036515597254037857
0.79655623435974121 0.76740521192550659 0.098463408648967743
0.82298809289932251 0.76981854438781738 0.15340203046798706
0.84930187463760376 0.77265959978103638 0.20657555758953094
0.87481385469436646 0.77759242057800293 0.26480963826179504
0.89956355094909668 0.7834201455116272 0.32446497678756714
0.92253667116165161 0.78723824024200439 0.37374669313430786
0.73884284496307373 0.81053918600082397 0.13098789751529694
0.74079829454421997 0.81053918600082397 0.11950227618217468
0.7459723949432373 0.81053918600082397 0.11226918548345566
0.75649511814117432 0.81020808219909668 0.11041112989187241
0.76936274766921997 0.81053715944290161 0.10315676033496857
0.78351825475692749 0.81303161382675171 0.081851661205291748
0.7999647855758667 0.81509178876876831 0.085049994289875031
0.82230556011199951 0.81642264127731323 0.13221317529678345
0.84677302837371826 0.81704133749008179 0.1882234513759613
0.87158256769180298 0.81821471452713013 0.24638094007968903
0.8961482048034668 0.82075589895248413 0.30877169966697693
0.91918647289276123 0.8238070011138916 0.37123534083366394
0.94083058834075928 0.82638436555862427 0.42537140846252441
0.57254904508590698 0.35445204377174377 0.1887572705745697
0.57330566644668579 0.35238286852836609 0.18825234472751617
0.57785558700561523 0.35164764523506165 0.18860554695129395
0.58519220352172852 0.35327702760696411 0.18985854089260101
0.59712308645248413 0.35544982552528381 0.19187633693218231
0.61494296789169312 0.35834190249443054 0.1934497058391571
0.63963735103607178 0.36117956042289734 0.19439697265625
0.67054599523544312 0.36421823501586914 0.19515852630138397
0.70645105838775635 0.36828768253326416 0.19646026194095612
0.74571126699447632 0.37424615025520325 0.19860789179801941
0.7868342399597168 0.38261899352073669 0.20206859707832336
0.82778775691986084 0.39347445964813232 0.20790399610996246
0.86770480871200562 0.40626189112663269 0.21705688536167145
0.57255101203918457 0.36026683449745178 0.18931223452091217
0.57527685165405273 0.35889670252799988 0.1893976628780365
0.580150306224823 0.35963732004165649 0.19082966446876526
0.58842939138412476 0.36076265573501587 0.19292810559272766
0.60134994983673096 0.36359515786170959 0.19481077790260315
0.61985379457473755 0.36661848425865173 0.19635839760303497
0.64482778310775757 0.36991006135940552 0.19678451120853424
0.67587631940841675 0.37301909923553467 0.19659627974033356
0.71125108003616333 0.37738528847694397 0.19650623202323914
0.75060433149337769 0.38320249319076538 0.19721110165119171
0.79172664880752563 0.39141526818275452 0.1997658908367157
0.83310651779174805 0.40198627114295959 0.20494608581066132
0.8730398416519165 0.4150141179561615 0.21374329924583435
0.57502114772796631 0.36994969844818115 0.18991124629974365
0.57851392030715942 0.36961266398429871 0.19089996814727783
0.58435916900634766 0.37025687098503113 0.19302783906459808
0.59365373849868774 0.37278258800506592 0.19495885074138641
0.60747861862182617 0.37560006976127625 0.19728770852088928
0.62674623727798462 0.37896779179573059 0.1981455534696579
0.65190243721008301 0.38258305191993713 0.19776436686515808
0.68243604898452759 0.38640794157981873 0.19619140028953552
0.71769529581069946 0.39073556661605835 0.19445301592350006
0.7562030553817749 0.39666256308555603 0.19395938515663147
0.79661506414413452 0.40463033318519592 0.19612434506416321
0.83796936273574829 0.41508898138999939 0.20157527923583984
0.87778830528259277 0.42793518304824829 0.21079643070697784
0.57919001579284668 0.38732486963272095 0.18952243030071259
0.58349049091339111 0.38724842667579651 0.19081656634807587
0.59030067920684814 0.38817217946052551 0.19294270873069763
0.60070180892944336 0.39107546210289001 0.19502392411231995
0.61540156602859497 0.39417329430580139 0.19742092490196228
0.63540518283843994 0.39786288142204285 0.19836200773715973
0.66055047512054443 0.40202420949935913 0.19728752970695496
0.69046556949615479 0.40634000301361084 0.19422601163387299
0.72416454553604126 0.41073256731033325 0.1905173659324646
0.76115703582763672 0.41658306121826172 0.18867337703704834
0.80137044191360474 0.424346923828125 0.19033695757389069
0.84234607219696045 0.43447473645210266 0.19633486866950989
0.88214641809463501 0.44713345170021057 0.20631654560565948
0.58588063716888428 0.41369509696960449 0.18590882420539856
0.59061920642852783 0.41342899203300476 0.18773657083511353
0.5980602502822876 0.41508093476295471 0.18925003707408905
0.60924768447875977 0.41789364814758301 0.19121086597442627
0.62504726648330688 0.42135980725288391 0.19365353882312775
0.64597898721694946 0.42554792761802673 0.19547851383686066
0.67141658067703247 0.43046689033508301 0.1947353184223175
0.70034396648406982 0.43510237336158752 0.19093801081180573
0.73234587907791138 0.43941608071327209 0.18571209907531738
0.76789993047714233 0.445098876953125 0.1825220137834549
0.80637127161026001 0.45275303721427917 0.18335196375846863
0.84574645757675171 0.46251890063285828 0.18851593136787415
0.88391411304473877 0.47453290224075317 0.19799144566059113
0.59494608640670776 0.44986709952354431 0.17907170951366425
0.6000332236289978 0.44920444488525391 0.18051937222480774
0.60777992010116577 0.45141780376434326 0.1814495176076889
0.6197589635848999 0.4540255069732666 0.1820649653673172
0.63648527860641479 0.4579043984413147 0.1843443363904953
0.65821224451065063 0.46289241313934326 0.18762539327144623
0.68405330181121826 0.46844834089279175 0.18956834077835083
0.71215832233428955 0.47340273857116699 0.18752804398536682
0.74242830276489258 0.47756472229957581 0.18301331996917725
0.77535843849182129 0.4830615222454071 0.17945793271064758
0.81136858463287354 0.49039718508720398 0.17843027412891388
0.84832549095153809 0.49947252869606018 0.18060629069805145
0.88488680124282837 0.51015555858612061 0.18711011111736298
0.60602098703384399 0.49427220225334167 0.16826750338077545
0.61160218715667725 0.4938085675239563 0.16945205628871918
0.61951661109924316 0.49526557326316833 0.16846209764480591
0.63167542219161987 0.49809888005256653 0.16721516847610474
0.64889419078826904 0.50221061706542969 0.16887858510017395
0.6713564395904541 0.50760775804519653 0.17425407469272614
0.69765496253967285 0.5136725902557373 0.180416539311409
0.72540116310119629 0.51908618211746216 0.18378493189811707
0.75440824031829834 0.52387434244155884 0.18341416120529175
0.78521496057510376 0.52943307161331177 0.18229518830776215
0.81832528114318848 0.53649938106536865 0.18104475736618042
0.85170203447341919 0.54439723491668701 0.17968368530273438
0.88455498218536377 0.55334877967834473 0.18220119178295135
0.61899834871292114 0.54451900720596313 0.15252187848091125
0.62449592351913452 0.54414612054824829 0.15319941937923431
0.63228416442871094 0.54512149095535278 0.15022358298301697
0.64455360174179077 0.54754102230072021 0.14618141949176788
0.66206842660903931 0.55134803056716919 0.14693553745746613
0.68480026721954346 0.55659753084182739 0.15450683236122131
0.71088451147079468 0.56280863285064697 0.16595718264579773
0.73860281705856323 0.56888407468795776 0.17651547491550446
0.76709932088851929 0.57466030120849609 0.18426352739334106
0.796622633934021 0.58110105991363525 0.19063517451286316
0.82654815912246704 0.58824265003204346 0.19499301910400391
0.85653412342071533 0.59544461965560913 0.19557321071624756
0.88598924875259399 0.60207986831665039 0.19657400250434875
0.63329261541366577 0.59817725419998169 0.13150568306446075
0.63826453685760498 0.59790462255477905 0.13173162937164307
0.64632564783096313 0.59849286079406738 0.12620776891708374
0.65861743688583374 0.60000455379486084 0.118399977684021
0.67599821090698242 0.60286039113998413 0.11732515692710876
0.69835978746414185 0.60739803314208984 0.12697175145149231
0.72392863035202026 0.61324799060821533 0.14447003602981567
0.75134676694869995 0.61955553293228149 0.16366873681545258
0.77960062026977539 0.62595236301422119 0.18148660659790039
0.80842083692550659 0.63332867622375488 0.2000931054353714
0.83679723739624023 0.64152705669403076 0.21809445321559906
0.86444461345672607 0.64934402704238892 0.23162101209163666
0.89096540212631226 0.65504777431488037 0.23968410491943359
0.64972376823425293 0.65267086029052734 0.10702314227819443
0.65451323986053467 0.65292215347290039 0.10647234320640564
0.66263645887374878 0.65301311016082764 0.098962537944316864
0.67462867498397827 0.65373963117599487 0.086749553680419922
0.69095903635025024 0.65550792217254639 0.080325976014137268
0.71258711814880371 0.65895766019821167 0.089467115700244904
0.73722594976425171 0.66416096687316895 0.11483154445886612
0.76407700777053833 0.66985726356506348 0.14430785179138184
0.79228907823562622 0.67578011751174927 0.17361107468605042
0.82061511278152466 0.6828300952911377 0.20565763115882874
0.84825438261032104 0.69208055734634399 0.24168987572193146
0.87434566020965576 0.70097500085830688 0.27533659338951111
0.89908945560455322 0.7065923810005188 0.2982940673828125
0.67116403579711914 0.706368088722229 0.088776655495166779
0.6756475567817688 0.70700728893280029 0.086736179888248444
0.68335485458374023 0.7070956826210022 0.07868582010269165
0.69481086730957031 0.70708209276199341 0.063776679337024689
0.7097359299659729 0.70800155401229858 0.048082150518894196
0.72865670919418335 0.71062648296356201 0.04772702232003212
0.75213116407394409 0.71518963575363159 0.080823294818401337
0.77867108583450317 0.71964555978775024 0.12464699894189835
0.80650937557220459 0.72391444444656372 0.1652662456035614
0.83428347110748291 0.72920233011245728 0.20895645022392273
0.86059749126434326 0.73702681064605713 0.25779753923416138
0.88531714677810669 0.74510747194290161 0.30662152171134949
0.90861368179321289 0.75108414888381958 0.34572452306747437
0.70035475492477417 0.75923269987106323 0.096335992217063904
0.70448136329650879 0.75995558500289917 0.09258684515953064
0.71150612831115723 0.76003843545913696 0.086678177118301392
0.7221413254737854 0.75986433029174805 0.074919603765010834
0.73542243242263794 0.76002717018127441 0.053544182330369949
0.75094610452651978 0.76183682680130005 0.035314477980136871
0.77220779657363892 0.76552963256835938 0.06497664749622345
0.79754751920700073 0.76890772581100464 0.11854412406682968
0.82467973232269287 0.77128928899765015 0.17019139230251312
0.85148441791534424 0.77443641424179077 0.22306497395038605
0.87698143720626831 0.77917778491973877 0.27840739488601685
0.89922440052032471 0.78395193815231323 0.33047071099281311
0.92021924257278442 0.78761237859725952 0.37486004829406738
0.73753750324249268 0.81017005443572998 0.14486521482467651
0.74115878343582153 0.81104403734207153 0.13969354331493378
0.74742001295089722 0.81107163429260254 0.13718992471694946
0.75718933343887329 0.81070291996002197 0.13373386859893799
0.7695353627204895 0.81118512153625488 0.12169156223535538
0.78320473432540894 0.81334370374679565 0.10386011749505997
0.80042243003845215 0.81582784652709961 0.11198410391807556
0.82274842262268066 0.81704044342041016 0.15212789177894592
0.84818142652511597 0.81875354051589966 0.20479853451251984
0.87401074171066284 0.82010859251022339 0.26233860850334167
0.89860659837722778 0.82245016098022461 0.32180377840995789
0.92045789957046509 0.8250618577003479 0.3767763078212738
0.93938326835632324 0.82598197460174561 0.42070785164833069
0.57286304235458374 0.35381788015365601 0.19379699230194092
0.57491081953048706 0.35232052206993103 0.19320225715637207
0.5791773796081543 0.35254797339439392 0.19443076848983765
0.5864446759223938 0.35429027676582336 0.19627517461776733
0.59800559282302856 0.35680603981018066 0.19824238121509552
0.61549955606460571 0.35969576239585876 0.20012469589710236
0.64003497362136841 0.3623950183391571 0.20246259868144989
0.67124277353286743 0.36519128084182739 0.20546172559261322
0.70783239603042603 0.36890384554862976 0.2092086523771286
0.74806016683578491 0.3747783899307251 0.21294282376766205
0.7897375226020813 0.38346806168556213 0.21661376953125
0.83152675628662109 0.39546051621437073 0.22173461318016052
0.87190115451812744 0.40936329960823059 0.23013439774513245
0.57399541139602661 0.3600502610206604 0.19495485723018646
0.57697945833206177 0.35966730117797852 0.19525535404682159
0.5818290114402771 0.36034479737281799 0.19716168940067291
0.59014654159545898 0.36251366138458252 0.19964423775672913
0.60257941484451294 0.36538711190223694 0.20187085866928101
0.62073445320129395 0.36837285757064819 0.20396691560745239
0.64550173282623291 0.37113034725189209 0.20597591996192932
0.67681431770324707 0.37382584810256958 0.20801366865634918
0.71306908130645752 0.37737217545509338 0.21045449376106262
0.75286096334457397 0.38279432058334351 0.21173559129238129
0.79419142007827759 0.39135715365409851 0.21450547873973846
0.83573764562606812 0.40251746773719788 0.21851803362369537
0.87608754634857178 0.41666874289512634 0.22625134885311127
0.57682198286056519 0.3703673779964447 0.19692185521125793
0.58030194044113159 0.37030959129333496 0.19801557064056396
0.58638077974319458 0.37224766612052917 0.20000191032886505
0.59571605920791626 0.37499582767486572 0.20250709354877472
0.60933768749237061 0.37809228897094727 0.20499369502067566
0.62831622362136841 0.38125690817832947 0.20685411989688873
0.65317171812057495 0.38407862186431885 0.20827414095401764
0.68361383676528931 0.38686904311180115 0.2083832323551178
0.71874463558197021 0.3899395763874054 0.20840463042259216
0.75746232271194458 0.39516609907150269 0.20882274210453033
0.79826050996780396 0.40311327576637268 0.21019618213176727
0.83952218294143677 0.41447305679321289 0.21457664668560028
0.87941515445709229 0.42817220091819763 0.22248382866382599
0.58110320568084717 0.38783326745033264 0.19812145829200745
0.58533757925033569 0.38823789358139038 0.19898417592048645
0.5923466682434082 0.39084261655807495 0.20082771778106689
0.60292321443557739 0.39406722784042358 0.20299132168292999
0.61774533987045288 0.3975771963596344 0.20543865859508514
0.637501060962677 0.40104854106903076 0.2072785496711731
0.66240626573562622 0.40396878123283386 0.20806559920310974
0.69156545400619507 0.40670555830001831 0.20622989535331726
0.72492116689682007 0.40940314531326294 0.20348107814788818
0.7618674635887146 0.41420033574104309 0.20212116837501526
0.80200552940368652 0.42212051153182983 0.20375555753707886
0.84302061796188354 0.43317195773124695 0.20884060859680176
0.88256311416625977 0.44696128368377686 0.21785788238048553
0.58744782209396362 0.41482144594192505 0.19638410210609436
0.59221816062927246 0.41522702574729919 0.19734986126422882
0.59994775056838989 0.41780379414558411 0.19819523394107819
0.61136412620544434 0.42148301005363464 0.19953706860542297
0.62734317779541016 0.42552638053894043 0.20189616084098816
0.64826697111129761 0.42960715293884277 0.20489978790283203
0.6736295223236084 0.43323895335197449 0.20611536502838135
0.70154500007629395 0.43600821495056152 0.203325554728508
