luts/instant_consumer/polaroid_px-70_+.cube
# Created by: G'MIC (https://gmic.eu)
TITLE "polaroid_px-70_+"
# LUT size
LUT_3D_SIZE 7
# Data domain
DOMAIN_MIN 0.0 0.0 0.0
DOMAIN_MAX 1.0 1.0 1.0
# LUT data points
0.12554541230201721 0.25009804964065552 0.24011258780956268
0.14100156724452972 0.25098040699958801 0.23921568691730499
0.18406599760055542 0.25244489312171936 0.23921568691730499
0.33285954594612122 0.2591998279094696 0.2394733726978302
0.63591939210891724 0.28633022308349609 0.22856323421001434
0.90300309658050537 0.40554499626159668 0.19940051436424255
0.99664050340652466 0.54243886470794678 0.19914957880973816
0.1234414353966713 0.25934851169586182 0.24311570823192596
0.14478184282779694 0.26108592748641968 0.2393595427274704
0.20755179226398468 0.26602077484130859 0.23920013010501862
0.37205272912979126 0.28467777371406555 0.23518826067447662
0.66126710176467896 0.3311772346496582 0.21952743828296661
0.90788573026657104 0.45363858342170715 0.19012166559696198
0.99544507265090942 0.57240837812423706 0.19531764090061188
0.09668237715959549 0.32122623920440674 0.23847714066505432
0.13991403579711914 0.32749086618423462 0.23766560852527618
0.24892702698707581 0.3399043083190918 0.23304383456707001
0.44883301854133606 0.37209782004356384 0.22244375944137573
0.70230954885482788 0.42674735188484192 0.20065081119537354
0.90346354246139526 0.5345538854598999 0.16857850551605225
0.98715710639953613 0.62594664096832275 0.19220827519893646
0.0049092909321188927 0.50516813993453979 0.21961143612861633
0.087201394140720367 0.50163900852203369 0.22017422318458557
0.29959440231323242 0.51436656713485718 0.2153521329164505
0.52747273445129395 0.54453414678573608 0.19748501479625702
0.75433999300003052 0.59946352243423462 0.16593499481678009
0.89365392923355103 0.64489579200744629 0.14532856643199921
0.97433704137802124 0.68868535757064819 0.17634934186935425
0.21081307530403137 0.71892565488815308 0.20994725823402405
0.29112842679023743 0.71052408218383789 0.21329414844512939
0.43436428904533386 0.71233075857162476 0.21804524958133698
0.61506712436676025 0.72663670778274536 0.21016807854175568
0.77166932821273804 0.74589866399765015 0.19815698266029358
0.88089233636856079 0.76386088132858276 0.20218269526958466
0.95486867427825928 0.77932661771774292 0.24087932705879211
0.55230027437210083 0.84522044658660889 0.31823983788490295
0.56815725564956665 0.84034174680709839 0.31645828485488892
0.6242520809173584 0.83857071399688721 0.32880967855453491
0.70581322908401489 0.8373749852180481 0.33495110273361206
0.7971537709236145 0.84824943542480469 0.34846028685569763
0.87853324413299561 0.85698091983795166 0.3579954206943512
0.9395148754119873 0.86897224187850952 0.3966948390007019
0.78363043069839478 0.91955876350402832 0.50068420171737671
0.7857552170753479 0.91629582643508911 0.49673265218734741
0.80152827501296997 0.91476422548294067 0.50121849775314331
0.82957267761230469 0.91762745380401611 0.51186615228652954
0.86209636926651001 0.9213097095489502 0.52106767892837524
0.89800113439559937 0.92584282159805298 0.53147834539413452
0.9346088171005249 0.9288371205329895 0.5429534912109375
0.12547190487384796 0.25306904315948486 0.24698139727115631
0.14022201299667358 0.25243225693702698 0.24465741217136383
0.19069299101829529 0.25301840901374817 0.24413369596004486
0.35856682062149048 0.25610190629959106 0.24534107744693756
0.67253720760345459 0.29020300507545471 0.24474877119064331
0.91819590330123901 0.4198492169380188 0.23580886423587799
0.99612200260162354 0.56114542484283447 0.25787687301635742
0.12691597640514374 0.26511076092720032 0.24640108644962311
0.14696608483791351 0.2636980414390564 0.24512182176113129
0.2215036004781723 0.27342551946640015 0.24589502811431885
0.40446323156356812 0.28965616226196289 0.24543073773384094
0.70207947492599487 0.34533184766769409 0.24000605940818787
0.91535699367523193 0.47009778022766113 0.23246361315250397
0.99436825513839722 0.59180140495300293 0.25806447863578796
0.12345653027296066 0.33078572154045105 0.24678654968738556
0.1590583324432373 0.33676978945732117 0.2458098828792572
0.26731818914413452 0.34883838891983032 0.2439751923084259
0.48097801208496094 0.3823448121547699 0.23840931057929993
0.73013490438461304 0.44087621569633484 0.22154775261878967
0.91234695911407471 0.54743355512619019 0.21276804804801941
0.98834264278411865 0.63699173927307129 0.24773086607456207
0.015742223709821701 0.52150887250900269 0.23492312431335449
0.14870008826255798 0.5130881667137146 0.23611006140708923
0.32326224446296692 0.52407193183898926 0.23585876822471619
0.55542588233947754 0.56086570024490356 0.22096709907054901
0.7672005295753479 0.60736852884292603 0.20129318535327911
0.89877867698669434 0.64945369958877563 0.19561292231082916
0.97376787662506104 0.69264662265777588 0.22764424979686737
0.28201079368591309 0.72709161043167114 0.24372680485248566
0.3421664834022522 0.71960186958312988 0.24376291036605835
0.46471285820007324 0.71802884340286255 0.25292143225669861
0.629741370677948 0.73282903432846069 0.25255665183067322
0.77874034643173218 0.75099444389343262 0.24383622407913208
0.88493853807449341 0.76728165149688721 0.25047367811203003
0.95505779981613159 0.78148627281188965 0.2851751446723938
0.58129745721817017 0.84850919246673584 0.34884330630302429
0.59395909309387207 0.84342473745346069 0.34684863686561584
0.64617669582366943 0.83999717235565186 0.36100122332572937
0.72100949287414551 0.8421095609664917 0.3730367124080658
0.80828166007995605 0.85046190023422241 0.38281500339508057
0.88039577007293701 0.85958212614059448 0.38487446308135986
0.94157296419143677 0.87067800760269165 0.4213920533657074
0.78937339782714844 0.91796839237213135 0.50741231441497803
0.79276132583618164 0.91713434457778931 0.50645703077316284
0.80813157558441162 0.91598397493362427 0.51142328977584839
0.83372515439987183 0.91869324445724487 0.52046936750411987
0.86535787582397461 0.92000985145568848 0.52793425321578979
0.89830642938613892 0.92355060577392578 0.53530991077423096
0.9369971752166748 0.92879277467727661 0.55063045024871826
0.12314565479755402 0.25586861371994019 0.25629264116287231
0.15381737053394318 0.25550901889801025 0.25596743822097778
0.20146030187606812 0.26263666152954102 0.25625300407409668
0.36068427562713623 0.26106536388397217 0.26967957615852356
0.69214600324630737 0.24439863860607147 0.28660428524017334
0.93618977069854736 0.36916515231132507 0.30631020665168762
0.99451136589050293 0.59464776515960693 0.36706793308258057
0.12975417077541351 0.27093130350112915 0.26302608847618103
0.16693472862243652 0.27722716331481934 0.26394543051719666
0.24068374931812286 0.28345638513565063 0.26712855696678162
0.42305645346641541 0.29058992862701416 0.27642929553985596
0.73460847139358521 0.31908303499221802 0.29164135456085205
0.93297779560089111 0.48537269234657288 0.32220441102981567
0.99307268857955933 0.64002698659896851 0.37839522957801819
0.13338790833950043 0.34576594829559326 0.27311676740646362
0.18748810887336731 0.34900379180908203 0.27403867244720459
0.31063190102577209 0.36526703834533691 0.27916380763053894
0.52788931131362915 0.40321889519691467 0.28667572140693665
0.7727394700050354 0.48109304904937744 0.29794293642044067
0.91806423664093018 0.58663630485534668 0.3208639919757843
0.98369944095611572 0.67988228797912598 0.3714691698551178
0.20313818752765656 0.53788071870803833 0.2885403037071228
0.28012201189994812 0.5390276312828064 0.28937283158302307
0.39960524439811707 0.54570519924163818 0.28944841027259827
0.59614366292953491 0.57415729761123657 0.28784078359603882
0.78641647100448608 0.61397004127502441 0.28283044695854187
0.90154236555099487 0.65980380773544312 0.29278185963630676
0.97300213575363159 0.71821147203445435 0.3437512218952179
0.43429875373840332 0.73837035894393921 0.32633340358734131
0.44377511739730835 0.72989928722381592 0.31705427169799805
0.52888816595077515 0.7286297082901001 0.31953161954879761
0.65826117992401123 0.73641395568847656 0.32870021462440491
0.79013723134994507 0.75759685039520264 0.32819151878356934
0.88854110240936279 0.77301698923110962 0.33555358648300171
0.95779961347579956 0.78292727470397949 0.35351645946502686
0.63145440816879272 0.85069930553436279 0.40470209717750549
0.6390070915222168 0.84498840570449829 0.39998692274093628
0.68008971214294434 0.84285265207290649 0.4107145369052887
0.74183058738708496 0.84642517566680908 0.42614525556564331
0.81491601467132568 0.85513538122177124 0.43300461769104004
0.87780821323394775 0.86418783664703369 0.4398837685585022
0.93896651268005371 0.87219297885894775 0.46245166659355164
0.80165475606918335 0.9185599684715271 0.52265387773513794
0.80133157968521118 0.91474246978759766 0.52123928070068359
0.81990933418273926 0.91529029607772827 0.52809160947799683
0.84540474414825439 0.9186168909072876 0.53430545330047607
0.87504249811172485 0.92077457904815674 0.54360741376876831
0.90389800071716309 0.92410707473754883 0.54992854595184326
0.93724828958511353 0.92780548334121704 0.56100618839263916
0.15205538272857666 0.26385340094566345 0.30562880635261536
0.2108900398015976 0.26398339867591858 0.30465978384017944
0.31346336007118225 0.28361240029335022 0.31034448742866516
0.4618908166885376 0.3258100152015686 0.32511526346206665
0.68923914432525635 0.31239974498748779 0.35948112607002258
0.92541021108627319 0.37439683079719543 0.40896949172019958
0.99460673332214355 0.54951590299606323 0.43611830472946167
0.16194359958171844 0.28644216060638428 0.3219916820526123
0.22849828004837036 0.29288196563720703 0.32429978251457214
0.35767123103141785 0.32304653525352478 0.32940497994422913
0.51556265354156494 0.37463474273681641 0.34097123146057129
0.72637373208999634 0.37096390128135681 0.37181758880615234
0.92505961656570435 0.45546913146972656 0.41323813796043396
0.99508750438690186 0.6112898588180542 0.44839203357696533
0.11495455354452133 0.38790738582611084 0.34091576933860779
0.20713990926742554 0.38761463761329651 0.34481403231620789
0.40101590752601624 0.41195687651634216 0.35715013742446899
0.59320604801177979 0.47873073816299438 0.3668595552444458
0.77458542585372925 0.49629196524620056 0.39274591207504272
0.91796755790710449 0.59894609451293945 0.43126961588859558
0.97679024934768677 0.71038317680358887 0.47515222430229187
0.21884739398956299 0.55575931072235107 0.36262211203575134
0.29983004927635193 0.55414104461669922 0.36241790652275085
0.45899394154548645 0.56697434186935425 0.37223181128501892
0.65153032541275024 0.60151928663253784 0.39060226082801819
0.80864840745925903 0.65052437782287598 0.41183248162269592
0.90494769811630249 0.71799349784851074 0.44381675124168396
0.96296900510787964 0.77262479066848755 0.47876405715942383
0.49037227034568787 0.74565780162811279 0.41271683573722839
0.52250570058822632 0.7385638952255249 0.40970152616500854
0.61632460355758667 0.74393057823181152 0.41697633266448975
0.7111363410949707 0.7500225305557251 0.42477321624755859
0.81206423044204712 0.76329582929611206 0.43060740828514099
0.89465153217315674 0.77864569425582886 0.43607792258262634
0.95302736759185791 0.7998461127281189 0.44863718748092651
0.694205641746521 0.85190671682357788 0.47664797306060791
0.70221412181854248 0.84794384241104126 0.47320097684860229
0.72372257709503174 0.85042834281921387 0.47041672468185425
0.7720075249671936 0.85118347406387329 0.48094412684440613
0.82739299535751343 0.86008614301681519 0.49189314246177673
0.88853210210800171 0.86505872011184692 0.50224286317825317
0.94134223461151123 0.87573373317718506 0.51372045278549194
0.81865620613098145 0.91677016019821167 0.54467606544494629
0.8180662989616394 0.91623777151107788 0.54042083024978638
0.83372920751571655 0.91846048831939697 0.54603618383407593
0.85661202669143677 0.91730815172195435 0.55304861068725586
0.88371986150741577 0.92046207189559937 0.56155014038085938
0.90986794233322144 0.92511916160583496 0.56713265180587769
0.94086241722106934 0.92935669422149658 0.57850360870361328
0.27460682392120361 0.27993100881576538 0.43127423524856567
0.35473093390464783 0.28564336895942688 0.4357757568359375
0.51201105117797852 0.31528791785240173 0.44889187812805176
0.68942517042160034 0.43071085214614868 0.4646715521812439
0.81084185838699341 0.52829790115356445 0.48367387056350708
0.90324801206588745 0.52794700860977173 0.49961015582084656
0.98263430595397949 0.60480648279190063 0.52196836471557617
0.2729773223400116 0.32401362061500549 0.45179551839828491
0.36404657363891602 0.33766400814056396 0.45477959513664246
0.53848469257354736 0.37136068940162659 0.46389421820640564
0.71803933382034302 0.49059736728668213 0.47965320944786072
0.82063311338424683 0.58374834060668945 0.49365526437759399
0.90000951290130615 0.58256477117538452 0.50626027584075928
0.97760236263275146 0.64889830350875854 0.52780300378799438
0.24517390131950378 0.45859417319297791 0.4727608859539032
0.34346631169319153 0.44948378205299377 0.47286078333854675
0.54503405094146729 0.48086702823638916 0.48477277159690857
0.73840522766113281 0.58241790533065796 0.49469438195228577
0.82851976156234741 0.6644091010093689 0.50447016954421997
0.89928460121154785 0.66030901670455933 0.5137627124786377
0.96610426902770996 0.71827006340026855 0.53643929958343506
0.24737226963043213 0.6123163104057312 0.4747563898563385
0.32793942093849182 0.60637795925140381 0.47224295139312744
0.50124013423919678 0.61199462413787842 0.48089832067489624
0.72269695997238159 0.66539591550827026 0.50282013416290283
0.82944095134735107 0.72963815927505493 0.51407063007354736
0.89603310823440552 0.7403026819229126 0.5245048999786377
0.95625549554824829 0.78666096925735474 0.54620355367660522
0.50552159547805786 0.75347381830215454 0.49357950687408447
0.53412765264511108 0.74804013967514038 0.49152064323425293
0.62306952476501465 0.75187480449676514 0.49558022618293762
0.73660510778427124 0.76386821269989014 0.50852054357528687
0.82779896259307861 0.78579485416412354 0.51914328336715698
0.89760875701904297 0.81195515394210815 0.53319507837295532
0.9474109411239624 0.84484350681304932 0.55264949798583984
0.69378221035003662 0.85165899991989136 0.52339667081832886
0.70517700910568237 0.85176169872283936 0.52076750993728638
0.74576938152313232 0.85268205404281616 0.52916014194488525
0.79891377687454224 0.85780692100524902 0.53439831733703613
0.84945493936538696 0.86272710561752319 0.53909802436828613
0.89638388156890869 0.87303435802459717 0.55095267295837402
0.94304442405700684 0.87754642963409424 0.5494924783706665
0.82904148101806641 0.91874629259109497 0.56615632772445679
0.8348853588104248 0.91898220777511597 0.56759577989578247
0.8487933874130249 0.9179500937461853 0.56971168518066406
0.86950737237930298 0.91983819007873535 0.57254624366760254
0.89499425888061523 0.92218571901321411 0.57945692539215088
0.91718584299087524 0.92477637529373169 0.58265113830566406
0.94423544406890869 0.9318993091583252 0.59129917621612549
0.53415697813034058 0.36633545160293579 0.59948086738586426
0.60122144222259521 0.38556009531021118 0.5961463451385498
0.72090643644332886 0.44960975646972656 0.59542751312255859
0.82724356651306152 0.57571625709533691 0.58875703811645508
0.8802979588508606 0.71831440925598145 0.57872062921524048
0.91800552606582642 0.75070357322692871 0.58127021789550781
0.95459598302841187 0.74628841876983643 0.58226186037063599
0.53355377912521362 0.43582147359848022 0.6019706130027771
0.60056585073471069 0.45405656099319458 0.59808254241943359
0.72077351808547974 0.50919187068939209 0.59562820196151733
0.82838988304138184 0.62811839580535889 0.5892871618270874
0.88083112239837646 0.7467951774597168 0.58052188158035278
0.91677987575531006 0.77565020322799683 0.58283036947250366
0.95039862394332886 0.76493114233016968 0.58330750465393066
0.51170969009399414 0.54943376779556274 0.59848308563232422
0.57388848066329956 0.55483829975128174 0.59561669826507568
0.70547521114349365 0.59966057538986206 0.59078800678253174
0.82149827480316162 0.69105589389801025 0.59004724025726318
0.87974315881729126 0.78183376789093018 0.58201462030410767
0.91348594427108765 0.80572390556335449 0.58207541704177856
0.94903123378753662 0.8005603551864624 0.58558601140975952
0.44596552848815918 0.67693221569061279 0.58105015754699707
0.52103400230407715 0.67547750473022461 0.58061122894287109
0.66385078430175781 0.68670320510864258 0.58113741874694824
0.79531717300415039 0.73231619596481323 0.58434754610061646
0.86852163076400757 0.80121266841888428 0.58082228899002075
0.91400009393692017 0.83648043870925903 0.58238703012466431
0.94801473617553711 0.83312320709228516 0.58717507123947144
0.54616504907608032 0.77464073896408081 0.56913810968399048
0.57237142324447632 0.77302306890487671 0.57015800476074219
0.63843631744384766 0.76916778087615967 0.5729672908782959
0.7451627254486084 0.78087776899337769 0.57471376657485962
0.85447639226913452 0.8216361403465271 0.58044463396072388
0.91201215982437134 0.86193031072616577 0.58510023355484009
0.94067072868347168 0.86051136255264282 0.58897978067398071
0.70195502042770386 0.85959553718566895 0.56955587863922119
0.71579670906066895 0.858143150806427 0.57097792625427246
0.75137162208557129 0.85912364721298218 0.57391065359115601
0.80310910940170288 0.86403065919876099 0.57798898220062256
0.85934245586395264 0.86810249090194702 0.5849679708480835
0.90751892328262329 0.88533854484558105 0.58691418170928955
0.94357728958129883 0.90011727809906006 0.59504145383834839
0.8291391134262085 0.92002362012863159 0.58800148963928223
0.835410475730896 0.92060387134552002 0.58856713771820068
0.84859293699264526 0.9207654595375061 0.59085458517074585
0.87702697515487671 0.92432254552841187 0.59559458494186401
0.90322268009185791 0.92710018157958984 0.6013946533203125
0.92581498622894287 0.9309656023979187 0.60577535629272461
0.9473872184753418 0.93341290950775146 0.61121118068695068
0.76688468456268311 0.64097505807876587 0.65084719657897949
0.79027879238128662 0.65335202217102051 0.64693617820739746
0.83456367254257202 0.69840264320373535 0.64052683115005493
0.87891197204589844 0.75506901741027832 0.63095980882644653
0.91377300024032593 0.81528741121292114 0.62183231115341187
0.93735378980636597 0.86827784776687622 0.61672085523605347
0.95016193389892578 0.87162643671035767 0.61604082584381104
0.77246624231338501 0.6787535548210144 0.64790076017379761
0.79045754671096802 0.69047755002975464 0.64338606595993042
0.83645832538604736 0.72638517618179321 0.63714253902435303
0.88077229261398315 0.77893692255020142 0.62999570369720459
0.91454052925109863 0.83277255296707153 0.6222531795501709
0.93722003698348999 0.87529170513153076 0.61672025918960571
0.94893866777420044 0.87972968816757202 0.61822396516799927
0.76819604635238647 0.72617644071578979 0.64210236072540283
0.78776544332504272 0.73309016227722168 0.64031010866165161
0.82930129766464233 0.75921422243118286 0.63419091701507568
0.87781500816345215 0.80283892154693604 0.62841147184371948
0.91362327337265015 0.847511887550354 0.62086141109466553
0.93762993812561035 0.88232588768005371 0.61710864305496216
0.95133376121520996 0.88876646757125854 0.61869442462921143
0.74246424436569214 0.77183550596237183 0.63485944271087646
0.76462572813034058 0.7736508846282959 0.63456887006759644
0.80496537685394287 0.7861015796661377 0.63126134872436523
0.86312365531921387 0.81958013772964478 0.62735027074813843
0.90936791896820068 0.85953044891357422 0.62164163589477539
0.93598884344100952 0.89010012149810791 0.61855751276016235
0.94919991493225098 0.90109384059906006 0.61954903602600098
0.67585450410842896 0.81300729513168335 0.62628674507141113
0.69355189800262451 0.81162083148956299 0.62558484077453613
0.74855512380599976 0.81644076108932495 0.62433207035064697
0.82691824436187744 0.83421075344085693 0.62408775091171265
0.89370608329772949 0.86714547872543335 0.62237721681594849
0.931865394115448 0.89949357509613037 0.62140911817550659
0.94790607690811157 0.91220557689666748 0.62297594547271729
0.76929169893264771 0.88008624315261841 0.62002575397491455
0.76991158723831177 0.87517893314361572 0.61878806352615356
0.78864312171936035 0.87527263164520264 0.61852735280990601
0.82632935047149658 0.87781709432601929 0.61993575096130371
0.86288988590240479 0.88196206092834473 0.61890745162963867
0.92330276966094971 0.90864986181259155 0.62250179052352905
0.94986128807067871 0.92708855867385864 0.62996423244476318
0.85226190090179443 0.9292873740196228 0.62142795324325562
0.8552207350730896 0.92767578363418579 0.62201923131942749
0.86524069309234619 0.92814958095550537 0.62338876724243164
0.88454335927963257 0.93160140514373779 0.62550771236419678
0.90608900785446167 0.93190205097198486 0.62464922666549683
0.93029016256332397 0.9348718523979187 0.63164287805557251
0.95134717226028442 0.94113469123840332 0.63747066259384155
