luts/instant_consumer/polaroid_px-70_cold_++.cube
# Created by: G'MIC (https://gmic.eu)
TITLE "polaroid_px-70_cold_++"
# LUT size
LUT_3D_SIZE 5
# Data domain
DOMAIN_MIN 0.0 0.0 0.0
DOMAIN_MAX 1.0 1.0 1.0
# LUT data points
0.00014020134403835982 0.39505746960639954 0.44705882668495178
0.0061398823745548725 0.38657626509666443 0.44313725829124451
0.23379305005073547 0.39332106709480286 0.44705882668495178
0.58323365449905396 0.43299156427383423 0.45137035846710205
0.87615042924880981 0.55918234586715698 0.4697214663028717
6.1394188378471881e-05 0.4007207453250885 0.44705882668495178
0.0065454519353806973 0.40105152130126953 0.44410273432731628
0.28134575486183167 0.42583242058753967 0.44659250974655151
0.60690891742706299 0.48850929737091064 0.44821351766586304
0.86968624591827393 0.60436886548995972 0.46544989943504333
0.00056873395806178451 0.53096354007720947 0.44987392425537109
0.0070174871943891048 0.53646260499954224 0.45177373290061951
0.33414223790168762 0.56359875202178955 0.44807416200637817
0.63708853721618652 0.62243658304214478 0.4443243145942688
0.83986693620681763 0.68293344974517822 0.46270182728767395
0.0077633126638829708 0.76812642812728882 0.48375764489173889
0.10564416646957397 0.76293528079986572 0.48533192276954651
0.40287372469902039 0.77185869216918945 0.48792526125907898
0.64725035429000854 0.79404127597808838 0.48756396770477295
0.83442723751068115 0.81759440898895264 0.50596147775650024
0.62022459506988525 0.89862185716629028 0.56532394886016846
0.63160866498947144 0.89764279127120972 0.56494098901748657
0.69310188293457031 0.89106345176696777 0.56797176599502563
0.7810828685760498 0.89484018087387085 0.57395023107528687
0.86060082912445068 0.895668625831604 0.5828481912612915
0.0023517683148384094 0.38727906346321106 0.45159253478050232
0.0072057833895087242 0.38555800914764404 0.44932729005813599
0.23593440651893616 0.39232465624809265 0.45722144842147827
0.61685454845428467 0.4353128969669342 0.47103390097618103
0.87182497978210449 0.58385419845581055 0.50556832551956177
0 0.40254679322242737 0.45343726873397827
0.026358660310506821 0.40685725212097168 0.45474231243133545
0.31780627369880676 0.43128159642219543 0.46143907308578491
0.63565325736999512 0.49792107939720154 0.47609996795654297
0.86986273527145386 0.62870103120803833 0.50838369131088257
0.00060330558335408568 0.55267274379730225 0.48042470216751099
0.032980974763631821 0.55013078451156616 0.47523918747901917
0.36721363663673401 0.5833052396774292 0.47870674729347229
0.6521722674369812 0.6337769627571106 0.4787273108959198
0.85248798131942749 0.70016402006149292 0.49827933311462402
0.049724474549293518 0.78007805347442627 0.50664591789245605
0.2072443813085556 0.7713744044303894 0.50927340984344482
0.43694379925727844 0.78071480989456177 0.51498085260391235
0.66304832696914673 0.79926949739456177 0.51680922508239746
0.83777910470962524 0.8195074200630188 0.52885466814041138
0.6347920298576355 0.89759796857833862 0.57019448280334473
0.64951992034912109 0.893546462059021 0.57138192653656006
0.71126604080200195 0.89521723985671997 0.57732230424880981
0.78858655691146851 0.89402568340301514 0.58147507905960083
0.86081862449645996 0.8936382532119751 0.58715927600860596
0.0031325845047831535 0.39344242215156555 0.50101125240325928
0.050907164812088013 0.39638981223106384 0.49427875876426697
0.2871280312538147 0.41974005103111267 0.50163298845291138
0.60768592357635498 0.43720367550849915 0.53808498382568359
0.88649928569793701 0.54243618249893188 0.56144672632217407
0.00048469094326719642 0.42826077342033386 0.50784516334533691
0.11559300124645233 0.43024110794067383 0.51134127378463745
0.35482728481292725 0.4749915599822998 0.52253717184066772
0.64501219987869263 0.50843232870101929 0.54956918954849243
0.8801085352897644 0.62973910570144653 0.57008856534957886
0.0021004022564738989 0.56658565998077393 0.53030335903167725
0.1485828161239624 0.57308447360992432 0.53443467617034912
0.42588847875595093 0.59948956966400146 0.54570204019546509
0.68965154886245728 0.67143875360488892 0.5570492148399353
0.85624843835830688 0.75414669513702393 0.56756842136383057
0.3088228702545166 0.78965169191360474 0.55753487348556519
0.38483738899230957 0.78710460662841797 0.55826836824417114
0.51541906595230103 0.79389947652816772 0.55759584903717041
0.69157189130783081 0.80645763874053955 0.55967062711715698
0.84543585777282715 0.82298475503921509 0.56247800588607788
0.68959540128707886 0.89751148223876953 0.5869978666305542
0.6937490701675415 0.89428305625915527 0.58407878875732422
0.74406713247299194 0.89369332790374756 0.58727431297302246
0.80473893880844116 0.89420902729034424 0.59175169467926025
0.87231075763702393 0.89484673738479614 0.5983765721321106
0.082095004618167877 0.42740866541862488 0.60959762334823608
0.31757339835166931 0.44677984714508057 0.60477244853973389
0.55874693393707275 0.51918959617614746 0.60688894987106323
0.71999919414520264 0.62668889760971069 0.60562783479690552
0.85665452480316162 0.64755928516387939 0.61014324426651001
0.1587413102388382 0.47895544767379761 0.61448210477828979
0.34068718552589417 0.5051082968711853 0.60709315538406372
0.58399468660354614 0.58846461772918701 0.61150950193405151
0.73220670223236084 0.69250130653381348 0.60507488250732422
0.85679906606674194 0.70289689302444458 0.60693663358688354
0.010642840526998043 0.64015048742294312 0.60638785362243652
0.23066459596157074 0.63531607389450073 0.60652786493301392
0.55826097726821899 0.68163257837295532 0.60664600133895874
0.736197829246521 0.76861393451690674 0.59907054901123047
0.85090178251266479 0.78116691112518311 0.60196858644485474
0.32458478212356567 0.79830116033554077 0.59546029567718506
0.40097543597221375 0.79869633913040161 0.59459275007247925
0.5679212212562561 0.80358278751373291 0.59620851278305054
0.75100827217102051 0.83101129531860352 0.59624475240707397
0.86445748805999756 0.85488605499267578 0.59873092174530029
0.70894593000411987 0.89567017555236816 0.59830445051193237
0.72591918706893921 0.89428365230560303 0.59919959306716919
0.77677071094512939 0.89350861310958862 0.60114371776580811
0.83266782760620117 0.89429837465286255 0.60449707508087158
0.88402968645095825 0.89793246984481812 0.60831713676452637
0.58058661222457886 0.6345517635345459 0.65498596429824829
0.6419944167137146 0.65801715850830078 0.65167415142059326
0.74953645467758179 0.74068170785903931 0.63893997669219971
0.83465778827667236 0.82318019866943359 0.62256848812103271
0.87528926134109497 0.84619367122650146 0.61895656585693359
0.58848011493682861 0.68582677841186523 0.65057533979415894
0.64169543981552124 0.70231086015701294 0.64575719833374023
0.75586986541748047 0.77250933647155762 0.63343101739883423
0.8369324803352356 0.83891284465789795 0.62225174903869629
0.87510401010513306 0.85345017910003662 0.61914736032485962
0.5476611852645874 0.76120859384536743 0.63920623064041138
0.60576647520065308 0.76748418807983398 0.63804292678833008
0.73645657300949097 0.80614578723907471 0.6291164755821228
0.84138774871826172 0.85746139287948608 0.61992126703262329
0.87944763898849487 0.87416088581085205 0.61821383237838745
0.50987201929092407 0.83797949552536011 0.62677782773971558
0.54200005531311035 0.83527827262878418 0.62656974792480469
0.64901328086853027 0.83787649869918823 0.62555539608001709
0.82229965925216675 0.86850464344024658 0.62094616889953613
0.88884752988815308 0.89127355813980103 0.62114030122756958
0.75696736574172974 0.90335613489151001 0.61887252330780029
0.76722455024719238 0.90097558498382568 0.61919617652893066
0.80570662021636963 0.89858227968215942 0.62007635831832886
0.8505139946937561 0.89846491813659668 0.61966466903686523
0.89724445343017578 0.90401744842529297 0.62364393472671509
