luts/instant_consumer/polaroid_px-70_cold.cube
# Created by: G'MIC (https://gmic.eu)
TITLE "polaroid_px-70_cold"
# LUT size
LUT_3D_SIZE 13
# Data domain
DOMAIN_MIN 0.0 0.0 0.0
DOMAIN_MAX 1.0 1.0 1.0
# LUT data points
0 0.17254902422428131 0.25429460406303406
0 0.17254902422428131 0.25206437706947327
0.0015586703084409237 0.17279614508152008 0.25207021832466125
0.0044288933277130127 0.17339341342449188 0.25251224637031555
0.017671383917331696 0.17334043979644775 0.25263205170631409
0.11838715523481369 0.18109005689620972 0.25517433881759644
0.25878080725669861 0.19190226495265961 0.25873962044715881
0.41183239221572876 0.20737315714359283 0.26223993301391602
0.57475703954696655 0.23539675772190094 0.26488390564918518
0.73535710573196411 0.28545457124710083 0.26429173350334167
0.86384046077728271 0.37214893102645874 0.26631492376327515
0.94801747798919678 0.45785024762153625 0.27345383167266846
0.99605274200439453 0.53064817190170288 0.28784006834030151
0 0.17512188851833344 0.25304648280143738
0 0.17303989827632904 0.25105741620063782
0.0015987321967259049 0.17564356327056885 0.25139668583869934
0.004853357095271349 0.18042068183422089 0.25290626287460327
0.025647467002272606 0.18272535502910614 0.25332653522491455
0.13893897831439972 0.19390000402927399 0.25617918372154236
0.27817264199256897 0.20499920845031738 0.25980260968208313
0.42721524834632874 0.22459918260574341 0.26190367341041565
0.59156417846679688 0.25817134976387024 0.26302281022071838
0.74314010143280029 0.3091742992401123 0.2635444700717926
0.8680235743522644 0.3872407078742981 0.26359504461288452
0.95369035005569458 0.47124835848808289 0.27054867148399353
0.99367398023605347 0.53826749324798584 0.28643104434013367
0 0.19115020334720612 0.25474247336387634
0 0.18881091475486755 0.25338259339332581
0.00053781247697770596 0.19329386949539185 0.25394317507743835
0.0035573772620409727 0.19800426065921783 0.25488078594207764
0.047331281006336212 0.20349353551864624 0.25490197539329529
0.1749325692653656 0.21730156242847443 0.25566381216049194
0.30693501234054565 0.23216445744037628 0.25909939408302307
0.45195198059082031 0.25444343686103821 0.26064208149909973
0.61250007152557373 0.28861871361732483 0.26122784614562988
0.75090575218200684 0.34617865085601807 0.26167908310890198
0.86966884136199951 0.41903921961784363 0.26042258739471436
0.9537961483001709 0.49802109599113464 0.26925885677337646
0.99344080686569214 0.56061214208602905 0.28669941425323486
0 0.22460797429084778 0.25806400179862976
0 0.22650504112243652 0.25866112112998962
0.00088195799617096782 0.23045907914638519 0.25891572237014771
0.0051354803144931793 0.23640288412570953 0.25826430320739746
0.068953916430473328 0.24488833546638489 0.25769215822219849
0.20783039927482605 0.25918477773666382 0.25805824995040894
0.34012120962142944 0.27203097939491272 0.25819507241249084
0.4865301251411438 0.29782074689865112 0.25825214385986328
0.62754368782043457 0.33730831742286682 0.25800397992134094
0.7614322304725647 0.39155983924865723 0.25677868723869324
0.87490957975387573 0.4652746319770813 0.25765147805213928
0.94857043027877808 0.53422123193740845 0.2688148021697998
0.99031966924667358 0.5873904824256897 0.28521829843521118
0 0.28769508004188538 0.26426145434379578
0 0.28852251172065735 0.26540049910545349
0.0036177393049001694 0.29326674342155457 0.26548781991004944
0.0082878712564706802 0.30156487226486206 0.26408255100250244
0.084481246769428253 0.3110198974609375 0.26223248243331909
0.24738262593746185 0.32972520589828491 0.26087185740470886
0.3814598023891449 0.34568259119987488 0.25975689291954041
0.51894068717956543 0.36712759733200073 0.2575070858001709
0.6498863697052002 0.40343976020812988 0.25428932905197144
0.77356958389282227 0.45143917202949524 0.25134509801864624
0.87332957983016968 0.51242387294769287 0.25308507680892944
0.94241434335708618 0.5719226598739624 0.26627668738365173
0.98548847436904907 0.61998844146728516 0.28636422753334045
0 0.37196061015129089 0.27263695001602173
0 0.37410935759544373 0.27390280365943909
0.0033509796485304832 0.38403260707855225 0.27386936545372009
0.0065240450203418732 0.39294141530990601 0.27271160483360291
0.087579615414142609 0.40101709961891174 0.27015015482902527
0.26406612992286682 0.41713383793830872 0.26761201024055481
0.41990837454795837 0.43924283981323242 0.26398476958274841
0.55007600784301758 0.463826984167099 0.26004937291145325
0.66920751333236694 0.48805141448974609 0.25371003150939941
0.77412408590316772 0.51766633987426758 0.24876748025417328
0.86753326654434204 0.56361526250839233 0.24838285148143768
0.93794149160385132 0.61276483535766602 0.25949975848197937
0.98227238655090332 0.65404504537582397 0.28314560651779175
0 0.47923871874809265 0.28019794821739197
0.001730810385197401 0.48255506157875061 0.28349992632865906
0.0040571023710072041 0.4893265962600708 0.28421095013618469
0.0067756953649222851 0.49329507350921631 0.28203520178794861
0.10886963456869125 0.50290942192077637 0.27862152457237244
0.29655963182449341 0.51926827430725098 0.27692744135856628
0.44411933422088623 0.534088134765625 0.27108177542686462
0.58140772581100464 0.55771905183792114 0.264150470495224
0.69541484117507935 0.58249157667160034 0.2575276792049408
0.78747260570526123 0.60743159055709839 0.25369861721992493
0.865764319896698 0.63272649049758911 0.25232914090156555
0.92323911190032959 0.65459263324737549 0.25768393278121948
0.97152316570281982 0.68460571765899658 0.27814587950706482
0.00069259945303201675 0.6050841212272644 0.29085168242454529
0.0036274329759180546 0.59610074758529663 0.2933250367641449
0.0043183271773159504 0.59704428911209106 0.29354923963546753
0.02010263130068779 0.59608060121536255 0.29238620400428772
0.1802428811788559 0.6072845458984375 0.29172849655151367
0.34972104430198669 0.6190640926361084 0.28926444053649902
0.48008027672767639 0.63050651550292969 0.28382951021194458
0.59761226177215576 0.64421790838241577 0.27848544716835022
0.71072840690612793 0.66800296306610107 0.27185913920402527
0.79441195726394653 0.68648654222488403 0.27084675431251526
0.86410617828369141 0.70473551750183105 0.27169767022132874
0.91776692867279053 0.71668547391891479 0.28154584765434265
0.96387875080108643 0.73037940263748169 0.29485964775085449
0.0097343744710087776 0.70663630962371826 0.30503177642822266
0.012333305552601814 0.70012611150741577 0.30494600534439087
0.050221774727106094 0.69967257976531982 0.30520504713058472
0.15837278962135315 0.70111608505249023 0.3087691068649292
0.29720067977905273 0.70548319816589355 0.31259292364120483
0.4182431697845459 0.71284008026123047 0.3124573826789856
0.53061008453369141 0.72258114814758301 0.31023967266082764
0.6232527494430542 0.72638887166976929 0.30803301930427551
0.71724611520767212 0.73509305715560913 0.30463904142379761
0.80114251375198364 0.75786161422729492 0.29973435401916504
0.8621143102645874 0.7661205530166626 0.30554506182670593
0.91286802291870117 0.77303093671798706 0.31774580478668213
0.95476013422012329 0.78232300281524658 0.33491799235343933
0.20885014533996582 0.79529017210006714 0.33314836025238037
0.23146216571331024 0.7915535569190979 0.33309730887413025
0.274666428565979 0.78796142339706421 0.33450102806091309
0.34007120132446289 0.78589659929275513 0.33862751722335815
0.41035258769989014 0.78562939167022705 0.34261259436607361
0.49119856953620911 0.78755050897598267 0.34844696521759033
0.58040755987167358 0.78922218084335327 0.35293936729431152
0.65617865324020386 0.79631072282791138 0.3492884635925293
0.73243796825408936 0.80406403541564941 0.34625494480133057
0.7996363639831543 0.81290048360824585 0.3476148247718811
0.8581312894821167 0.82139599323272705 0.34823799133300781
0.90762025117874146 0.82763785123825073 0.35772916674613953
0.94579601287841797 0.83059978485107422 0.38126370310783386
0.42932704091072083 0.855701744556427 0.38339579105377197
0.43815451860427856 0.85356318950653076 0.38333308696746826
0.45793882012367249 0.85180181264877319 0.38518401980400085
0.48527258634567261 0.84585493803024292 0.38628062605857849
0.53095090389251709 0.84757155179977417 0.39107564091682434
0.58189290761947632 0.84732615947723389 0.39698469638824463
0.64687454700469971 0.84763032197952271 0.4013725221157074
0.71142494678497314 0.85112017393112183 0.399757981300354
0.75764167308807373 0.85572588443756104 0.40106800198554993
0.80996203422546387 0.86147266626358032 0.40685683488845825
0.86173039674758911 0.86688518524169922 0.40775361657142639
0.90667229890823364 0.87146061658859253 0.41574636101722717
0.94425290822982788 0.87752652168273926 0.43730756640434265
0.6103406548500061 0.90221238136291504 0.44740122556686401
0.61211079359054565 0.9014437198638916 0.44711127877235413
0.62240791320800781 0.90194624662399292 0.44972965121269226
0.63938891887664795 0.89733254909515381 0.45063534379005432
0.65951496362686157 0.89230632781982422 0.45207589864730835
0.68482023477554321 0.8916015625 0.45644283294677734
0.73398548364639282 0.89186233282089233 0.46266737580299377
0.77985095977783203 0.89249688386917114 0.46403023600578308
0.8075416088104248 0.89843857288360596 0.46729204058647156
0.83801567554473877 0.90572363138198853 0.47262284159660339
0.87120920419692993 0.90637803077697754 0.47761434316635132
0.90865612030029297 0.90757125616073608 0.48627555370330811
0.94286727905273438 0.91116636991500854 0.49745222926139832
0.75455468893051147 0.93195688724517822 0.51170617341995239
0.75534838438034058 0.93195688724517822 0.51079213619232178
0.76140397787094116 0.93270528316497803 0.51303744316101074
0.76795458793640137 0.93125301599502563 0.51284462213516235
0.78059810400009155 0.92833948135375977 0.514087975025177
0.79113394021987915 0.9268525242805481 0.51547825336456299
0.8172910213470459 0.92727243900299072 0.52154004573822021
0.84393900632858276 0.92870128154754639 0.52547848224639893
0.86210572719573975 0.93243098258972168 0.52915775775909424
0.88238930702209473 0.93597394227981567 0.53376483917236328
0.90230214595794678 0.93625319004058838 0.5383489727973938
0.92009055614471436 0.93660324811935425 0.54407912492752075
0.94174283742904663 0.93883055448532104 0.55233466625213623
0 0.17296147346496582 0.25608688592910767
0 0.17481909692287445 0.25737693905830383
0.0022058824542909861 0.17520469427108765 0.25784313678741455
0.0059351003728806973 0.17470492422580719 0.2570071816444397
0.018048126250505447 0.17438353598117828 0.25622266530990601
0.12414709478616714 0.18269912898540497 0.25996261835098267
0.26920825242996216 0.19425229728221893 0.26459148526191711
0.42815026640892029 0.21396633982658386 0.26850423216819763
0.59013229608535767 0.24697163701057434 0.27317246794700623
0.74655485153198242 0.2979685366153717 0.27683445811271667
0.87034910917282104 0.37974074482917786 0.28233575820922852
0.95361363887786865 0.46328657865524292 0.29100582003593445
0.99206703901290894 0.53284764289855957 0.30615705251693726
0 0.17348405718803406 0.25528541207313538
0 0.1746036559343338 0.25629878044128418
0.002116229385137558 0.17781068384647369 0.25769734382629395
0.0055682463571429253 0.18268419802188873 0.25775393843650818
0.028313565999269485 0.18588496744632721 0.25771507620811462
0.14905087649822235 0.19791875779628754 0.2621816098690033
0.2919650673866272 0.2126898467540741 0.26678586006164551
0.44249600172042847 0.23211558163166046 0.26952564716339111
0.60237586498260498 0.26899796724319458 0.27355945110321045
0.75467437505722046 0.32515665888786316 0.27758058905601501
0.87548047304153442 0.40026170015335083 0.28230059146881104
0.9544948935508728 0.4785611629486084 0.29162120819091797
0.98799151182174683 0.54343736171722412 0.30869409441947937
0 0.18873773515224457 0.25611871480941772
0 0.19092141091823578 0.25785520672798157
0.0008910983451642096 0.19650255143642426 0.25944399833679199
0.0018603305798023939 0.19980190694332123 0.25918158888816833
0.055867303162813187 0.20471639931201935 0.25884497165679932
0.19164389371871948 0.22115431725978851 0.26247277855873108
0.32702511548995972 0.24093452095985413 0.26679059863090515
0.4702017605304718 0.25962194800376892 0.26899412274360657
0.62606716156005859 0.29981055855751038 0.27267462015151978
0.76454728841781616 0.35817936062812805 0.27717912197113037
0.87778717279434204 0.43211999535560608 0.2813866138458252
0.95254433155059814 0.50531280040740967 0.29063278436660767
0.99004906415939331 0.56788331270217896 0.30888828635215759
0 0.22428035736083984 0.26158997416496277
0 0.23292291164398193 0.26440039277076721
0.0014491211622953415 0.23878280818462372 0.26540383696556091
0.0038157445378601551 0.23932114243507385 0.26380267739295959
0.086700692772865295 0.24703705310821533 0.26368868350982666
0.22502142190933228 0.2620084285736084 0.26453468203544617
0.35778585076332092 0.27822625637054443 0.26567649841308594
0.50584685802459717 0.30872014164924622 0.26830035448074341
0.64715015888214111 0.34688109159469604 0.26990008354187012
0.77306300401687622 0.40659943222999573 0.2744918167591095
0.87649673223495483 0.47389060258865356 0.28033331036567688
0.9490283727645874 0.5411873459815979 0.28881615400314331
0.9890250563621521 0.59823930263519287 0.3085554838180542
0 0.29316839575767517 0.27098581194877625
0 0.29116541147232056 0.27184653282165527
0.003011426655575633 0.29573926329612732 0.27232277393341064
0.0099045401439070702 0.30517405271530151 0.27253919839859009
0.096942737698554993 0.31564581394195557 0.27126967906951904
0.25714457035064697 0.33161574602127075 0.26953059434890747
0.3939024806022644 0.35135996341705322 0.269086092710495
0.52885252237319946 0.37322536110877991 0.26876220107078552
0.65602171421051025 0.40427449345588684 0.26706087589263916
0.77331894636154175 0.45689186453819275 0.26902565360069275
0.87255913019180298 0.51767528057098389 0.27292808890342712
0.94107902050018311 0.5772584080696106 0.28534528613090515
0.9824298620223999 0.62648838758468628 0.30692744255065918
0 0.38267338275909424 0.28239834308624268
0 0.38395002484321594 0.28326201438903809
0.0026632570661604404 0.39055997133255005 0.28313246369361877
0.0076757394708693027 0.39623019099235535 0.28230985999107361
0.1051209568977356 0.4059661328792572 0.28020152449607849
0.27758264541625977 0.42344686388969421 0.27810904383659363
0.42925897240638733 0.44497016072273254 0.27522864937782288
0.56073629856109619 0.46826270222663879 0.27133536338806152
0.67396146059036255 0.49208834767341614 0.26867765188217163
0.77686601877212524 0.52362632751464844 0.26475608348846436
0.87049311399459839 0.56774097681045532 0.26454442739486694
0.93606698513031006 0.61812859773635864 0.27852705121040344
0.97986793518066406 0.65780037641525269 0.30243223905563354
0.0002277149906149134 0.48799645900726318 0.29188793897628784
0.0024768305011093616 0.49149948358535767 0.29381519556045532
0.0036154503468424082 0.49641913175582886 0.29404324293136597
0.0063307220116257668 0.49983283877372742 0.29171231389045715
0.1307608038187027 0.51041841506958008 0.28907710313796997
0.30784651637077332 0.52530407905578613 0.28737440705299377
0.45331564545631409 0.53848016262054443 0.28201887011528015
0.58944118022918701 0.56273478269577026 0.27550306916236877
0.69879889488220215 0.58858561515808105 0.27385562658309937
0.78964948654174805 0.61102527379989624 0.27023261785507202
0.86893272399902344 0.63693225383758545 0.26890522241592407
0.92987632751464844 0.66342490911483765 0.27555271983146667
0.97304397821426392 0.68812030553817749 0.29553020000457764
0.003024127334356308 0.60455513000488281 0.30243176221847534
0.0039220922626554966 0.6029619574546814 0.30341097712516785
0.0049627567641437054 0.60197156667709351 0.30227407813072205
0.035282958298921585 0.60218507051467896 0.30168026685714722
0.20510669052600861 0.61302882432937622 0.30410659313201904
0.36258047819137573 0.62452524900436401 0.30163496732711792
0.48910912871360779 0.63426125049591064 0.29834234714508057
0.60654938220977783 0.64950191974639893 0.29414302110671997
0.71988832950592041 0.67540079355239868 0.28719118237495422
0.80087834596633911 0.69249933958053589 0.28535661101341248
0.86542391777038574 0.70660114288330078 0.28966888785362244
0.91809868812561035 0.71804451942443848 0.30004853010177612
0.9623265266418457 0.73194777965545654 0.31034886837005615
0.017798658460378647 0.70899659395217896 0.3151182234287262
0.031455393880605698 0.70823341608047485 0.31478744745254517
0.081067956984043121 0.70737665891647339 0.31557843089103699
0.19990277290344238 0.70773941278457642 0.32070291042327881
0.3153221607208252 0.70754969120025635 0.32649824023246765
0.43237224221229553 0.71113914251327515 0.32827961444854736
0.53654026985168457 0.72213339805603027 0.32616943120956421
0.63161814212799072 0.73007369041442871 0.3243100643157959
0.72693383693695068 0.74137938022613525 0.32360073924064636
0.80266004800796509 0.75641512870788574 0.32024931907653809
0.86318141222000122 0.76658397912979126 0.32114851474761963
0.91266536712646484 0.77499061822891235 0.33226892352104187
0.95496469736099243 0.78521335124969482 0.34666144847869873
0.23996113240718842 0.7982984185218811 0.34340277314186096
0.26184055209159851 0.79538995027542114 0.34444156289100647
0.30306580662727356 0.79139220714569092 0.3458855152130127
0.36301645636558533 0.78986924886703491 0.35126963257789612
0.42930662631988525 0.78735440969467163 0.35635367035865784
0.50615626573562622 0.79015427827835083 0.36091840267181396
0.59053331613540649 0.79560345411300659 0.36499938368797302
0.66617947816848755 0.80069869756698608 0.36408272385597229
0.73864257335662842 0.80535614490509033 0.36475789546966553
0.80392813682556152 0.81478607654571533 0.36261120438575745
0.86209958791732788 0.82360744476318359 0.36110380291938782
0.90812480449676514 0.82897073030471802 0.37185990810394287
0.94706875085830688 0.834450364112854 0.39147788286209106
0.4389137327671051 0.85561889410018921 0.39183720946311951
0.45652896165847778 0.85581201314926147 0.39390864968299866
0.47632429003715515 0.85203421115875244 0.39673358201980591
0.50673395395278931 0.85028082132339478 0.39752358198165894
0.54453343152999878 0.84878706932067871 0.4004482626914978
0.58867478370666504 0.84889572858810425 0.40675845742225647
0.65175908803939819 0.85247761011123657 0.41247707605361938
0.71248853206634521 0.85548287630081177 0.41196796298027039
0.76421457529067993 0.85746020078659058 0.41446724534034729
0.81661748886108398 0.86330395936965942 0.41858083009719849
0.86652976274490356 0.86854308843612671 0.41963985562324524
0.90763503313064575 0.87319999933242798 0.42879384756088257
0.94387543201446533 0.87886339426040649 0.44540083408355713
0.61614114046096802 0.90197920799255371 0.4536496102809906
0.61663073301315308 0.90006548166275024 0.45237463712692261
0.6278834342956543 0.89903295040130615 0.45523083209991455
0.64510726928710938 0.89618444442749023 0.45572078227996826
0.66563171148300171 0.89382684230804443 0.45829179883003235
0.69642120599746704 0.89529460668563843 0.46312549710273743
0.73335772752761841 0.89761364459991455 0.46871015429496765
0.77076107263565063 0.89734882116317749 0.4711492657661438
0.81031137704849243 0.89919948577880859 0.4752846360206604
0.8434453010559082 0.90500146150588989 0.47894442081451416
0.87591356039047241 0.90826833248138428 0.48398202657699585
0.91131794452667236 0.90993720293045044 0.49279394745826721
0.94265842437744141 0.90993410348892212 0.49971014261245728
0.75722479820251465 0.93193316459655762 0.5142204761505127
0.75737553834915161 0.9313056468963623 0.5140499472618103
0.76237154006958008 0.9310302734375 0.51500773429870605
0.77188092470169067 0.92968332767486572 0.51569622755050659
0.78330773115158081 0.92785817384719849 0.51720303297042847
0.79796093702316284 0.92784106731414795 0.51997411251068115
0.82029968500137329 0.92981183528900146 0.52574944496154785
0.84218978881835938 0.93123120069503784 0.5298190712928772
0.86641258001327515 0.93422514200210571 0.53460884094238281
0.88504016399383545 0.93581056594848633 0.53567516803741455
0.9036400318145752 0.93645399808883667 0.54009711742401123
0.92367243766784668 0.93626612424850464 0.54537487030029297
0.94204831123352051 0.93577349185943604 0.54932695627212524
0 0.17606160044670105 0.2647307813167572
0 0.17768830060958862 0.26700150966644287
0.0017041374230757356 0.17882786691188812 0.26752051711082458
0.0046066283248364925 0.17703533172607422 0.26590216159820557
0.01583334244787693 0.17445406317710876 0.26391470432281494
0.12852856516838074 0.18181844055652618 0.26952037215232849
0.28032037615776062 0.19075949490070343 0.27682837843894958
0.4441567063331604 0.21160583198070526 0.28415504097938538
0.61327612400054932 0.25800007581710815 0.29524153470993042
0.76188868284225464 0.31498140096664429 0.30316358804702759
0.88059395551681519 0.3932645320892334 0.30917000770568848
0.95746421813964844 0.47323468327522278 0.32079386711120605
0.98953288793563843 0.54140388965606689 0.3382301926612854
0 0.17558224499225616 0.26340073347091675
0 0.17992295324802399 0.26634654402732849
0.00061923754401504993 0.18313722312450409 0.26824894547462463
0.0035071130841970444 0.1854415237903595 0.26767382025718689
0.02858988381922245 0.18711259961128235 0.26684832572937012
0.15512190759181976 0.19736778736114502 0.27276495099067688
0.30121776461601257 0.20948365330696106 0.27871024608612061
0.45956617593765259 0.2346300482749939 0.28639966249465942
0.62210959196090698 0.27961719036102295 0.29554805159568787
0.7671579122543335 0.33748656511306763 0.30167484283447266
0.88303762674331665 0.41384974122047424 0.30973643064498901
0.95390409231185913 0.49115824699401855 0.32452401518821716
0.98394560813903809 0.55057817697525024 0.34171086549758911
0 0.19054809212684631 0.26467764377593994
0 0.19624082744121552 0.26845738291740417
0.0023281322792172432 0.20184637606143951 0.27128452062606812
0.0041122883558273315 0.20365563035011292 0.27135297656059265
0.062617465853691101 0.20985457301139832 0.27236101031303406
0.20188060402870178 0.22594134509563446 0.27753713726997375
0.3409494161605835 0.24351635575294495 0.28250566124916077
0.48788711428642273 0.26704376935958862 0.28822565078735352
0.64052772521972656 0.31232571601867676 0.29476168751716614
0.77627217769622803 0.36961135268211365 0.29940599203109741
0.88643151521682739 0.44445016980171204 0.30900633335113525
0.9505121111869812 0.51515752077102661 0.32375428080558777
0.98726868629455566 0.57772171497344971 0.34268656373023987
0 0.22883601486682892 0.2716311514377594
8.5568892245646566e-05 0.23423068225383759 0.27404686808586121
0.0034423528704792261 0.24201104044914246 0.27720877528190613
0.0085035590454936028 0.24405346810817719 0.27784132957458496
0.10024245083332062 0.25216305255889893 0.27862817049026489
0.24345675110816956 0.26705059409141541 0.2807486355304718
0.37496080994606018 0.28585416078567505 0.28316432237625122
0.51737529039382935 0.31644341349601746 0.28812557458877563
0.65836185216903687 0.35876518487930298 0.29199036955833435
0.78490561246871948 0.42114350199699402 0.29884162545204163
0.88455593585968018 0.485312819480896 0.3068682849407196
0.94813722372055054 0.54899054765701294 0.3195214569568634
0.98912441730499268 0.60246968269348145 0.33693403005599976
0 0.30242478847503662 0.28375729918479919
6.8784225732088089e-05 0.29814088344573975 0.28431889414787292
0.0029198590200394392 0.30309426784515381 0.28692340850830078
0.0075051849707961082 0.31144928932189941 0.28790992498397827
0.11518062651157379 0.3224601149559021 0.28747427463531494
0.2744157612323761 0.33816766738891602 0.28582176566123962
0.4081786572933197 0.35532447695732117 0.28513699769973755
0.54050934314727783 0.37757024168968201 0.28642064332962036
0.66911989450454712 0.41642600297927856 0.28842997550964355
0.78334051370620728 0.46941876411437988 0.29272580146789551
0.87572062015533447 0.52974563837051392 0.30128055810928345
0.93963056802749634 0.58539485931396484 0.31459110975265503
0.98212999105453491 0.63043904304504395 0.33414876461029053
0 0.3946877121925354 0.2946089506149292
0.0010417115408927202 0.39263007044792175 0.29655474424362183
0.0039362139068543911 0.39764624834060669 0.2989037036895752
0.010372760705649853 0.4019029438495636 0.29780316352844238
