luts/instant_consumer/polaroid_px-70_--.cube
# Created by: G'MIC (https://gmic.eu)
TITLE "polaroid_px-70_--"
# LUT size
LUT_3D_SIZE 5
# Data domain
DOMAIN_MIN 0.0 0.0 0.0
DOMAIN_MAX 1.0 1.0 1.0
# LUT data points
0 0.023304330185055733 0.027230162173509598
0.12289298325777054 0.051059182733297348 0.04957275465130806
0.51298493146896362 0.050963874906301498 0.088688835501670837
0.85767370462417603 0.26344645023345947 0.092100702226161957
0.99616008996963501 0.49948659539222717 0.13266803324222565
0 0.21509750187397003 0.090123087167739868
0.096681348979473114 0.23428171873092651 0.076555348932743073
0.53552228212356567 0.24971367418766022 0.057804226875305176
0.84101468324661255 0.37877443432807922 0.041460838168859482
0.98904615640640259 0.55019062757492065 0.11166459321975708
0.00050485646352171898 0.53319597244262695 0.10902364552021027
0.074615329504013062 0.53758323192596436 0.10975831001996994
0.56905657052993774 0.5561707615852356 0.028417401015758514
0.8412969708442688 0.57838290929794312 0.0041704662144184113
0.98039859533309937 0.63722974061965942 0.0087685529142618179
0.36912769079208374 0.75851196050643921 0.20824207365512848
0.4750514030456543 0.75793445110321045 0.23206160962581635
0.64492499828338623 0.75504219532012939 0.2140742689371109
0.83004999160766602 0.76340019702911377 0.16608501970767975
0.9649355411529541 0.79038846492767334 0.17358092963695526
0.69563949108123779 0.93263214826583862 0.45341455936431885
0.71635395288467407 0.92995321750640869 0.46040469408035278
0.76623439788818359 0.93673676252365112 0.48106956481933594
0.84811699390411377 0.94348049163818359 0.47501015663146973
0.94724643230438232 0.95922553539276123 0.4787362813949585
4.2006548028439283e-05 0.084126822650432587 0.17541372776031494
0.12339472770690918 0.11687261611223221 0.17600353062152863
0.51814419031143188 0.12059493362903595 0.20563015341758728
0.87004762887954712 0.33278125524520874 0.24508665502071381
0.98997646570205688 0.55767661333084106 0.31020471453666687
0.00032626881147734821 0.24603113532066345 0.197745680809021
0.18847617506980896 0.26541832089424133 0.20392321050167084
0.5706324577331543 0.32255834341049194 0.21482184529304504
0.85925841331481934 0.45020297169685364 0.23230130970478058
0.98990106582641602 0.58975696563720703 0.2871982753276825
0.10857704281806946 0.54876053333282471 0.22466892004013062
0.28915482759475708 0.55066263675689697 0.22206021845340729
0.60726332664489746 0.56222522258758545 0.20607158541679382
0.84302049875259399 0.58431822061538696 0.17712540924549103
0.98101937770843506 0.65594351291656494 0.22113923728466034
0.45760276913642883 0.75777429342269897 0.29485324025154114
0.53316724300384521 0.75953304767608643 0.31031525135040283
0.67895269393920898 0.75940209627151489 0.31116726994514465
0.83349305391311646 0.76511311531066895 0.27794921398162842
0.96058803796768188 0.79030388593673706 0.28777849674224854
0.70308327674865723 0.93115144968032837 0.48657518625259399
0.72432404756546021 0.93237721920013428 0.49387830495834351
0.77446049451828003 0.9364662766456604 0.50970476865768433
0.84773445129394531 0.94459915161132812 0.51080894470214844
0.94490891695022583 0.96009600162506104 0.51386475563049316
0.080730020999908447 0.17546023428440094 0.35318189859390259
0.35585400462150574 0.23685838282108307 0.35493120551109314
0.59904682636260986 0.35346004366874695 0.35923963785171509
0.84522980451583862 0.34628906846046448 0.39569023251533508
0.98873734474182129 0.52680999040603638 0.43782249093055725
0.075707562267780304 0.32276856899261475 0.36093494296073914
0.36135736107826233 0.35588771104812622 0.36879569292068481
0.63269692659378052 0.45223662257194519 0.37447530031204224
0.85468184947967529 0.46496635675430298 0.4070860743522644
0.98794543743133545 0.61192387342453003 0.46123296022415161
0.22300238907337189 0.55971181392669678 0.37292522192001343
0.41484054923057556 0.56956714391708374 0.38367652893066406
0.67013448476791382 0.58734548091888428 0.39688092470169067
0.85450047254562378 0.63915836811065674 0.4214160144329071
0.97152435779571533 0.71422660350799561 0.46492511034011841
0.58483612537384033 0.75658720731735229 0.4387257993221283
0.64322096109390259 0.75788527727127075 0.44580072164535522
0.72677755355834961 0.76256316900253296 0.44558149576187134
0.84190362691879272 0.77039229869842529 0.43928977847099304
0.9657822847366333 0.79045408964157104 0.4297313392162323
0.73342341184616089 0.93489915132522583 0.56313300132751465
0.74276828765869141 0.9346739649772644 0.56010842323303223
0.78429174423217773 0.93881368637084961 0.56892102956771851
0.85186600685119629 0.94713824987411499 0.58725136518478394
0.94550371170043945 0.95960944890975952 0.58610004186630249
0.46178326010704041 0.34542509913444519 0.55792349576950073
0.61109340190887451 0.40124672651290894 0.56113266944885254
0.78526633977890015 0.53980761766433716 0.56399440765380859
0.86858290433883667 0.63128596544265747 0.56532174348831177
0.95879262685775757 0.62275862693786621 0.58941537141799927
0.44092234969139099 0.44716155529022217 0.55943149328231812
0.59388291835784912 0.4839593768119812 0.56434524059295654
0.78109806776046753 0.59348422288894653 0.5685575008392334
0.8670012354850769 0.66966444253921509 0.57766890525817871
0.95915043354034424 0.67097407579421997 0.60162192583084106
0.34816229343414307 0.6121867299079895 0.54113441705703735
0.50770813226699829 0.6161763072013855 0.54883474111557007
0.75593322515487671 0.65607506036758423 0.57272589206695557
0.86687761545181274 0.73194688558578491 0.59284907579421997
0.96285277605056763 0.73095095157623291 0.61925256252288818
0.57108610868453979 0.76340162754058838 0.56160998344421387
0.63289529085159302 0.76164335012435913 0.56511539220809937
0.73826611042022705 0.76599007844924927 0.57786804437637329
0.85425460338592529 0.78588736057281494 0.59886729717254639
0.96474707126617432 0.83359211683273315 0.64252930879592896
0.71876919269561768 0.93096441030502319 0.66446888446807861
0.74557960033416748 0.93370801210403442 0.67275696992874146
0.79822224378585815 0.94012415409088135 0.68732434511184692
0.85760629177093506 0.94586026668548584 0.70073628425598145
0.94100773334503174 0.96527636051177979 0.71203738451004028
0.7450096607208252 0.61900800466537476 0.78943455219268799
0.79233485460281372 0.6483270525932312 0.79356807470321655
0.85670799016952515 0.70311868190765381 0.78951632976531982
0.91365981101989746 0.78732931613922119 0.79009103775024414
0.94854259490966797 0.83003914356231689 0.7974163293838501
0.73958349227905273 0.65887081623077393 0.79664468765258789
0.77692550420761108 0.67704850435256958 0.79724580049514771
0.85279393196105957 0.73113667964935303 0.80138510465621948
0.91045355796813965 0.80429255962371826 0.7993437647819519
0.94829303026199341 0.84375560283660889 0.81063252687454224
0.68110215663909912 0.72089707851409912 0.7951616644859314
0.73199504613876343 0.72675639390945435 0.79988235235214233
0.81804609298706055 0.76064682006835938 0.80098962783813477
0.90025532245635986 0.8316648006439209 0.81535506248474121
0.9451325535774231 0.87832093238830566 0.82923644781112671
0.59940832853317261 0.81723511219024658 0.79958593845367432
0.63429045677185059 0.81298434734344482 0.79747313261032104
0.72206038236618042 0.80985033512115479 0.80334991216659546
0.86959922313690186 0.85669040679931641 0.83626627922058105
0.93880414962768555 0.92867779731750488 0.87089455127716064
0.68301975727081299 0.95638954639434814 0.86033928394317627
0.70327275991439819 0.95718717575073242 0.8631211519241333
0.75356036424636841 0.96060019731521606 0.8722226619720459
0.83518445491790771 0.96306365728378296 0.88401192426681519
0.92733097076416016 0.98361563682556152 0.91912329196929932
