luts/instant_consumer/polaroid_px-100uv+_cold_--.cube
# Created by: G'MIC (https://gmic.eu)
TITLE "polaroid_px-100uv+_cold_--"
# LUT size
LUT_3D_SIZE 13
# Data domain
DOMAIN_MIN 0.0 0.0 0.0
DOMAIN_MAX 1.0 1.0 1.0
# LUT data points
0.012445876374840736 0.016518730670213699 0.016060354188084602
0.028334420174360275 0.036108653992414474 0.035591155290603638
0.070269718766212463 0.083556905388832092 0.083772964775562286
0.13302169740200043 0.1517498642206192 0.1531117707490921
0.20740441977977753 0.22843295335769653 0.23061217367649078
0.27562567591667175 0.29692485928535461 0.29906097054481506
0.33550205826759338 0.35619387030601501 0.3568534255027771
0.38826149702072144 0.40829545259475708 0.40641850233078003
0.43521440029144287 0.45503857731819153 0.44982665777206421
0.47935354709625244 0.49953439831733704 0.48977431654930115
0.52304410934448242 0.54364609718322754 0.52895760536193848
0.56821191310882568 0.58875578641891479 0.56895297765731812
0.6151268482208252 0.63542270660400391 0.61007517576217651
0.033597040921449661 0.041952170431613922 0.042201515287160873
0.049409918487071991 0.060630887746810913 0.060197178274393082
0.081876225769519806 0.096591636538505554 0.096627026796340942
0.13756591081619263 0.15589359402656555 0.156720370054245
0.21234786510467529 0.23270946741104126 0.2349856048822403
0.28204777836799622 0.30271175503730774 0.30527576804161072
0.34120637178421021 0.36178308725357056 0.3630422055721283
0.39196780323982239 0.4120921790599823 0.41108199954032898
0.43739545345306396 0.45739969611167908 0.45306891202926636
0.4809320867061615 0.50106924772262573 0.49217432737350464
0.5239408016204834 0.54475921392440796 0.53085088729858398
0.56885737180709839 0.58949857950210571 0.57035481929779053
0.61548328399658203 0.63591647148132324 0.61064440011978149
0.090279459953308105 0.10667221993207932 0.10773324221372604
0.094828523695468903 0.11139533668756485 0.11115888506174088
0.1181805357336998 0.13500349223613739 0.1353897899389267
0.1656162291765213 0.18414266407489777 0.18558749556541443
0.23095197975635529 0.25074779987335205 0.25346040725708008
0.2951720654964447 0.31526342034339905 0.31834867596626282
0.34958046674728394 0.36973029375076294 0.37161943316459656
0.39594843983650208 0.41599538922309875 0.41528499126434326
0.43899598717689514 0.45883592963218689 0.45470893383026123
0.48159405589103699 0.50175571441650391 0.49339854717254639
0.52460670471191406 0.54512482881546021 0.53166818618774414
0.56938087940216064 0.59001690149307251 0.57098430395126343
0.61597555875778198 0.63653802871704102 0.61157882213592529
0.17551016807556152 0.19643045961856842 0.19881336390972137
0.17239733040332794 0.19240041077136993 0.19376277923583984
0.18607522547245026 0.20507752895355225 0.20692025125026703
0.21985302865505219 0.23903393745422363 0.24184602499008179
0.26920613646507263 0.28885912895202637 0.29260709881782532
0.32141539454460144 0.34147146344184875 0.34518140554428101
0.36575025320053101 0.38592499494552612 0.38791349530220032
0.4039769172668457 0.42385530471801758 0.42375212907791138
0.44305852055549622 0.46280965209007263 0.459297776222229
0.48398333787918091 0.50379210710525513 0.49613574147224426
0.52629125118255615 0.54636895656585693 0.53341853618621826
0.57059383392333984 0.59093230962753296 0.57219630479812622
0.61770093441009521 0.6379164457321167 0.61306321620941162
0.26632681488990784 0.28753507137298584 0.29074516892433167
0.26412710547447205 0.28458496928215027 0.28798773884773254
0.26548886299133301 0.28523164987564087 0.28885352611541748
0.28284433484077454 0.30226045846939087 0.30669203400611877
0.31664517521858215 0.33618474006652832 0.34095638990402222
0.35670128464698792 0.37650883197784424 0.38084703683853149
0.39009293913841248 0.40992754697799683 0.41269561648368835
0.41949093341827393 0.43895700573921204 0.4390454888343811
0.45324221253395081 0.47240248322486877 0.46909534931182861
0.49072825908660889 0.50995206832885742 0.50231772661209106
0.53032428026199341 0.54992634057998657 0.53747433423995972
0.57308375835418701 0.59299618005752563 0.57460546493530273
0.61958551406860352 0.63966965675354004 0.61518615484237671
0.33853918313980103 0.3587421178817749 0.36128193140029907
0.33822578191757202 0.35796657204627991 0.36161532998085022
0.33494794368743896 0.3540099561214447 0.35826385021209717
0.34175777435302734 0.36023977398872375 0.36534717679023743
0.36244076490402222 0.38140827417373657 0.38610973954200745
0.39061224460601807 0.40986183285713196 0.41372117400169373
0.41652053594589233 0.43573221564292908 0.43773636221885681
0.4410262405872345 0.459859699010849 0.4592592716217041
0.46981212496757507 0.48824599385261536 0.48454403877258301
0.50284296274185181 0.52122199535369873 0.51342868804931641
0.53852242231369019 0.55729657411575317 0.544769287109375
0.57743960618972778 0.59690803289413452 0.5788460373878479
0.62197327613830566 0.64162403345108032 0.61683076620101929
0.39002928137779236 0.40944865345954895 0.40978813171386719
0.39346799254417419 0.41214486956596375 0.41386392712593079
0.39255484938621521 0.41007518768310547 0.41298189759254456
0.39440223574638367 0.41200670599937439 0.41551971435546875
0.40502408146858215 0.42326036095619202 0.42636588215827942
0.42256373167037964 0.44136792421340942 0.44319978356361389
0.44248777627944946 0.46121832728385925 0.46125254034996033
0.46471366286277771 0.4828372597694397 0.48050022125244141
0.49090015888214111 0.50841951370239258 0.50334852933883667
0.52078735828399658 0.53804564476013184 0.52907365560531616
0.55261117219924927 0.57031035423278809 0.55669206380844116
0.5875057578086853 0.60623377561569214 0.58696359395980835
0.62939411401748657 0.64882498979568481 0.62313318252563477
0.43569815158843994 0.45449617505073547 0.45160016417503357
0.44155997037887573 0.45921081304550171 0.45780232548713684
0.4437815248966217 0.46018755435943604 0.4598749577999115
0.44351089000701904 0.46017909049987793 0.46022385358810425
0.44642949104309082 0.46427673101425171 0.463613361120224
0.45565742254257202 0.47428852319717407 0.47246524691581726
0.47038727998733521 0.4891936182975769 0.48562026023864746
0.49035370349884033 0.50847476720809937 0.50295770168304443
0.51545155048370361 0.5324137806892395 0.52439147233963013
0.54402065277099609 0.56021904945373535 0.54894167184829712
0.57321608066558838 0.59013146162033081 0.57405024766921997
0.60589087009429932 0.62420141696929932 0.60220688581466675
0.64792019128799438 0.666728675365448 0.63806754350662231
0.48008003830909729 0.49915739893913269 0.49163991212844849
0.48668819665908813 0.50445175170898438 0.49811801314353943
0.49076160788536072 0.50738382339477539 0.50177645683288574
0.48927479982376099 0.50628459453582764 0.50071924924850464
0.48755952715873718 0.50592261552810669 0.49954444169998169
0.49115148186683655 0.51053375005722046 0.50306993722915649
0.50189065933227539 0.5214809775352478 0.51257705688476562
0.51992303133010864 0.5387808084487915 0.52815061807632446
0.54352670907974243 0.56096547842025757 0.54842579364776611
0.57059133052825928 0.58699119091033936 0.57139813899993896
0.5980457067489624 0.61494225263595581 0.59507888555526733
0.63155055046081543 0.64967828989028931 0.62357968091964722
0.67784637212753296 0.6959267258644104 0.66272073984146118
0.52668124437332153 0.54696118831634521 0.53301382064819336
0.53285205364227295 0.5519791841506958 0.53888142108917236
0.53715986013412476 0.55535519123077393 0.5425560474395752
0.53580230474472046 0.55416280031204224 0.5412103533744812
0.53218674659729004 0.55168527364730835 0.53790998458862305
0.53219163417816162 0.55264919996261597 0.53798919916152954
0.54043829441070557 0.56111466884613037 0.54536694288253784
0.55767273902893066 0.57738232612609863 0.56052035093307495
0.57897627353668213 0.59760606288909912 0.57900607585906982
0.60161674022674561 0.61967301368713379 0.59820097684860229
0.62578374147415161 0.64413344860076904 0.61894720792770386
0.65987151861190796 0.67877829074859619 0.64795821905136108
0.71246063709259033 0.73026371002197266 0.69195151329040527
0.58326554298400879 0.60429376363754272 0.58244144916534424
0.58947229385375977 0.60947519540786743 0.58802682161331177
0.59369617700576782 0.61305886507034302 0.5915067195892334
0.59248846769332886 0.6116529107093811 0.58986091613769531
0.58718776702880859 0.60743838548660278 0.58498609066009521
0.58436912298202515 0.60584890842437744 0.58249044418334961
0.59203428030014038 0.61351132392883301 0.58918780088424683
0.60938555002212524 0.62974613904953003 0.60475736856460571
0.63067799806594849 0.64918297529220581 0.62307822704315186
0.64933496713638306 0.66751819849014282 0.63925325870513916
0.66789728403091431 0.68689960241317749 0.65574514865875244
0.69794392585754395 0.71631526947021484 0.68093359470367432
0.75166869163513184 0.76719754934310913 0.72563648223876953
0.65914875268936157 0.67927449941635132 0.64755529165267944
0.66452419757843018 0.6836162805557251 0.65239143371582031
0.66762781143188477 0.68594753742218018 0.65455847978591919
0.66609925031661987 0.68446481227874756 0.65279024839401245
0.66045016050338745 0.67954987287521362 0.64754855632781982
0.65571069717407227 0.67580491304397583 0.64342772960662842
0.66420227289199829 0.68397527933120728 0.65062582492828369
0.68400430679321289 0.70242518186569214 0.6675909161567688
0.70336180925369263 0.7209504246711731 0.68558967113494873
0.7199859619140625 0.73594397306442261 0.69980627298355103
0.7367740273475647 0.7520904541015625 0.71439683437347412
0.76286196708679199 0.77709859609603882 0.73665320873260498
0.80702197551727295 0.81770431995391846 0.77306008338928223
0.75879734754562378 0.77385956048965454 0.73175984621047974
0.75837224721908569 0.77332335710525513 0.73169034719467163
0.75794357061386108 0.77289044857025146 0.73134607076644897
0.75632327795028687 0.77135354280471802 0.72981524467468262
0.7531508207321167 0.76866751909255981 0.7268674373626709
0.75123172998428345 0.76733237504959106 0.7249944806098938
0.75953853130340576 0.77589994668960571 0.73260420560836792
0.77813100814819336 0.79306554794311523 0.74919390678405762
0.79513823986053467 0.80784416198730469 0.76379787921905518
0.80890709161758423 0.820121169090271 0.77598899602890015
0.82430624961853027 0.83389425277709961 0.78930884599685669
0.84666109085083008 0.85419332981109619 0.80856466293334961
0.88050675392150879 0.88482779264450073 0.83648467063903809
0.045306634157896042 0.054629277437925339 0.05444997176527977
0.065446145832538605 0.077423423528671265 0.077781841158866882
0.11240348219871521 0.1294315904378891 0.13120646774768829
0.17912973463535309 0.2014060914516449 0.20487472414970398
0.25083485245704651 0.2741754949092865 0.27788186073303223
0.31328496336936951 0.33534768223762512 0.33838164806365967
0.36884024739265442 0.38943034410476685 0.39078786969184875
0.41718268394470215 0.43686440587043762 0.43546214699745178
0.45893296599388123 0.47866737842559814 0.47321233153343201
0.49811568856239319 0.51831477880477905 0.5077555775642395
0.53679174184799194 0.55677837133407593 0.54208695888519287
0.57738411426544189 0.59794282913208008 0.5774071216583252
0.62123173475265503 0.64171653985977173 0.61529350280761719
0.07103709876537323 0.082618176937103271 0.082559801638126373
0.097626812756061554 0.11202596127986908 0.11289820820093155
0.13522550463676453 0.1528293639421463 0.15463906526565552
0.19015416502952576 0.21108075976371765 0.21396860480308533
0.2571643590927124 0.27937158942222595 0.28297927975654602
0.31910830736160278 0.34017559885978699 0.34356215596199036
0.37267178297042847 0.39278760552406311 0.39448678493499756
0.41855332255363464 0.43803560733795166 0.43720737099647522
0.4588438868522644 0.47825843095779419 0.47370097041130066
0.49730050563812256 0.51746129989624023 0.50818878412246704
0.53618675470352173 0.55660319328308105 0.54243135452270508
0.5770113468170166 0.59762215614318848 0.57737505435943604
0.6211732029914856 0.64143002033233643 0.61547201871871948
0.14202752709388733 0.16184611618518829 0.16209876537322998
0.15284457802772522 0.17210112512111664 0.1729770302772522
0.17460121214389801 0.19386211037635803 0.19545546174049377
0.21665757894515991 0.23681366443634033 0.23941932618618011
0.27229723334312439 0.292947918176651 0.29650437831878662
0.32766374945640564 0.34820058941841125 0.35160338878631592
0.37580817937850952 0.39576584100723267 0.39785274863243103
0.41772294044494629 0.43740087747573853 0.43632087111473083
0.45703837275505066 0.47649627923965454 0.4721401035785675
0.49549573659896851 0.51536697149276733 0.5067175030708313
0.53509712219238281 0.55543559789657593 0.54167670011520386
0.57668405771255493 0.59735840559005737 0.57746827602386475
0.62134510278701782 0.64184927940368652 0.61634570360183716
0.22911782562732697 0.2533109188079834 0.25523626804351807
0.23158667981624603 0.25430268049240112 0.2564932107925415
0.23759309947490692 0.25874137878417969 0.26130872964859009
0.2627071738243103 0.28318452835083008 0.28666460514068604
0.30261865258216858 0.3233184814453125 0.32740414142608643
0.34616684913635254 0.36646181344985962 0.37034007906913757
0.38445577025413513 0.40447747707366943 0.40653285384178162
0.4193616509437561 0.43893212080001831 0.43820059299468994
0.45618656277656555 0.47544240951538086 0.47183018922805786
0.49475133419036865 0.51448708772659302 0.50671988725662231
0.53485572338104248 0.55482053756713867 0.54177534580230713
0.57671427726745605 0.59732592105865479 0.57828027009963989
0.62173700332641602 0.64230746030807495 0.61715447902679443
0.30555245280265808 0.32822498679161072 0.3314247727394104
0.30681264400482178 0.32936796545982361 0.33279627561569214
0.3050122857093811 0.32659149169921875 0.33034870028495789
0.31541022658348083 0.33579659461975098 0.34029391407966614
0.34118658304214478 0.36139285564422607 0.36613583564758301
0.37315884232521057 0.39317619800567627 0.39715051651000977
0.40189257264137268 0.42170870304107666 0.42399761080741882
0.4291549026966095 0.44862881302833557 0.44831165671348572
0.46251079440116882 0.48180913925170898 0.47800800204277039
0.49910840392112732 0.51843720674514771 0.51054799556732178
0.53710699081420898 0.55680656433105469 0.54397761821746826
0.57754391431808472 0.59759968519210815 0.57919961214065552
0.62199294567108154 0.64237534999847412 0.61756378412246704
0.36629298329353333 0.3868984580039978 0.3890565037727356
0.36756813526153564 0.38829347491264343 0.39125353097915649
0.36221924424171448 0.38227981328964233 0.38628754019737244
0.36322656273841858 0.38298788666725159 0.38751763105392456
0.37946751713752747 0.39920204877853394 0.4032910168170929
0.40255934000015259 0.42206862568855286 0.42547047138214111
0.42531415820121765 0.44475960731506348 0.44616684317588806
0.44867086410522461 0.46777352690696716 0.46671938896179199
0.47696664929389954 0.4958498477935791 0.49157202243804932
0.50925105810165405 0.52781933546066284 0.51977413892745972
0.54331505298614502 0.56245356798171997 0.54963254928588867
0.58013784885406494 0.59979355335235596 0.58158612251281738
0.62266921997070312 0.64274829626083374 0.61805391311645508
0.41151678562164307 0.43110519647598267 0.43062570691108704
0.41485339403152466 0.43383735418319702 0.43484196066856384
0.41127473115921021 0.42972621321678162 0.43218910694122314
0.40911468863487244 0.42769119143486023 0.43064910173416138
0.41740843653678894 0.43636077642440796 0.43866729736328125
0.43256613612174988 0.4517497718334198 0.452840656042099
0.45036864280700684 0.46960732340812683 0.46887496113777161
0.47133779525756836 0.48981225490570068 0.48699295520782471
0.49662300944328308 0.51463252305984497 0.50885486602783203
0.5252920389175415 0.54285496473312378 0.53363621234893799
0.55555433034896851 0.57365351915359497 0.55996888875961304
0.58795028924942017 0.60730940103530884 0.58835577964782715
0.62759709358215332 0.64748859405517578 0.62245267629623413
0.45311379432678223 0.47214466333389282 0.46863254904747009
0.4577176570892334 0.47490647435188293 0.47321483492851257
0.45672810077667236 0.47408440709114075 0.47311335802078247
0.4544098973274231 0.47205653786659241 0.47126385569572449
0.45624259114265442 0.4747653603553772 0.4732319712638855
0.46398571133613586 0.48309347033500671 0.48056221008300781
0.47710955142974854 0.49630078673362732 0.49197462201118469
0.49573174118995667 0.51427590847015381 0.50801444053649902
0.51954919099807739 0.53714638948440552 0.52851033210754395
0.54695886373519897 0.56379210948944092 0.55182951688766479
0.57547444105148315 0.59263193607330322 0.57656806707382202
0.60635638236999512 0.62500190734863281 0.60324686765670776
0.64587855339050293 0.66489630937576294 0.63727974891662598
0.49421966075897217 0.51297199726104736 0.50527513027191162
0.49845275282859802 0.51671856641769409 0.50975483655929565
0.49988988041877747 0.517478346824646 0.51141870021820068
0.49759358167648315 0.51545059680938721 0.5089302659034729
0.49559685587882996 0.51449739933013916 0.50716227293014526
0.49778491258621216 0.51771146059036255 0.50932496786117554
0.50719892978668213 0.52720928192138672 0.51728421449661255
0.52367818355560303 0.54293513298034668 0.53158420324325562
0.54650557041168213 0.56441158056259155 0.55112433433532715
0.57302933931350708 0.58998250961303711 0.5738983154296875
0.60142058134078979 0.61856561899185181 0.5982699990272522
0.6355481743812561 0.6532711386680603 0.62734013795852661
0.67958492040634155 0.69724982976913452 0.66436141729354858
0.53769505023956299 0.55725181102752686 0.54340535402297974
0.54225629568099976 0.56138843297958374 0.54803186655044556
0.54493600130081177 0.56348133087158203 0.55045127868652344
0.54316824674606323 0.56196296215057373 0.54808753728866577
0.53883010149002075 0.55884480476379395 0.5441361665725708
0.53753364086151123 0.55836772918701172 0.54278856515884399
0.54423826932907104 0.56522178649902344 0.54838073253631592
0.55963903665542603 0.58002960681915283 0.56201457977294922
0.58123624324798584 0.60013610124588013 0.58066576719284058
0.60540413856506348 0.6231878399848938 0.60132837295532227
0.63273060321807861 0.65050941705703735 0.62484627962112427
0.66980773210525513 0.68708813190460205 0.65620023012161255
0.7176472544670105 0.73378342390060425 0.69610416889190674
0.59148991107940674 0.61163699626922607 0.59017151594161987
0.59681850671768188 0.61649543046951294 0.59479117393493652
0.60060101747512817 0.61973148584365845 0.59782391786575317
0.59943258762359619 0.61874228715896606 0.59605485200881958
0.59402865171432495 0.61426836252212524 0.59078836441040039
0.58962756395339966 0.61083853244781494 0.5865938663482666
0.59476423263549805 0.6162106990814209 0.5909419059753418
0.61086517572402954 0.63157433271408081 0.60531556606292725
0.63207119703292847 0.65110784769058228 0.62395364046096802
0.65331369638442993 0.67155009508132935 0.64243489503860474
0.67668235301971436 0.69407641887664795 0.66250038146972656
0.70974540710449219 0.72612816095352173 0.69032579660415649
0.75605934858322144 0.77031522989273071 0.7290535569190979
0.66595160961151123 0.68465828895568848 0.65359002351760864
0.67002260684967041 0.68843775987625122 0.65709072351455688
0.67358601093292236 0.6914294958114624 0.65984535217285156
0.67343086004257202 0.69132751226425171 0.65908849239349365
0.66901123523712158 0.68768054246902466 0.65468668937683105
0.66314709186553955 0.6828036904335022 0.64920198917388916
0.66726386547088623 0.68683737516403198 0.65266954898834229
0.6842687726020813 0.70254969596862793 0.66739672422409058
0.70492148399353027 0.72162693738937378 0.68605166673660278
0.72404259443283081 0.73957234621047974 0.70290708541870117
0.7435796856880188 0.75788730382919312 0.71973371505737305
0.76891076564788818 0.78183531761169434 0.74107754230499268
0.80658578872680664 0.81717628240585327 0.77244919538497925
0.76000028848648071 0.77396202087402344 0.73301106691360474
0.76108098030090332 0.77545535564422607 0.73407751321792603
0.76272517442703247 0.77730280160903931 0.73550236225128174
0.76413905620574951 0.77859383821487427 0.73656737804412842
0.76423043012619019 0.77880620956420898 0.73629146814346313
0.76133829355239868 0.77645236253738403 0.73338061571121216
0.76398855447769165 0.77907842397689819 0.73576343059539795
0.77827197313308716 0.79218333959579468 0.74815773963928223
0.79634982347488403 0.80853855609893799 0.76411175727844238
0.81379443407058716 0.82425987720489502 0.77932465076446533
0.83100038766860962 0.83963322639465332 0.79393631219863892
0.85012972354888916 0.85696029663085938 0.81037795543670654
0.87722158432006836 0.88205325603485107 0.83352261781692505
0.12298765033483505 0.1396385133266449 0.14132067561149597
0.14875808358192444 0.16676270961761475 0.16970622539520264
0.17951537668704987 0.19968384504318237 0.20352593064308167
0.21943962574005127 0.24169090390205383 0.24574510753154755
0.28252923488616943 0.30540353059768677 0.30934086441993713
0.34213632345199585 0.3633110523223877 0.36620000004768372
0.39745047688484192 0.41647472977638245 0.41772487759590149
0.44324830174446106 0.46156367659568787 0.45982247591018677
0.48100587725639343 0.49989554286003113 0.49367639422416687
0.51606673002243042 0.53511875867843628 0.52441167831420898
0.55111634731292725 0.57097154855728149 0.55467575788497925
0.58758699893951416 0.60769736766815186 0.58603072166442871
0.62873154878616333 0.64840829372406006 0.62126165628433228
0.14872390031814575 0.16413341462612152 0.16757303476333618
0.17179343104362488 0.18959710001945496 0.19300132989883423
0.20282617211341858 0.22259131073951721 0.22630834579467773
0.24435359239578247 0.26571813225746155 0.26980206370353699
0.2965947687625885 0.31860393285751343 0.32251754403114319
0.35074380040168762 0.37113273143768311 0.37449437379837036
0.40191903710365295 0.42050784826278687 0.42230570316314697
0.44437095522880554 0.46251216530799866 0.46134164929389954
0.48042473196983337 0.49884167313575745 0.4936998188495636
0.51486635208129883 0.53411149978637695 0.52393198013305664
0.54979664087295532 0.56979966163635254 0.55415946245193481
0.58653914928436279 0.60724401473999023 0.58584845066070557
0.62847131490707397 0.64832717180252075 0.62141150236129761
0.1898391991853714 0.2092968076467514 0.21238677203655243
0.20984815061092377 0.22931471467018127 0.23280645906925201
0.23445916175842285 0.25427943468093872 0.25772774219512939
0.27123406529426575 0.29208135604858398 0.29564136266708374
0.31499582529067993 0.33589014410972595 0.33964288234710693
0.3605923056602478 0.38067436218261719 0.38381344079971313
0.4035085141658783 0.4222794771194458 0.42424097657203674
0.44123002886772156 0.45949122309684753 0.45882970094680786
0.4765242338180542 0.49515396356582642 0.49047732353210449
0.51185661554336548 0.53115355968475342 0.52170675992965698
0.54824316501617432 0.56807225942611694 0.55341500043869019
0.58686089515686035 0.60710704326629639 0.58650118112564087
0.62980788946151733 0.64975565671920776 0.62302929162979126
0.26143893599510193 0.28446930646896362 0.28813621401786804
0.27687498927116394 0.29973742365837097 0.30371162295341492
0.28823187947273254 0.3095209002494812 0.31306183338165283
0.31031873822212219 0.33118429780006409 0.33478596806526184
0.3414856493473053 0.36211389303207397 0.36579570174217224
0.37572315335273743 0.39567363262176514 0.39880746603012085
0.40865606069564819 0.4277484118938446 0.42964509129524231
0.44031941890716553 0.45935645699501038 0.45843842625617981
0.47424790263175964 0.49301677942276001 0.48901370167732239
0.51077413558959961 0.53010332584381104 0.52076494693756104
0.54762041568756104 0.56721031665802002 0.55320262908935547
0.58718377351760864 0.60725963115692139 0.587177574634552
0.63113462924957275 0.65082597732543945 0.62442219257354736
0.33736294507980347 0.35836783051490784 0.36233082413673401
0.34365171194076538 0.3660489022731781 0.36966007947921753
0.34711363911628723 0.36829334497451782 0.37149718403816223
0.35471740365028381 0.37571144104003906 0.37911152839660645
0.37282457947731018 0.39326706528663635 0.39663437008857727
0.39686083793640137 0.41671118140220642 0.41951629519462585
0.42164447903633118 0.44105163216590881 0.44242087006568909
0.44780164957046509 0.46702930331230164 0.4657159149646759
