luts/instant_consumer/polaroid_px-70_-.cube
# Created by: G'MIC (https://gmic.eu)
TITLE "polaroid_px-70_-"
# LUT size
LUT_3D_SIZE 13
# Data domain
DOMAIN_MIN 0.0 0.0 0.0
DOMAIN_MAX 1.0 1.0 1.0
# LUT data points
0 0.093726545572280884 0.13931109011173248
0.00088035734370350838 0.094070151448249817 0.13732993602752686
0.011610113084316254 0.096543408930301666 0.13661676645278931
0.090024553239345551 0.1051904708147049 0.1390177309513092
0.19396564364433289 0.11369374394416809 0.1427450031042099
0.31350418925285339 0.1202586442232132 0.14728829264640808
0.4615006148815155 0.13393008708953857 0.15213009715080261
0.6276283860206604 0.16088666021823883 0.15167523920536041
0.77796667814254761 0.22262786328792572 0.14315028488636017
0.88762390613555908 0.32584092020988464 0.13120050728321075
0.95846962928771973 0.41817903518676758 0.11625730991363525
0.99555635452270508 0.49245616793632507 0.11805804073810577
1 0.54520446062088013 0.14702954888343811
0 0.11012963950634003 0.13686899840831757
3.211825605831109e-05 0.11571278423070908 0.13754600286483765
0.013088465668261051 0.1180790588259697 0.13731926679611206
0.1020437628030777 0.12325580418109894 0.13900099694728851
0.20562997460365295 0.13310959935188293 0.14197935163974762
0.3280697762966156 0.14528901875019073 0.14701990783214569
0.47186389565467834 0.16387778520584106 0.14954806864261627
0.63623678684234619 0.19389155507087708 0.14756625890731812
0.78016382455825806 0.25531390309333801 0.13699832558631897
0.89103293418884277 0.34801954030990601 0.12245746701955795
0.95772498846054077 0.43604409694671631 0.10859367251396179
0.99338692426681519 0.50820755958557129 0.11222616583108902
1 0.56490963697433472 0.14251290261745453
0 0.15640655159950256 0.14486940205097198
0.0020135019440203905 0.16234511137008667 0.14451301097869873
0.010727003216743469 0.16469831764698029 0.1420818418264389
0.10669206827878952 0.17005364596843719 0.14228808879852295
0.22446106374263763 0.17596624791622162 0.14286790788173676
0.34979277849197388 0.18774819374084473 0.14555598795413971
0.48863416910171509 0.20830206573009491 0.14621132612228394
0.64464473724365234 0.24587415158748627 0.14074148237705231
0.78351390361785889 0.30841219425201416 0.12542331218719482
0.88724678754806519 0.3869749903678894 0.10392216593027115
0.95376181602478027 0.46505862474441528 0.090606018900871277
0.99128961563110352 0.53018379211425781 0.099471010267734528
0.99987345933914185 0.58424109220504761 0.13566561043262482
0 0.22452867031097412 0.15391205251216888
0.0018140306929126382 0.23396347463130951 0.15369337797164917
0.0061668995767831802 0.23668824136257172 0.15130487084388733
0.08367958664894104 0.24052348732948303 0.1481129378080368
0.23780901730060577 0.25018930435180664 0.14560858905315399
0.36941340565681458 0.2591615617275238 0.1437588632106781
0.51076924800872803 0.27671292424201965 0.13742688298225403
0.65393185615539551 0.30793794989585876 0.12765063345432281
0.78628987073898315 0.36902064085006714 0.10396701842546463
0.87926733493804932 0.43801602721214294 0.070831090211868286
0.94647300243377686 0.50330257415771484 0.054222077131271362
0.98654228448867798 0.55905735492706299 0.069568261504173279
0.99764829874038696 0.60760903358459473 0.11619671434164047
0 0.31852170825004578 0.15882477164268494
0.00014053045015316457 0.32202801108360291 0.16062133014202118
0.0043420381844043732 0.32545378804206848 0.15802299976348877
0.053521160036325455 0.33056902885437012 0.15381571650505066
0.2327679842710495 0.34648281335830688 0.14553049206733704
0.38738304376602173 0.35980752110481262 0.13682083785533905
0.53898864984512329 0.37920838594436646 0.12011992186307907
0.67284518480300903 0.39995729923248291 0.097992435097694397
0.78393959999084473 0.43857666850090027 0.064390532672405243
0.87679165601730347 0.49357163906097412 0.025987153872847557
0.94049555063247681 0.54775846004486084 0.014571171253919601
0.97857969999313354 0.59366405010223389 0.029335545375943184
0.99484533071517944 0.6319538950920105 0.087657690048217773
0 0.43540531396865845 0.15168237686157227
0 0.43503057956695557 0.15429066121578217
0.0024866291787475348 0.43949899077415466 0.15288420021533966
0.041332051157951355 0.44254252314567566 0.15004017949104309
0.23193319141864777 0.45615145564079285 0.14040698111057281
0.40612870454788208 0.4678250253200531 0.12139199674129486
0.56104999780654907 0.49044179916381836 0.085249565541744232
0.69485467672348022 0.51329463720321655 0.051189810037612915
0.79443305730819702 0.53614550828933716 0.02039654366672039
0.87092798948287964 0.56018936634063721 0.0061210631392896175
0.92928415536880493 0.59360945224761963 0.0044732037931680679
0.97085481882095337 0.62912285327911377 0.0073032155632972717
0.99487602710723877 0.66009557247161865 0.048339441418647766
1.2925092050863896e-05 0.55603677034378052 0.13783001899719238
5.2418428822420537e-05 0.55388867855072021 0.14123877882957458
0.00058240705402567983 0.557167649269104 0.14037503302097321
0.044523082673549652 0.55980134010314941 0.13789981603622437
0.26290306448936462 0.56988799571990967 0.12788958847522736
0.43523931503295898 0.57356256246566772 0.10725724697113037
0.58070248365402222 0.59018856287002563 0.064268894493579865
0.70862281322479248 0.61190569400787354 0.018525335937738419
0.79951542615890503 0.62686741352081299 0.0058507281355559826
0.86800217628479004 0.64093595743179321 0.003744910703971982
0.92073249816894531 0.65148204565048218 0.0043187760747969151
0.96102488040924072 0.66871625185012817 0.0045867622829973698
0.99206525087356567 0.69106477499008179 0.01973673515021801
0.0022018284071236849 0.67050641775131226 0.12679530680179596
0.0019165637204423547 0.66427642107009888 0.12953530251979828
0.013560231775045395 0.66425514221191406 0.1276298463344574
0.13721050322055817 0.66638040542602539 0.13088032603263855
0.32891970872879028 0.66952109336853027 0.12533871829509735
0.47471517324447632 0.6718335747718811 0.10450253635644913
0.60293394327163696 0.67969077825546265 0.070971548557281494
0.71262669563293457 0.69175028800964355 0.03130403533577919
0.80290746688842773 0.70656055212020874 0.0087744472548365593
0.86497634649276733 0.71289527416229248 0.0065280240960419178
0.91351085901260376 0.71791344881057739 0.0046522850170731544
0.95172852277755737 0.72312670946121216 0.0076518487185239792
0.98504626750946045 0.73213028907775879 0.02396576851606369
0.083445511758327484 0.76027959585189819 0.14123161137104034
0.12362413853406906 0.75810462236404419 0.14233611524105072
0.21194882690906525 0.75490540266036987 0.14629869163036346
0.32135453820228577 0.75141680240631104 0.1550198495388031
0.43028834462165833 0.75079596042633057 0.15906132757663727
0.53311151266098022 0.75120997428894043 0.14990699291229248
0.63792997598648071 0.75166612863540649 0.13266411423683167
0.72939145565032959 0.75905722379684448 0.10165270417928696
0.79657536745071411 0.76473462581634521 0.076187342405319214
0.85606259107589722 0.77132713794708252 0.055319271981716156
0.90431737899780273 0.77620309591293335 0.053630590438842773
0.94384515285491943 0.77914899587631226 0.079572327435016632
0.97832810878753662 0.78235739469528198 0.12196311354637146
0.35024839639663696 0.81758207082748413 0.20525087416172028
0.37419402599334717 0.81606817245483398 0.20852619409561157
0.40780937671661377 0.81351923942565918 0.20866237580776215
0.4536471962928772 0.80945628881454468 0.21650031208992004
0.51933950185775757 0.80808436870574951 0.22895777225494385
0.59404265880584717 0.80932110548019409 0.22729998826980591
0.66858154535293579 0.81087517738342285 0.21664223074913025
0.73687899112701416 0.81295567750930786 0.20532678067684174
0.79515671730041504 0.81504756212234497 0.19479207694530487
0.84337174892425537 0.81926113367080688 0.18635402619838715
0.89176070690155029 0.82417106628417969 0.17530994117259979
0.93366777896881104 0.8268999457359314 0.19326560199260712
0.96830159425735474 0.82802426815032959 0.22610186040401459
0.52841740846633911 0.86166614294052124 0.29501384496688843
0.53302335739135742 0.85992497205734253 0.29425328969955444
0.54785388708114624 0.85661804676055908 0.29454195499420166
0.57464331388473511 0.85611522197723389 0.29776981472969055
0.61543649435043335 0.85572946071624756 0.30885538458824158
0.65668749809265137 0.85595130920410156 0.31453043222427368
0.70117753744125366 0.85645407438278198 0.31641390919685364
0.75025814771652222 0.8585394024848938 0.31521481275558472
0.79805535078048706 0.86136263608932495 0.31100711226463318
0.83999919891357422 0.86521369218826294 0.30592837929725647
0.88458609580993652 0.86783421039581299 0.29695531725883484
0.92612332105636597 0.8708382248878479 0.29630324244499207
0.95895659923553467 0.87198710441589355 0.32199797034263611
0.66167354583740234 0.8994213342666626 0.39237210154533386
0.65896725654602051 0.89684712886810303 0.38863161206245422
0.66951471567153931 0.89655870199203491 0.3895256519317627
0.68583154678344727 0.89513158798217773 0.39471587538719177
0.7059016227722168 0.89497548341751099 0.40167823433876038
0.72575479745864868 0.89497548341751099 0.40695598721504211
0.75664925575256348 0.89502578973770142 0.41111260652542114
0.78628075122833252 0.89683359861373901 0.41351249814033508
0.82094800472259521 0.90066045522689819 0.41317909955978394
0.85038918256759644 0.90395528078079224 0.41180366277694702
0.88667935132980347 0.90636545419692993 0.40933194756507874
0.92224013805389404 0.9070887565612793 0.40739351511001587
0.95007330179214478 0.90931057929992676 0.42293962836265564
0.75546848773956299 0.93350934982299805 0.48240810632705688
0.75434970855712891 0.93279355764389038 0.48137351870536804
0.75946521759033203 0.93276417255401611 0.48262938857078552
0.76732498407363892 0.9318077564239502 0.48671701550483704
0.77998310327529907 0.93218088150024414 0.49161922931671143
0.79361164569854736 0.93240261077880859 0.49689611792564392
0.81271374225616455 0.9323418140411377 0.50144737958908081
0.82847285270690918 0.93175959587097168 0.50353974103927612
0.85086697340011597 0.93462890386581421 0.50739264488220215
0.87103754281997681 0.93716508150100708 0.50807464122772217
0.89521777629852295 0.94021874666213989 0.5129706859588623
0.9190676212310791 0.94144690036773682 0.51607650518417358
0.94209188222885132 0.94379782676696777 0.52598649263381958
0 0.091236457228660583 0.14534920454025269
0.001814419636502862 0.097090840339660645 0.1478358656167984
0.0088696349412202835 0.10019984841346741 0.15036316215991974
0.082265652716159821 0.10987209528684616 0.1534506231546402
0.19735394418239594 0.12390727549791336 0.16029231250286102
0.32578837871551514 0.13475140929222107 0.16672590374946594
0.47926187515258789 0.15997126698493958 0.17498573660850525
0.64099514484405518 0.19238023459911346 0.17613096535205841
0.7888416051864624 0.24928636848926544 0.16910189390182495
0.89497178792953491 0.33802887797355652 0.15791527926921844
0.9608955979347229 0.43009805679321289 0.14938423037528992
0.99050581455230713 0.50370222330093384 0.16150444746017456
1 0.56280529499053955 0.18647314608097076
0 0.11814890801906586 0.15202988684177399
0.00092794379452243447 0.12411250919103622 0.15334968268871307
0.0119665851816535 0.12552915513515472 0.15434278547763824
0.099875673651695251 0.13440558314323425 0.15787018835544586
0.21177417039871216 0.14923481643199921 0.16263489425182343
0.33648940920829773 0.16453516483306885 0.16758500039577484
0.49016073346138 0.18889640271663666 0.17195992171764374
0.65031611919403076 0.21828772127628326 0.17196597158908844
0.78951340913772583 0.27990201115608215 0.16426765918731689
0.89378786087036133 0.36275592446327209 0.15389551222324371
0.95718765258789062 0.44674387574195862 0.14600938558578491
0.98973554372787476 0.51874101161956787 0.15924888849258423
1 0.57555592060089111 0.18672074377536774
0 0.16404546797275543 0.16149303317070007
0.00024446973111480474 0.16928914189338684 0.16247661411762238
0.013692399486899376 0.17082001268863678 0.16131968796253204
0.11500024050474167 0.17640843987464905 0.16074679791927338
0.23219262063503265 0.18931043148040771 0.1636042445898056
0.36026608943939209 0.20374095439910889 0.16551508009433746
0.50114977359771729 0.22694391012191772 0.166707843542099
0.65617316961288452 0.26251909136772156 0.16335852444171906
0.79023677110671997 0.32691895961761475 0.15235796570777893
0.88976341485977173 0.39988803863525391 0.13928069174289703
0.95324194431304932 0.47317647933959961 0.13426303863525391
0.9892876148223877 0.53951185941696167 0.14972984790802002
0.99959534406661987 0.59203380346298218 0.18034224212169647
0 0.23340813815593719 0.17077413201332092
0.0023675656411796808 0.23780761659145355 0.1714434027671814
0.0077848546206951141 0.23859158158302307 0.16928392648696899
0.10489603877067566 0.24524381756782532 0.1652388870716095
0.24661687016487122 0.25585862994194031 0.16335184872150421
0.37924528121948242 0.26477721333503723 0.16046994924545288
0.52382594347000122 0.29136219620704651 0.15693406760692596
0.66506171226501465 0.32820859551429749 0.14918167889118195
0.7911713719367981 0.3852335512638092 0.13494528830051422
0.88456070423126221 0.45157787203788757 0.11396598070859909
0.94684332609176636 0.5115470290184021 0.10598848760128021
0.98355478048324585 0.5682673454284668 0.12428282201290131
0.9956631064414978 0.61424517631530762 0.16249619424343109
5.1341336074983701e-05 0.32959818840026855 0.17578904330730438
0.0015625747619196773 0.33293431997299194 0.17655974626541138
0.0047657685354351997 0.33162328600883484 0.17461718618869781
0.079584784805774689 0.33654651045799255 0.16984173655509949
0.24494306743144989 0.35407894849777222 0.16274692118167877
0.40385109186172485 0.36995300650596619 0.15252731740474701
0.55158716440200806 0.38779667019844055 0.14162427186965942
0.67964965105056763 0.41000264883041382 0.12252631038427353
0.7908661961555481 0.45266497135162354 0.097263231873512268
0.88133907318115234 0.50595366954803467 0.075033433735370636
0.94100469350814819 0.55606752634048462 0.069504514336585999
0.97669088840484619 0.6019858717918396 0.087751828134059906
0.99295401573181152 0.63741117715835571 0.1344541609287262
0 0.44069278240203857 0.17078335583209991
0.0002700356999412179 0.44341039657592773 0.17220166325569153
0.00098476035054773092 0.44366085529327393 0.17014949023723602
0.061660721898078918 0.44681450724601746 0.16648642718791962
0.24749641120433807 0.46313798427581787 0.15719650685787201
0.42080304026603699 0.4773842990398407 0.14215414226055145
0.57233142852783203 0.49522897601127625 0.11435572057962418
0.69450771808624268 0.51540899276733398 0.083383999764919281
0.79554009437561035 0.53930610418319702 0.051717676222324371
0.87414425611495972 0.56856489181518555 0.031341057270765305
0.93142145872116089 0.60058856010437012 0.026171380653977394
0.97329908609390259 0.63506996631622314 0.045351497828960419
0.99208086729049683 0.66292119026184082 0.097456373274326324
0.00045107671758159995 0.55957424640655518 0.15935118496417999
0.0010449877008795738 0.55919677019119263 0.16118861734867096
0.0025327196344733238 0.56258082389831543 0.15895968675613403
0.07301948219537735 0.56501156091690063 0.15664377808570862
0.2830888032913208 0.57345402240753174 0.15040923655033112
0.45031297206878662 0.57963091135025024 0.13526996970176697
0.58984410762786865 0.59542518854141235 0.10071828216314316
0.70760148763656616 0.61200225353240967 0.054808132350444794
0.80198359489440918 0.63102585077285767 0.025784781202673912
0.87172311544418335 0.64706480503082275 0.011905820108950138
0.92296391725540161 0.65868848562240601 0.011556318961083889
0.96456336975097656 0.67386215925216675 0.015226566232740879
0.99227380752563477 0.69236576557159424 0.059131234884262085
0.0037703870330005884 0.67386674880981445 0.1495489776134491
0.0054293912835419178 0.6687512993812561 0.15077477693557739
0.03216184675693512 0.67048293352127075 0.14820948243141174
0.18349748849868774 0.67158782482147217 0.15340514481067657
0.34759789705276489 0.67222338914871216 0.15180028975009918
0.48919025063514709 0.67555022239685059 0.13786493241786957
0.61041706800460815 0.68492805957794189 0.11040133237838745
0.71741956472396851 0.69539517164230347 0.072717584669589996
0.80504691600799561 0.70883858203887939 0.037990525364875793
0.86607342958450317 0.71746152639389038 0.027372293174266815
0.91327226161956787 0.72193855047225952 0.033352602273225784
0.95317161083221436 0.72515064477920532 0.040892507880926132
0.98725396394729614 0.73081356287002563 0.064550362527370453
0.1194792240858078 0.76255285739898682 0.16693763434886932
0.16618098318576813 0.76136910915374756 0.16745953261852264
0.25130891799926758 0.75778955221176147 0.17164663970470428
0.346038818359375 0.75329840183258057 0.18164633214473724
0.44323143362998962 0.75052493810653687 0.18808218836784363
0.54314249753952026 0.75159299373626709 0.18095968663692474
0.63901573419570923 0.75199019908905029 0.16489987075328827
0.73364090919494629 0.75853568315505981 0.14013445377349854
0.80208438634872437 0.76625919342041016 0.11567665636539459
0.85776710510253906 0.77314013242721558 0.10142889618873596
0.90331083536148071 0.77752292156219482 0.10766568779945374
0.94229084253311157 0.77923989295959473 0.12265899032354355
0.97812777757644653 0.78182381391525269 0.15553198754787445
0.37353613972663879 0.8184744119644165 0.22886611521244049
0.39450716972351074 0.81667900085449219 0.23066841065883636
0.42950546741485596 0.81568700075149536 0.23316967487335205
0.47413966059684753 0.80974817276000977 0.24453169107437134
0.53965801000595093 0.80835896730422974 0.25338947772979736
0.60348027944564819 0.80965960025787354 0.25458475947380066
0.67654275894165039 0.80993032455444336 0.24392826855182648
0.74638575315475464 0.81256723403930664 0.2316022515296936
0.79737973213195801 0.81654655933380127 0.22587631642818451
0.84566009044647217 0.82126092910766602 0.21823941171169281
0.89379036426544189 0.82639002799987793 0.20664149522781372
0.93310844898223877 0.82824575901031494 0.22297990322113037
0.96732443571090698 0.82820075750350952 0.24994412064552307
0.53889590501785278 0.86088079214096069 0.31016373634338379
0.54313284158706665 0.85975837707519531 0.31150206923484802
0.56094658374786377 0.85648113489151001 0.31655669212341309
0.59107005596160889 0.85586202144622803 0.32002347707748413
0.6305917501449585 0.85511225461959839 0.32964897155761719
0.66927057504653931 0.85595154762268066 0.33408346772193909
0.71228122711181641 0.85818296670913696 0.33512386679649353
0.75907218456268311 0.85968226194381714 0.33420726656913757
0.80299711227416992 0.86265617609024048 0.33286437392234802
0.84303176403045654 0.86459261178970337 0.32565972208976746
0.88770931959152222 0.8679734468460083 0.31290778517723083
0.92626029253005981 0.87098634243011475 0.31783458590507507
0.95722442865371704 0.87155139446258545 0.33692830801010132
0.66281616687774658 0.89880079030990601 0.40084454417228699
0.66167354583740234 0.89597553014755249 0.39912402629852295
0.67300289869308472 0.89498502016067505 0.4022064208984375
0.69169855117797852 0.89497607946395874 0.40887013077735901
0.71051836013793945 0.89497548341751099 0.4146638810634613
0.73371148109436035 0.89498817920684814 0.41839119791984558
0.76180130243301392 0.89613610506057739 0.42371854186058044
0.79202497005462646 0.89866620302200317 0.42656424641609192
0.82308614253997803 0.90124404430389404 0.42530921101570129
0.85193687677383423 0.90365117788314819 0.42171183228492737
0.88611692190170288 0.90568357706069946 0.41859996318817139
0.92121964693069458 0.9070507287979126 0.42060643434524536
0.94816195964813232 0.90993964672088623 0.42615211009979248
0.75497448444366455 0.93307667970657349 0.48769465088844299
0.75545954704284668 0.93281722068786621 0.48765864968299866
0.75993174314498901 0.93219810724258423 0.48948872089385986
0.76967215538024902 0.93197035789489746 0.49367833137512207
0.78079956769943237 0.93206870555877686 0.49708211421966553
0.79538607597351074 0.93195515871047974 0.50179415941238403
0.81226718425750732 0.93266242742538452 0.50987255573272705
0.83048290014266968 0.93393337726593018 0.51182174682617188
0.85109364986419678 0.93654763698577881 0.51420503854751587
0.87166076898574829 0.93780523538589478 0.5128706693649292
0.89405745267868042 0.93941241502761841 0.51676207780838013
0.91902381181716919 0.94143557548522949 0.52207869291305542
0.94183111190795898 0.94393515586853027 0.52895140647888184
0 0.099939815700054169 0.16652201116085052
0.00034077963209711015 0.10688970237970352 0.16598187386989594
0.0051377988420426846 0.11192713677883148 0.16787852346897125
0.069139845669269562 0.12127111107110977 0.1728445291519165
0.19413915276527405 0.13206227123737335 0.18107271194458008
0.32895392179489136 0.13937710225582123 0.18804043531417847
0.48884457349777222 0.15892483294010162 0.19703404605388641
0.65653634071350098 0.20484721660614014 0.20559529960155487
0.80325925350189209 0.27435752749443054 0.20860603451728821
0.9007575511932373 0.36011093854904175 0.20553997159004211
0.96041524410247803 0.44970116019248962 0.20787575840950012
0.98866146802902222 0.52316617965698242 0.22412827610969543
0.99986875057220459 0.58175742626190186 0.24691405892372131
0 0.12722858786582947 0.17333659529685974
0.0028088737744837999 0.13475535809993744 0.1750587671995163
0.010043843649327755 0.1372656524181366 0.17633056640625
0.090086571872234344 0.14763680100440979 0.18024268746376038
0.2142174243927002 0.16200950741767883 0.18660776317119598
0.34643831849098206 0.17308875918388367 0.19271707534790039
0.50505602359771729 0.20237210392951965 0.20135973393917084
0.66606515645980835 0.24098706245422363 0.20451784133911133
0.80395412445068359 0.3052946925163269 0.20470443367958069
0.899436354637146 0.38559684157371521 0.20289677381515503
0.95830231904983521 0.4655037522315979 0.20358565449714661
0.98935216665267944 0.53726071119308472 0.21962657570838928
0.99974852800369263 0.5917433500289917 0.24500599503517151
0 0.17004747688770294 0.18154801428318024
0.00088297523325309157 0.17557506263256073 0.18371883034706116
0.017289105802774429 0.17931158840656281 0.18516853451728821
0.12292688339948654 0.188630610704422 0.18584655225276947
0.24193188548088074 0.20195029675960541 0.18975037336349487
0.37417179346084595 0.22067166864871979 0.19506025314331055
0.52009588479995728 0.24967622756958008 0.19958038628101349
0.6730421781539917 0.29098120331764221 0.19980685412883759
0.80265748500823975 0.35245215892791748 0.1947435736656189
0.89596301317214966 0.42294105887413025 0.1913159191608429
0.95473986864089966 0.49128690361976624 0.19478395581245422
0.98961150646209717 0.55484676361083984 0.20809319615364075
0.99917763471603394 0.60530412197113037 0.2370440810918808
0.00015227374387905002 0.23973256349563599 0.19068293273448944
0.0014029708690941334 0.24234423041343689 0.19286954402923584
0.021628450602293015 0.24444817006587982 0.19336432218551636
0.13305145502090454 0.25458961725234985 0.19220848381519318
0.26275816559791565 0.26322439312934875 0.19087231159210205
0.3974403440952301 0.27746772766113281 0.19005472958087921
0.53775501251220703 0.30521968007087708 0.18843834102153778
0.68109464645385742 0.34949082136154175 0.18414565920829773
0.80383753776550293 0.40557515621185303 0.1757100522518158
0.89224350452423096 0.46784213185310364 0.17182551324367523
0.95101124048233032 0.52690309286117554 0.17505577206611633
0.98481231927871704 0.58045279979705811 0.19285391271114349
0.99676346778869629 0.62360233068466187 0.22478006780147552
0.0013720194110646844 0.33642002940177917 0.19551479816436768
0.0042759315110743046 0.33996114134788513 0.19898205995559692
0.017127975821495056 0.3389325737953186 0.19780910015106201
0.12677796185016632 0.3463171124458313 0.19604353606700897
0.27428707480430603 0.36307376623153687 0.19108591973781586
0.42046669125556946 0.37452894449234009 0.18261869251728058
0.56171685457229614 0.38896951079368591 0.17282196879386902
0.69064104557037354 0.4157927930355072 0.16199058294296265
0.80414003133773804 0.46368911862373352 0.14911051094532013
0.88492745161056519 0.51616066694259644 0.14288975298404694
0.94413435459136963 0.56602543592453003 0.14525119960308075
