luts/instant_consumer/polaroid_px-680_-.cube
# Created by: G'MIC (https://gmic.eu)
TITLE "polaroid_px-680_-"
# LUT size
LUT_3D_SIZE 5
# Data domain
DOMAIN_MIN 0.0 0.0 0.0
DOMAIN_MAX 1.0 1.0 1.0
# LUT data points
0.0039052178617566824 0.12126971781253815 0.16582313179969788
0.1385662704706192 0.11345003545284271 0.16580268740653992
0.52457261085510254 0.13584053516387939 0.17239768803119659
0.84890598058700562 0.29201307892799377 0.19410593807697296
0.97544324398040771 0.49008160829544067 0.29543367028236389
0.000687647785525769 0.20684316754341125 0.17740762233734131
0.13984082639217377 0.23340168595314026 0.17492325603961945
0.56243091821670532 0.29536670446395874 0.15891292691230774
0.83544707298278809 0.40238803625106812 0.18360760807991028
0.96636730432510376 0.54151827096939087 0.29427018761634827
0 0.49131262302398682 0.19696557521820068
0.0069646197371184826 0.5095827579498291 0.19910719990730286
0.49969345331192017 0.5755305290222168 0.19018305838108063
0.79851293563842773 0.6015591025352478 0.19149577617645264
0.93870997428894043 0.63063687086105347 0.26581430435180664
0.0014444089028984308 0.70580005645751953 0.26921603083610535
0.0091091683134436607 0.71068847179412842 0.28285816311836243
0.44069090485572815 0.73042970895767212 0.31813743710517883
0.71455472707748413 0.76751959323883057 0.35048821568489075
0.89503395557403564 0.80404609441757202 0.41101211309432983
0.44476273655891418 0.87902659177780151 0.4765375554561615
0.49496665596961975 0.87821483612060547 0.48164525628089905
0.60910362005233765 0.88496148586273193 0.50980091094970703
0.75114494562149048 0.90067881345748901 0.54328864812850952
0.86830538511276245 0.91926687955856323 0.57970166206359863
0.0034794677048921585 0.11952695995569229 0.2332080751657486
0.14826986193656921 0.13908898830413818 0.2353605180978775
0.54920691251754761 0.094369493424892426 0.28415727615356445
0.85120278596878052 0.35984370112419128 0.36766591668128967
0.94892352819442749 0.57355296611785889 0.45170533657073975
0.00222166464664042 0.23314228653907776 0.26581296324729919
0.21912127733230591 0.26640799641609192 0.2869504988193512
0.60452234745025635 0.34248274564743042 0.31887120008468628
0.83266359567642212 0.48295804858207703 0.37211626768112183
0.94124704599380493 0.61375290155410767 0.44656163454055786
0.0090828835964202881 0.52186107635498047 0.31677618622779846
0.11332781612873077 0.53983324766159058 0.31375402212142944
0.55299639701843262 0.59233647584915161 0.34188574552536011
0.79980325698852539 0.61041486263275146 0.34710502624511719
0.92696094512939453 0.66939735412597656 0.41104188561439514
0.015326106920838356 0.71511161327362061 0.35377579927444458
0.1885807067155838 0.71924972534179688 0.36312752962112427
0.49522191286087036 0.73373866081237793 0.39778304100036621
0.74049884080886841 0.77596575021743774 0.43234050273895264
0.89194738864898682 0.80182152986526489 0.46923384070396423
0.46805477142333984 0.87868326902389526 0.49910187721252441
0.51757633686065674 0.88029229640960693 0.50816410779953003
0.62331843376159668 0.88557732105255127 0.533355712890625
0.75785905122756958 0.89859127998352051 0.56674516201019287
0.87042713165283203 0.91738629341125488 0.60160082578659058
0.060771733522415161 0.16823658347129822 0.45421835780143738
0.3547133207321167 0.21921445429325104 0.47227761149406433
0.61249446868896484 0.37423071265220642 0.48988419771194458
0.81538897752761841 0.38938805460929871 0.51671010255813599
0.93994510173797607 0.58004772663116455 0.55962765216827393
0.025788445025682449 0.32418575882911682 0.48599213361740112
0.35871019959449768 0.3710097074508667 0.49817755818367004
0.63249421119689941 0.49814379215240479 0.5137287974357605
0.80925881862640381 0.53867524862289429 0.5316433310508728
0.93051707744598389 0.65594696998596191 0.57771629095077515
0.010943274013698101 0.54128944873809814 0.47015994787216187
0.3189578652381897 0.56074279546737671 0.48408985137939453
0.63215583562850952 0.62915503978729248 0.5226709246635437
0.79726427793502808 0.67572712898254395 0.54905778169631958
0.91105037927627563 0.7399824857711792 0.57993084192276001
0.32286286354064941 0.70955705642700195 0.48224568367004395
0.43975615501403809 0.72032397985458374 0.49815723299980164
0.59126049280166626 0.74281817674636841 0.51847535371780396
0.76062828302383423 0.77481341361999512 0.54602187871932983
0.89567029476165771 0.80238860845565796 0.56108564138412476
0.53421550989151001 0.87713313102722168 0.55758774280548096
0.55141407251358032 0.87658476829528809 0.55461734533309937
0.63788962364196777 0.88591140508651733 0.57253992557525635
0.76227283477783203 0.89909094572067261 0.60517650842666626
0.87393486499786377 0.92080044746398926 0.64472836256027222
0.40842452645301819 0.35287365317344666 0.64160352945327759
0.54936659336090088 0.41425454616546631 0.64792424440383911
0.72283256053924561 0.58009523153305054 0.64830726385116577
0.81720775365829468 0.67440861463546753 0.65253424644470215
0.90580517053604126 0.67273741960525513 0.66688680648803711
0.40778857469558716 0.46021869778633118 0.64561682939529419
0.54131251573562622 0.52427530288696289 0.64592409133911133
0.72844177484512329 0.63693594932556152 0.65200728178024292
0.81390821933746338 0.70811551809310913 0.65906542539596558
0.9034920334815979 0.70623475313186646 0.67126739025115967
0.22700102627277374 0.59257405996322632 0.6161954402923584
0.42847290635108948 0.61092138290405273 0.62275576591491699
0.68676102161407471 0.68289434909820557 0.64572221040725708
0.8120540976524353 0.76388436555862427 0.67160135507583618
0.89973092079162598 0.76489698886871338 0.68298566341400146
0.32858037948608398 0.71808642148971558 0.58810526132583618
0.42930898070335388 0.72241723537445068 0.59331226348876953
0.61266350746154785 0.74536967277526855 0.61509233713150024
0.79156684875488281 0.81200343370437622 0.6635744571685791
0.8982081413269043 0.84495830535888672 0.69743973016738892
0.44018524885177612 0.86649340391159058 0.61400055885314941
0.50434541702270508 0.86902052164077759 0.61919534206390381
0.63869625329971313 0.87986856698989868 0.63927179574966431
0.76588314771652222 0.90043437480926514 0.67359894514083862
0.88310730457305908 0.92763477563858032 0.72646051645278931
0.6978183388710022 0.65894889831542969 0.78862273693084717
0.73403078317642212 0.67914533615112305 0.7844051718711853
0.80832207202911377 0.74110585451126099 0.78684091567993164
0.86295187473297119 0.80978715419769287 0.78326284885406494
0.89680510759353638 0.84501343965530396 0.78596431016921997
0.68611180782318115 0.68935328722000122 0.79164105653762817
0.72573012113571167 0.71198427677154541 0.78825706243515015
0.79862123727798462 0.7567514181137085 0.78334277868270874
0.86262118816375732 0.82257771492004395 0.78557103872299194
0.89628273248672485 0.85585659742355347 0.78879714012145996
0.62095075845718384 0.73638820648193359 0.78413921594619751
0.66983270645141602 0.74079227447509766 0.78337383270263672
0.77348148822784424 0.77859801054000854 0.78758132457733154
0.85477983951568604 0.84022647142410278 0.79276025295257568
0.88693058490753174 0.87252849340438843 0.79703658819198608
0.47964721918106079 0.80353522300720215 0.76855075359344482
0.52435362339019775 0.8018418550491333 0.76940423250198364
0.64756190776824951 0.80496501922607422 0.77647942304611206
0.82453703880310059 0.8542410135269165 0.79969751834869385
0.89843928813934326 0.90902823209762573 0.81766504049301147
0.49567985534667969 0.90580278635025024 0.76975983381271362
0.52809828519821167 0.90602284669876099 0.77120828628540039
0.61235624551773071 0.90913945436477661 0.77588367462158203
0.74718457460403442 0.91461580991744995 0.79200083017349243
0.89034950733184814 0.94295525550842285 0.83540505170822144
