luts/instant_consumer/polaroid_px-680_cold_+.cube
# Created by: G'MIC (https://gmic.eu)
TITLE "polaroid_px-680_cold_+"
# LUT size
LUT_3D_SIZE 7
# Data domain
DOMAIN_MIN 0.0 0.0 0.0
DOMAIN_MAX 1.0 1.0 1.0
# LUT data points
0.038663960993289948 0.20751115679740906 0.26061326265335083
0.051959678530693054 0.20866400003433228 0.25923585891723633
0.14705212414264679 0.20777693390846252 0.25882354378700256
0.36229583621025085 0.21754921972751617 0.25882354378700256
0.68072468042373657 0.25132104754447937 0.25394952297210693
0.88101446628570557 0.36589023470878601 0.24395444989204407
0.98051780462265015 0.48334091901779175 0.26753947138786316
0.029118362814188004 0.22016757726669312 0.25920063257217407
0.054994426667690277 0.22877222299575806 0.2598150372505188
0.17758610844612122 0.22755981981754303 0.25882354378700256
0.40942299365997314 0.25784128904342651 0.25554898381233215
0.69505339860916138 0.31337249279022217 0.24644771218299866
0.88225317001342773 0.41339358687400818 0.2425081729888916
0.97882962226867676 0.51721024513244629 0.27204170823097229
0.0003596436872612685 0.28870627284049988 0.25884529948234558
0.013561503030359745 0.29417616128921509 0.25898939371109009
0.19215044379234314 0.32509532570838928 0.25507095456123352
0.46556916832923889 0.37934288382530212 0.24213318526744843
0.70225769281387329 0.4182855486869812 0.22974018752574921
0.86793279647827148 0.48898637294769287 0.23509784042835236
0.9670560359954834 0.56166934967041016 0.26756405830383301
0 0.45373240113258362 0.25368174910545349
0.0029507356230169535 0.46060958504676819 0.25689238309860229
0.12091103196144104 0.48127985000610352 0.2504006028175354
0.45785173773765564 0.52555453777313232 0.23814032971858978
0.71977955102920532 0.5750051736831665 0.22885516285896301
0.85264259576797485 0.5813862681388855 0.23363722860813141
0.95318198204040527 0.61767888069152832 0.26626315712928772
0.00079559627920389175 0.61276811361312866 0.26108089089393616
0.0035897947382181883 0.60715591907501221 0.26730543375015259
0.11075719445943832 0.61748379468917847 0.26409655809402466
0.44823798537254333 0.64246392250061035 0.26828292012214661
0.67881160974502563 0.6701539158821106 0.27450400590896606
0.84991544485092163 0.70335036516189575 0.29542937874794006
0.93809771537780762 0.70790183544158936 0.33109232783317566
0.10388162732124329 0.72645848989486694 0.30131280422210693
0.16795960068702698 0.7218174934387207 0.30214351415634155
0.34202420711517334 0.72352582216262817 0.31881159543991089
0.51953011751174927 0.73107451200485229 0.33601361513137817
0.68680292367935181 0.7479557991027832 0.36329972743988037
0.82446587085723877 0.7656017541885376 0.38883292675018311
0.92900776863098145 0.78728300333023071 0.43753513693809509
0.56161463260650635 0.81870025396347046 0.43671274185180664
0.5765264630317688 0.81670308113098145 0.44108539819717407
0.62807309627532959 0.81575196981430054 0.4544588029384613
0.70079869031906128 0.81932556629180908 0.47766613960266113
0.78474193811416626 0.82541573047637939 0.50546860694885254
0.86480152606964111 0.83257496356964111 0.54078048467636108
0.92660403251647949 0.84074431657791138 0.57279384136199951
0.030793238431215286 0.21171997487545013 0.27234172821044922
0.057750910520553589 0.20943665504455566 0.26558950543403625
0.15143530070781708 0.20801675319671631 0.2655244767665863
0.38638526201248169 0.20696939527988434 0.27025216817855835
0.7057308554649353 0.26107046008110046 0.28069397807121277
0.88709956407546997 0.39100849628448486 0.29771554470062256
0.98175472021102905 0.51241755485534668 0.32939362525939941
0.026617670431733131 0.22022105753421783 0.26615926623344421
0.071611396968364716 0.22963842749595642 0.2691752016544342
0.19715449213981628 0.23848237097263336 0.27013576030731201
0.44302454590797424 0.25990453362464905 0.27339097857475281
0.72252029180526733 0.33235052227973938 0.28089436888694763
0.88831847906112671 0.43759411573410034 0.29535356163978577
0.97954809665679932 0.54025709629058838 0.33552649617195129
0.0035730248782783747 0.30427870154380798 0.27381908893585205
0.033976178616285324 0.31124970316886902 0.27436983585357666
0.22805066406726837 0.34088075160980225 0.27153140306472778
0.49852922558784485 0.38109257817268372 0.26674181222915649
0.71933460235595703 0.43178507685661316 0.26604047417640686
0.87167203426361084 0.50785261392593384 0.28469860553741455
0.96815890073776245 0.58049470186233521 0.32719820737838745
0.00022780474682804197 0.46715819835662842 0.27550745010375977
0.0041808481328189373 0.47260469198226929 0.27734410762786865
0.1715652197599411 0.4967133104801178 0.27715077996253967
0.49272435903549194 0.53782230615615845 0.27321293950080872
0.7280237078666687 0.58032500743865967 0.27133902907371521
0.8567090630531311 0.59050768613815308 0.27831020951271057
0.95589178800582886 0.62968498468399048 0.32028093934059143
0.0032020120415836573 0.61386191844940186 0.28760221600532532
0.0044471290893852711 0.61363106966018677 0.28774881362915039
0.20238396525382996 0.62703591585159302 0.29306825995445251
0.48039531707763672 0.65128463506698608 0.30226230621337891
0.70341867208480835 0.6792483925819397 0.31627044081687927
0.85500681400299072 0.70496606826782227 0.33873027563095093
0.93954753875732422 0.70925909280776978 0.36450976133346558
0.17310217022895813 0.72906702756881714 0.32297950983047485
0.23912546038627625 0.72591763734817505 0.32804468274116516
0.3861030638217926 0.72663527727127075 0.34231135249137878
0.54605543613433838 0.73596221208572388 0.36135205626487732
0.7033618688583374 0.74990177154541016 0.38673710823059082
0.8370475172996521 0.77056705951690674 0.41853943467140198
0.9304923415184021 0.78828078508377075 0.46388989686965942
0.57402133941650391 0.81967872381210327 0.45001897215843201
0.58813506364822388 0.81699389219284058 0.45641008019447327
0.63817822933197021 0.81813341379165649 0.46596437692642212
0.71092158555984497 0.82118713855743408 0.49022176861763
0.791634202003479 0.82652956247329712 0.51776683330535889
0.86667537689208984 0.83227682113647461 0.55156397819519043
0.9302060604095459 0.84243416786193848 0.58738559484481812
0.012715044431388378 0.2125842273235321 0.29292714595794678
0.068345807492733002 0.2143864780664444 0.29419025778770447
0.17064055800437927 0.22227479517459869 0.29175826907157898
0.39319154620170593 0.21098166704177856 0.31194046139717102
0.71868491172790527 0.19180358946323395 0.33885112404823303
0.90358614921569824 0.3582705557346344 0.37142357230186462
0.97784936428070068 0.55537110567092896 0.43252390623092651
0.0067527173087000847 0.23302669823169708 0.300260990858078
0.098116733133792877 0.23873151838779449 0.30510467290878296
0.2246241569519043 0.25398567318916321 0.31111839413642883
0.4668947160243988 0.26322591304779053 0.3289644718170166
0.74990230798721313 0.30716559290885925 0.35040104389190674
0.89764034748077393 0.4733119010925293 0.39299073815345764
0.97432762384414673 0.59416359663009644 0.4433477520942688
0.0033447565510869026 0.32442173361778259 0.31933119893074036
0.075152784585952759 0.33807569742202759 0.32469648122787476
0.30746734142303467 0.37220129370689392 0.33398711681365967
0.54897177219390869 0.40678280591964722 0.34601953625679016
0.75826483964920044 0.48133569955825806 0.36791345477104187
0.8832404613494873 0.55654728412628174 0.39474600553512573
0.96140182018280029 0.62242633104324341 0.43549618124961853
0.0089192260056734085 0.48375332355499268 0.33390799164772034
0.13879567384719849 0.49982219934463501 0.33801159262657166
0.31049740314483643 0.51884537935256958 0.34013634920120239
0.55322539806365967 0.55829399824142456 0.35160285234451294
0.74947893619537354 0.57948935031890869 0.35700869560241699
0.86662405729293823 0.61241680383682251 0.37530955672264099
0.95630860328674316 0.65768903493881226 0.41826906800270081
0.18055912852287292 0.63489985466003418 0.35330533981323242
0.20661836862564087 0.63292533159255981 0.34819439053535461
0.34209463000297546 0.63773930072784424 0.35123810172080994
0.53168690204620361 0.65653085708618164 0.36901548504829407
0.72112560272216797 0.68395519256591797 0.38701760768890381
0.85958635807037354 0.70071589946746826 0.40836989879608154
0.94152605533599854 0.70799416303634644 0.42501387000083923
0.32185089588165283 0.73015362024307251 0.37319430708885193
0.34646132588386536 0.72669780254364014 0.37405237555503845
0.44735127687454224 0.72987335920333862 0.3857269287109375
0.58531403541564941 0.73726087808609009 0.41126462817192078
0.72686564922332764 0.75292736291885376 0.43658429384231567
0.84805428981781006 0.77345365285873413 0.47307875752449036
0.93751543760299683 0.7893674373626709 0.50763362646102905
0.58966302871704102 0.81855857372283936 0.46995154023170471
0.60130804777145386 0.81804764270782471 0.47162041068077087
0.64993983507156372 0.81890743970870972 0.4843393862247467
0.72139567136764526 0.81917363405227661 0.50936031341552734
0.79909628629684448 0.8256603479385376 0.53807586431503296
0.86939215660095215 0.83242976665496826 0.57208991050720215
0.93192565441131592 0.8441045880317688 0.60750705003738403
0.014804600737988949 0.2234174907207489 0.37076646089553833
0.1474301815032959 0.23081287741661072 0.37784090638160706
0.32982820272445679 0.2575867772102356 0.38470298051834106
0.50229591131210327 0.3169267475605011 0.40134662389755249
0.70376574993133545 0.29555878043174744 0.42979979515075684
0.88625645637512207 0.37569338083267212 0.46203663945198059
0.97589606046676636 0.52681595087051392 0.491545170545578
0.027028117328882217 0.25430136919021606 0.39237713813781738
0.17831775546073914 0.27013459801673889 0.39549684524536133
0.376707524061203 0.31630474328994751 0.41148668527603149
0.55154252052307129 0.38601493835449219 0.4220912754535675
0.72591590881347656 0.374845951795578 0.44171684980392456
0.88495498895645142 0.45179006457328796 0.46958914399147034
0.97446686029434204 0.57366418838500977 0.50254124402999878
0.0070408391766250134 0.37605082988739014 0.41187942028045654
0.09185153990983963 0.38154298067092896 0.41409757733345032
0.39730748534202576 0.42289754748344421 0.43007028102874756
0.60021084547042847 0.49218809604644775 0.4433654248714447
0.75068891048431396 0.50300413370132446 0.45993956923484802
0.88209110498428345 0.56805408000946045 0.48824533820152283
0.96332371234893799 0.64484131336212158 0.52492767572402954
0.011186801828444004 0.50701236724853516 0.40495511889457703
0.16609370708465576 0.51529169082641602 0.40925416350364685
0.39141845703125 0.53608435392379761 0.42623209953308105
0.62284153699874878 0.5874817967414856 0.45360806584358215
0.77104562520980835 0.61975109577178955 0.47340106964111328
0.87641972303390503 0.65969568490982056 0.49884492158889771
0.95391857624053955 0.70133626461029053 0.53306382894515991
0.2308076024055481 0.62631142139434814 0.41113844513893127
0.31702840328216553 0.62669247388839722 0.41728749871253967
0.47613772749900818 0.64682853221893311 0.43475475907325745
0.62053495645523071 0.66913574934005737 0.45453906059265137
0.7586970329284668 0.69397872686386108 0.47594836354255676
0.87282896041870117 0.70862680673599243 0.48872339725494385
0.94650781154632568 0.72443008422851562 0.50256991386413574
0.45567348599433899 0.72780328989028931 0.44610169529914856
0.48582667112350464 0.72776544094085693 0.44900402426719666
0.54952806234359741 0.73364603519439697 0.45341244339942932
0.63401675224304199 0.74245649576187134 0.46749770641326904
0.74758660793304443 0.75550609827041626 0.49525484442710876
0.85627740621566772 0.7757880687713623 0.52524834871292114
0.94093555212020874 0.79061806201934814 0.55495971441268921
0.63653677701950073 0.81760913133621216 0.51752269268035889
0.64014017581939697 0.81590777635574341 0.51254141330718994
0.66957038640975952 0.81884646415710449 0.51601719856262207
0.72974604368209839 0.82167160511016846 0.53438794612884521
0.80252730846405029 0.82582390308380127 0.56260889768600464
0.87293875217437744 0.83399713039398193 0.60405570268630981
0.93544274568557739 0.84602254629135132 0.63545048236846924
0.20855678617954254 0.25488737225532532 0.5074647068977356
0.33321556448936462 0.27159470319747925 0.51236081123352051
0.5179404616355896 0.31896662712097168 0.52209323644638062
0.68410795927047729 0.45392575860023499 0.53169542551040649
0.78477942943572998 0.53071653842926025 0.54205495119094849
0.8638451099395752 0.52575331926345825 0.55079770088195801
0.95611196756362915 0.57492780685424805 0.57374036312103271
0.22436137497425079 0.31411948800086975 0.52135014533996582
0.34515619277954102 0.33734390139579773 0.52318793535232544
0.53110432624816895 0.38924241065979004 0.53255921602249146
0.69554418325424194 0.51498043537139893 0.54166108369827271
0.79044264554977417 0.57197165489196777 0.5479845404624939
0.8643835186958313 0.56303590536117554 0.55641794204711914
0.95657891035079956 0.60668200254440308 0.58046990633010864
0.17145079374313354 0.44387346506118774 0.52424168586730957
0.3085557222366333 0.44398176670074463 0.52653813362121582
0.516407310962677 0.4814775288105011 0.53556042909622192
0.70453637838363647 0.57617944478988647 0.54678052663803101
0.80079591274261475 0.63037902116775513 0.55806559324264526
0.87104028463363647 0.62480688095092773 0.5654759407043457
0.94730758666992188 0.64908212423324585 0.58861625194549561
0.049092281609773636 0.55605059862136841 0.50460010766983032
0.22341926395893097 0.55437570810317993 0.50570070743560791
0.44268614053726196 0.57097280025482178 0.51981037855148315
0.67267793416976929 0.62549465894699097 0.54511779546737671
0.80284196138381958 0.67484533786773682 0.56765580177307129
0.8770098090171814 0.68830591440200806 0.58294707536697388
0.94660288095474243 0.71413695812225342 0.61052918434143066
0.27983579039573669 0.64406657218933105 0.49066764116287231
0.35435783863067627 0.64725756645202637 0.49420136213302612
0.48323556780815125 0.65666657686233521 0.50534939765930176
0.64550471305847168 0.67636579275131226 0.5307726263999939
0.79703229665756226 0.71895700693130493 0.56823992729187012
0.88049143552780151 0.72990179061889648 0.58531135320663452
0.948028564453125 0.75857353210449219 0.61845368146896362
0.37744554877281189 0.71613574028015137 0.48707711696624756
0.42720606923103333 0.71827012300491333 0.4934181272983551
0.53296875953674316 0.7249482274055481 0.50332909822463989
0.67456144094467163 0.74261271953582764 0.53422945737838745
0.78453612327575684 0.76276808977127075 0.56449419260025024
0.87421166896820068 0.77866828441619873 0.59510481357574463
0.94286888837814331 0.78980332612991333 0.61453396081924438
0.61231875419616699 0.81322246789932251 0.55472433567047119
0.63033568859100342 0.81334346532821655 0.55833315849304199
0.68424326181411743 0.81435757875442505 0.56656193733215332
0.74922072887420654 0.82062894105911255 0.58137255907058716
0.811107337474823 0.82692617177963257 0.60274195671081543
0.88353681564331055 0.83612114191055298 0.64155125617980957
0.94373089075088501 0.84957242012023926 0.67828583717346191
0.48696950078010559 0.38075655698776245 0.63962757587432861
0.54848235845565796 0.40652748942375183 0.63592177629470825
0.66215294599533081 0.46450075507164001 0.6390959620475769
0.77983158826828003 0.57071375846862793 0.64475375413894653
0.85145682096481323 0.66387128829956055 0.64856338500976562
0.90038001537322998 0.69209003448486328 0.65698301792144775
0.93011003732681274 0.67517435550689697 0.6524621844291687
0.4906526505947113 0.44538718461990356 0.64346885681152344
0.55605506896972656 0.46614924073219299 0.64094316959381104
0.66452974081039429 0.5149606466293335 0.64004814624786377
0.78275483846664429 0.60531926155090332 0.6458166241645813
0.85476726293563843 0.685008704662323 0.65210705995559692
0.89971184730529785 0.70682704448699951 0.66020596027374268
0.93389242887496948 0.6921277642250061 0.65629583597183228
0.46207693219184875 0.52691078186035156 0.63628458976745605
0.52431482076644897 0.5334315299987793 0.63401442766189575
0.65297144651412964 0.57721138000488281 0.63798266649246216
0.778400719165802 0.64692574739456177 0.64573544263839722
0.86017334461212158 0.71295392513275146 0.66010487079620361
0.89951372146606445 0.72514837980270386 0.66206532716751099
0.93733888864517212 0.71736603975296021 0.66513043642044067
0.33496773242950439 0.61020690202713013 0.61293095350265503
0.42598193883895874 0.61109870672225952 0.61449688673019409
0.59233170747756958 0.63001888990402222 0.62583011388778687
0.74365341663360596 0.6722114086151123 0.64058476686477661
0.84830588102340698 0.72635841369628906 0.66193896532058716
0.90354883670806885 0.75354266166687012 0.67296534776687622
0.94438612461090088 0.75363874435424805 0.67806786298751831
0.34418401122093201 0.67729794979095459 0.59181791543960571
0.39948162436485291 0.67758274078369141 0.5943373441696167
0.51161915063858032 0.68092042207717896 0.60237163305282593
0.67052900791168213 0.69599848985671997 0.62060225009918213
0.82442998886108398 0.73619228601455688 0.65383589267730713
0.9069976806640625 0.77844440937042236 0.68369024991989136
0.94430559873580933 0.77775251865386963 0.69107532501220703
0.44307315349578857 0.73729628324508667 0.57948309183120728
0.47766974568367004 0.73616379499435425 0.57907760143280029
0.56223350763320923 0.73955619335174561 0.58743095397949219
0.67094665765762329 0.74856650829315186 0.60504186153411865
0.78682023286819458 0.76718181371688843 0.63307684659957886
0.89893561601638794 0.8046754002571106 0.68497854471206665
0.94964307546615601 0.81485885381698608 0.70466488599777222
0.50967013835906982 0.81191951036453247 0.58969706296920776
0.53353512287139893 0.81154733896255493 0.59094202518463135
0.6016542911529541 0.81204509735107422 0.59960085153579712
0.69663649797439575 0.81600689888000488 0.61850082874298096
0.80783069133758545 0.82372951507568359 0.65040314197540283
0.89744323492050171 0.83962666988372803 0.69406300783157349
0.95469218492507935 0.85416650772094727 0.727153480052948
0.72314906120300293 0.61765474081039429 0.74690461158752441
0.74042707681655884 0.62420797348022461 0.73925745487213135
0.78973186016082764 0.64947992563247681 0.73868483304977417
0.85083627700805664 0.69453483819961548 0.73698955774307251
0.89579290151596069 0.7381560206413269 0.7332838773727417
0.93168449401855469 0.78318494558334351 0.73715770244598389
0.94594556093215942 0.78546154499053955 0.7399141788482666
0.72146338224411011 0.64008361101150513 0.74474161863327026
0.74331021308898926 0.64628738164901733 0.74162000417709351
0.79282397031784058 0.66911870241165161 0.73763614892959595
0.85247886180877686 0.70660525560379028 0.73747611045837402
0.90011489391326904 0.74759852886199951 0.73612982034683228
0.93207091093063354 0.7837023138999939 0.73995375633239746
0.94845199584960938 0.79116564989089966 0.74302870035171509
0.70784151554107666 0.66493016481399536 0.74254107475280762
0.72783946990966797 0.66829508543014526 0.73949909210205078
0.78559893369674683 0.688029944896698 0.73842638731002808
0.84734147787094116 0.72328156232833862 0.73971033096313477
0.90019655227661133 0.76190584897994995 0.7392762303352356
0.92965793609619141 0.78803610801696777 0.73763138055801392
0.94844603538513184 0.79696255922317505 0.74304133653640747
0.6655692458152771 0.70019477605819702 0.7367779016494751
0.69063782691955566 0.69993525743484497 0.73473662137985229
0.75036895275115967 0.71071469783782959 0.73546516895294189
0.82509726285934448 0.73584103584289551 0.73576182126998901
0.89404308795928955 0.77209925651550293 0.74276411533355713
0.930530846118927 0.8028830885887146 0.74813377857208252
0.94896465539932251 0.81112045049667358 0.75204563140869141
0.54152423143386841 0.73294413089752197 0.72560501098632812
0.57088083028793335 0.73123461008071899 0.72558104991912842
0.65225178003311157 0.73298686742782593 0.72761237621307373
0.76712089776992798 0.74542415142059326 0.73269051313400269
0.86776125431060791 0.77390742301940918 0.74141818284988403
0.9271131157875061 0.80818670988082886 0.75433903932571411
0.95361679792404175 0.82287919521331787 0.76551294326782227
0.5849381685256958 0.78373181819915771 0.72008818387985229
0.59990900754928589 0.78240072727203369 0.71769386529922485
0.65047436952590942 0.780903160572052 0.72316062450408936
0.71950227022171021 0.78267800807952881 0.72708690166473389
0.81096106767654419 0.78935593366622925 0.73700988292694092
0.90728211402893066 0.81711292266845703 0.75807756185531616
0.9608415961265564 0.84160083532333374 0.78350818157196045
0.64215826988220215 0.83861380815505981 0.72486859560012817
0.65373075008392334 0.83736979961395264 0.72548103332519531
0.68733537197113037 0.83794039487838745 0.7286650538444519
0.74539017677307129 0.83813691139221191 0.73377299308776855
0.81295877695083618 0.8415449857711792 0.7424013614654541
0.88514173030853271 0.84293556213378906 0.75798153877258301
0.96328085660934448 0.866435706615448 0.7983282208442688
