luts/instant_consumer/polaroid_px-100uv+_cold_++.cube
# Created by: G'MIC (https://gmic.eu)
TITLE "polaroid_px-100uv+_cold_++"
# LUT size
LUT_3D_SIZE 7
# Data domain
DOMAIN_MIN 0.0 0.0 0.0
DOMAIN_MAX 1.0 1.0 1.0
# LUT data points
0.37490838766098022 0.41039717197418213 0.41960784792900085
0.37087014317512512 0.40781030058860779 0.41663044691085815
0.37719467282295227 0.41311752796173096 0.42329654097557068
0.39783433079719543 0.43263506889343262 0.44059866666793823
0.43532761931419373 0.46708264946937561 0.4710177481174469
0.49825972318649292 0.52521318197250366 0.52031755447387695
0.59281426668167114 0.61324548721313477 0.5926518440246582
0.37667766213417053 0.41190603375434875 0.42108500003814697
0.37518668174743652 0.41090252995491028 0.42074975371360779
0.38250827789306641 0.41776746511459351 0.42753714323043823
0.40202054381370544 0.43617337942123413 0.44423434138298035
0.43924462795257568 0.47068911790847778 0.47449588775634766
0.50338244438171387 0.52989071607589722 0.52461773157119751
0.59214490652084351 0.61195904016494751 0.59213101863861084
0.38859701156616211 0.42256313562393188 0.43159544467926025
0.38880914449691772 0.4227396547794342 0.43198302388191223
0.397012859582901 0.43021520972251892 0.43911102414131165
0.41456860303878784 0.44692340493202209 0.45444977283477783
0.44844067096710205 0.47860985994338989 0.48261982202529907
0.5102773904800415 0.53592431545257568 0.53048801422119141
0.59697705507278442 0.61592936515808105 0.595375657081604
0.41341012716293335 0.44512692093849182 0.45285332202911377
0.41350635886192322 0.44497087597846985 0.45270290970802307
0.42431238293647766 0.45430275797843933 0.46103945374488831
0.44066628813743591 0.46949636936187744 0.47528088092803955
0.46859070658683777 0.49627956748008728 0.49950796365737915
0.53016698360443115 0.55369234085083008 0.54625731706619263
0.61898857355117798 0.63554447889328003 0.61128038167953491
0.46308043599128723 0.49112170934677124 0.49324196577072144
0.46122545003890991 0.48947837948799133 0.49138125777244568
0.46830403804779053 0.49556243419647217 0.49615180492401123
0.4872591495513916 0.51261287927627563 0.51196223497390747
0.51842856407165527 0.54205608367919922 0.53807359933853149
0.5822681188583374 0.6012645959854126 0.58560729026794434
0.66964268684387207 0.68151110410690308 0.6482841968536377
0.56683194637298584 0.58751571178436279 0.57236254215240479
0.562724769115448 0.5844685435295105 0.56863820552825928
0.56048941612243652 0.58235985040664673 0.56659352779388428
0.58129477500915527 0.60063743591308594 0.58304440975189209
0.61793410778045654 0.63357746601104736 0.61155432462692261
0.6660035252571106 0.67825043201446533 0.64713335037231445
0.7287101149559021 0.73647379875183105 0.69206249713897705
0.72169440984725952 0.73167359828948975 0.68692046403884888
0.71543604135513306 0.72599148750305176 0.68212282657623291
0.7175452709197998 0.72760599851608276 0.68266922235488892
0.72526323795318604 0.73361694812774658 0.68920856714248657
0.74380481243133545 0.74976742267608643 0.70388144254684448
0.75845819711685181 0.76430267095565796 0.71548616886138916
0.78258198499679565 0.78751564025878906 0.73259282112121582
0.37723830342292786 0.41177403926849365 0.4225824773311615
0.37831559777259827 0.41300803422927856 0.42395973205566406
0.39060896635055542 0.42510589957237244 0.43420505523681641
0.41847908496856689 0.45117583870887756 0.45648467540740967
0.46300658583641052 0.492380291223526 0.49179241061210632
0.53216195106506348 0.55662935972213745 0.54537075757980347
0.62216472625732422 0.63939976692199707 0.61370158195495605
0.38393601775169373 0.41814976930618286 0.42757788300514221
0.38663631677627563 0.42096266150474548 0.43000376224517822
0.3986818790435791 0.43297401070594788 0.4400905966758728
0.42417162656784058 0.45714128017425537 0.46079438924789429
0.46661409735679626 0.49611455202102661 0.49480825662612915
0.53496509790420532 0.55829864740371704 0.5481640100479126
0.62407320737838745 0.64069199562072754 0.61501681804656982
0.4036274254322052 0.43648868799209595 0.44319561123847961
0.40720516443252563 0.44001895189285278 0.44599908590316772
0.41606664657592773 0.44853183627128601 0.45362648367881775
0.43614953756332397 0.46754249930381775 0.47063225507736206
0.47310701012611389 0.50182271003723145 0.50061970949172974
0.53791689872741699 0.56079047918319702 0.54982477426528931
0.62370401620864868 0.64038640260696411 0.61495673656463623
0.43517649173736572 0.46560519933700562 0.46938684582710266
0.43876627087593079 0.46854394674301147 0.47187769412994385
0.44578215479850769 0.47488898038864136 0.4777081310749054
0.46024346351623535 0.48861399292945862 0.49037575721740723
0.49071577191352844 0.51762884855270386 0.51550567150115967
0.548511803150177 0.57116532325744629 0.55907893180847168
0.63536685705184937 0.65102201700210571 0.62309056520462036
0.49163228273391724 0.51737129688262939 0.51482146978378296
0.49213874340057373 0.51780587434768677 0.51496344804763794
0.49709704518318176 0.52218455076217651 0.51860779523849487
0.5094599723815918 0.53366696834564209 0.52913480997085571
0.54007422924041748 0.56247740983963013 0.55372112989425659
0.59786546230316162 0.61607009172439575 0.59654265642166138
0.67753094434738159 0.68944835662841797 0.65448367595672607
0.59372341632843018 0.61171960830688477 0.59237241744995117
0.59041881561279297 0.60934829711914062 0.58978354930877686
0.59159582853317261 0.60997909307479858 0.59092521667480469
0.601909339427948 0.61938643455505371 0.59917944669723511
0.62957227230072021 0.64482492208480835 0.62063294649124146
0.6746334433555603 0.68647867441177368 0.65386277437210083
0.73244833946228027 0.74028176069259644 0.69530868530273438
0.73372888565063477 0.74132341146469116 0.69570475816726685
0.72902470827102661 0.73764103651046753 0.69270497560501099
0.72721385955810547 0.7357906699180603 0.69149166345596313
0.7301793098449707 0.73777741193771362 0.69424688816070557
0.74192792177200317 0.74844241142272949 0.70363622903823853
0.7601093053817749 0.7657889723777771 0.71728289127349854
0.78826802968978882 0.79252249002456665 0.73739540576934814
0.39433449506759644 0.4256744384765625 0.4368891716003418
0.39962977170944214 0.43142729997634888 0.44159165024757385
0.41532376408576965 0.44659274816513062 0.45398247241973877
0.44384023547172546 0.47331446409225464 0.47629508376121521
0.49309411644935608 0.51889270544052124 0.51447814702987671
0.57057636976242065 0.5903201699256897 0.57329100370407104
0.66166836023330688 0.67463171482086182 0.64159339666366577
0.40275728702545166 0.43481028079986572 0.44355139136314392
0.40989494323730469 0.44185042381286621 0.44900158047676086
0.42628428339958191 0.4578126072883606 0.46192163228988647
0.45401468873023987 0.48403823375701904 0.48400381207466125
0.50220721960067749 0.52814310789108276 0.52175039052963257
0.5807996392250061 0.60003447532653809 0.58186441659927368
0.66954571008682251 0.68158012628555298 0.64821481704711914
0.42341268062591553 0.45471134781837463 0.45963266491889954
0.43307033181190491 0.46387812495231628 0.4668947160243988
0.44735723733901978 0.47748693823814392 0.4781889021396637
0.47083938121795654 0.49970713257789612 0.49724018573760986
0.51444810628890991 0.54004758596420288 0.53180795907974243
0.58762651681900024 0.6069561243057251 0.58749324083328247
0.67113780975341797 0.68354302644729614 0.65008765459060669
0.46159180998802185 0.49008291959762573 0.49033531546592712
0.47387802600860596 0.50136524438858032 0.49927404522895813
0.48240631818771362 0.50930565595626831 0.5060955286026001
0.49821770191192627 0.52438127994537354 0.51929193735122681
0.53524339199066162 0.55903023481369019 0.54832392930984497
0.5989832878112793 0.61815905570983887 0.59632390737533569
0.6774560809135437 0.69018316268920898 0.65431112051010132
0.53990262746810913 0.56151396036148071 0.55086129903793335
0.54637318849563599 0.567893385887146 0.55593580007553101
0.54383206367492676 0.56548100709915161 0.55435866117477417
0.54991310834884644 0.57143640518188477 0.55976873636245728
0.58098697662353516 0.60072749853134155 0.58358705043792725
0.63595813512802124 0.6519474983215332 0.62475132942199707
0.70336270332336426 0.71427363157272339 0.67378658056259155
0.64628005027770996 0.6588815450668335 0.6297186017036438
0.64218050241470337 0.65581810474395752 0.62762635946273804
0.63786131143569946 0.65232455730438232 0.62526530027389526
0.63642001152038574 0.65097302198410034 0.62513679265975952
0.65673148632049561 0.67007654905319214 0.64094406366348267
0.69572728872299194 0.70675480365753174 0.66970473527908325
0.74461156129837036 0.75230807065963745 0.70513510704040527
0.76163917779922485 0.76504522562026978 0.71478003263473511
0.7562987208366394 0.76131099462509155 0.71246612071990967
0.75110018253326416 0.75689613819122314 0.70962876081466675
0.74635523557662964 0.75262713432312012 0.7070000171661377
0.75080037117004395 0.75712138414382935 0.71099406480789185
0.76756060123443604 0.77313792705535889 0.72340971231460571
0.79489827156066895 0.79884928464889526 0.74315053224563599
0.44369050860404968 0.47048836946487427 0.47611284255981445
0.45506027340888977 0.48173055052757263 0.48518851399421692
0.46962061524391174 0.49555966258049011 0.49660560488700867
0.48309683799743652 0.50725001096725464 0.50730615854263306
0.52608919143676758 0.54757905006408691 0.53982067108154297
0.60781258344650269 0.62412840127944946 0.60074448585510254
0.69916743040084839 0.7084815502166748 0.66871559619903564
0.4554080069065094 0.48308184742927551 0.48517137765884399
0.46510934829711914 0.49232977628707886 0.49247395992279053
0.48252695798873901 0.50836801528930664 0.50561219453811646
0.50409817695617676 0.52841401100158691 0.52271187305450439
0.54610621929168701 0.56741565465927124 0.55506050586700439
0.6279066801071167 0.64261507987976074 0.61689525842666626
0.71272987127304077 0.72058391571044922 0.67968398332595825
0.46968132257461548 0.49796372652053833 0.4965878427028656
0.48300018906593323 0.51000016927719116 0.50617563724517822
0.50261127948760986 0.52810317277908325 0.52074217796325684
0.52572739124298096 0.54950690269470215 0.53924417495727539
0.56615626811981201 0.58697402477264404 0.57073652744293213
0.64565581083297729 0.66002517938613892 0.63087612390518188
0.72137880325317383 0.72919130325317383 0.68658792972564697
0.49503105878829956 0.52214199304580688 0.5171205997467041
0.51578742265701294 0.54058945178985596 0.53171843290328979
0.53446733951568604 0.55778276920318604 0.54538357257843018
0.55607295036315918 0.5777362585067749 0.56257539987564087
0.59259456396102905 0.61197388172149658 0.59112316370010376
0.66349643468856812 0.67789644002914429 0.64417183399200439
0.72900784015655518 0.73740571737289429 0.69230568408966064
0.57541000843048096 0.59583783149719238 0.57812082767486572
0.58513551950454712 0.60446083545684814 0.58455991744995117
0.5942571759223938 0.61243784427642822 0.59137070178985596
0.60945975780487061 0.62651169300079346 0.60359185934066772
0.63827025890350342 0.65379983186721802 0.62576794624328613
0.68781405687332153 0.69994795322418213 0.66265696287155151
0.74045145511627197 0.74837386608123779 0.70135903358459473
0.68651860952377319 0.69610810279846191 0.65895050764083862
0.68279570341110229 0.69360435009002686 0.65779298543930054
0.6889534592628479 0.69951802492141724 0.66272389888763428
0.68870002031326294 0.69934993982315063 0.66390115022659302
0.69909298419952393 0.70963937044143677 0.67213732004165649
0.72729885578155518 0.73645669221878052 0.69317865371704102
0.76466947793960571 0.77081328630447388 0.72027945518493652
0.78213071823120117 0.78378880023956299 0.72933298349380493
0.77974671125411987 0.78242427110671997 0.72934186458587646
0.77958095073699951 0.78278082609176636 0.73057126998901367
0.7732042670249939 0.77730053663253784 0.72699463367462158
0.77016371488571167 0.77525156736373901 0.72550743818283081
0.78070127964019775 0.78542494773864746 0.73329395055770874
0.80236852169036865 0.80590236186981201 0.74918019771575928
0.55163085460662842 0.57085871696472168 0.5587460994720459
0.56090384721755981 0.58008843660354614 0.56629538536071777
0.57444268465042114 0.59294801950454712 0.57680314779281616
0.59296780824661255 0.60979288816452026 0.59110134840011597
0.62113749980926514 0.63646745681762695 0.61195898056030273
0.66115176677703857 0.67430788278579712 0.64068436622619629
0.72625738382339478 0.73402178287506104 0.68881762027740479
0.5613863468170166 0.58164751529693604 0.56617653369903564
0.56855607032775879 0.58787995576858521 0.57143855094909668
0.58382505178451538 0.60172063112258911 0.58298319578170776
0.6067192554473877 0.62248420715332031 0.60057973861694336
0.63188439607620239 0.64636683464050293 0.61934345960617065
0.66343075037002563 0.67662966251373291 0.6417919397354126
0.73557877540588379 0.74186563491821289 0.69565767049789429
0.57177484035491943 0.59299695491790771 0.57420080900192261
0.57892495393753052 0.59850615262985229 0.57880306243896484
0.59640246629714966 0.61370557546615601 0.59138649702072144
0.61900162696838379 0.63425242900848389 0.60874146223068237
0.64187610149383545 0.65591782331466675 0.62670546770095825
0.69096660614013672 0.70126581192016602 0.66336727142333984
0.7488366961479187 0.75413525104522705 0.70586514472961426
0.58370667695999146 0.60594546794891357 0.58461111783981323
0.59326422214508057 0.61270439624786377 0.58967703580856323
0.6148187518119812 0.63108187913894653 0.60470700263977051
0.64248102903366089 0.65602600574493408 0.62578928470611572
0.66680258512496948 0.67874246835708618 0.6450837254524231
0.71270889043807983 0.72179889678955078 0.67943114042282104
0.75966364145278931 0.76461225748062134 0.71424347162246704
0.61856049299240112 0.63822770118713379 0.61224555969238281
0.62587916851043701 0.64319324493408203 0.61457467079162598
0.65038734674453735 0.66416853666305542 0.63157141208648682
0.68110370635986328 0.69177955389022827 0.65530234575271606
0.70364624261856079 0.71320599317550659 0.67302000522613525
0.73377090692520142 0.74137455224990845 0.69597166776657104
0.76809746026992798 0.77312874794006348 0.72151726484298706
0.69854390621185303 0.71017241477966309 0.67037379741668701
0.70427030324935913 0.71447688341140747 0.67330759763717651
0.72462230920791626 0.73254698514938354 0.68820536136627197
0.7370302677154541 0.7438238263130188 0.6984063982963562
0.74295121431350708 0.74941712617874146 0.70357710123062134
0.75817084312438965 0.76407510042190552 0.71529155969619751
0.78180932998657227 0.78620225191116333 0.73306530714035034
0.78079831600189209 0.78485214710235596 0.7305571436882019
0.78546500205993652 0.78839570283889771 0.7338518500328064
0.79314661026000977 0.79571110010147095 0.74036401510238647
0.79240256547927856 0.79504352807998657 0.74062681198120117
0.78823429346084595 0.79155957698822021 0.73832088708877563
0.79254502058029175 0.79622173309326172 0.74208414554595947
0.80775666236877441 0.8103746771812439 0.75320935249328613
0.69311559200286865 0.70319747924804688 0.66612666845321655
0.6912156343460083 0.70112186670303345 0.66489642858505249
0.6983296275138855 0.70905780792236328 0.67032194137573242
0.71993577480316162 0.72954553365707397 0.68678897619247437
0.7376512885093689 0.74524807929992676 0.70010697841644287
0.74135619401931763 0.74829185009002686 0.70162737369537354
0.76418715715408325 0.76899600028991699 0.71786594390869141
0.69259512424468994 0.70407092571258545 0.66541594266891479
0.6924019455909729 0.7032475471496582 0.66577708721160889
0.70143365859985352 0.71044266223907471 0.671275794506073
0.72331482172012329 0.73011404275894165 0.68752658367156982
0.74637848138809204 0.75100022554397583 0.70521801710128784
0.74379187822341919 0.74999713897705078 0.70248961448669434
0.76640045642852783 0.76986074447631836 0.71847242116928101
0.70074230432510376 0.71185195446014404 0.67093825340270996
0.69733333587646484 0.70701664686203003 0.66766053438186646
0.70637720823287964 0.71400898694992065 0.6735302209854126
0.72640681266784668 0.73174905776977539 0.68797129392623901
0.74154007434844971 0.74575579166412354 0.69944244623184204
0.75059986114501953 0.75456255674362183 0.70617830753326416
0.77254194021224976 0.77449733018875122 0.72207093238830566
0.70829737186431885 0.71959465742111206 0.67684245109558105
0.70671433210372925 0.71614217758178711 0.67403745651245117
0.71756350994110107 0.72412568330764771 0.68060111999511719
0.74032998085021973 0.74419838190078735 0.69710648059844971
0.75516080856323242 0.75806957483291626 0.70868664979934692
0.76233518123626709 0.76531201601028442 0.714741051197052
0.78068524599075317 0.78233903646469116 0.72874492406845093
0.71109569072723389 0.72287648916244507 0.68037444353103638
0.7220534086227417 0.73034614324569702 0.68549120426177979
0.73427605628967285 0.74002063274383545 0.69317305088043213
0.75238573551177979 0.75602716207504272 0.70669829845428467
0.76378601789474487 0.766754150390625 0.71601980924606323
0.77184975147247314 0.7746436595916748 0.7230333685874939
0.78699290752410889 0.78897106647491455 0.73467129468917847
0.73978978395462036 0.7481456995010376 0.70143705606460571
0.74939358234405518 0.75562852621078491 0.70666468143463135
0.76224279403686523 0.76631486415863037 0.71517825126647949
0.77203983068466187 0.77504456043243408 0.72289639711380005
0.7763703465461731 0.77919644117355347 0.72707074880599976
0.78129708766937256 0.78431028127670288 0.7318224310874939
0.79362571239471436 0.79620379209518433 0.74156874418258667
0.78724926710128784 0.79052048921585083 0.73594021797180176
0.79195255041122437 0.79441291093826294 0.73870575428009033
0.79833692312240601 0.80013537406921387 0.7430228590965271
0.80031388998031616 0.80138003826141357 0.7449384331703186
0.79899036884307861 0.80119222402572632 0.74518591165542603
0.80043512582778931 0.80269688367843628 0.74746477603912354
0.80990737676620483 0.81208175420761108 0.75491070747375488
0.79886257648468018 0.80024510622024536 0.74511522054672241
0.79525470733642578 0.79799348115921021 0.74288421869277954
0.79563486576080322 0.79887628555297852 0.74231243133544922
0.80324071645736694 0.80706250667572021 0.74836069345474243
0.80698084831237793 0.80998855829238892 0.75154674053192139
0.8021470308303833 0.80413281917572021 0.74700677394866943
0.80493772029876709 0.80560433864593506 0.74880301952362061
0.79570764303207397 0.79739975929260254 0.74295246601104736
0.79201257228851318 0.79375165700912476 0.73982763290405273
0.79208147525787354 0.79354506731033325 0.73852741718292236
0.79671776294708252 0.79785764217376709 0.7412835955619812
0.80466979742050171 0.80487501621246338 0.74740946292877197
0.80174702405929565 0.80170273780822754 0.74515163898468018
0.80442780256271362 0.80391812324523926 0.74678987264633179
0.79384309053421021 0.79577040672302246 0.74145913124084473
0.78850191831588745 0.79001694917678833 0.73681777715682983
0.79166460037231445 0.79145985841751099 0.73688274621963501
0.79856604337692261 0.79749089479446411 0.74101024866104126
0.80352520942687988 0.80075657367706299 0.74495530128479004
0.80015558004379272 0.80011439323425293 0.74300843477249146
0.80400598049163818 0.80223965644836426 0.74509942531585693
0.79804867506027222 0.80038082599639893 0.74398314952850342
0.79520285129547119 0.79541820287704468 0.74033629894256592
0.79774928092956543 0.79651373624801636 0.74054276943206787
0.80426037311553955 0.802104651927948 0.74494808912277222
0.80690509080886841 0.80394625663757324 0.74641424417495728
0.80242079496383667 0.8003385066986084 0.74359691143035889
0.80559486150741577 0.80361706018447876 0.74637693166732788
0.79230040311813354 0.79528290033340454 0.7398187518119812
0.80016005039215088 0.79985356330871582 0.7443317174911499
0.80240225791931152 0.80004215240478516 0.7445407509803772
0.804035484790802 0.80191940069198608 0.7445942759513855
0.80366742610931396 0.80220067501068115 0.74509274959564209
0.80154204368591309 0.80025887489318848 0.74436277151107788
0.80597877502441406 0.80493110418319702 0.74832385778427124
0.79085522890090942 0.79290390014648438 0.73829227685928345
0.7978283166885376 0.79862552881240845 0.74241018295288086
0.80102109909057617 0.80107837915420532 0.74396973848342896
0.80245095491409302 0.80180919170379639 0.74445933103561401
0.80151456594467163 0.80091738700866699 0.74485498666763306
0.80058592557907104 0.80078881978988647 0.74542748928070068
0.80628234148025513 0.80654990673065186 0.75040632486343384
0.80525511503219604 0.80622917413711548 0.74925124645233154
0.80880361795425415 0.80900704860687256 0.75119906663894653
0.81079471111297607 0.81041544675827026 0.75184518098831177
0.80977582931518555 0.8096848726272583 0.75149255990982056
0.80992072820663452 0.80983984470367432 0.75262963771820068
0.80943125486373901 0.81013816595077515 0.75353515148162842
0.81505000591278076 0.8157380223274231 0.75836020708084106
