luts/instant_consumer/polaroid_px-70_++.cube
# Created by: G'MIC (https://gmic.eu)
TITLE "polaroid_px-70_++"
# LUT size
LUT_3D_SIZE 5
# Data domain
DOMAIN_MIN 0.0 0.0 0.0
DOMAIN_MAX 1.0 1.0 1.0
# LUT data points
0.21085456013679504 0.32004919648170471 0.25929510593414307
0.22842387855052948 0.31964138150215149 0.25995439291000366
0.36376681923866272 0.32360497117042542 0.25886785984039307
0.78174936771392822 0.37194311618804932 0.239667147397995
0.97158235311508179 0.52236193418502808 0.23933762311935425
0.20902422070503235 0.33698832988739014 0.25882354378700256
0.24652746319770813 0.34531670808792114 0.25946769118309021
0.43304681777954102 0.36590960621833801 0.25190481543540955
0.80737411975860596 0.44808307290077209 0.22322362661361694
0.96610796451568604 0.57690262794494629 0.2378857433795929
0.15969109535217285 0.51810044050216675 0.24124948680400848
0.27868255972862244 0.51604592800140381 0.24245589971542358
0.55130410194396973 0.55431360006332397 0.22568514943122864
0.82555902004241943 0.61569464206695557 0.19614498317241669
0.94220805168151855 0.65734845399856567 0.22625419497489929
0.4454919695854187 0.76942926645278931 0.27621155977249146
0.5032808780670166 0.76137959957122803 0.28058519959449768
0.654246985912323 0.76570534706115723 0.29098078608512878
0.81457877159118652 0.77728700637817383 0.29381087422370911
0.90816307067871094 0.79325616359710693 0.34028476476669312
0.78203970193862915 0.86268079280853271 0.47007608413696289
0.78851109743118286 0.86236691474914551 0.47041717171669006
0.81716221570968628 0.86252909898757935 0.48168927431106567
0.85373693704605103 0.86345362663269043 0.49014836549758911
0.89051014184951782 0.8657497763633728 0.50422686338424683
0.21568627655506134 0.32346591353416443 0.26740133762359619
0.23330970108509064 0.32162249088287354 0.26722514629364014
0.38926416635513306 0.31756329536437988 0.27224639058113098
0.82408446073532104 0.36767175793647766 0.28287658095359802
0.9676784873008728 0.57358306646347046 0.33427226543426514
0.21574282646179199 0.34777200222015381 0.2711828351020813
0.25813329219818115 0.34826606512069702 0.27229422330856323
0.48552191257476807 0.36957457661628723 0.27460375428199768
0.83251184225082397 0.46928203105926514 0.28055062890052795
0.95890974998474121 0.61035621166229248 0.32777896523475647
0.25473606586456299 0.54158806800842285 0.27924689650535583
0.33772635459899902 0.53658318519592285 0.27754992246627808
0.58698707818984985 0.56736278533935547 0.27111607789993286
0.83663827180862427 0.6195794939994812 0.26431620121002197
0.93890887498855591 0.67894697189331055 0.31114962697029114
0.51589477062225342 0.77611082792282104 0.33093410730361938
0.55556946992874146 0.76532679796218872 0.33168250322341919
0.68162083625793457 0.77024704217910767 0.34840571880340576
0.82022696733474731 0.78587192296981812 0.35060933232307434
0.90633362531661987 0.79281806945800781 0.38852465152740479
0.79105556011199951 0.86232984066009521 0.48186063766479492
0.798836350440979 0.86215686798095703 0.48232156038284302
0.82432091236114502 0.859791100025177 0.49176552891731262
0.85735678672790527 0.86365628242492676 0.50027328729629517
0.89186638593673706 0.8668023943901062 0.51502245664596558
0.23165343701839447 0.32420822978019714 0.3149048388004303
0.31033825874328613 0.33021348714828491 0.31960135698318481
0.48951518535614014 0.36518222093582153 0.3353094756603241
0.81874507665634155 0.36812618374824524 0.39229771494865417
0.96404922008514404 0.55941599607467651 0.42855122685432434
0.22025865316390991 0.37249583005905151 0.34258127212524414
0.33759921789169312 0.37534964084625244 0.34887295961380005
0.56669038534164429 0.44484785199165344 0.3634626567363739
0.84330803155899048 0.48048409819602966 0.40545341372489929
0.94480788707733154 0.65150958299636841 0.44626328349113464
0.29862716794013977 0.56193500757217407 0.37094563245773315
0.41743764281272888 0.56172662973403931 0.37344089150428772
0.6631089448928833 0.60471224784851074 0.39537966251373291
0.84743118286132812 0.67362326383590698 0.42179486155509949
0.91814589500427246 0.74908077716827393 0.45714962482452393
0.62555229663848877 0.7809637188911438 0.42828133702278137
0.66440451145172119 0.77659326791763306 0.43171769380569458
0.7424737811088562 0.77847528457641602 0.43928799033164978
0.83251571655273438 0.79107499122619629 0.44508621096611023
0.90533602237701416 0.79603451490402222 0.45235785841941833
0.81203192472457886 0.86154758930206299 0.50367003679275513
0.82035744190216064 0.86192554235458374 0.50619721412658691
0.83673977851867676 0.85930752754211426 0.50889080762863159
0.86509788036346436 0.86281949281692505 0.51631850004196167
0.8939247727394104 0.86530846357345581 0.52469223737716675
0.4301849901676178 0.35552740097045898 0.50694483518600464
0.55403417348861694 0.3778279721736908 0.50940662622451782
0.76634204387664795 0.50733458995819092 0.51322013139724731
0.86300647258758545 0.64761340618133545 0.51150959730148315
0.92624109983444214 0.66958808898925781 0.51386642456054688
0.41429513692855835 0.4417060911655426 0.51801496744155884
0.56672900915145874 0.47149837017059326 0.51866871118545532
0.77511656284332275 0.58955252170562744 0.5155913233757019
0.86069804430007935 0.70678532123565674 0.5136532187461853
0.91845333576202393 0.71987378597259521 0.51825898885726929
0.38839176297187805 0.62835842370986938 0.50478523969650269
0.51400220394134521 0.62910336256027222 0.50555402040481567
0.75920253992080688 0.68667805194854736 0.51310986280441284
0.85677295923233032 0.76230251789093018 0.51298046112060547
0.90575647354125977 0.77606076002120972 0.5191415548324585
0.63517469167709351 0.78204691410064697 0.50305867195129395
0.67946583032608032 0.7793501615524292 0.50651288032531738
0.76865661144256592 0.78656786680221558 0.50981366634368896
0.85087466239929199 0.80637258291244507 0.51694166660308838
0.89869040250778198 0.83668738603591919 0.52889508008956909
0.82115727663040161 0.86291265487670898 0.52846169471740723
0.82870197296142578 0.86127448081970215 0.52872228622436523
0.85093182325363159 0.86082607507705688 0.53118479251861572
0.87597334384918213 0.86188822984695435 0.53390371799468994
0.8981441855430603 0.86886471509933472 0.54273158311843872
0.75948715209960938 0.63885939121246338 0.58646482229232788
0.79388910531997681 0.66565114259719849 0.58037275075912476
0.85444152355194092 0.74392795562744141 0.56537067890167236
0.88848930597305298 0.81445634365081787 0.55352902412414551
0.90196079015731812 0.82837170362472534 0.55061274766921997
0.76745271682739258 0.68933248519897461 0.5795903205871582
0.80149263143539429 0.71154415607452393 0.57516539096832275
0.85358154773712158 0.76743060350418091 0.56288784742355347
0.88640791177749634 0.8189123272895813 0.55409574508666992
0.90159887075424194 0.84073936939239502 0.55072087049484253
0.75106096267700195 0.74698483943939209 0.57076245546340942
0.78128939867019653 0.75516670942306519 0.5664898157119751
0.84176403284072876 0.78936874866485596 0.5588386058807373
0.88528960943222046 0.83450090885162354 0.55152779817581177
0.899932861328125 0.84925782680511475 0.54831349849700928
0.73386389017105103 0.80596578121185303 0.55906647443771362
0.74531453847885132 0.80128389596939087 0.55766797065734863
0.8048548698425293 0.81086122989654541 0.55619382858276367
0.87476098537445068 0.84346860647201538 0.55256897211074829
0.90003317594528198 0.86389106512069702 0.5511709451675415
0.84415847063064575 0.86649578809738159 0.55016934871673584
0.8436388373374939 0.86414539813995361 0.54911333322525024
0.8620184063911438 0.86544382572174072 0.55125123262405396
0.88199365139007568 0.86497205495834351 0.55013942718505859
0.90139240026473999 0.87347579002380371 0.55376279354095459
