luts/instant_consumer/polaroid_px-680_++.cube
# Created by: G'MIC (https://gmic.eu)
TITLE "polaroid_px-680_++"
# LUT size
LUT_3D_SIZE 5
# Data domain
DOMAIN_MIN 0.0 0.0 0.0
DOMAIN_MAX 1.0 1.0 1.0
# LUT data points
0.22858864068984985 0.28242078423500061 0.27230739593505859
0.25681930780410767 0.28468137979507446 0.27202033996582031
0.40630361437797546 0.29361444711685181 0.27119001746177673
0.83590227365493774 0.37416872382164001 0.25031644105911255
0.97284579277038574 0.53454864025115967 0.28341555595397949
0.22947101294994354 0.30367538332939148 0.27450981736183167
0.25978401303291321 0.30834639072418213 0.27450981736183167
0.48779374361038208 0.35107439756393433 0.26311656832695007
0.83978211879730225 0.45823788642883301 0.23849581182003021
0.96265542507171631 0.58226007223129272 0.2846781313419342
0.085018247365951538 0.46635341644287109 0.26045233011245728
0.21557439863681793 0.47837328910827637 0.26068270206451416
0.53097784519195557 0.55437666177749634 0.24937431514263153
0.82347983121871948 0.62507551908493042 0.23862935602664948
0.94007068872451782 0.66253852844238281 0.28932136297225952
0.053833965212106705 0.70627045631408691 0.26715782284736633
0.25234034657478333 0.70229017734527588 0.2767598032951355
0.54256302118301392 0.71738529205322266 0.30649584531784058
0.78437089920043945 0.750296950340271 0.3706936240196228
0.91126519441604614 0.7742469310760498 0.44368058443069458
0.65771740674972534 0.81827884912490845 0.46103054285049438
0.68357586860656738 0.81506365537643433 0.46522426605224609
0.75804829597473145 0.81277096271514893 0.49227666854858398
0.84621095657348633 0.81658738851547241 0.52613598108291626
0.91870307922363281 0.822581946849823 0.57041245698928833
0.23809020221233368 0.28777742385864258 0.28743734955787659
0.25380405783653259 0.28763660788536072 0.28231626749038696
0.45184746384620667 0.27618485689163208 0.29528611898422241
0.86700975894927979 0.36645346879959106 0.32597795128822327
0.95702898502349854 0.59527742862701416 0.40806147456169128
0.23665353655815125 0.31022369861602783 0.28931844234466553
0.28200280666351318 0.32132944464683533 0.29300367832183838
0.56077104806900024 0.35909590125083923 0.30490979552268982
0.85612863302230835 0.48995158076286316 0.33421996235847473
0.94998902082443237 0.63384366035461426 0.40743070840835571
0.17346346378326416 0.50465750694274902 0.30442139506340027
0.26315191388130188 0.51556181907653809 0.29919549822807312
0.57756567001342773 0.57638907432556152 0.31300815939903259
0.82990181446075439 0.62308531999588013 0.32935982942581177
0.93188595771789551 0.68754613399505615 0.39261919260025024
0.23229023814201355 0.71542322635650635 0.3249773383140564
0.3528740406036377 0.71187585592269897 0.33316603302955627
0.58811914920806885 0.72597414255142212 0.3720671534538269
0.80447834730148315 0.75607109069824219 0.4269355833530426
0.91061002016067505 0.774616539478302 0.47549492120742798
0.667835533618927 0.81537675857543945 0.47881141304969788
0.69677013158798218 0.81373089551925659 0.48451131582260132
0.77230995893478394 0.81347602605819702 0.50848442316055298
0.85299932956695557 0.81835734844207764 0.53831392526626587
0.91926366090774536 0.82187598943710327 0.57716101408004761
0.25903046131134033 0.2932572066783905 0.34242811799049377
0.33534109592437744 0.30077406764030457 0.3589341938495636
0.57685548067092896 0.3627433180809021 0.41670891642570496
0.84951841831207275 0.37513646483421326 0.46297591924667358
0.95171469449996948 0.59641557931900024 0.50113672018051147
0.24112591147422791 0.34469881653785706 0.37118756771087646
0.36353260278701782 0.36280214786529541 0.39739814400672913
0.63849294185638428 0.47954863309860229 0.44476497173309326
0.85153424739837646 0.51374095678329468 0.47616815567016602
0.93415933847427368 0.66979867219924927 0.5172499418258667
0.22618038952350616 0.51663517951965332 0.40177437663078308
0.38030216097831726 0.54132223129272461 0.41830968856811523
0.6713564395904541 0.62183040380477905 0.46444776654243469
0.84286290407180786 0.68300378322601318 0.49267414212226868
0.92111420631408691 0.7383265495300293 0.52418047189712524
0.43502655625343323 0.71128445863723755 0.43622153997421265
0.53746312856674194 0.71970552206039429 0.44847676157951355
0.6743578314781189 0.73859095573425293 0.46892017126083374
0.82775634527206421 0.75911504030227661 0.50344079732894897
0.91094291210174561 0.77183246612548828 0.52471578121185303
0.71390074491500854 0.8120768666267395 0.51697701215744019
0.72644174098968506 0.81343090534210205 0.51838719844818115
0.78217220306396484 0.81479716300964355 0.53142327070236206
0.85963612794876099 0.81651842594146729 0.56631362438201904
0.92306506633758545 0.82224828004837036 0.5992811918258667
0.42394113540649414 0.3500063419342041 0.53583472967147827
0.55414563417434692 0.38809537887573242 0.54588931798934937
0.75853252410888672 0.55795812606811523 0.55973982810974121
0.86224913597106934 0.67167389392852783 0.57123410701751709
0.92127531766891479 0.68044036626815796 0.57801133394241333
0.42233765125274658 0.43545973300933838 0.54351717233657837
0.55940866470336914 0.47976282238960266 0.54769927263259888
0.7680167555809021 0.62589627504348755 0.55982190370559692
0.86393505334854126 0.70848113298416138 0.57379376888275146
0.91554838418960571 0.71888905763626099 0.58157289028167725
0.30115541815757751 0.55697512626647949 0.51298755407333374
0.45938670635223389 0.57827812433242798 0.52474617958068848
0.74048388004302979 0.67045384645462036 0.55496716499328613
0.86387056112289429 0.75062745809555054 0.57948875427246094
0.91205847263336182 0.75139355659484863 0.58572697639465332
0.45180496573448181 0.71130913496017456 0.51641333103179932
0.52595657110214233 0.71412879228591919 0.51975548267364502
0.70498228073120117 0.737204909324646 0.54176926612854004
0.85337013006210327 0.78014093637466431 0.57792496681213379
0.9224516749382019 0.79505866765975952 0.5988776683807373
0.65778738260269165 0.81076830625534058 0.54721689224243164
0.69471991062164307 0.81041675806045532 0.5521695613861084
0.78932005167007446 0.81306469440460205 0.56858575344085693
0.86471712589263916 0.81662154197692871 0.59408408403396606
0.93295824527740479 0.82313048839569092 0.62622827291488647
0.77244627475738525 0.66611194610595703 0.63837617635726929
0.80158394575119019 0.68367218971252441 0.63500893115997314
0.85898405313491821 0.73191434144973755 0.6322171688079834
0.90234988927841187 0.7801966667175293 0.63428306579589844
0.92806214094161987 0.79193007946014404 0.63817483186721802
0.77159839868545532 0.69132459163665771 0.63569909334182739
0.79945164918899536 0.70510447025299072 0.63312309980392456
0.85967648029327393 0.74752843379974365 0.63203805685043335
0.90437287092208862 0.78715264797210693 0.63500028848648071
0.92247194051742554 0.79614704847335815 0.63711225986480713
0.72127658128738403 0.71844351291656494 0.62700468301773071
0.76021236181259155 0.72467344999313354 0.62759017944335938
0.84003919363021851 0.75817078351974487 0.6308063268661499
0.89928299188613892 0.79240983724594116 0.63651877641677856
0.93407207727432251 0.80871641635894775 0.64256960153579712
0.62275117635726929 0.76207387447357178 0.61338609457015991
0.65378499031066895 0.75920158624649048 0.61261850595474243
0.75300008058547974 0.76378697156906128 0.61826819181442261
0.87623506784439087 0.79473543167114258 0.63309979438781738
0.93916845321655273 0.81859159469604492 0.65081995725631714
0.72736787796020508 0.82130813598632812 0.62457090616226196
0.7448040246963501 0.81940937042236328 0.62479943037033081
0.79789310693740845 0.82004803419113159 0.63058209419250488
0.86579984426498413 0.82038366794586182 0.63819664716720581
0.95128291845321655 0.82645958662033081 0.65988385677337646
