luts/instant_consumer/polaroid_px-70_cold_-.cube
# Created by: G'MIC (https://gmic.eu)
TITLE "polaroid_px-70_cold_-"
# LUT size
LUT_3D_SIZE 7
# Data domain
DOMAIN_MIN 0.0 0.0 0.0
DOMAIN_MAX 1.0 1.0 1.0
# LUT data points
0 0.11379973590373993 0.1851184219121933
0.0046854955144226551 0.12469083070755005 0.19034083187580109
0.17915172874927521 0.14477451145648956 0.20143270492553711
0.44006267189979553 0.18247802555561066 0.22052280604839325
0.71081650257110596 0.26013398170471191 0.23152582347393036
0.91231459379196167 0.40220221877098083 0.24177969992160797
0.9969819188117981 0.5284079909324646 0.27563172578811646
0 0.18335869908332825 0.205630823969841
0.0055792117491364479 0.19066277146339417 0.20525467395782471
0.20443835854530334 0.20485004782676697 0.20794549584388733
0.45495119690895081 0.2416391521692276 0.21873572468757629
0.71884077787399292 0.32429242134094238 0.225897416472435
0.90207421779632568 0.44641518592834473 0.23758843541145325
0.99496805667877197 0.5630379319190979 0.27574616670608521
2.8004365958622657e-05 0.33335518836975098 0.23652666807174683
0.0024912366643548012 0.34085333347320557 0.23506368696689606
0.19487455487251282 0.36168020963668823 0.22942787408828735
0.49170020222663879 0.38853669166564941 0.21929986774921417
0.71838927268981934 0.43379884958267212 0.21130551397800446
0.89536583423614502 0.525645911693573 0.21713416278362274
0.99022793769836426 0.61405205726623535 0.26274719834327698
0 0.5474931001663208 0.25669771432876587
0.0028407825157046318 0.54777693748474121 0.25777754187583923
0.17936453223228455 0.55915212631225586 0.24907390773296356
0.50637900829315186 0.58015573024749756 0.23398187756538391
0.73094040155410767 0.61358499526977539 0.21450319886207581
0.87676221132278442 0.63867545127868652 0.20840632915496826
0.9779389500617981 0.67584741115570068 0.23440322279930115
0.006167946383357048 0.73874819278717041 0.28685066103935242
0.050982099026441574 0.73897618055343628 0.28650259971618652
0.31249287724494934 0.73940515518188477 0.2914939820766449
0.54161620140075684 0.74383056163787842 0.28183376789093018
0.72772669792175293 0.75375306606292725 0.2656179666519165
0.86502450704574585 0.76758956909179688 0.25857812166213989
0.96085572242736816 0.77535790205001831 0.27950704097747803
0.39593032002449036 0.86163550615310669 0.37211742997169495
0.42712235450744629 0.85500448942184448 0.37383267283439636
0.50544887781143188 0.85253304243087769 0.38093051314353943
0.62452173233032227 0.85637062788009644 0.38252484798431396
0.74314385652542114 0.85780394077301025 0.37513583898544312
0.85571330785751343 0.86410558223724365 0.37165018916130066
0.95301419496536255 0.8715788722038269 0.38638487458229065
0.70101821422576904 0.9364311695098877 0.50291186571121216
0.70329380035400391 0.93369841575622559 0.50090235471725464
0.73135471343994141 0.9307931661605835 0.50697618722915649
0.77916240692138672 0.93299108743667603 0.51661044359207153
0.83376979827880859 0.93647396564483643 0.51735955476760864
0.89281892776489258 0.93794417381286621 0.5209077000617981
0.95091050863265991 0.94336259365081787 0.5296822190284729
0 0.12647372484207153 0.22936588525772095
0.0044520511291921139 0.14044015109539032 0.23201657831668854
0.1704556941986084 0.16091777384281158 0.24638983607292175
0.45486104488372803 0.20065654814243317 0.26993313431739807
0.73401165008544922 0.30225422978401184 0.29302427172660828
0.91285544633865356 0.43705981969833374 0.31465503573417664
0.99247026443481445 0.55881410837173462 0.34407156705856323
0 0.19459885358810425 0.2475903332233429
0.0075065311975777149 0.20682241022586823 0.25284454226493835
0.2130531519651413 0.22982947528362274 0.26125174760818481
0.4801209568977356 0.27549627423286438 0.27713397145271301
0.73310798406600952 0.36337178945541382 0.2906094491481781
0.91250526905059814 0.47996014356613159 0.30401965975761414
0.99698108434677124 0.58552688360214233 0.33975711464881897
0.0015543620102107525 0.35276314616203308 0.27622148394584656
0.0065003191120922565 0.35699257254600525 0.2781556248664856
0.22749176621437073 0.37404188513755798 0.27277091145515442
0.50971537828445435 0.40121197700500488 0.26894915103912354
0.73390871286392212 0.45382267236709595 0.26748651266098022
0.89701735973358154 0.54826080799102783 0.28698450326919556
0.99053674936294556 0.62954080104827881 0.32477074861526489
0.0021461935248225927 0.56296312808990479 0.29485934972763062
0.0039748097769916058 0.56020021438598633 0.29588726162910461
0.24443113803863525 0.56989353895187378 0.29264441132545471
0.52600306272506714 0.58743196725845337 0.2829841673374176
0.73999619483947754 0.61352264881134033 0.26852592825889587
0.88069874048233032 0.64137548208236694 0.26662540435791016
0.97685688734054565 0.6865309476852417 0.29813838005065918
0.036218307912349701 0.74796909093856812 0.32026287913322449
0.15494634211063385 0.74509108066558838 0.32185035943984985
0.35967445373535156 0.74120193719863892 0.33188241720199585
0.55738770961761475 0.74745672941207886 0.32583755254745483
0.73801761865615845 0.76105296611785889 0.31099799275398254
0.87123841047286987 0.77003961801528931 0.30808192491531372
0.96096545457839966 0.77456307411193848 0.32376623153686523
0.42990952730178833 0.85707110166549683 0.40153789520263672
0.4656301736831665 0.85395669937133789 0.40271759033203125
0.54555284976959229 0.85191023349761963 0.41152885556221008
0.64198118448257446 0.85842448472976685 0.41109144687652588
0.753204345703125 0.86091136932373047 0.40707728266716003
0.86251091957092285 0.8673546314239502 0.4012681245803833
0.95255857706069946 0.87221390008926392 0.4138130247592926
0.71323251724243164 0.93678373098373413 0.51273679733276367
0.71667766571044922 0.93281471729278564 0.51326274871826172
0.74720603227615356 0.93200469017028809 0.52010196447372437
0.78841298818588257 0.93315553665161133 0.525962233543396
0.83809947967529297 0.93511027097702026 0.52677923440933228
0.89503580331802368 0.94040417671203613 0.53116673231124878
0.95083129405975342 0.94381165504455566 0.53776496648788452
0.00071637023938819766 0.15868380665779114 0.30513182282447815
0.024558182805776596 0.1806643158197403 0.3039894700050354
0.19648927450180054 0.2216591089963913 0.31004601716995239
0.44243708252906799 0.21624103188514709 0.33546614646911621
0.73609703779220581 0.24984145164489746 0.36119449138641357
0.92908096313476562 0.41133221983909607 0.39152365922927856
0.99260944128036499 0.61098295450210571 0.44387394189834595
2.4653416403452866e-05 0.23291170597076416 0.32534682750701904
0.036564186215400696 0.2385825514793396 0.32541397213935852
0.24130888283252716 0.27521985769271851 0.3294202983379364
0.48650363087654114 0.28645825386047363 0.34865039587020874
0.75773566961288452 0.3543696403503418 0.37078121304512024
0.91960388422012329 0.51469904184341431 0.40904727578163147
0.98972040414810181 0.64791768789291382 0.44875726103782654
0.0007921106880530715 0.37013286352157593 0.34112507104873657
0.021350352093577385 0.37552407383918762 0.34402835369110107
0.30175194144248962 0.39926221966743469 0.35100767016410828
0.54602736234664917 0.43527606129646301 0.36076390743255615
0.76132774353027344 0.51466268301010132 0.38084650039672852
0.9002653956413269 0.60049140453338623 0.40101870894432068
0.98052823543548584 0.67630922794342041 0.43098869919776917
0.027786031365394592 0.57286375761032104 0.36612239480018616
0.18503288924694061 0.57828670740127563 0.36914673447608948
0.3604852557182312 0.58414155244827271 0.36974990367889404
0.56634467840194702 0.59928798675537109 0.36587348580360413
0.75508016347885132 0.62293648719787598 0.3618864119052887
0.88713842630386353 0.66099393367767334 0.36629009246826172
0.97618883848190308 0.71553981304168701 0.4007771909236908
0.31837564706802368 0.75499588251113892 0.40163508057594299
0.34366247057914734 0.74975299835205078 0.39504152536392212
0.45107606053352356 0.74718821048736572 0.39753499627113342
0.58854961395263672 0.75297152996063232 0.40029847621917725
0.74655807018280029 0.76386737823486328 0.39278140664100647
0.87559163570404053 0.77167659997940063 0.39298850297927856
0.96385377645492554 0.77658075094223022 0.39441564679145813
0.50664430856704712 0.86061751842498779 0.44395077228546143
0.53582090139389038 0.85693609714508057 0.44856059551239014
0.59458041191101074 0.85631424188613892 0.45277220010757446
0.67573070526123047 0.86067193746566772 0.45945477485656738
0.77123570442199707 0.86356502771377563 0.4594447910785675
0.86971819400787354 0.86753463745117188 0.46074897050857544
0.95579564571380615 0.87521123886108398 0.46160900592803955
0.72811448574066162 0.9339262843132019 0.53216361999511719
0.73920387029647827 0.93408834934234619 0.534648597240448
0.76399767398834229 0.93200862407684326 0.537364661693573
0.80006533861160278 0.93548130989074707 0.54505962133407593
0.84747201204299927 0.9369276762008667 0.5502009391784668
0.89762264490127563 0.94089126586914062 0.54993033409118652
0.95124232769012451 0.94305145740509033 0.55678153038024902
0.012024239636957645 0.20925311744213104 0.41597828269004822
0.16832767426967621 0.23570320010185242 0.41866317391395569
0.37906315922737122 0.30326521396636963 0.42367011308670044
0.53229475021362305 0.36958631873130798 0.42795652151107788
0.71822232007980347 0.35468152165412903 0.45137768983840942
0.91088187694549561 0.41870218515396118 0.48053461313247681
0.9912714958190918 0.57070839405059814 0.49868819117546082
0.0096414601430296898 0.28142696619033813 0.43162742257118225
0.17549598217010498 0.29786977171897888 0.43193259835243225
0.40756925940513611 0.36006134748458862 0.43537220358848572
0.56092900037765503 0.42753970623016357 0.43883588910102844
0.73137158155441284 0.42108774185180664 0.45925772190093994
0.90489000082015991 0.4955061674118042 0.48424714803695679
0.99240738153457642 0.62462347745895386 0.50389844179153442
0.0020745221991091967 0.41956764459609985 0.43582057952880859
0.072454340755939484 0.41954490542411804 0.43877539038658142
0.40342631936073303 0.45495465397834778 0.44770801067352295
0.59387016296386719 0.52374589443206787 0.45584586262702942
0.75810390710830688 0.534515380859375 0.47067192196846008
0.90185606479644775 0.615833580493927 0.49341902136802673
0.98082202672958374 0.71524959802627563 0.52006006240844727
0.039297755807638168 0.58689612150192261 0.44571924209594727
0.20950023829936981 0.59067779779434204 0.44847393035888672
0.42305052280426025 0.60053437948226929 0.45740422606468201
0.61483645439147949 0.62498635053634644 0.46427431702613831
0.77650302648544312 0.6667102575302124 0.4765394926071167
0.89120858907699585 0.72146284580230713 0.49230083823204041
0.97048056125640869 0.76989507675170898 0.51328659057617188
0.38542971014976501 0.75587362051010132 0.47062262892723083
0.43561989068984985 0.75377929210662842 0.47494891285896301
0.54594564437866211 0.75804173946380615 0.47800594568252563
0.65401661396026611 0.76221060752868652 0.48098191618919373
0.77065515518188477 0.76830887794494629 0.47923451662063599
0.88047271966934204 0.77863180637359619 0.47702485322952271
0.96504145860671997 0.79406392574310303 0.47857442498207092
0.60874044895172119 0.86352121829986572 0.50841480493545532
0.62275010347366333 0.8596729040145874 0.50832635164260864
0.65859949588775635 0.86087101697921753 0.50664937496185303
0.71934539079666138 0.86366158723831177 0.5097394585609436
0.7973865270614624 0.86474716663360596 0.51315128803253174
0.87446904182434082 0.86827117204666138 0.51316159963607788
0.95528626441955566 0.87251734733581543 0.51353192329406738
0.76270097494125366 0.93332880735397339 0.56149137020111084
0.76797610521316528 0.931191086769104 0.56187373399734497
0.78509044647216797 0.9341849684715271 0.56305652856826782
0.81692564487457275 0.9355156421661377 0.56923979520797729
0.86062967777252197 0.93794721364974976 0.57414823770523071
0.90929150581359863 0.94138157367706299 0.57777082920074463
0.95855820178985596 0.94615042209625244 0.58227348327636719
0.27421382069587708 0.29743069410324097 0.54061698913574219
0.38690894842147827 0.32052654027938843 0.54195261001586914
0.56013756990432739 0.38568946719169617 0.54522007703781128
0.70377576351165771 0.51653426885604858 0.54158776998519897
0.79921251535415649 0.5841330885887146 0.54509663581848145
0.87928938865661621 0.56535935401916504 0.55067974328994751
0.98049795627593994 0.61838245391845703 0.56162744760513306
0.26304441690444946 0.364288330078125 0.54343032836914062
0.38719502091407776 0.38511580228805542 0.5463295578956604
0.56552344560623169 0.44751155376434326 0.54881900548934937
0.71695941686630249 0.56236940622329712 0.54682725667953491
0.79858887195587158 0.62316775321960449 0.54495775699615479
0.88366436958312988 0.6119685173034668 0.55236160755157471
0.97803360223770142 0.65512377023696899 0.56441247463226318
0.20321138203144073 0.49402329325675964 0.54424411058425903
0.33765679597854614 0.49503254890441895 0.54576539993286133
0.54286366701126099 0.53433376550674438 0.54914915561676025
0.71424871683120728 0.62823545932769775 0.54989957809448242
0.80374026298522949 0.68636119365692139 0.54954427480697632
0.8842780590057373 0.67401123046875 0.5542454719543457
0.97213083505630493 0.71895170211791992 0.56779253482818604
0.11712048202753067 0.63073790073394775 0.53418314456939697
0.25994625687599182 0.62696671485900879 0.53289520740509033
0.46044406294822693 0.63582843542098999 0.53878968954086304
0.68550461530685425 0.6832277774810791 0.54921513795852661
0.80474734306335449 0.74352294206619263 0.55478709936141968
0.88672804832458496 0.74667274951934814 0.56031239032745361
0.96522295475006104 0.7873377799987793 0.57692766189575195
0.39622622728347778 0.75821965932846069 0.53893059492111206
0.44345039129257202 0.75681805610656738 0.53535443544387817
0.5559995174407959 0.76202070713043213 0.54274845123291016
0.68283677101135254 0.7692221999168396 0.5482599139213562
0.79831415414810181 0.79000085592269897 0.55411261320114136
0.88966184854507446 0.80661261081695557 0.55544978380203247
0.96259313821792603 0.8374861478805542 0.57253402471542358
0.60927492380142212 0.86201560497283936 0.55444097518920898
0.62288105487823486 0.85842794179916382 0.55225688219070435
0.67887353897094727 0.86270648241043091 0.55461710691452026
0.7465171217918396 0.86434483528137207 0.56159555912017822
0.82064419984817505 0.87100815773010254 0.5689469575881958
0.89405661821365356 0.87330818176269531 0.57016956806182861
0.96080076694488525 0.87618148326873779 0.56677216291427612
0.77760058641433716 0.93654137849807739 0.59503096342086792
0.78629446029663086 0.93456822633743286 0.59526544809341431
0.80575907230377197 0.93173110485076904 0.59736841917037964
0.84085828065872192 0.93393564224243164 0.60329687595367432
0.87388819456100464 0.93606007099151611 0.61043739318847656
0.9196159839630127 0.94264942407608032 0.61806702613830566
0.96276938915252686 0.94493454694747925 0.62441051006317139
0.54005652666091919 0.45163780450820923 0.63574737310409546
0.60050302743911743 0.47686329483985901 0.63528048992156982
0.70292657613754272 0.53591752052307129 0.63103830814361572
0.80236554145812988 0.64237391948699951 0.62162882089614868
0.86571550369262695 0.74680811166763306 0.61604279279708862
0.91001945734024048 0.76316851377487183 0.61456561088562012
0.95202857255935669 0.74281793832778931 0.61300885677337646
0.53528660535812378 0.50829994678497314 0.6331830620765686
0.59390127658843994 0.53122329711914062 0.63284015655517578
0.70023393630981445 0.58571803569793701 0.62844228744506836
0.79821610450744629 0.66866946220397949 0.6240043044090271
0.86824172735214233 0.76812517642974854 0.61892819404602051
0.91205871105194092 0.78051459789276123 0.61631894111633301
0.95237189531326294 0.76269668340682983 0.61714702844619751
0.50711512565612793 0.59127199649810791 0.62850219011306763
0.56175881624221802 0.60099178552627563 0.62877047061920166
0.68128246068954468 0.64249038696289062 0.62577497959136963
0.78930270671844482 0.71847933530807495 0.62497353553771973
0.86838352680206299 0.79401296377182007 0.62360578775405884
0.9099498987197876 0.80631798505783081 0.61784851551055908
0.94876456260681152 0.79267305135726929 0.62037479877471924
0.3946322500705719 0.68708556890487671 0.61303806304931641
0.47708046436309814 0.69020015001296997 0.61391323804855347
0.62692415714263916 0.70565199851989746 0.61571860313415527
0.76601248979568481 0.74812585115432739 0.62024736404418945
0.85482043027877808 0.80972445011138916 0.62231177091598511
0.90993291139602661 0.83182394504547119 0.62097972631454468
0.95281577110290527 0.82808083295822144 0.62713193893432617
0.44718796014785767 0.78088033199310303 0.60367393493652344
0.4882785975933075 0.78008246421813965 0.60324084758758545
0.57147741317749023 0.77918070554733276 0.60553926229476929
0.69012641906738281 0.78637409210205078 0.60665690898895264
0.83428919315338135 0.82409965991973877 0.61659616231918335
0.91421616077423096 0.86096560955047607 0.62573957443237305
0.96212416887283325 0.86350464820861816 0.63460475206375122
0.6098555326461792 0.86657476425170898 0.60758644342422485
0.63451492786407471 0.8658750057220459 0.60683751106262207
0.68212521076202393 0.86686688661575317 0.60868954658508301
0.756153404712677 0.86843770742416382 0.61682480573654175
0.83191984891891479 0.87290853261947632 0.6251412034034729
0.91046202182769775 0.8904605507850647 0.63225382566452026
0.96697467565536499 0.90246343612670898 0.64281678199768066
0.76919692754745483 0.93713092803955078 0.63236713409423828
0.78138542175292969 0.93676650524139404 0.63243478536605835
0.80336242914199829 0.9364737868309021 0.63586974143981934
0.84016340970993042 0.93860363960266113 0.64549237489700317
0.88895177841186523 0.93997693061828613 0.65819919109344482
0.92434561252593994 0.94105714559555054 0.66603130102157593
0.96716064214706421 0.94882595539093018 0.67448651790618896
0.73963868618011475 0.68112266063690186 0.70675349235534668
0.76584875583648682 0.6975824236869812 0.70506054162979126
0.81229919195175171 0.72794514894485474 0.7010502815246582
0.86705881357192993 0.7752150297164917 0.69553941488265991
0.91515100002288818 0.82734906673431396 0.68883848190307617
0.94771623611450195 0.86624717712402344 0.6847914457321167
0.9674067497253418 0.86724841594696045 0.68902289867401123
0.7443385124206543 0.70952892303466797 0.70823478698730469
0.76506054401397705 0.71938598155975342 0.70493048429489136
0.81450480222702026 0.74891954660415649 0.70018512010574341
0.86785715818405151 0.78956377506256104 0.69597333669662476
0.91447573900222778 0.83541679382324219 0.68961828947067261
0.94799989461898804 0.8736882209777832 0.68787467479705811
0.96707326173782349 0.87461560964584351 0.69301134347915649
0.73154199123382568 0.74281531572341919 0.70493584871292114
0.74979549646377563 0.75059181451797485 0.70267403125762939
0.80509710311889648 0.77255082130432129 0.70039433240890503
0.86316776275634766 0.81011062860488892 0.69860315322875977
0.9115675687789917 0.84647983312606812 0.69555956125259399
0.94602084159851074 0.88128650188446045 0.69282656908035278
0.96636271476745605 0.88506025075912476 0.69862806797027588
0.69303232431411743 0.78179353475570679 0.69874149560928345
0.72099786996841431 0.7848438024520874 0.69719260931015015
0.77115345001220703 0.79701679944992065 0.69768679141998291
0.84438908100128174 0.82290363311767578 0.69936096668243408
0.90441471338272095 0.85821598768234253 0.69987231492996216
0.94436371326446533 0.88957798480987549 0.69885104894638062
0.96674168109893799 0.90051901340484619 0.7071913480758667
0.58693814277648926 0.82220166921615601 0.68878114223480225
0.61778825521469116 0.82312226295471191 0.69025880098342896
0.68610864877700806 0.82504022121429443 0.6889222264289856
0.78984683752059937 0.83843791484832764 0.69383096694946289
0.88707840442657471 0.86765986680984497 0.70285022258758545
0.94112241268157959 0.90150994062423706 0.70855188369750977
0.96776115894317627 0.92123317718505859 0.7192804217338562
0.67971396446228027 0.88854998350143433 0.69485777616500854
0.69086211919784546 0.88716495037078857 0.69641572237014771
0.72349965572357178 0.88640201091766357 0.6951439380645752
0.7698555588722229 0.88709264993667603 0.69741398096084595
0.83942317962646484 0.8882262110710144 0.70093756914138794
0.92532825469970703 0.912761390209198 0.71757560968399048
0.96806973218917847 0.93660861253738403 0.73315459489822388
0.78577291965484619 0.94734102487564087 0.72138088941574097
0.79537355899810791 0.94784796237945557 0.71800059080123901
0.81303626298904419 0.94723749160766602 0.7192113995552063
0.84366345405578613 0.94872856140136719 0.72710436582565308
0.88331979513168335 0.9482606053352356 0.73145967721939087
0.9219973087310791 0.94648075103759766 0.73565167188644409
0.96664690971374512 0.95875614881515503 0.75834804773330688
