luts/instant_consumer/polaroid_px-100uv+_cold_++.cube
# Created by: G'MIC (https://gmic.eu)
TITLE "polaroid_px-100uv+_cold_++"
# LUT size
LUT_3D_SIZE 5
# Data domain
DOMAIN_MIN 0.0 0.0 0.0
DOMAIN_MAX 1.0 1.0 1.0
# LUT data points
0.37490838766098022 0.41039717197418213 0.41960784792900085
0.37251999974250793 0.40847435593605042 0.4190879762172699
0.39783433079719543 0.43263506889343262 0.44059866666793823
0.46244519948959351 0.49217444658279419 0.49233266711235046
0.59281426668167114 0.61324548721313477 0.5926518440246582
0.38112333416938782 0.41594797372817993 0.42522534728050232
0.38333028554916382 0.41819286346435547 0.42775538563728333
0.40714177489280701 0.440530925989151 0.44844582676887512
0.4710080623626709 0.49986118078231812 0.49987709522247314
0.59326905012130737 0.61294442415237427 0.59287506341934204
0.41341012716293335 0.44512692093849182 0.45285332202911377
0.41771361231803894 0.44849416613578796 0.4557671844959259
0.44066628813743591 0.46949636936187744 0.47528088092803955
0.49478599429130554 0.52080041170120239 0.51973474025726318
0.61898857355117798 0.63554447889328003 0.61128038167953491
0.50582605600357056 0.53085094690322876 0.52626782655715942
0.50323832035064697 0.52881008386611938 0.52354013919830322
0.52604025602340698 0.54906046390533447 0.54152542352676392
0.58850622177124023 0.60670775175094604 0.59064775705337524
0.70097136497497559 0.71043157577514648 0.67146778106689453
0.72169440984725952 0.73167359828948975 0.68692046403884888
0.71589654684066772 0.72635030746459961 0.68208390474319458
0.72526323795318604 0.73361694812774658 0.68920856714248657
0.75090432167053223 0.75626087188720703 0.70941454172134399
0.78258198499679565 0.78751564025878906 0.73259282112121582
0.38309755921363831 0.41615462303161621 0.42743182182312012
0.39206400513648987 0.42545333504676819 0.43542966246604919
0.43105316162109375 0.46253305673599243 0.46637603640556335
0.51153326034545898 0.53677457571029663 0.52911019325256348
0.64121383428573608 0.65629124641418457 0.62707221508026123
0.40014594793319702 0.43313443660736084 0.44085171818733215
0.41114801168441772 0.44402819871902466 0.44959232211112976
0.44473913311958313 0.47624385356903076 0.47671189904212952
0.51998794078826904 0.54480195045471191 0.5361214280128479
0.64560544490814209 0.66057956218719482 0.63101911544799805
0.44897753000259399 0.47811082005500793 0.48010021448135376
0.45878589153289795 0.4871247410774231 0.48758366703987122
0.47678941488265991 0.50441581010818481 0.5032120943069458
0.53711074590682983 0.5607178807258606 0.55026131868362427
0.65298891067504883 0.667441725730896 0.63601905107498169
0.56031906604766846 0.58048790693283081 0.56632018089294434
0.56121659278869629 0.58161020278930664 0.56732916831970215
0.56717127561569214 0.58712673187255859 0.57325893640518188
0.61873692274093628 0.63520503044128418 0.61245018243789673
0.71167385578155518 0.72136980295181274 0.68022596836090088
0.7462342381477356 0.7518802285194397 0.70437824726104736
0.73948484659194946 0.74657714366912842 0.70074093341827393
0.73658114671707153 0.74369943141937256 0.69946300983428955
0.75259482860565186 0.7587512731552124 0.71210795640945435
0.79139161109924316 0.79549950361251831 0.74017226696014404
0.44369050860404968 0.47048836946487427 0.47611284255981445
0.46256342530250549 0.48900577425956726 0.49105578660964966
0.48309683799743652 0.50725001096725464 0.50730615854263306
0.5639452338218689 0.58326071500778198 0.56817054748535156
0.69916743040084839 0.7084815502166748 0.66871559619903564
0.46276497840881348 0.49068748950958252 0.49090760946273804
0.48242145776748657 0.50869876146316528 0.50521636009216309
0.51502621173858643 0.53918206691741943 0.53100663423538208
0.59382170438766479 0.6117662787437439 0.59154337644577026
0.71783381700515747 0.72556954622268677 0.68391472101211548
0.49503105878829956 0.52214199304580688 0.5171205997467041
0.52516895532608032 0.54918932914733887 0.53860318660736084
0.55607295036315918 0.5777362585067749 0.56257539987564087
0.62456399202346802 0.64175653457641602 0.61525672674179077
0.72900784015655518 0.73740571737289429 0.69230568408966064
0.62960481643676758 0.64492058753967285 0.61791431903839111
0.63408774137496948 0.6490403413772583 0.62118268013000488
0.64616721868515015 0.66029787063598633 0.63173842430114746
0.68465358018875122 0.69666707515716553 0.66082453727722168
0.75066685676574707 0.75803333520889282 0.70945626497268677
0.78213071823120117 0.78378880023956299 0.72933298349380493
0.77968233823776245 0.78255724906921387 0.73008590936660767
0.7732042670249939 0.77730053663253784 0.72699463367462158
0.77379244565963745 0.77878272533416748 0.72824001312255859
0.80236852169036865 0.80590236186981201 0.74918019771575928
0.62274348735809326 0.63741225004196167 0.6126856803894043
0.63071084022521973 0.64550298452377319 0.6193050742149353
0.65936833620071411 0.67238825559616089 0.64131629467010498
0.6908576488494873 0.70138949155807495 0.66384363174438477
0.74388933181762695 0.75054460763931274 0.70234012603759766
0.63184261322021484 0.64762157201766968 0.61939007043838501
0.63969868421554565 0.65353065729141235 0.62456393241882324
0.67072373628616333 0.68132996559143066 0.64784252643585205
0.69854927062988281 0.70775437355041504 0.6687353253364563
0.75412547588348389 0.75854527950286865 0.70914417505264282
0.6450687050819397 0.66225934028625488 0.63017779588699341
0.6553642749786377 0.66860586404800415 0.63501888513565063
0.69370943307876587 0.70221000909805298 0.66311031579971313
0.72335308790206909 0.73046618700027466 0.6864047646522522
0.77010560035705566 0.77342712879180908 0.72137844562530518
0.68415957689285278 0.69861304759979248 0.66080343723297119
0.70073938369750977 0.71065324544906616 0.66929584741592407
0.73527997732162476 0.74123376607894897 0.69535332918167114
0.75362038612365723 0.75887423753738403 0.71047472953796387
0.78226810693740845 0.78578627109527588 0.73249977827072144
0.7827455997467041 0.78656673431396484 0.732258141040802
0.79173511266708374 0.79415631294250488 0.73842084407806396
0.79629403352737427 0.79924589395523071 0.7428777813911438
0.79459977149963379 0.79745680093765259 0.74305856227874756
0.80898219347000122 0.81147563457489014 0.75431889295578003
0.79886257648468018 0.80024510622024536 0.74511522054672241
0.79404932260513306 0.79632353782653809 0.74196469783782959
0.80324071645736694 0.80706250667572021 0.74836069345474243
0.80490928888320923 0.80726265907287598 0.74918252229690552
0.80493772029876709 0.80560433864593506 0.74880301952362061
0.79328763484954834 0.79554080963134766 0.74163705110549927
0.78849095106124878 0.79070693254470825 0.73695951700210571
0.79639190435409546 0.79606497287750244 0.74039268493652344
0.80319035053253174 0.80192071199417114 0.74511051177978516
0.80387449264526367 0.80273151397705078 0.74573284387588501
0.79804867506027222 0.80038082599639893 0.74398314952850342
0.79594379663467407 0.79529094696044922 0.74011766910552979
0.80426037311553955 0.802104651927948 0.74494808912277222
0.80402547121047974 0.8020327091217041 0.74455660581588745
0.80559486150741577 0.80361706018447876 0.74637693166732788
0.790050208568573 0.79318410158157349 0.73773878812789917
0.80100661516189575 0.80012255907058716 0.74429470300674438
0.80322360992431641 0.80133742094039917 0.74399161338806152
0.80095607042312622 0.80014622211456299 0.74436277151107788
0.80578756332397461 0.80539512634277344 0.74902820587158203
0.80525511503219604 0.80622917413711548 0.74925124645233154
0.81063961982727051 0.81043022871017456 0.75179576873779297
0.80977582931518555 0.8096848726272583 0.75149255990982056
0.80950826406478882 0.80982112884521484 0.75300419330596924
0.81505000591278076 0.8157380223274231 0.75836020708084106
