luts/instant_consumer/polaroid_px-70_+.cube
# Created by: G'MIC (https://gmic.eu)
TITLE "polaroid_px-70_+"
# LUT size
LUT_3D_SIZE 5
# Data domain
DOMAIN_MIN 0.0 0.0 0.0
DOMAIN_MAX 1.0 1.0 1.0
# LUT data points
0.12554541230201721 0.25009804964065552 0.24011258780956268
0.15468087792396545 0.25107374787330627 0.23921568691730499
0.33285954594612122 0.2591998279094696 0.2394733726978302
0.789348304271698 0.33186584711074829 0.21528486907482147
0.99664050340652466 0.54243886470794678 0.19914957880973816
0.11834239214658737 0.27692967653274536 0.24052819609642029
0.17579297721385956 0.28373149037361145 0.23885497450828552
0.40632498264312744 0.31387493014335632 0.23204363882541656
0.8131028413772583 0.42538183927536011 0.19469176232814789
0.99343019723892212 0.59460538625717163 0.19136422872543335
0.0049092909321188927 0.50516813993453979 0.21961143612861633
0.19299817085266113 0.5031057596206665 0.2196677029132843
0.52747273445129395 0.54453414678573608 0.19748501479625702
0.83412641286849976 0.62358212471008301 0.15224100649356842
0.97433704137802124 0.68868535757064819 0.17634934186935425
0.4017670750617981 0.79309701919555664 0.24817878007888794
0.47336819767951965 0.78319555521011353 0.25143581628799438
0.65621906518936157 0.78929394483566284 0.259328693151474
0.83183026313781738 0.80714786052703857 0.2638031542301178
0.94575071334838867 0.82565951347351074 0.31197276711463928
0.78363043069839478 0.91955876350402832 0.50068420171737671
0.79339450597763062 0.91647815704345703 0.50000977516174316
0.82957267761230469 0.91762745380401611 0.51186615228652954
0.87991845607757568 0.92415106296539307 0.52632999420166016
0.9346088171005249 0.9288371205329895 0.5429534912109375
0.12340877950191498 0.25471097230911255 0.25061687827110291
0.15836869180202484 0.25507926940917969 0.2482956200838089
0.3631293773651123 0.25292417407035828 0.25573188066482544
0.83500081300735474 0.3255971372127533 0.26595631241798401
0.99444347620010376 0.57942497730255127 0.30969148874282837
0.12957306206226349 0.28760284185409546 0.2519473135471344
0.19946983456611633 0.29725772142410278 0.25424116849899292
0.46394580602645874 0.32845607399940491 0.2612004280090332
0.84873276948928833 0.45850849151611328 0.26035574078559875
0.99305760860443115 0.6263662576675415 0.30323547124862671
0.14820994436740875 0.53431236743927002 0.26058098673820496
0.26833063364028931 0.52510303258895874 0.25707495212554932
0.57049882411956787 0.56620270013809204 0.24816349148750305
0.84535497426986694 0.62653666734695435 0.23460741341114044
0.97567236423492432 0.70418423414230347 0.28206941485404968
0.47412818670272827 0.79887348413467407 0.31221762299537659
0.5316154956817627 0.79116368293762207 0.31428077816963196
0.68354719877243042 0.79471814632415771 0.33938509225845337
0.83966398239135742 0.81293386220932007 0.33746621012687683
0.9472309947013855 0.83044588565826416 0.37479057908058167
0.79414558410644531 0.91878330707550049 0.51330679655075073
0.80282169580459595 0.91451627016067505 0.51490777730941772
0.83899646997451782 0.9185187816619873 0.52794450521469116
0.88378572463989258 0.92104727029800415 0.53579920530319214
0.93669974803924561 0.92799216508865356 0.55699002742767334
0.15205538272857666 0.26385340094566345 0.30562880635261536
0.25738751888275146 0.26995107531547546 0.30518227815628052
0.4618908166885376 0.3258100152015686 0.32511526346206665
0.82759678363800049 0.32378074526786804 0.38612657785415649
0.99460673332214355 0.54951590299606323 0.43611830472946167
0.149738609790802 0.328410804271698 0.33399909734725952
0.29557803273200989 0.33485147356987 0.3391265869140625
0.55393517017364502 0.42163962125778198 0.35278671979904175
0.85688668489456177 0.45877054333686829 0.40383732318878174
0.98870706558227539 0.65674465894699097 0.45793181657791138
0.21884739398956299 0.55575931072235107 0.36262211203575134
0.37179598212242126 0.55860704183578491 0.36636057496070862
0.65153032541275024 0.60151928663253784 0.39060226082801819
0.86468088626861572 0.68598675727844238 0.4274505078792572
0.96296900510787964 0.77262479066848755 0.47876405715942383
0.60724878311157227 0.806377112865448 0.44239279627799988
0.64764595031738281 0.80003601312637329 0.44034257531166077
0.74046289920806885 0.8065415620803833 0.44829264283180237
0.85477364063262939 0.82087838649749756 0.45954319834709167
0.94611239433288574 0.83459317684173584 0.47557619214057922
0.81865620613098145 0.91677016019821167 0.54467606544494629
0.82663249969482422 0.91761547327041626 0.54457849264144897
0.85661202669143677 0.91730815172195435 0.55304861068725586
0.89727151393890381 0.92265433073043823 0.56450450420379639
0.94086241722106934 0.92935669422149658 0.57850360870361328
0.39339134097099304 0.30333855748176575 0.52383553981781006
0.54465186595916748 0.33039796352386475 0.52845638990402222
0.77850306034088135 0.49128028750419617 0.54055345058441162
0.88469183444976807 0.65624159574508667 0.54663550853729248
0.96455943584442139 0.67384177446365356 0.55456334352493286
0.37151294946670532 0.41586592793464661 0.54378849267959595
0.54860472679138184 0.448057621717453 0.54191035032272339
0.78801870346069336 0.59229964017868042 0.54823035001754761
0.88247847557067871 0.7196040153503418 0.55182850360870361
0.95881026983261108 0.73019635677337646 0.56144934892654419
0.30113059282302856 0.64304888248443604 0.53058475255966187
0.47278377413749695 0.64050018787384033 0.53338348865509033
0.76227718591690063 0.69767642021179199 0.55017834901809692
0.87667185068130493 0.78828883171081543 0.55531638860702515
0.95117223262786865 0.79724657535552979 0.56709414720535278
0.62077075242996216 0.81371480226516724 0.53782981634140015
0.65978372097015381 0.81081384420394897 0.54101157188415527
0.76878422498703003 0.81696528196334839 0.5489199161529541
0.87188488245010376 0.8403584361076355 0.5610697865486145
0.94366753101348877 0.87368583679199219 0.57453018426895142
0.82757574319839478 0.91841644048690796 0.57728719711303711
0.83866685628890991 0.91760897636413574 0.57822936773300171
0.87496405839920044 0.92173486948013306 0.58337807655334473
0.90972733497619629 0.9257243275642395 0.59044539928436279
0.94720190763473511 0.93339622020721436 0.60065984725952148
0.76688468456268311 0.64097505807876587 0.65084719657897949
0.81253260374069214 0.67287755012512207 0.64578932523727417
0.87891197204589844 0.75506901741027832 0.63095980882644653
0.92681711912155151 0.84623831510543823 0.61840277910232544
0.95016193389892578 0.87162643671035767 0.61604082584381104
0.77552533149719238 0.70334208011627197 0.64524620771408081
0.80973392724990845 0.72292369604110718 0.63891857862472534
0.88032227754592896 0.79259169101715088 0.62853074073791504
0.92779290676116943 0.86210650205612183 0.61864036321640015
0.95087367296218872 0.88473868370056152 0.61869597434997559
0.74246424436569214 0.77183550596237183 0.63485944271087646
0.7823302149772644 0.77807044982910156 0.6330028772354126
0.86312365531921387 0.81958013772964478 0.62735027074813843
0.92345017194747925 0.87554383277893066 0.61904621124267578
0.94919991493225098 0.90109384059906006 0.61954903602600098
0.72121536731719971 0.84741538763046265 0.62270098924636841
0.7352834939956665 0.84187239408493042 0.62069612741470337
0.80597543716430664 0.84939521551132202 0.62099546194076538
0.90278095006942749 0.88687437772750854 0.6200491189956665
0.94888800382614136 0.91969001293182373 0.62614458799362183
0.85226190090179443 0.9292873740196228 0.62142795324325562
0.85768860578536987 0.92652910947799683 0.62150806188583374
0.88454335927963257 0.93160140514373779 0.62550771236419678
0.9191163182258606 0.93289852142333984 0.62611478567123413
0.95134717226028442 0.94113469123840332 0.63747066259384155
