luts/instant_consumer/polaroid_px-680_warm_++.cube
# Created by: G'MIC (https://gmic.eu)
TITLE "polaroid_px-680_warm_++"
# LUT size
LUT_3D_SIZE 7
# Data domain
DOMAIN_MIN 0.0 0.0 0.0
DOMAIN_MAX 1.0 1.0 1.0
# LUT data points
0.36008948087692261 0.27410176396369934 0.13167446851730347
0.37083333730697632 0.27474513649940491 0.13333334028720856
0.39200830459594727 0.27480852603912354 0.13036513328552246
0.51071923971176147 0.27874055504798889 0.12426802515983582
0.73880040645599365 0.29958376288414001 0.10324843227863312
0.89181321859359741 0.35240164399147034 0.095305390655994415
0.97442203760147095 0.43738898634910583 0.14704045653343201
0.36073321104049683 0.28678259253501892 0.13174019753932953
0.3712199330329895 0.28799641132354736 0.1315896064043045
0.40722978115081787 0.28748476505279541 0.12910324335098267
0.53620141744613647 0.30283921957015991 0.11466427892446518
0.75413340330123901 0.33657234907150269 0.089065372943878174
0.89107388257980347 0.38909375667572021 0.084607578814029694
0.96944552659988403 0.46253356337547302 0.14594385027885437
0.35379931330680847 0.32563936710357666 0.12714412808418274
0.36665934324264526 0.32737898826599121 0.12555500864982605
0.4286920428276062 0.34610360860824585 0.11726003885269165
0.57875341176986694 0.38331252336502075 0.085747979581356049
0.75365203619003296 0.40768605470657349 0.050313614308834076
0.87990766763687134 0.44719445705413818 0.050629589706659317
0.95901340246200562 0.50919502973556519 0.13396333158016205
0.32939472794532776 0.43470543622970581 0.10492096096277237
0.35305804014205933 0.43925732374191284 0.1056256890296936
0.41971412301063538 0.45661735534667969 0.098059728741645813
0.57120215892791748 0.50074011087417603 0.058428235352039337
0.7548484206199646 0.54705822467803955 0.005832417868077755
0.86293131113052368 0.54662168025970459 0.019884685054421425
0.9437517523765564 0.57429426908493042 0.10933438688516617
0.29909998178482056 0.56998860836029053 0.082746393978595734
0.32996839284896851 0.56861549615859985 0.088165923953056335
0.40080451965332031 0.57800865173339844 0.094934917986392975
0.53629565238952637 0.60625863075256348 0.093594253063201904
0.70729249715805054 0.64649444818496704 0.10655573010444641
0.84089541435241699 0.68276345729827881 0.15980367362499237
0.91820448637008667 0.69482225179672241 0.21010084450244904
0.3514801561832428 0.69249516725540161 0.15093067288398743
0.37424048781394958 0.68773263692855835 0.15141348540782928
0.44526568055152893 0.69297528266906738 0.17495594918727875
0.56001931428909302 0.71061414480209351 0.21026630699634552
0.68626236915588379 0.73469787836074829 0.25460085272789001
0.80511516332626343 0.76202261447906494 0.30697464942932129
0.89490944147109985 0.80652368068695068 0.38251486420631409
0.55460816621780396 0.82495170831680298 0.36303165555000305
0.56774348020553589 0.8225867748260498 0.36549502611160278
0.60662657022476196 0.82439416646957397 0.38212624192237854
0.67112439870834351 0.83349007368087769 0.4190523624420166
0.74908226728439331 0.84815967082977295 0.45473667979240417
0.822074294090271 0.86242884397506714 0.49803358316421509
0.88361334800720215 0.87657147645950317 0.54668182134628296
0.36250382661819458 0.27592068910598755 0.13934250175952911
0.37174424529075623 0.27519404888153076 0.14142963290214539
0.40212827920913696 0.27295714616775513 0.14060913026332855
0.53579157590866089 0.26563772559165955 0.14269138872623444
0.76470661163330078 0.30039966106414795 0.15392588078975677
0.89837151765823364 0.37713974714279175 0.18192136287689209
0.97059327363967896 0.47624710202217102 0.24710997939109802
0.36280974745750427 0.28585806488990784 0.14328400790691376
0.37339800596237183 0.28649088740348816 0.14463682472705841
0.41823583841323853 0.28862801194190979 0.14376504719257355
0.57064378261566162 0.30189242959022522 0.14706897735595703
0.77262610197067261 0.3435019850730896 0.14895336329936981
0.89354509115219116 0.41231954097747803 0.18029586970806122
0.96829032897949219 0.49952840805053711 0.24711667001247406
0.35755449533462524 0.33560514450073242 0.14250345528125763
0.37626466155052185 0.33733612298965454 0.1455015242099762
0.44173097610473633 0.36043938994407654 0.14210982620716095
0.60355627536773682 0.38658052682876587 0.12991486489772797
0.76930433511734009 0.4146730899810791 0.12374760955572128
0.88207614421844482 0.47019532322883606 0.15778788924217224
0.95854067802429199 0.53707844018936157 0.23185352981090546
0.34035423398017883 0.44749647378921509 0.13792756199836731
0.36426377296447754 0.45308655500411987 0.13889306783676147
0.43552598357200623 0.47116035223007202 0.13915126025676727
0.59084004163742065 0.51175272464752197 0.12528140842914581
0.75988078117370605 0.54939597845077515 0.11976363509893417
0.867237389087677 0.54965800046920776 0.13418850302696228
0.94491004943847656 0.58941423892974854 0.20517869293689728
0.32041007280349731 0.58144760131835938 0.13123528659343719
0.35120692849159241 0.58133542537689209 0.13637329638004303
0.42488095164299011 0.58939796686172485 0.15240101516246796
0.55691009759902954 0.61606568098068237 0.16717563569545746
0.71556717157363892 0.65184718370437622 0.19485364854335785
0.84313017129898071 0.68620342016220093 0.23607075214385986
0.91744709014892578 0.69738936424255371 0.26905032992362976
0.37633645534515381 0.69418931007385254 0.19403645396232605
0.40430602431297302 0.69483453035354614 0.19975779950618744
0.4737619161605835 0.69841057062149048 0.22317054867744446
0.57932943105697632 0.71614909172058105 0.26319283246994019
0.70038825273513794 0.74107378721237183 0.30382752418518066
0.80891793966293335 0.76929318904876709 0.35257560014724731
0.89575493335723877 0.8086249828338623 0.41365441679954529
0.56065219640731812 0.82364779710769653 0.37820202112197876
0.57686346769332886 0.82362836599349976 0.38411295413970947
0.61492824554443359 0.82517904043197632 0.39960452914237976
0.67669451236724854 0.83524179458618164 0.43657094240188599
0.75219261646270752 0.84841316938400269 0.47301897406578064
0.82426100969314575 0.86272400617599487 0.5108148455619812
0.88427150249481201 0.87768292427062988 0.56018733978271484
0.36528727412223816 0.27555197477340698 0.16590601205825806
0.3792555034160614 0.27724972367286682 0.16822969913482666
0.41187557578086853 0.28048011660575867 0.17402800917625427
0.54034096002578735 0.27104982733726501 0.20856525003910065
0.76796954870223999 0.26256164908409119 0.2397286593914032
0.90105205774307251 0.37668079137802124 0.29210078716278076
0.95953136682510376 0.54341161251068115 0.39383688569068909
0.36361852288246155 0.28958368301391602 0.18552881479263306
0.38510766625404358 0.29121595621109009 0.18799178302288055
0.43844878673553467 0.30194702744483948 0.19784259796142578
0.58777600526809692 0.30510416626930237 0.22472099959850311
0.78745186328887939 0.33571359515190125 0.25923407077789307
0.89608073234558105 0.46462720632553101 0.33197405934333801
0.95324838161468506 0.57593655586242676 0.40716856718063354
0.36465156078338623 0.34519347548484802 0.19954024255275726
0.39203867316246033 0.35185673832893372 0.2076156884431839
0.47683092951774597 0.37688764929771423 0.22399643063545227
0.63537484407424927 0.40693652629852295 0.24979245662689209
0.78711235523223877 0.46113130450248718 0.28239855170249939
0.87996554374694824 0.53000503778457642 0.33038413524627686
0.9462084174156189 0.60246431827545166 0.39093410968780518
0.38026756048202515 0.46076643466949463 0.21742671728134155
0.41835615038871765 0.4775751531124115 0.22907234728336334
0.48492676019668579 0.49592742323875427 0.23695376515388489
0.6289980411529541 0.5289766788482666 0.2538335919380188
0.77141565084457397 0.55021017789840698 0.26560711860656738
0.86690819263458252 0.57339292764663696 0.28770208358764648
0.93725389242172241 0.63384300470352173 0.3594963550567627
0.41853028535842896 0.59586489200592041 0.25200584530830383
0.42773076891899109 0.59806913137435913 0.24271976947784424
0.48262843489646912 0.60596692562103271 0.25094085931777954
0.59629160165786743 0.62590628862380981 0.28034546971321106
0.7375982403755188 0.66299897432327271 0.31358659267425537
0.8462529182434082 0.69198334217071533 0.34703207015991211
0.91955345869064331 0.70458197593688965 0.36564961075782776
0.44809582829475403 0.70294886827468872 0.28329887986183167
0.45776170492172241 0.7007678747177124 0.27811345458030701
0.51766747236251831 0.70338273048400879 0.29797634482383728
0.60695087909698486 0.71838200092315674 0.33501121401786804
0.71593880653381348 0.74525773525238037 0.37273931503295898
0.81754601001739502 0.77652478218078613 0.42013970017433167
0.89747262001037598 0.81122469902038574 0.46516376733779907
0.57421392202377319 0.82512938976287842 0.41227993369102478
0.58760607242584229 0.82561665773391724 0.41424676775932312
0.62638384103775024 0.82928168773651123 0.4329477846622467
0.68240088224411011 0.83545714616775513 0.46364283561706543
0.7540816068649292 0.8497931957244873 0.49921688437461853
0.82498908042907715 0.86573737859725952 0.53821861743927002
0.88711291551589966 0.87933391332626343 0.583609938621521
0.38272580504417419 0.28034582734107971 0.27979391813278198
0.41991385817527771 0.28107044100761414 0.2895129919052124
0.50230413675308228 0.30219000577926636 0.30881282687187195
0.61444705724716187 0.34304839372634888 0.34145048260688782
0.75629562139511108 0.33023726940155029 0.37144991755485535
0.88090699911117554 0.38881263136863708 0.40922188758850098
0.95428895950317383 0.51640897989273071 0.46167844533920288
0.37581995129585266 0.30515694618225098 0.30903628468513489
0.41991701722145081 0.31016260385513306 0.32273063063621521
0.5293651819229126 0.34821039438247681 0.3433062732219696
0.64391601085662842 0.4003264307975769 0.36421671509742737
0.76874291896820068 0.38847044110298157 0.38840430974960327
0.88045012950897217 0.45304247736930847 0.42514371871948242
0.95169800519943237 0.56146448850631714 0.48027047514915466
0.36162659525871277 0.38428312540054321 0.3258112370967865
0.40123927593231201 0.38546603918075562 0.33784359693527222
0.52901637554168701 0.41773012280464172 0.36772021651268005
0.66884046792984009 0.47966736555099487 0.393472820520401
0.7794421911239624 0.48689433932304382 0.41538801789283752
0.8739626407623291 0.55485624074935913 0.45761585235595703
0.93867212533950806 0.63468605279922485 0.50878357887268066
0.38151299953460693 0.48452469706535339 0.32935312390327454
0.42034187912940979 0.48437315225601196 0.33192414045333862
0.52137798070907593 0.51086056232452393 0.36037513613700867
0.67649251222610474 0.56303626298904419 0.40833437442779541
0.7842705249786377 0.59496700763702393 0.43806496262550354
0.86394631862640381 0.64110791683197021 0.47291713953018188
0.92608654499053955 0.69075000286102295 0.50714379549026489
0.4288536012172699 0.5892069935798645 0.33438557386398315
0.46718218922615051 0.5943487286567688 0.34704259037971497
0.56050276756286621 0.61750286817550659 0.37489676475524902
0.65788304805755615 0.64023196697235107 0.40812605619430542
0.7602541446685791 0.66896045207977295 0.43585687875747681
0.84748250246047974 0.69228047132492065 0.45194095373153687
0.91929596662521362 0.72034990787506104 0.47129473090171814
0.51933413743972778 0.69887977838516235 0.38860476016998291
0.54542034864425659 0.70275986194610596 0.39241176843643188
0.59057784080505371 0.71151936054229736 0.40211379528045654
0.64968395233154297 0.72625482082366943 0.4236760139465332
0.73723912239074707 0.74961775541305542 0.46177726984024048
0.82622504234313965 0.78517252206802368 0.49667307734489441
0.90085232257843018 0.81384062767028809 0.52855712175369263
0.6081199049949646 0.82567888498306274 0.47729605436325073
0.61516231298446655 0.8240465521812439 0.47395539283752441
0.63718569278717041 0.83001363277435303 0.47397679090499878
0.68529623746871948 0.83616358041763306 0.49576389789581299
0.75467598438262939 0.85213547945022583 0.5377577543258667
0.82619017362594604 0.86641418933868408 0.57989227771759033
0.88843154907226562 0.88291501998901367 0.62339550256729126
0.4341888427734375 0.30163976550102234 0.4668557345867157
0.48399484157562256 0.30847668647766113 0.47646135091781616
0.59557092189788818 0.34944391250610352 0.49116387963294983
0.72517955303192139 0.46195989847183228 0.51251089572906494
0.80028396844863892 0.53197121620178223 0.53079426288604736
0.85845476388931274 0.51471543312072754 0.53159517049789429
0.93360739946365356 0.55990046262741089 0.56106913089752197
0.42878219485282898 0.33734631538391113 0.48793339729309082
0.48856383562088013 0.35211238265037537 0.48824194073677063
0.60690629482269287 0.3990451991558075 0.50333762168884277
0.73181682825088501 0.50671732425689697 0.52175688743591309
0.80055862665176392 0.56779181957244873 0.53800171613693237
0.85581547021865845 0.55377393960952759 0.54107838869094849
0.93077373504638672 0.5891110897064209 0.5697094202041626
0.41928559541702271 0.42871955037117004 0.49125126004219055
0.46750664710998535 0.42768451571464539 0.49422511458396912
0.5973474383354187 0.46625420451164246 0.50690704584121704
0.7333030104637146 0.55665576457977295 0.53017336130142212
0.7988397479057312 0.61779129505157471 0.5462716817855835
0.85461050271987915 0.60791927576065063 0.55281335115432739
0.92684203386306763 0.63698232173919678 0.58313548564910889
0.38602158427238464 0.51352596282958984 0.46397796273231506
0.43439152836799622 0.51769787073135376 0.47025278210639954
0.54351985454559326 0.53587597608566284 0.49026986956596375
0.70518261194229126 0.59763264656066895 0.52657246589660645
0.79842793941497803 0.66291576623916626 0.55752444267272949
0.8568301796913147 0.66363781690597534 0.56897032260894775
0.92181485891342163 0.70001035928726196 0.59851342439651489
0.44210606813430786 0.6086382269859314 0.45407870411872864
0.47399458289146423 0.61130201816558838 0.4582064151763916
0.5583234429359436 0.62208282947540283 0.47260192036628723
0.67650794982910156 0.6520683765411377 0.50736230611801147
0.78216308355331421 0.69700086116790771 0.54927909374237061
0.85533261299133301 0.72661793231964111 0.57609361410140991
0.91425257921218872 0.76606881618499756 0.6093786358833313
0.46370160579681396 0.68451452255249023 0.43775850534439087
0.49693509936332703 0.68802356719970703 0.44116774201393127
0.57568788528442383 0.70143473148345947 0.46657225489616394
0.67945623397827148 0.72724902629852295 0.50862365961074829
0.7617180347442627 0.75888156890869141 0.54612928628921509
0.83694911003112793 0.79181528091430664 0.57956314086914062
0.90349739789962769 0.81307142972946167 0.59968090057373047
0.58538335561752319 0.81749683618545532 0.52256983518600464
0.60150337219238281 0.81966227293014526 0.52870428562164307
0.64205342531204224 0.8240516185760498 0.53938132524490356
0.69794917106628418 0.83895134925842285 0.5585857629776001
0.75431233644485474 0.85239619016647339 0.58275133371353149
0.82396721839904785 0.86774945259094238 0.62662094831466675
0.89231890439987183 0.88561552762985229 0.67490857839584351
0.54996228218078613 0.39351844787597656 0.63155621290206909
0.59528475999832153 0.40637692809104919 0.63232904672622681
0.68202608823776245 0.46455922722816467 0.63474160432815552
0.77947580814361572 0.55794411897659302 0.64045220613479614
0.83632767200469971 0.66634958982467651 0.65243023633956909
0.87181168794631958 0.68802165985107422 0.65678399801254272
0.90665352344512939 0.66868752241134644 0.65988337993621826
0.55653601884841919 0.43415358662605286 0.6324581503868103
0.60345911979675293 0.45386284589767456 0.6332123875617981
0.68773519992828369 0.5025210976600647 0.63631141185760498
0.78233832120895386 0.5891120433807373 0.64268434047698975
0.83627361059188843 0.68397939205169678 0.65667599439620972
0.87282043695449829 0.70469778776168823 0.66554409265518188
0.90524077415466309 0.68509125709533691 0.66467219591140747
0.54778015613555908 0.496683269739151 0.6268085241317749
0.58772176504135132 0.50998896360397339 0.62854099273681641
0.68038582801818848 0.55016458034515381 0.63382041454315186
0.77704131603240967 0.61965000629425049 0.64724814891815186
0.83283990621566772 0.69998419284820557 0.66206490993499756
0.86806869506835938 0.73250275850296021 0.67263907194137573
0.90612757205963135 0.72180426120758057 0.67752170562744141
0.46575278043746948 0.56245934963226318 0.60046207904815674
0.52121049165725708 0.5717010498046875 0.60680800676345825
0.62996262311935425 0.59481984376907349 0.62090152502059937
0.74397808313369751 0.64410877227783203 0.63933080434799194
0.82049083709716797 0.71918684244155884 0.66224730014801025
0.86442601680755615 0.76265859603881836 0.68069601058959961
0.90379267930984497 0.75111299753189087 0.6848030686378479
0.45054030418395996 0.63595521450042725 0.57883769273757935
0.4849129319190979 0.63566523790359497 0.58017468452453613
0.56421607732772827 0.64375120401382446 0.58933025598526001
0.67562001943588257 0.67124432325363159 0.61272233724594116
0.79438835382461548 0.7271798849105835 0.65178400278091431
0.86406493186950684 0.79370737075805664 0.68849056959152222
0.90609246492385864 0.792103111743927 0.69878625869750977
0.49395099282264709 0.71173560619354248 0.56147772073745728
0.51872891187667847 0.71128147840499878 0.56051123142242432
0.58293318748474121 0.71822607517242432 0.57147514820098877
0.66561412811279297 0.7327960729598999 0.59017682075500488
0.75420773029327393 0.76123487949371338 0.62475574016571045
0.84755295515060425 0.8182603120803833 0.68294435739517212
0.90178084373474121 0.84390687942504883 0.71085584163665771
0.49380213022232056 0.8093145489692688 0.57093876600265503
0.51442503929138184 0.81019777059555054 0.57171159982681274
0.56992447376251221 0.81458336114883423 0.58282935619354248
0.65054571628570557 0.82938301563262939 0.60585778951644897
0.74505138397216797 0.84881913661956787 0.64443349838256836
0.82751679420471191 0.87122625112533569 0.68932801485061646
0.8984915018081665 0.88745784759521484 0.73676460981369019
0.72835725545883179 0.5922664999961853 0.7647097110748291
0.74366140365600586 0.6011040210723877 0.76071822643280029
0.78496521711349487 0.63356685638427734 0.75710552930831909
0.83169972896575928 0.68233352899551392 0.75469660758972168
0.87199872732162476 0.74840384721755981 0.7566230297088623
0.89106953144073486 0.79892981052398682 0.75658386945724487
0.90672945976257324 0.80955034494400024 0.76056653261184692
0.7233576774597168 0.61359959840774536 0.76137936115264893
0.7432212233543396 0.62496340274810791 0.75996857881546021
0.78252273797988892 0.6521141529083252 0.75666230916976929
0.83133101463317871 0.69365894794464111 0.75729560852050781
0.86737096309661865 0.75584441423416138 0.75689828395843506
0.89123362302780151 0.81057363748550415 0.76089465618133545
0.90578079223632812 0.81859463453292847 0.76331228017807007
0.70482790470123291 0.6392822265625 0.75918090343475342
0.72431844472885132 0.64802110195159912 0.75913119316101074
0.77213156223297119 0.67323178052902222 0.75677740573883057
0.82366353273391724 0.71332794427871704 0.75792169570922852
0.86595165729522705 0.76961809396743774 0.76086735725402832
0.88942939043045044 0.81839948892593384 0.76277774572372437
0.90274006128311157 0.82990902662277222 0.76306885480880737
0.66125082969665527 0.67912721633911133 0.75153112411499023
0.68165290355682373 0.67884212732315063 0.7519233226776123
0.72919505834579468 0.68492358922958374 0.75448733568191528
0.79844307899475098 0.72663581371307373 0.75750023126602173
0.85245662927627563 0.77867668867111206 0.7605358362197876
0.88643360137939453 0.8308112621307373 0.76594489812850952
0.90396618843078613 0.84472388029098511 0.76957213878631592
0.53996014595031738 0.71867209672927856 0.73681181669235229
0.56401717662811279 0.71651273965835571 0.73546552658081055
0.63128834962844849 0.71933209896087646 0.73886716365814209
0.73479622602462769 0.73887157440185547 0.74827641248703003
0.82488113641738892 0.78364485502243042 0.76030963659286499
0.88130563497543335 0.83935028314590454 0.77085423469543457
0.90492802858352661 0.86177223920822144 0.77816116809844971
0.54598075151443481 0.78894376754760742 0.72646147012710571
0.56121200323104858 0.78590410947799683 0.72621434926986694
0.6008833646774292 0.78823208808898926 0.73005318641662598
0.6644747257232666 0.79193603992462158 0.73776495456695557
0.75382673740386963 0.80385732650756836 0.75060790777206421
0.85838377475738525 0.84425383806228638 0.77152961492538452
0.90501153469085693 0.88225662708282471 0.7881045937538147
0.56996572017669678 0.86593079566955566 0.73360580205917358
0.58031082153320312 0.86327189207077026 0.73376566171646118
0.61040592193603516 0.86400258541107178 0.73566222190856934
0.66186505556106567 0.86732679605484009 0.74245870113372803
0.734619140625 0.87314754724502563 0.74889755249023438
0.82060325145721436 0.88082432746887207 0.76557844877243042
0.9069783091545105 0.89886772632598877 0.79850786924362183
