luts/instant_consumer/polaroid_px-70_warm_-.cube
# Created by: G'MIC (https://gmic.eu)
TITLE "polaroid_px-70_warm_-"
# LUT size
LUT_3D_SIZE 13
# Data domain
DOMAIN_MIN 0.0 0.0 0.0
DOMAIN_MAX 1.0 1.0 1.0
# LUT data points
0.025520579889416695 0.089914850890636444 0.099759720265865326
0.059528544545173645 0.090356864035129547 0.094520926475524902
0.12422040849924088 0.089741364121437073 0.097308889031410217
0.19372384250164032 0.088174872100353241 0.10170373320579529
0.28054139018058777 0.086302079260349274 0.11141703277826309
0.39852026104927063 0.077853217720985413 0.1221376433968544
0.5433804988861084 0.066264480352401733 0.13066822290420532
0.69350510835647583 0.089514560997486115 0.13474750518798828
0.82256484031677246 0.17436541616916656 0.13241894543170929
0.9205852746963501 0.29025575518608093 0.1257464736700058
0.980083167552948 0.38951516151428223 0.12270122021436691
0.99852705001831055 0.47383886575698853 0.1359325647354126
1 0.54460203647613525 0.1720634251832962
0.032778225839138031 0.10650762170553207 0.1018688753247261
0.074630260467529297 0.10950600355863571 0.10393941402435303
0.13709358870983124 0.10881251841783524 0.10374820232391357
0.21008367836475372 0.10661378502845764 0.10484202951192856
0.29814395308494568 0.10728982836008072 0.1138690859079361
0.41506204009056091 0.10588596016168594 0.12320375442504883
0.55630689859390259 0.10890872776508331 0.13051536679267883
0.7007136344909668 0.14021937549114227 0.13299845159053802
0.82505428791046143 0.21633890271186829 0.12804581224918365
0.91813939809799194 0.31594985723495483 0.11971244215965271
0.97851306200027466 0.41117876768112183 0.1165277361869812
0.99874782562255859 0.48988726735115051 0.1339285671710968
1 0.55484861135482788 0.16863620281219482
0.049312710762023926 0.14575856924057007 0.11741623282432556
0.084464430809020996 0.14843226969242096 0.11824680119752884
0.14406000077724457 0.14976580440998077 0.11844878643751144
0.22524379193782806 0.15028770267963409 0.11745460331439972
0.31993749737739563 0.14906510710716248 0.11888601630926132
0.43511483073234558 0.14895857870578766 0.12186314910650253
0.57287925481796265 0.16744531691074371 0.12679924070835114
0.71218454837799072 0.20774509012699127 0.12660218775272369
0.82712113857269287 0.27621328830718994 0.11864621192216873
0.91416382789611816 0.36097702383995056 0.1064206138253212
0.97578144073486328 0.44456857442855835 0.10303663462400436
0.99745655059814453 0.5135917067527771 0.12425947189331055
1 0.57251346111297607 0.16437500715255737
0.056137114763259888 0.20946380496025085 0.13430546224117279
0.091898538172245026 0.20858076214790344 0.13576723635196686
0.1527993232011795 0.21393933892250061 0.13575941324234009
0.23563423752784729 0.2227918952703476 0.13274958729743958
0.33852702379226685 0.22819957137107849 0.12994872033596039
0.45902800559997559 0.23235201835632324 0.1226125955581665
0.58937090635299683 0.24403050541877747 0.11830291897058487
0.71825218200683594 0.27946418523788452 0.11152128130197525
0.82594937086105347 0.34178599715232849 0.096052877604961395
0.90971910953521729 0.41547378897666931 0.077547334134578705
0.97081243991851807 0.4872470498085022 0.075755037367343903
0.99755418300628662 0.54728430509567261 0.10381381213665009
1 0.59690290689468384 0.15285038948059082
0.03851795569062233 0.30157655477523804 0.14760076999664307
0.088613785803318024 0.3027394711971283 0.14899864792823792
0.15832668542861938 0.30618420243263245 0.14871782064437866
0.24696767330169678 0.31581428647041321 0.14255975186824799
0.35702279210090637 0.3324342668056488 0.13415266573429108
0.48559403419494629 0.34947246313095093 0.12081870436668396
0.61372512578964233 0.36093682050704956 0.10668360441923141
0.72332876920700073 0.37880295515060425 0.085221908986568451
0.82378196716308594 0.41843047738075256 0.059002522379159927
0.90376520156860352 0.47320219874382019 0.033835764974355698
0.96187281608581543 0.53285741806030273 0.034691154956817627
0.99536317586898804 0.5849602222442627 0.07290167361497879
1 0.62547320127487183 0.13209140300750732
0.010025293566286564 0.42205917835235596 0.14952374994754791
0.054596319794654846 0.42321920394897461 0.15018282830715179
0.15457825362682343 0.42569106817245483 0.15217708051204681
0.26311397552490234 0.43424132466316223 0.14578285813331604
0.37487319111824036 0.4427497386932373 0.13416941463947296
0.50741362571716309 0.4603235125541687 0.11674121022224426
0.63315272331237793 0.47855702042579651 0.088964499533176422
0.73564410209655762 0.49759718775749207 0.052078202366828918
0.82790446281433105 0.51877701282501221 0.019241467118263245
0.89876717329025269 0.54539710283279419 0.0076474808156490326
0.95239037275314331 0.58206409215927124 0.0077860662713646889
0.98910731077194214 0.62187212705612183 0.028477178886532784
0.99935245513916016 0.65571582317352295 0.10204517096281052
0.0093764215707778931 0.54749757051467896 0.14410707354545593
0.060270510613918304 0.54639273881912231 0.14486512541770935
0.17705221474170685 0.54453575611114502 0.14868785440921783
0.28772306442260742 0.54663503170013428 0.14670220017433167
0.40323421359062195 0.55145865678787231 0.13770288228988647
0.52211827039718628 0.56245690584182739 0.11791784316301346
0.64321231842041016 0.58055102825164795 0.084939964115619659
0.75065499544143677 0.60063004493713379 0.038438115268945694
0.83275848627090454 0.6175885796546936 0.011829526163637638
0.89434093236923218 0.63326448202133179 0.0051171993836760521
0.94210618734359741 0.64908397197723389 0.0064481250010430813
0.98036563396453857 0.66724807024002075 0.009290643036365509
0.99902689456939697 0.68771111965179443 0.060364875942468643
0.13991138339042664 0.66138386726379395 0.14954940974712372
0.19336338341236115 0.65672409534454346 0.15166585147380829
0.2705635130405426 0.6524055004119873 0.15592357516288757
0.35150572657585144 0.64999663829803467 0.15841907262802124
0.44725051522254944 0.65294873714447021 0.15183253586292267
0.55468130111694336 0.66145378351211548 0.13678553700447083
0.65959471464157104 0.67470824718475342 0.11406417191028595
0.75082921981811523 0.68589270114898682 0.078608542680740356
0.82972735166549683 0.69789493083953857 0.043946988880634308
0.88747745752334595 0.70767676830291748 0.027806151658296585
0.93279850482940674 0.71717971563339233 0.029735594987869263
0.97041600942611694 0.72418087720870972 0.043262258172035217
0.99429750442504883 0.7290794849395752 0.076702132821083069
0.32259160280227661 0.74994158744812012 0.18211886286735535
0.34585756063461304 0.74597269296646118 0.18505987524986267
0.38772234320640564 0.74163848161697388 0.18870782852172852
0.44225373864173889 0.73745441436767578 0.19212493300437927
0.51178747415542603 0.73787778615951538 0.19217325747013092
0.59824448823928833 0.7416653037071228 0.18517486751079559
0.67809087038040161 0.74900615215301514 0.1737329363822937
0.75301527976989746 0.75409573316574097 0.15794658660888672
0.81954777240753174 0.76005232334136963 0.13997365534305573
0.87667930126190186 0.76736098527908325 0.11913418024778366
0.92175310850143433 0.77309799194335938 0.11898478865623474
0.95823264122009277 0.77595961093902588 0.13456779718399048
0.9877663254737854 0.7812037467956543 0.1681147962808609
0.46205216646194458 0.81231534481048584 0.23993141949176788
0.47121444344520569 0.80770450830459595 0.24170850217342377
0.49629095196723938 0.80576550960540771 0.24381096661090851
0.53497809171676636 0.80321264266967773 0.24870213866233826
0.5814824104309082 0.80168449878692627 0.25435400009155273
0.64312714338302612 0.80405503511428833 0.25075086951255798
0.70242863893508911 0.80756866931915283 0.24543541669845581
0.7624053955078125 0.80864197015762329 0.23984970152378082
0.81946802139282227 0.81226354837417603 0.23188240826129913
0.86964285373687744 0.8181416392326355 0.22029189765453339
0.91219466924667358 0.82231307029724121 0.21526455879211426
0.94921290874481201 0.82494086027145386 0.2257077544927597
0.97807687520980835 0.82812356948852539 0.25287565588951111
0.58410745859146118 0.86017507314682007 0.31733798980712891
0.58767318725585938 0.85638719797134399 0.3176058828830719
0.60028350353240967 0.85533320903778076 0.31733804941177368
0.62773585319519043 0.85530424118041992 0.32302558422088623
0.65881967544555664 0.85346567630767822 0.32647976279258728
0.69366395473480225 0.85485273599624634 0.32799926400184631
0.73459148406982422 0.85513997077941895 0.3257911205291748
0.77746522426605225 0.85847282409667969 0.3265388011932373
0.82125842571258545 0.86085391044616699 0.32419425249099731
0.86279207468032837 0.86281770467758179 0.32052856683731079
0.90255814790725708 0.86673611402511597 0.31784230470657349
0.93979227542877197 0.87088954448699951 0.31751582026481628
0.96822625398635864 0.8733365535736084 0.3374885618686676
0.68696564435958862 0.90055513381958008 0.40112429857254028
0.69234597682952881 0.89963728189468384 0.40402823686599731
0.70220333337783813 0.8987586498260498 0.40362945199012756
0.71327221393585205 0.8986474871635437 0.40404167771339417
0.73155301809310913 0.89511007070541382 0.40590307116508484
0.75290000438690186 0.89514446258544922 0.41112330555915833
0.77948081493377686 0.89527422189712524 0.41327059268951416
0.81116986274719238 0.89839679002761841 0.41331309080123901
0.83963978290557861 0.89971733093261719 0.41441795229911804
0.87065142393112183 0.90286457538604736 0.41666379570960999
0.90035116672515869 0.90814566612243652 0.41996195912361145
0.92833012342453003 0.91116100549697876 0.42073339223861694
0.95748776197433472 0.9125397801399231 0.42334333062171936
0.77609771490097046 0.93395477533340454 0.4816778302192688
0.78134280443191528 0.93544381856918335 0.4844212532043457
0.78330546617507935 0.93388843536376953 0.48378962278366089
0.78987646102905273 0.93284893035888672 0.48487129807472229
0.80142134428024292 0.93277484178543091 0.48929467797279358
0.81462448835372925 0.93199265003204346 0.49506339430809021
0.83067452907562256 0.93191957473754883 0.49889987707138062
0.84868007898330688 0.93421876430511475 0.50020372867584229
0.86989778280258179 0.93659120798110962 0.50224930047988892
0.89078408479690552 0.93777990341186523 0.50431638956069946
0.9100806713104248 0.94068998098373413 0.50687664747238159
0.93119519948959351 0.9429277777671814 0.50921207666397095
0.9524531364440918 0.94481492042541504 0.51455062627792358
0.027923973277211189 0.090856827795505524 0.11421965062618256
0.063768543303012848 0.092582628130912781 0.11408510059118271
0.11911239475011826 0.092525631189346313 0.11803171783685684
0.19592049717903137 0.093398779630661011 0.12638711929321289
0.28778326511383057 0.097137346863746643 0.13977976143360138
0.4098360538482666 0.10021428018808365 0.15242025256156921
0.55925416946411133 0.10330586135387421 0.16154840588569641
0.70699101686477661 0.12980128824710846 0.16557104885578156
0.83304119110107422 0.20690713822841644 0.16491639614105225
0.92286908626556396 0.30779838562011719 0.16385002434253693
0.98026007413864136 0.40552240610122681 0.16620397567749023
0.99765622615814209 0.48596048355102539 0.18381893634796143
1 0.55629158020019531 0.21029230952262878
0.041665215045213699 0.10926566272974014 0.12438639998435974
0.084705814719200134 0.11357182264328003 0.12841065227985382
0.14021620154380798 0.11428871750831604 0.13047564029693604
0.21883758902549744 0.11777698248624802 0.13519589602947235
0.3083835244178772 0.12103117257356644 0.14425601065158844
0.42600935697555542 0.12685680389404297 0.15324026346206665
0.57258862257003784 0.1371043473482132 0.16061475872993469
0.71437346935272217 0.16825747489929199 0.16344302892684937
0.8347400426864624 0.24189980328083038 0.16077689826488495
0.92156857252120972 0.33336186408996582 0.15871743857860565
0.9781639575958252 0.42567956447601318 0.16373318433761597
0.99800002574920654 0.50245124101638794 0.18171022832393646
1 0.56593197584152222 0.21223802864551544
0.07491716742515564 0.14916934072971344 0.14024730026721954
0.10504177212715149 0.15284225344657898 0.1421578973531723
0.15963459014892578 0.15443870425224304 0.14411446452140808
0.23704750835895538 0.15651994943618774 0.14371314644813538
0.33415812253952026 0.15898251533508301 0.1458137184381485
0.44932392239570618 0.16668391227722168 0.1514645516872406
0.58626234531402588 0.18996906280517578 0.15573307871818542
0.72208654880523682 0.22764129936695099 0.15595363080501556
0.83399754762649536 0.29473042488098145 0.15097741782665253
0.9179682731628418 0.37809503078460693 0.14684374630451202
0.97748106718063354 0.45909729599952698 0.15109707415103912
0.99760693311691284 0.52556055784225464 0.1725156158208847
1 0.582957923412323 0.20946106314659119
0.097837813198566437 0.21768282353878021 0.15682360529899597
0.12307173758745193 0.21713331341743469 0.1569843590259552
0.17221046984195709 0.21952961385250092 0.1573052853345871
0.25118544697761536 0.22795839607715607 0.15557070076465607
0.35434421896934509 0.2337431013584137 0.15335491299629211
0.47456216812133789 0.24003149569034576 0.14952805638313293
0.60313874483108521 0.25535485148429871 0.14613710343837738
0.72593146562576294 0.29397958517074585 0.14046064019203186
0.8328782320022583 0.35929149389266968 0.13201282918453217
0.91595810651779175 0.42984709143638611 0.12513400614261627
0.97287201881408691 0.5000077486038208 0.13167035579681396
0.99841952323913574 0.5556102991104126 0.15565629303455353
1 0.60415095090866089 0.19680655002593994
0.086086645722389221 0.31032359600067139 0.16674040257930756
0.12609530985355377 0.31141471862792969 0.16611769795417786
0.18229596316814423 0.31413856148719788 0.16705408692359924
0.26353338360786438 0.32171428203582764 0.16312788426876068
0.37429487705230713 0.33748066425323486 0.15738950669765472
0.50039166212081909 0.3507637083530426 0.14793288707733154
0.62105929851531982 0.35933712124824524 0.1338990181684494
0.72953134775161743 0.38520747423171997 0.11695171892642975
0.82960271835327148 0.43146991729736328 0.10067375004291534
0.9076722264289856 0.4877244234085083 0.087241619825363159
0.96233952045440674 0.54406863451004028 0.098447613418102264
0.99133318662643433 0.59004455804824829 0.13110071420669556
0.99994397163391113 0.630840003490448 0.17805579304695129
0.037078078836202621 0.43276417255401611 0.16705255210399628
0.10603887587785721 0.43386176228523254 0.1680980771780014
0.18657475709915161 0.43300673365592957 0.16934646666049957
0.28001511096954346 0.43759950995445251 0.16762641072273254
0.38954615592956543 0.4477483332157135 0.15854920446872711
0.51727485656738281 0.4635627269744873 0.142753005027771
0.63944220542907715 0.4779592752456665 0.11950294673442841
0.74233555793762207 0.4978802502155304 0.097424373030662537
0.8313935399055481 0.52284693717956543 0.067609988152980804
0.9016345739364624 0.55292332172393799 0.043761026114225388
0.95265454053878784 0.59027659893035889 0.049933727830648422
0.98642098903656006 0.62792712450027466 0.087303414940834045
0.99912881851196289 0.65914225578308105 0.15108080208301544
0.045026563107967377 0.55461233854293823 0.16394698619842529
0.1230628490447998 0.55155038833618164 0.16644555330276489
0.21417728066444397 0.55103582143783569 0.16849789023399353
0.30931460857391357 0.55158078670501709 0.17041918635368347
0.41735002398490906 0.55535382032394409 0.16440990567207336
0.5370032787322998 0.56454432010650635 0.14937505125999451
0.65322095155715942 0.58122313022613525 0.12593625485897064
0.75634735822677612 0.60391193628311157 0.092822566628456116
0.83431845903396606 0.62095814943313599 0.061993230134248734
0.89663052558898926 0.63717973232269287 0.039323501288890839
0.94368726015090942 0.65016984939575195 0.037746429443359375
0.9819648265838623 0.66776305437088013 0.054723508656024933
0.99917685985565186 0.69124650955200195 0.11828490346670151
0.18571083247661591 0.66439914703369141 0.17141227424144745
0.23393379151821136 0.66040551662445068 0.17442174255847931
0.29801976680755615 0.65715295076370239 0.17891162633895874
0.37426266074180603 0.65646070241928101 0.18312092125415802
0.46290984749794006 0.65658169984817505 0.18025444447994232
0.56544411182403564 0.66289865970611572 0.16887804865837097
0.66367590427398682 0.675068199634552 0.15135933458805084
0.75296705961227417 0.68843042850494385 0.12690651416778564
0.83079975843429565 0.69898444414138794 0.10204070061445236
0.887229323387146 0.70672118663787842 0.083722732961177826
0.9321104884147644 0.71534109115600586 0.085548624396324158
0.97027647495269775 0.72284543514251709 0.098159953951835632
0.99405986070632935 0.73140442371368408 0.12878672778606415
0.3462405800819397 0.75162696838378906 0.20355822145938873
0.36808991432189941 0.74794906377792358 0.2077794075012207
0.4089357852935791 0.74551373720169067 0.21094340085983276
0.4618867039680481 0.74312758445739746 0.21434128284454346
0.52545464038848877 0.74028801918029785 0.21871659159660339
0.60993444919586182 0.74554860591888428 0.21260380744934082
0.68453484773635864 0.75147473812103271 0.2046971321105957
0.7543255090713501 0.75485807657241821 0.19433215260505676
0.8222358226776123 0.76125043630599976 0.17881247401237488
0.87673205137252808 0.76838916540145874 0.16041079163551331
0.92163681983947754 0.77415883541107178 0.16106356680393219
0.95931720733642578 0.77906429767608643 0.17453633248806
0.98809212446212769 0.78382712602615356 0.19928717613220215
0.47218680381774902 0.81039255857467651 0.25922390818595886
0.48732331395149231 0.81029951572418213 0.25897753238677979
0.51498830318450928 0.80748051404953003 0.2646813690662384
0.54898256063461304 0.80548298358917236 0.26869955658912659
0.59551393985748291 0.8039851188659668 0.27251067757606506
0.65566402673721313 0.80552715063095093 0.27129086852073669
0.70944982767105103 0.80746930837631226 0.27123850584030151
0.76513731479644775 0.81231009960174561 0.26542526483535767
0.82043981552124023 0.81670874357223511 0.25814849138259888
0.87042868137359619 0.82062768936157227 0.24789908528327942
0.91508692502975464 0.82576680183410645 0.23928776383399963
0.949451744556427 0.8278316855430603 0.25327855348587036
0.97842764854431152 0.83048444986343384 0.2784748375415802
0.59072327613830566 0.85974287986755371 0.33136218786239624
0.59260594844818115 0.8569217324256897 0.32922166585922241
0.61048543453216553 0.85524612665176392 0.33454236388206482
0.63691145181655884 0.85410356521606445 0.33890250325202942
0.66428577899932861 0.85255575180053711 0.34168899059295654
0.69677305221557617 0.85269087553024292 0.34365499019622803
0.73797875642776489 0.85557210445404053 0.34344932436943054
0.78069901466369629 0.85929340124130249 0.34313943982124329
0.82291024923324585 0.86101502180099487 0.34291878342628479
0.86625933647155762 0.86385548114776611 0.33843472599983215
0.90645682811737061 0.86701858043670654 0.33307453989982605
0.93971693515777588 0.87168377637863159 0.33907541632652283
0.96938478946685791 0.87565720081329346 0.35818961262702942
0.69248521327972412 0.90147769451141357 0.40891426801681519
0.69519317150115967 0.89804178476333618 0.41184470057487488
0.70383894443511963 0.89620155096054077 0.41378161311149597
0.71681308746337891 0.89562851190567017 0.4148867130279541
0.73552870750427246 0.8936883807182312 0.41951826214790344
0.75514215230941772 0.894176185131073 0.42262357473373413
0.78309410810470581 0.89535582065582275 0.42481210827827454
0.81196939945220947 0.89815795421600342 0.42491525411605835
0.84146255254745483 0.8991703987121582 0.42551732063293457
0.87305235862731934 0.90245264768600464 0.42675614356994629
0.90375161170959473 0.90615969896316528 0.42838981747627258
0.93236148357391357 0.91044741868972778 0.42969387769699097
0.95814025402069092 0.91392892599105835 0.43487021327018738
0.77748274803161621 0.93400996923446655 0.48613980412483215
0.7805250883102417 0.93360453844070435 0.48795869946479797
0.78381550312042236 0.93180537223815918 0.48824170231819153
0.79186820983886719 0.93190884590148926 0.49100407958030701
0.80401885509490967 0.93202704191207886 0.49500373005867004
0.81503558158874512 0.93084239959716797 0.4984649121761322
0.83220142126083374 0.93236446380615234 0.50540107488632202
0.85112655162811279 0.93332916498184204 0.50655835866928101
0.87071847915649414 0.93513423204421997 0.50647234916687012
0.89060300588607788 0.93671637773513794 0.5071406364440918
0.91144073009490967 0.94030123949050903 0.51111865043640137
0.93267178535461426 0.94275975227355957 0.5126415491104126
0.95274436473846436 0.94517046213150024 0.51956957578659058
0.044683448970317841 0.09748077392578125 0.14909778535366058
0.083838187158107758 0.10013798624277115 0.15008941292762756
0.12749424576759338 0.10242161154747009 0.14884752035140991
0.19185672700405121 0.10414110124111176 0.15434809029102325
0.28856393694877625 0.10277301818132401 0.16582557559013367
0.41669639945030212 0.094946525990962982 0.1784280389547348
0.57122701406478882 0.098646961152553558 0.19420787692070007
0.72250127792358398 0.14795663952827454 0.20565107464790344
0.84414941072463989 0.2395368218421936 0.21316444873809814
0.92776697874069214 0.33900398015975952 0.22018313407897949
0.98031532764434814 0.43379431962966919 0.23035788536071777
0.99796390533447266 0.51084977388381958 0.24968309700489044
1 0.57370638847351074 0.27140188217163086
0.056806944310665131 0.11777005344629288 0.15834014117717743
0.10123953968286514 0.12264673411846161 0.16162915527820587
0.14728590846061707 0.12465860694646835 0.16113026440143585
0.21529901027679443 0.1274033784866333 0.16548186540603638
0.3122977614402771 0.12737864255905151 0.17490150034427643
0.43655484914779663 0.13071268796920776 0.18532933294773102
0.58670634031295776 0.15054649114608765 0.19760710000991821
0.72887897491455078 0.19701066613197327 0.20687484741210938
0.8444640040397644 0.27423256635665894 0.21021148562431335
0.92605596780776978 0.36359229683876038 0.2164415717124939
0.97938579320907593 0.45150914788246155 0.22546097636222839
0.99753153324127197 0.52412599325180054 0.24370245635509491
1 0.58442628383636475 0.2701869010925293
0.085637398064136505 0.15595903992652893 0.16928602755069733
0.12298712879419327 0.15914374589920044 0.17278994619846344
0.17271216213703156 0.1621171236038208 0.17522415518760681
0.24401171505451202 0.16697476804256439 0.17688940465450287
0.34454557299613953 0.17308503389358521 0.18044371902942657
0.46469369530677795 0.17967087030410767 0.18826508522033691
0.60234874486923218 0.20909376442432404 0.19692565500736237
0.73509818315505981 0.25324660539627075 0.20049642026424408
0.84335815906524658 0.31967923045158386 0.20094709098339081
0.923359215259552 0.40038025379180908 0.20445077121257782
0.9764711856842041 0.47758126258850098 0.21514253318309784
0.99614137411117554 0.54253697395324707 0.23408026993274689
1 0.5981452465057373 0.26429855823516846
0.12435531616210938 0.22048035264015198 0.18383002281188965
0.15472982823848724 0.22358217835426331 0.18507687747478485
0.19829589128494263 0.22743132710456848 0.18704074621200562
0.27004429697990417 0.23439353704452515 0.18758152425289154
0.37209680676460266 0.23925094306468964 0.18561601638793945
0.49150297045707703 0.24878935515880585 0.18576982617378235
0.61809301376342773 0.27310886979103088 0.18753564357757568
0.74054694175720215 0.31688639521598816 0.18685899674892426
0.8428155779838562 0.38020247220993042 0.18649990856647491
0.91910988092422485 0.44998008012771606 0.18933944404125214
0.9713737964630127 0.51393985748291016 0.20066870748996735
0.99560356140136719 0.56862789392471313 0.22387403249740601
0.99984502792358398 0.6165238618850708 0.25613051652908325
0.15032869577407837 0.31949567794799805 0.19794216752052307
0.17394976317882538 0.32146400213241577 0.19665674865245819
0.21754121780395508 0.32434293627738953 0.19703148305416107
0.28800532221794128 0.32987740635871887 0.19497792422771454
0.3930392861366272 0.3443877100944519 0.19115340709686279
0.51581895351409912 0.35500568151473999 0.18463890254497528
0.63328403234481812 0.36700537800788879 0.17417457699775696
0.74305462837219238 0.39300361275672913 0.16540293395519257
0.83778148889541626 0.4415154755115509 0.16087515652179718
0.91171556711196899 0.50021088123321533 0.16227637231349945
0.96392691135406494 0.55543023347854614 0.1763901561498642
