luts/instant_consumer/polaroid_time_zero_expired.cube
# Created by: G'MIC (https://gmic.eu)
TITLE "polaroid_time_zero_expired"
# LUT size
LUT_3D_SIZE 5
# Data domain
DOMAIN_MIN 0.0 0.0 0.0
DOMAIN_MAX 1.0 1.0 1.0
# LUT data points
0.61571425199508667 0.34892585873603821 0.13280202448368073
0.62828946113586426 0.34622657299041748 0.12933844327926636
0.68460553884506226 0.35051587224006653 0.13080574572086334
0.78772181272506714 0.35404407978057861 0.12876766920089722
0.90216612815856934 0.38256910443305969 0.14680592715740204
0.62531149387359619 0.38231346011161804 0.12327387183904648
0.64554399251937866 0.38006377220153809 0.12591302394866943
0.70592212677001953 0.38678741455078125 0.12588672339916229
0.80414384603500366 0.39654973149299622 0.10980689525604248
0.920737624168396 0.4279991090297699 0.1272110790014267
0.65607833862304688 0.48710513114929199 0.060981210321187973
0.68492794036865234 0.49148833751678467 0.048554558306932449
0.75220763683319092 0.50447332859039307 0.068442642688751221
0.83431357145309448 0.51620078086853027 0.10076199471950531
0.92513424158096313 0.54117131233215332 0.070252254605293274
0.70777839422225952 0.64249587059020996 0.0013885498046875
0.73179954290390015 0.64396661520004272 0
0.79331928491592407 0.65268748998641968 0
0.87225663661956787 0.67432016134262085 0.069402895867824554
0.93881314992904663 0.7006872296333313 0.2097209095954895
0.79778945446014404 0.80582106113433838 0.0044137993827462196
0.81201565265655518 0.80560195446014404 7.0010914896556642e-06
0.85045242309570312 0.80938082933425903 0.001514374976977706
0.91347646713256836 0.81489157676696777 0.17571979761123657
0.95653825998306274 0.82355242967605591 0.37000924348831177
0.62418019771575928 0.34645488858222961 0.16288788616657257
0.6317744255065918 0.34842252731323242 0.15296560525894165
0.688770592212677 0.35195726156234741 0.16652710735797882
0.80174660682678223 0.35612165927886963 0.18355779349803925
0.92077541351318359 0.39321476221084595 0.19028705358505249
0.63707464933395386 0.3859160840511322 0.15755818784236908
0.65308296680450439 0.38816317915916443 0.15936011075973511
0.71210867166519165 0.39168533682823181 0.16005629301071167
0.8194117546081543 0.3988710343837738 0.16683676838874817
0.93105411529541016 0.43503233790397644 0.17748740315437317
0.66346281766891479 0.49026280641555786 0.12090983986854553
0.68823736906051636 0.49420535564422607 0.12121176719665527
0.75771760940551758 0.51164638996124268 0.14583516120910645
0.84113615751266479 0.52067345380783081 0.15712466835975647
0.93182909488677979 0.54881381988525391 0.15271438658237457
0.71375328302383423 0.64847749471664429 0.041600693017244339
0.73297202587127686 0.64855790138244629 0.025727156549692154
0.79325687885284424 0.65884584188461304 0.020979907363653183
0.87406665086746216 0.67941433191299438 0.16986699402332306
0.9373096227645874 0.70327240228652954 0.25985997915267944
0.80024510622024536 0.80796796083450317 0.10670550167560577
0.81230562925338745 0.80562245845794678 0.092610284686088562
0.84833347797393799 0.81040340662002563 0.031899455934762955
0.91092491149902344 0.81498253345489502 0.22702886164188385
0.95736539363861084 0.82591080665588379 0.40931707620620728
0.67775082588195801 0.35838282108306885 0.2751200795173645
0.68713724613189697 0.36266851425170898 0.27487355470657349
0.72949916124343872 0.37102428078651428 0.28468993306159973
0.81742918491363525 0.37144672870635986 0.29450961947441101
0.93458014726638794 0.40473362803459167 0.33385589718818665
0.69966083765029907 0.41065442562103271 0.277963787317276
0.71363133192062378 0.41900137066841125 0.28746062517166138
0.7458530068397522 0.42433783411979675 0.27881482243537903
0.83180195093154907 0.41792502999305725 0.29538887739181519
0.93315118551254272 0.45804435014724731 0.31767097115516663
0.70249027013778687 0.49764150381088257 0.25264599919319153
0.72320902347564697 0.50334805250167847 0.25698846578598022
0.77198559045791626 0.52470093965530396 0.26864951848983765
0.84954440593719482 0.52467936277389526 0.27150779962539673
0.93949288129806519 0.55904757976531982 0.29073667526245117
0.72974145412445068 0.64395660161972046 0.24696691334247589
0.75000530481338501 0.64042091369628906 0.24679824709892273
0.79640495777130127 0.65990984439849854 0.23649901151657104
0.8778185248374939 0.69047671556472778 0.31048750877380371
0.94093424081802368 0.69742971658706665 0.32668372988700867
0.8022083044052124 0.80511873960494995 0.31317543983459473
0.81434625387191772 0.80185598134994507 0.29828572273254395
0.84404999017715454 0.8104667067527771 0.26996657252311707
0.90592676401138306 0.8192284107208252 0.30789622664451599
0.95446336269378662 0.82819432020187378 0.47047644853591919
0.77222973108291626 0.40292474627494812 0.48891860246658325
0.77988249063491821 0.41284400224685669 0.48589795827865601
0.81297671794891357 0.43557038903236389 0.50125318765640259
0.85427695512771606 0.45955982804298401 0.49271935224533081
0.93155032396316528 0.45310333371162415 0.49658218026161194
0.80379819869995117 0.48477956652641296 0.48698887228965759
0.80882459878921509 0.48977550864219666 0.48946362733840942
0.82768821716308594 0.50777226686477661 0.49709951877593994
0.86412990093231201 0.52058827877044678 0.49401000142097473
0.9324944019317627 0.49664756655693054 0.49813616275787354
0.80440014600753784 0.57074278593063354 0.46705019474029541
0.82242345809936523 0.58203190565109253 0.46801126003265381
0.84137105941772461 0.60217070579528809 0.48340898752212524
0.87244099378585815 0.60740584135055542 0.48141372203826904
0.9364703893661499 0.57891601324081421 0.49794065952301025
0.78738641738891602 0.66288101673126221 0.44145295023918152
0.80593007802963257 0.66242522001266479 0.43672594428062439
0.8334275484085083 0.68216216564178467 0.44373005628585815
0.87875020503997803 0.69643193483352661 0.45843574404716492
0.94008010625839233 0.69087427854537964 0.46369880437850952
0.80916017293930054 0.79775452613830566 0.47367793321609497
0.8294985294342041 0.790272057056427 0.47815018892288208
0.85128891468048096 0.80184119939804077 0.48044246435165405
0.8897395133972168 0.81921863555908203 0.47009298205375671
0.94980311393737793 0.83245885372161865 0.57989698648452759
0.86325192451477051 0.5594782829284668 0.69749653339385986
0.86564838886260986 0.56217426061630249 0.69713640213012695
0.87884479761123657 0.57950621843338013 0.70215564966201782
0.89523810148239136 0.60971689224243164 0.71018421649932861
0.92856478691101074 0.63216120004653931 0.70083117485046387
0.88069194555282593 0.61750608682632446 0.69708776473999023
0.88367235660552979 0.61551719903945923 0.70137834548950195
0.89188379049301147 0.63104170560836792 0.71023786067962646
0.90346866846084595 0.66150784492492676 0.7237166166305542
0.93069303035736084 0.65450632572174072 0.69526755809783936
0.88347786664962769 0.6884390115737915 0.69508910179138184
0.89048808813095093 0.68400520086288452 0.69941860437393188
0.89681875705718994 0.69405066967010498 0.70589709281921387
0.90726202726364136 0.71874111890792847 0.71025258302688599
0.93446403741836548 0.71177715063095093 0.71356105804443359
0.86427301168441772 0.73454350233078003 0.69184505939483643
0.8732980489730835 0.73990976810455322 0.69570362567901611
0.89010298252105713 0.74925500154495239 0.69872987270355225
0.90944558382034302 0.77547460794448853 0.72096365690231323
0.9335561990737915 0.77700591087341309 0.71873277425765991
0.85853880643844604 0.81776803731918335 0.69776171445846558
0.87118875980377197 0.81903594732284546 0.70836025476455688
0.88828593492507935 0.82168769836425781 0.71281808614730835
0.90642917156219482 0.83130884170532227 0.71195274591445923
0.94319838285446167 0.84421181678771973 0.73994594812393188
