luts/instant_consumer/polaroid_px-100uv+_warm_+.cube
# Created by: G'MIC (https://gmic.eu)
TITLE "polaroid_px-100uv+_warm_+"
# LUT size
LUT_3D_SIZE 5
# Data domain
DOMAIN_MIN 0.0 0.0 0.0
DOMAIN_MAX 1.0 1.0 1.0
# LUT data points
0.32313081622123718 0.29981395602226257 0.30422347784042358
0.33686676621437073 0.31707513332366943 0.32152098417282104
0.39862397313117981 0.38435494899749756 0.3883422315120697
0.48777920007705688 0.47838515043258667 0.48083281517028809
0.61828339099884033 0.60774421691894531 0.60145026445388794
0.34538072347640991 0.32523965835571289 0.3297269344329834
0.35468995571136475 0.3378603458404541 0.3424561619758606
0.40243449807167053 0.39001914858818054 0.39432829618453979
0.49386489391326904 0.48546633124351501 0.4868319034576416
0.62206739187240601 0.61275011301040649 0.60417532920837402
0.42053332924842834 0.40944567322731018 0.41309383511543274
0.41884058713912964 0.40944567322731018 0.41462615132331848
0.44693982601165771 0.438680499792099 0.44400253891944885
0.52045559883117676 0.51330041885375977 0.51403677463531494
0.64679145812988281 0.63745975494384766 0.62516987323760986
0.5407598614692688 0.53361779451370239 0.53150242567062378
0.53729510307312012 0.5302014946937561 0.52880978584289551
0.55152183771133423 0.54414463043212891 0.5424993634223938
0.61180323362350464 0.60312420129776001 0.59621816873550415
0.72065764665603638 0.70938616991043091 0.68844103813171387
0.75161075592041016 0.73722100257873535 0.71320241689682007
0.7503851056098938 0.73585468530654907 0.71188724040985107
0.7523341178894043 0.73812413215637207 0.71486812829971313
0.78214716911315918 0.76763337850570679 0.7422943115234375
0.82389706373214722 0.80841851234436035 0.77962720394134521
0.36032211780548096 0.34158313274383545 0.34593021869659424
0.37407088279724121 0.35918641090393066 0.36315271258354187
0.4302666187286377 0.41935667395591736 0.42351451516151428
0.53497540950775146 0.52748388051986694 0.52754831314086914
0.65825581550598145 0.64827233552932739 0.63815784454345703
0.38189661502838135 0.36311173439025879 0.36677348613739014
0.40081694722175598 0.38844266533851624 0.39182552695274353
0.45009317994117737 0.44130119681358337 0.44441038370132446
0.54458904266357422 0.53814858198165894 0.53605824708938599
0.6665729284286499 0.6571274995803833 0.64406156539916992
0.47788035869598389 0.46973064541816711 0.46991637349128723
0.47001618146896362 0.462656170129776 0.46465280652046204
0.49479061365127563 0.4872722327709198 0.48942923545837402
0.55951720476150513 0.55264073610305786 0.54916244745254517
0.67930704355239868 0.66958737373352051 0.65391242504119873
0.58870798349380493 0.58071589469909668 0.57381123304367065
0.59092563390731812 0.58127862215042114 0.5754239559173584
0.58896774053573608 0.57958036661148071 0.57288175821304321
0.63997143507003784 0.63039600849151611 0.61870509386062622
0.73713600635528564 0.72532659769058228 0.7029569149017334
0.76844495534896851 0.75378310680389404 0.72959160804748535
0.769073486328125 0.75317811965942383 0.7290838360786438
0.76186937093734741 0.74673974514007568 0.72256571054458618
0.78349381685256958 0.76909536123275757 0.74274450540542603
0.8319975733757019 0.81740117073059082 0.78623193502426147
0.46404683589935303 0.45473995804786682 0.45746722817420959
0.4902789294719696 0.48304352164268494 0.48189792037010193
0.51319509744644165 0.5058479905128479 0.50457066297531128
0.58591854572296143 0.57763832807540894 0.57256472110748291
0.71723294258117676 0.704243004322052 0.68620699644088745
0.48955297470092773 0.4811197817325592 0.48189952969551086
0.50372129678726196 0.49566996097564697 0.49536499381065369
0.53475546836853027 0.5271608829498291 0.52574789524078369
0.60986298322677612 0.60205978155136108 0.59411680698394775
0.72763097286224365 0.71529233455657959 0.69498175382614136
0.5185965895652771 0.51091736555099487 0.51447349786758423
0.53389847278594971 0.52600657939910889 0.52599316835403442
0.57665139436721802 0.56707125902175903 0.56235575675964355
0.63986998796463013 0.62959414720535278 0.61839532852172852
0.74337846040725708 0.7301633358001709 0.70825493335723877
0.65348803997039795 0.64151328802108765 0.63029903173446655
0.66105717420578003 0.64676815271377563 0.63648200035095215
0.66939842700958252 0.65589511394500732 0.64226025342941284
0.70588827133178711 0.69321215152740479 0.67456579208374023
0.78101718425750732 0.76730972528457642 0.74098730087280273
0.80304533243179321 0.78636324405670166 0.76089715957641602
0.80362820625305176 0.78546744585037231 0.7601199746131897
0.80163240432739258 0.78475862741470337 0.75772374868392944
0.81322848796844482 0.79813849925994873 0.7686496376991272
0.84901201725006104 0.83423900604248047 0.80135571956634521
0.6250234842300415 0.61576294898986816 0.60884696245193481
0.64352935552597046 0.63327205181121826 0.62317782640457153
0.67342221736907959 0.66184943914413452 0.6472814679145813
0.7005959153175354 0.68832314014434814 0.67001575231552124
0.75469565391540527 0.7398829460144043 0.71685606241226196
0.64906531572341919 0.6377825140953064 0.62831354141235352
0.6671288013458252 0.65334516763687134 0.64192742109298706
0.69560879468917847 0.68157792091369629 0.66561758518218994
0.70892810821533203 0.6955077052116394 0.67693495750427246
0.77272361516952515 0.75754791498184204 0.73105192184448242
0.65659987926483154 0.64458394050598145 0.63392794132232666
0.6730770468711853 0.65910947322845459 0.64589279890060425
0.70508277416229248 0.69104182720184326 0.6720690131187439
0.73216104507446289 0.71767282485961914 0.69693553447723389
0.7921634316444397 0.77615725994110107 0.75001567602157593
0.70044910907745361 0.68873995542526245 0.67066961526870728
0.71011906862258911 0.69749945402145386 0.67848861217498779
0.74699115753173828 0.7327762246131897 0.70960372686386108
0.77984738349914551 0.76536017656326294 0.73941707611083984
0.82321995496749878 0.80811595916748047 0.77858155965805054
0.82469487190246582 0.8091118335723877 0.78201502561569214
0.82141268253326416 0.80488705635070801 0.77755606174468994
0.8376460075378418 0.82147550582885742 0.79106193780899048
0.84607034921646118 0.8312307596206665 0.79907596111297607
0.86260545253753662 0.84854912757873535 0.81511074304580688
0.82146650552749634 0.80630648136138916 0.77765482664108276
0.81955265998840332 0.80409842729568481 0.7760811448097229
0.8285834789276123 0.81270623207092285 0.78292351961135864
0.8483884334564209 0.83216625452041626 0.80010986328125
0.8461763858795166 0.83048754930496216 0.80009382963180542
0.83284085988998413 0.81659233570098877 0.78633338212966919
0.83691084384918213 0.81904250383377075 0.7885429859161377
0.83977991342544556 0.82313042879104614 0.79041320085525513
0.85360431671142578 0.83789253234863281 0.80353754758834839
0.85318821668624878 0.83766144514083862 0.80285662412643433
0.8339998722076416 0.8182375431060791 0.7857239842414856
0.83735436201095581 0.81978434324264526 0.78699964284896851
0.84533548355102539 0.82862156629562378 0.79374140501022339
0.8592800498008728 0.8436165452003479 0.809040367603302
0.86810743808746338 0.85256415605545044 0.8182750940322876
0.82985299825668335 0.81564134359359741 0.78265887498855591
0.83689361810684204 0.82082206010818481 0.78786170482635498
0.84111219644546509 0.82555007934570312 0.79243439435958862
0.85203170776367188 0.83734971284866333 0.80404055118560791
0.86770540475845337 0.85414671897888184 0.81968897581100464
0.85671955347061157 0.84405308961868286 0.81083440780639648
0.86237388849258423 0.84720528125762939 0.81441998481750488
0.86194252967834473 0.84664040803909302 0.81461429595947266
0.86967849731445312 0.85594600439071655 0.8225741982460022
0.87785130739212036 0.86540788412094116 0.83118999004364014
