luts/instant_consumer/polaroid_px-680_warm.cube
# Created by: G'MIC (https://gmic.eu)
TITLE "polaroid_px-680_warm"
# LUT size
LUT_3D_SIZE 13
# Data domain
DOMAIN_MIN 0.0 0.0 0.0
DOMAIN_MAX 1.0 1.0 1.0
# LUT data points
0.25801840424537659 0.21106809377670288 0.084742046892642975
0.2642672061920166 0.21137244999408722 0.085202954709529877
0.27018612623214722 0.21120850741863251 0.085033178329467773
0.28566300868988037 0.21077542006969452 0.084563128650188446
0.33074542880058289 0.21023069322109222 0.082844831049442291
0.4181896448135376 0.21057248115539551 0.077270433306694031
0.54047238826751709 0.21356987953186035 0.06859135627746582
0.65717011690139771 0.22702611982822418 0.059956539422273636
0.7573818564414978 0.25410676002502441 0.050358731299638748
0.83858108520507812 0.29570510983467102 0.054743628948926926
0.90047496557235718 0.35038959980010986 0.084099821746349335
0.94611221551895142 0.40942370891571045 0.13192631304264069
0.98125118017196655 0.46973088383674622 0.18970456719398499
0.25783482193946838 0.22003407776355743 0.08500245213508606
0.26304703950881958 0.21780544519424438 0.084143847227096558
0.27114024758338928 0.21674680709838867 0.083572089672088623
0.29432410001754761 0.21808212995529175 0.082579605281352997
0.3443988561630249 0.21919184923171997 0.08008836954832077
0.43413653969764709 0.2229098379611969 0.073320858180522919
0.55682432651519775 0.22895504534244537 0.06312667578458786
0.67042160034179688 0.24506464600563049 0.052155438810586929
0.76415830850601196 0.27374023199081421 0.042439777404069901
0.84019285440444946 0.31585225462913513 0.051027260720729828
0.89838314056396484 0.36975595355033875 0.085064738988876343
0.94373679161071777 0.4242088794708252 0.13278070092201233
0.98156607151031494 0.48180314898490906 0.19208338856697083
0.25650849938392639 0.23045836389064789 0.084802143275737762
0.26158937811851501 0.23014092445373535 0.083546027541160583
0.27345144748687744 0.22903531789779663 0.081572435796260834
0.30324587225914001 0.23312713205814362 0.078952446579933167
0.36330598592758179 0.23896290361881256 0.073738440871238708
0.45620203018188477 0.24528761208057404 0.064062558114528656
0.57383745908737183 0.25561997294425964 0.051595710217952728
0.68085300922393799 0.27562835812568665 0.038638260215520859
0.76914644241333008 0.30552887916564941 0.033259313553571701
0.84025770425796509 0.34515714645385742 0.045211523771286011
0.90066659450531006 0.39534193277359009 0.083926692605018616
0.94593101739883423 0.44867420196533203 0.13630810379981995
0.97864782810211182 0.49926599860191345 0.19280658662319183
0.25273406505584717 0.25569054484367371 0.083237066864967346
0.25972318649291992 0.256776362657547 0.081945173442363739
0.2768496572971344 0.25904086232185364 0.08049406111240387
0.31394922733306885 0.26856273412704468 0.075740128755569458
0.39242169260978699 0.285178542137146 0.060871124267578125
0.48979061841964722 0.29665276408195496 0.045769095420837402
0.59301573038101196 0.30346810817718506 0.02939789742231369
0.68854892253875732 0.31851112842559814 0.018064925447106361
0.77102041244506836 0.34808152914047241 0.018013300374150276
0.8386344313621521 0.38361552357673645 0.032994542270898819
0.89855200052261353 0.42964848875999451 0.079519473016262054
0.94275951385498047 0.47677338123321533 0.13457146286964417
0.9736325740814209 0.52079087495803833 0.19116167724132538
0.24172179400920868 0.31696054339408875 0.075096070766448975
0.25340616703033447 0.31760033965110779 0.075582690536975861
0.27735608816146851 0.32032155990600586 0.075941957533359528
0.32245272397994995 0.33222800493240356 0.06826888769865036
0.40447160601615906 0.3491261899471283 0.049934372305870056
0.51420015096664429 0.37124115228652954 0.023418352007865906
0.6134074330329895 0.38279333710670471 0.0083732903003692627
0.69285076856613159 0.38559421896934509 0.0074062272906303406
0.76566630601882935 0.39809533953666687 0.0069271163083612919
0.83339852094650269 0.42692515254020691 0.017463071271777153
0.89038902521133423 0.46628254652023315 0.064451746642589569
0.93160533905029297 0.50472241640090942 0.12465509027242661
0.96542853116989136 0.54615724086761475 0.18852944672107697
0.22830173373222351 0.38577410578727722 0.064079433679580688
0.24410291016101837 0.38861143589019775 0.065875574946403503
0.27162465453147888 0.39001530408859253 0.06795094907283783
0.31988891959190369 0.39784339070320129 0.062288008630275726
0.39739391207695007 0.41214185953140259 0.052188664674758911
0.49949803948402405 0.43319845199584961 0.030639408156275749
0.61298030614852905 0.46417585015296936 0.012686950154602528
0.69393599033355713 0.47485062479972839 0.0078206229954957962
0.76230299472808838 0.47964200377464294 0.0071633132174611092
0.82500308752059937 0.4877198338508606 0.010945159010589123
0.8804175853729248 0.50615543127059937 0.041801750659942627
0.92448878288269043 0.54040491580963135 0.1141793504357338
0.95870673656463623 0.57655900716781616 0.18245221674442291
0.22667837142944336 0.45573601126670837 0.065231502056121826
0.24390614032745361 0.45433390140533447 0.067771106958389282
0.27565810084342957 0.45181819796562195 0.073584616184234619
0.32122018933296204 0.45909038186073303 0.074526064097881317
0.39319413900375366 0.47185614705085754 0.070587888360023499
0.48571327328681946 0.48977187275886536 0.062821827828884125
0.58546990156173706 0.51666784286499023 0.052284855395555496
0.68392235040664673 0.54841393232345581 0.043294750154018402
0.75677955150604248 0.56243032217025757 0.041768509894609451
0.81790602207183838 0.56974774599075317 0.053327552974224091
0.87025874853134155 0.57533329725265503 0.077317073941230774
0.91344881057739258 0.58348792791366577 0.1150389164686203
0.94898617267608643 0.60793286561965942 0.17384852468967438
0.24460351467132568 0.51753342151641846 0.083868809044361115
0.2622334361076355 0.51585221290588379 0.086597472429275513
0.29265531897544861 0.5142027735710144 0.093007840216159821
0.33621549606323242 0.51897042989730835 0.099005363881587982
0.40065690875053406 0.52940505743026733 0.1024991050362587
0.48024293780326843 0.54560643434524536 0.10313525050878525
0.56625086069107056 0.56660693883895874 0.10589981079101562
0.65489989519119263 0.59324687719345093 0.10912866145372391
0.73938697576522827 0.6233941912651062 0.11996547877788544
0.80794686079025269 0.64185583591461182 0.1354185938835144
0.85915976762771606 0.64780253171920776 0.15344609320163727
0.8998139500617981 0.64890789985656738 0.17393107712268829
0.93530154228210449 0.65640538930892944 0.20212039351463318
0.28313133120536804 0.58396345376968384 0.11756237596273422
0.29532989859580994 0.58208423852920532 0.11800277978181839
0.31977349519729614 0.5804063081741333 0.12232813984155655
0.36304232478141785 0.58444488048553467 0.13149134814739227
0.41389885544776917 0.59033852815628052 0.13877619802951813
0.48174378275871277 0.60445213317871094 0.14672939479351044
0.55631422996520996 0.62289321422576904 0.15525795519351959
0.63202786445617676 0.64228707551956177 0.16581155359745026
0.71037161350250244 0.66367250680923462 0.18140536546707153
0.78967750072479248 0.69238311052322388 0.20600219070911407
0.84750914573669434 0.70748168230056763 0.2281239777803421
0.88887232542037964 0.71249181032180786 0.2504446804523468
0.92262202501296997 0.71666187047958374 0.27455005049705505
0.32962742447853088 0.65181624889373779 0.16185289621353149
0.33937156200408936 0.64991039037704468 0.16190396249294281
0.35951435565948486 0.64936834573745728 0.16391532123088837
0.39553463459014893 0.64968091249465942 0.17235943675041199
0.43452441692352295 0.65214091539382935 0.18143607676029205
0.49518981575965881 0.66399633884429932 0.19662967324256897
0.56285661458969116 0.67902678251266479 0.20998229086399078
0.62528198957443237 0.69324499368667603 0.22411283850669861
0.69686371088027954 0.71185183525085449 0.24470712244510651
0.76976031064987183 0.72996759414672852 0.26923307776451111
0.82937109470367432 0.74380230903625488 0.29398170113563538
0.88116669654846191 0.76013851165771484 0.32874563336372375
0.91459488868713379 0.76717793941497803 0.35582855343818665
0.38511532545089722 0.71388322114944458 0.21934142708778381
0.38943308591842651 0.70905607938766479 0.21478968858718872
0.40483307838439941 0.70871758460998535 0.21610188484191895
0.43482959270477295 0.70876556634902954 0.22722478210926056
0.46960866451263428 0.71282082796096802 0.23962196707725525
0.52208781242370605 0.72166728973388672 0.25854158401489258
0.57969397306442261 0.73329609632492065 0.27479475736618042
0.63625806570053101 0.74439817667007446 0.28907537460327148
0.69780868291854858 0.7542576789855957 0.31059357523918152
0.76032000780105591 0.76459479331970215 0.33384948968887329
0.81669515371322632 0.77444541454315186 0.3567902147769928
0.86444520950317383 0.78435695171356201 0.38526636362075806
0.90715134143829346 0.79828810691833496 0.42601752281188965
0.45896559953689575 0.76974982023239136 0.29548662900924683
0.4622381329536438 0.7691996693611145 0.29303613305091858
0.47612574696540833 0.76903951168060303 0.29518282413482666
0.50123125314712524 0.76993048191070557 0.30606278777122498
0.53218001127243042 0.77300447225570679 0.31934309005737305
0.56863808631896973 0.77623945474624634 0.33535683155059814
0.61714589595794678 0.78287571668624878 0.3528362512588501
0.67007905244827271 0.7891916036605835 0.37066274881362915
0.72513449192047119 0.79519307613372803 0.39209821820259094
0.77752900123596191 0.80062788724899292 0.41224870085716248
0.82168322801589966 0.80617189407348633 0.43482401967048645
0.86322391033172607 0.81174236536026001 0.45936986804008484
0.89911955595016479 0.81931537389755249 0.48677477240562439
0.57834649085998535 0.82055151462554932 0.4059569239616394
0.58108234405517578 0.81954920291900635 0.40527880191802979
0.5895649790763855 0.81840389966964722 0.40694710612297058
0.60539418458938599 0.81928139925003052 0.41312375664710999
0.63181287050247192 0.82088732719421387 0.4258829653263092
0.66231566667556763 0.8235735297203064 0.44188621640205383
0.69677698612213135 0.82569563388824463 0.45799520611763
0.73486477136611938 0.82698744535446167 0.47373268008232117
0.77370399236679077 0.82939749956130981 0.49081134796142578
0.81256240606307983 0.83258366584777832 0.50931674242019653
0.84698450565338135 0.83687955141067505 0.52999281883239746
0.87896215915679932 0.84118056297302246 0.55040198564529419
0.90733379125595093 0.84646964073181152 0.5743335485458374
0.25948551297187805 0.21039871871471405 0.090897306799888611
0.26527142524719238 0.21186739206314087 0.091986954212188721
0.27355819940567017 0.21239355206489563 0.092416740953922272
0.29138511419296265 0.21192640066146851 0.092314712703227997
0.3373953104019165 0.20906962454319 0.091791205108165741
0.43141156435012817 0.20752781629562378 0.088778764009475708
0.55618953704833984 0.21293103694915771 0.089097343385219574
0.67313534021377563 0.23288941383361816 0.090724483132362366
0.76546633243560791 0.26702490448951721 0.09776800125837326
0.84140592813491821 0.31486013531684875 0.11431834101676941
0.89786070585250854 0.36873310804367065 0.14593552052974701
0.94284605979919434 0.42766645550727844 0.18711183965206146
0.97944337129592896 0.48366016149520874 0.23134122788906097
0.25972253084182739 0.21835069358348846 0.091423556208610535
0.26534515619277954 0.21881231665611267 0.091288276016712189
0.2756536602973938 0.21853268146514893 0.091402478516101837
0.30210384726524353 0.21901103854179382 0.090081684291362762
0.35548490285873413 0.21879535913467407 0.090253613889217377
0.45302015542984009 0.22222509980201721 0.088150784373283386
0.57342863082885742 0.2318364679813385 0.086008079349994659
0.68264651298522949 0.25381314754486084 0.085907727479934692
0.77169764041900635 0.2884669303894043 0.093139111995697021
0.84090524911880493 0.33506715297698975 0.11101537942886353
0.89804446697235107 0.38751345872879028 0.14526289701461792
0.94481885433197021 0.44148954749107361 0.18658208847045898
0.98051095008850098 0.49715736508369446 0.23557078838348389
0.25944659113883972 0.22972072660923004 0.091850727796554565
0.26441255211830139 0.2328500896692276 0.091316044330596924
0.28015196323394775 0.23449121415615082 0.091001592576503754
0.31169793009757996 0.23612393438816071 0.08855699747800827
0.37548321485519409 0.23940746486186981 0.086381323635578156
0.47417759895324707 0.24754838645458221 0.083155252039432526
0.5895000696182251 0.26080113649368286 0.07813689112663269
0.68972021341323853 0.28404146432876587 0.077829159796237946
0.77430742979049683 0.31763479113578796 0.085782594978809357
0.8440672755241394 0.35979726910591125 0.10696616023778915
0.90227597951889038 0.41112387180328369 0.14324142038822174
0.94516223669052124 0.4621945321559906 0.18581178784370422
0.97738134860992432 0.5162971019744873 0.23862634599208832
0.25570335984230042 0.26256018877029419 0.091287918388843536
0.26252058148384094 0.26294460892677307 0.090956531465053558
0.28407883644104004 0.26677194237709045 0.091076657176017761
0.32299447059631348 0.27448126673698425 0.088551491498947144
0.40562111139297485 0.29038158059120178 0.080187000334262848
0.50492388010025024 0.29951962828636169 0.069855742156505585
0.60629767179489136 0.31015506386756897 0.063680313527584076
0.69680684804916382 0.32787901163101196 0.062690198421478271
0.77488559484481812 0.35863670706748962 0.072273194789886475
0.84318345785140991 0.39950159192085266 0.1012004166841507
0.89767748117446899 0.44399413466453552 0.14161618053913116
0.94012045860290527 0.48786488175392151 0.18202218413352966
0.97342991828918457 0.53494280576705933 0.2349199652671814
0.24623553454875946 0.32445743680000305 0.087096929550170898
0.25917664170265198 0.32648205757141113 0.088995926082134247
0.28405946493148804 0.33037126064300537 0.090427711606025696
0.33306190371513367 0.33923324942588806 0.088309422135353088
0.41947686672210693 0.35621321201324463 0.07772141695022583
0.52523952722549438 0.37633273005485535 0.060321509838104248
0.62155038118362427 0.3844393789768219 0.05146363377571106
0.70102584362030029 0.39135384559631348 0.046655677258968353
0.77205014228820801 0.41116651892662048 0.051720160990953445
0.8364831805229187 0.4436776340007782 0.081273339688777924
0.89158904552459717 0.48035266995429993 0.12825803458690643
0.9316064715385437 0.51948189735412598 0.17674523591995239
0.96451979875564575 0.55977457761764526 0.23208436369895935
0.24245944619178772 0.39385265111923218 0.087234199047088623
0.25855642557144165 0.39720597863197327 0.090193383395671844
0.28370630741119385 0.39703243970870972 0.091446727514266968
0.33473551273345947 0.40540564060211182 0.091143600642681122
0.41272661089897156 0.42074382305145264 0.085937157273292542
0.51257038116455078 0.44056838750839233 0.073541693389415741
0.61845475435256958 0.46568363904953003 0.061067156493663788
0.6983795166015625 0.47780263423919678 0.054604995995759964
0.76500040292739868 0.48348268866539001 0.054764468222856522
0.82730185985565186 0.49448403716087341 0.070453658699989319
0.88353687524795532 0.5185624361038208 0.10951186716556549
0.923301100730896 0.55063927173614502 0.16594667732715607
0.95746535062789917 0.58446043729782104 0.22130189836025238
0.24456404149532318 0.46032851934432983 0.092272751033306122
0.26457861065864563 0.46241173148155212 0.096481755375862122
0.29485359787940979 0.45933860540390015 0.10213480889797211
0.33870473504066467 0.46611380577087402 0.10556094348430634
0.41330400109291077 0.47972550988197327 0.10679547488689423
0.50100046396255493 0.4977324903011322 0.10311766713857651
0.59383374452590942 0.52119088172912598 0.10080014169216156
0.68636935949325562 0.55044901371002197 0.10143624246120453
0.7592049241065979 0.56491565704345703 0.10365305840969086
0.81763750314712524 0.56946271657943726 0.1128530278801918
0.8698345422744751 0.57688522338867188 0.1273101270198822
0.9123116135597229 0.59005826711654663 0.16384734213352203
0.94948184490203857 0.61515587568283081 0.2126564085483551
0.26936575770378113 0.52510935068130493 0.11393006145954132
0.28460463881492615 0.52452623844146729 0.1153363510966301
0.31511154770851135 0.52232164144515991 0.12202906608581543
0.3584904670715332 0.52721560001373291 0.12971185147762299
0.41888761520385742 0.53741824626922607 0.1359977126121521
0.49832123517990112 0.55440950393676758 0.13728445768356323
0.57917094230651855 0.57406175136566162 0.14321257174015045
0.66025799512863159 0.5976489782333374 0.15149296820163727
0.74257993698120117 0.62601906061172485 0.1625906378030777
0.80781060457229614 0.63897150754928589 0.17467151582241058
0.85869848728179932 0.64497512578964233 0.18546071648597717
0.90087997913360596 0.65185695886611938 0.20480646193027496
0.93724197149276733 0.65968459844589233 0.2348446398973465
0.30291831493377686 0.5900266170501709 0.1436522901058197
0.31745022535324097 0.58855545520782471 0.14587947726249695
0.34068036079406738 0.58722966909408569 0.14830984175205231
0.38218450546264648 0.59173876047134399 0.15774795413017273
0.42924812436103821 0.59837108850479126 0.16622093319892883
0.49407410621643066 0.61203962564468384 0.17447870969772339
0.56710153818130493 0.62910223007202148 0.18554514646530151
0.64020407199859619 0.64722400903701782 0.19905336201190948
0.71551001071929932 0.66732710599899292 0.21609659492969513
0.78854644298553467 0.69094491004943848 0.23522163927555084
0.8493797779083252 0.70986288785934448 0.2535969614982605
0.88929629325866699 0.71209752559661865 0.27156129479408264
0.92223662137985229 0.71774899959564209 0.2985776960849762
0.34360033273696899 0.65523862838745117 0.18187040090560913
0.35262510180473328 0.65012818574905396 0.18024583160877228
0.37246069312095642 0.65050250291824341 0.18243367969989777
0.40626201033592224 0.65318852663040161 0.1909402459859848
0.44691503047943115 0.65789914131164551 0.20316307246685028
0.50356459617614746 0.66821950674057007 0.21968920528888702
0.56907612085342407 0.68287366628646851 0.23430626094341278
0.63397222757339478 0.69702047109603882 0.24814091622829437
0.70286095142364502 0.71224135160446167 0.26926460862159729
0.77241331338882446 0.73095959424972534 0.29027152061462402
0.83344560861587524 0.74849355220794678 0.31529995799064636
0.88199377059936523 0.76237529516220093 0.34560102224349976
0.91260010004043579 0.76636278629302979 0.3699658215045929
0.39111271500587463 0.71307361125946045 0.23112058639526367
0.39811217784881592 0.7117658257484436 0.22982563078403473
0.41648495197296143 0.71277391910552979 0.23330830037593842
0.44369760155677795 0.71297568082809448 0.24131180346012115
0.4820215106010437 0.71508961915969849 0.25679036974906921
0.5312340259552002 0.72331494092941284 0.27534544467926025
0.58757650852203369 0.73490685224533081 0.29177314043045044
0.64250677824020386 0.74589210748672485 0.3074527382850647
0.70306092500686646 0.75552618503570557 0.32794421911239624
0.76457673311233521 0.76650834083557129 0.35034403204917908
0.8188052773475647 0.77675259113311768 0.37355074286460876
0.86667609214782715 0.7875746488571167 0.40117385983467102
0.90797239542007446 0.79894340038299561 0.4380287230014801
0.46524807810783386 0.77018570899963379 0.30594655871391296
0.47021114826202393 0.77151352167129517 0.30551093816757202
0.48692718148231506 0.77124649286270142 0.31037718057632446
0.51090025901794434 0.77306133508682251 0.31924128532409668
0.54284894466400146 0.77343648672103882 0.33323699235916138
0.57747447490692139 0.77798151969909668 0.34879520535469055
0.62650960683822632 0.78322345018386841 0.36724042892456055
0.67616337537765503 0.78970378637313843 0.38482046127319336
0.7296406626701355 0.79559648036956787 0.4053708016872406
0.78055804967880249 0.80166876316070557 0.426656574010849
0.8241381049156189 0.80692428350448608 0.44826000928878784
0.86593097448348999 0.81379455327987671 0.47082388401031494
0.90075254440307617 0.82154864072799683 0.49695956707000732
0.58288723230361938 0.82123172283172607 0.41309043765068054
0.58530569076538086 0.82076483964920044 0.41215470433235168
0.5962979793548584 0.82006651163101196 0.41548696160316467
0.61177712678909302 0.82200890779495239 0.42123615741729736
0.63510483503341675 0.82204532623291016 0.43315544724464417
0.66640961170196533 0.82349532842636108 0.45016750693321228
0.70201569795608521 0.82520300149917603 0.46713560819625854
0.73838025331497192 0.82702386379241943 0.48179340362548828
0.77819192409515381 0.82972419261932373 0.49993744492530823
0.81470805406570435 0.83337485790252686 0.51771199703216553
0.84724587202072144 0.83737468719482422 0.53427350521087646
0.87969905138015747 0.84205883741378784 0.55413174629211426
0.9079325795173645 0.84634339809417725 0.57533556222915649
0.25872898101806641 0.20922271907329559 0.096669413149356842
0.26507991552352905 0.21201588213443756 0.098408594727516174
0.27314043045043945 0.2128252238035202 0.099598392844200134
0.28959208726882935 0.21217004954814911 0.10052014887332916
0.34037920832633972 0.20885442197322845 0.10435786843299866
0.44141855835914612 0.20159541070461273 0.10816361755132675
0.56772434711456299 0.20095863938331604 0.11687717586755753
0.68643784523010254 0.23858875036239624 0.1395273357629776
0.77792990207672119 0.29141977429389954 0.16550831496715546
0.84765464067459106 0.34381777048110962 0.18934972584247589
0.90067207813262939 0.40321117639541626 0.22219932079315186
0.94323623180389404 0.45832318067550659 0.25500848889350891
0.97501170635223389 0.5095829963684082 0.28987869620323181
0.26018241047859192 0.21664087474346161 0.10054755210876465
0.26816067099571228 0.21872690320014954 0.10489322245121002
0.27610304951667786 0.21857254207134247 0.1036662831902504
0.30070728063583374 0.21861748397350311 0.10329293459653854
0.36191695928573608 0.2185128778219223 0.10920073837041855
0.46771454811096191 0.21670633554458618 0.11474411934614182
0.58603286743164062 0.22805806994438171 0.12368024885654449
0.69340640306472778 0.26790472865104675 0.14488823711872101
0.77957659959793091 0.31349045038223267 0.16636104881763458
0.84629589319229126 0.36444500088691711 0.18952949345111847
0.90026521682739258 0.41678819060325623 0.2208314836025238
0.9445081353187561 0.46523326635360718 0.25257885456085205
0.97382831573486328 0.51916134357452393 0.29315406084060669
0.26190957427024841 0.22953797876834869 0.10578348487615585
0.27051419019699097 0.23489676415920258 0.11135770380496979
0.28506797552108765 0.23842446506023407 0.11064139008522034
0.31908378005027771 0.23981040716171265 0.10963640362024307
0.39441752433776855 0.24463412165641785 0.11446751654148102
0.49471211433410645 0.25042909383773804 0.11761465668678284
0.60511022806167603 0.27040106058120728 0.12759709358215332
0.70056414604187012 0.30387392640113831 0.14427147805690765
0.77977699041366577 0.34184786677360535 0.16240808367729187
0.84647375345230103 0.38788977265357971 0.18596875667572021
0.9002806544303894 0.43716084957122803 0.21899065375328064
0.94003182649612427 0.48324039578437805 0.25117427110671997
0.97210514545440674 0.53274905681610107 0.29322761297225952
0.26321870088577271 0.26767286658287048 0.11166331171989441
0.27299898862838745 0.27099663019180298 0.11498890072107315
0.29387971758842468 0.27354881167411804 0.11624877154827118
0.33867073059082031 0.27961045503616333 0.11605680733919144
0.42293542623519897 0.29201030731201172 0.11581715941429138
0.52049034833908081 0.30129972100257874 0.11578959971666336
0.61969894170761108 0.31841504573822021 0.12203104048967361
0.70690220594406128 0.34550786018371582 0.13482989370822906
0.78003758192062378 0.37710538506507874 0.15285606682300568
0.84559398889541626 0.41748389601707458 0.17791262269020081
0.89589476585388184 0.46161675453186035 0.21230486035346985
0.93719714879989624 0.50362235307693481 0.24516533315181732
0.96833318471908569 0.5489611029624939 0.28790658712387085
0.26881438493728638 0.33318191766738892 0.12300976365804672
0.28160247206687927 0.33750531077384949 0.12358326464891434
0.3037639856338501 0.33833524584770203 0.12358146905899048
0.35301271080970764 0.3452887237071991 0.12359882146120071
0.43704447150230408 0.3619346022605896 0.122037373483181
0.53859215974807739 0.38079538941383362 0.12343751639127731
