luts/instant_consumer/polaroid_time_zero_expired_cold_-.cube
# Created by: G'MIC (https://gmic.eu)
TITLE "polaroid_time_zero_expired_cold_-"
# LUT size
LUT_3D_SIZE 13
# Data domain
DOMAIN_MIN 0.0 0.0 0.0
DOMAIN_MAX 1.0 1.0 1.0
# LUT data points
0.38433957099914551 0.19319069385528564 0.07655741274356842
0.38650810718536377 0.18980176746845245 0.076852239668369293
0.40079471468925476 0.18867672979831696 0.078325919806957245
0.42949461936950684 0.1882636696100235 0.07885473221540451
0.47075751423835754 0.18395036458969116 0.077289745211601257
0.5183178186416626 0.18201076984405518 0.07728905975818634
0.56710010766983032 0.18469990789890289 0.077763035893440247
0.61836200952529907 0.19210590422153473 0.082653924822807312
0.67343276739120483 0.20577642321586609 0.090106338262557983
0.72934001684188843 0.21638824045658112 0.096128188073635101
0.78503203392028809 0.23023092746734619 0.10391664505004883
0.84362185001373291 0.25720968842506409 0.11790577322244644
0.90085768699645996 0.28284651041030884 0.13158811628818512
0.38706856966018677 0.19964265823364258 0.075246267020702362
0.39370027184486389 0.20001935958862305 0.074890181422233582
0.40851595997810364 0.20000225305557251 0.076447688043117523
0.44200089573860168 0.2070278525352478 0.074222192168235779
0.48070499300956726 0.2084360271692276 0.069740921258926392
0.52445369958877563 0.2078598290681839 0.068178124725818634
0.57324838638305664 0.21172700822353363 0.071319550275802612
0.62348973751068115 0.2162243127822876 0.077398903667926788
0.67835348844528198 0.22771641612052917 0.085171326994895935
0.73526352643966675 0.23915296792984009 0.09419066458940506
0.79057133197784424 0.25161364674568176 0.1026279553771019
0.84775805473327637 0.27698057889938354 0.11529608070850372
0.90269291400909424 0.30225667357444763 0.12942053377628326
0.39827042818069458 0.23441986739635468 0.06063447892665863
0.40789592266082764 0.23726026713848114 0.057647824287414551
0.42387628555297852 0.23659266531467438 0.061550185084342957
0.4533848762512207 0.23844562470912933 0.06381988525390625
0.49072462320327759 0.24105942249298096 0.060676783323287964
0.53341567516326904 0.24096420407295227 0.057603813707828522
0.5822795033454895 0.24557517468929291 0.062047787010669708
0.63160765171051025 0.24742744863033295 0.068625792860984802
0.68402326107025146 0.25735905766487122 0.077130593359470367
0.74030649662017822 0.27157896757125854 0.08686356246471405
0.79386651515960693 0.28361049294471741 0.095670901238918304
0.84862130880355835 0.30481526255607605 0.10761471837759018
0.90478581190109253 0.32773759961128235 0.1241798996925354
0.41123142838478088 0.28743165731430054 0.031908012926578522
0.42488110065460205 0.29008853435516357 0.027726177126169205
0.4439660906791687 0.29188457131385803 0.029013166204094887
0.47172755002975464 0.28918036818504333 0.039844483137130737
0.50689208507537842 0.28905513882637024 0.05099424347281456
0.54976004362106323 0.29233789443969727 0.050868194550275803
0.59473252296447754 0.29329097270965576 0.049676693975925446
0.64175945520401001 0.29700362682342529 0.053627237677574158
0.69120609760284424 0.30512726306915283 0.0621616430580616
0.74445480108261108 0.3173326849937439 0.073360592126846313
0.7967185378074646 0.32740634679794312 0.082780607044696808
0.85021096467971802 0.34391012787818909 0.096897721290588379
0.90600299835205078 0.36816444993019104 0.11734164506196976
0.42886495590209961 0.34409484267234802 0.0090527404099702835
0.44414821267127991 0.34681311249732971 0.0079455059021711349
0.46317443251609802 0.34941041469573975 0.0059900921769440174
0.49214017391204834 0.34960684180259705 0.010216761380434036
0.52848166227340698 0.35101425647735596 0.025193860754370689
0.56934905052185059 0.35281574726104736 0.042450938373804092
0.61217606067657471 0.35365098714828491 0.048816949129104614
0.65481513738632202 0.35586071014404297 0.046418912708759308
0.69830882549285889 0.35944560170173645 0.043163523077964783
0.74836421012878418 0.37035444378852844 0.048750471323728561
0.79984313249588013 0.38230836391448975 0.058809094130992889
0.85287809371948242 0.39704811573028564 0.076249398291110992
0.90625303983688354 0.41696402430534363 0.10147053003311157
0.45314109325408936 0.40526667237281799 0.0037944568321108818
0.46846222877502441 0.40672019124031067 0.0040298164822161198
0.48680159449577332 0.40928253531455994 0.0039215688593685627
0.51568633317947388 0.41187748312950134 0.0039994632825255394
0.55142825841903687 0.41425064206123352 0.0092548299580812454
0.58929741382598877 0.41611945629119873 0.021465735509991646
0.63185077905654907 0.4209347665309906 0.047162674367427826
0.67472469806671143 0.42455482482910156 0.055745892226696014
0.71440649032592773 0.42584827542304993 0.046075589954853058
0.75649410486221313 0.43044272065162659 0.031671784818172455
0.80494242906570435 0.43949711322784424 0.03050924651324749
0.85657685995101929 0.45421162247657776 0.047907572239637375
0.90721815824508667 0.47328281402587891 0.079888179898262024
0.47692465782165527 0.46699026226997375 0.0012431724462658167
0.49288526177406311 0.46707704663276672 0.0030305751133710146
0.51199352741241455 0.46931007504463196 0.0038395002484321594
0.53712922334671021 0.47243022918701172 0.0036467758473008871
0.57129442691802979 0.47622635960578918 0.0041037914343178272
0.61003583669662476 0.47913023829460144 0.0044950447045266628
0.6518128514289856 0.48499062657356262 0.014072822406888008
0.6939050555229187 0.49266749620437622 0.048944108188152313
0.73454880714416504 0.49694797396659851 0.065082818269729614
0.77396219968795776 0.4982963502407074 0.049258630722761154
0.8166232705116272 0.50344645977020264 0.034411516040563583
0.86044353246688843 0.51294481754302979 0.031375225633382797
0.90625780820846558 0.52839535474777222 0.052389346063137054
0.50557255744934082 0.5285535454750061 0
0.51670646667480469 0.53007227182388306 0.00046889361692592502
0.53454619646072388 0.53236132860183716 0.0013725430471822619
0.5579836368560791 0.53408408164978027 0.0011574988020583987
0.5878671407699585 0.5376855731010437 0.0023692711256444454
0.63006359338760376 0.54209262132644653 0.0039813173934817314
0.67234700918197632 0.54770952463150024 0.0049322540871798992
0.71239042282104492 0.55478042364120483 0.013291227631270885
0.75506055355072021 0.56455421447753906 0.060104653239250183
0.79559916257858276 0.56929653882980347 0.086589455604553223
0.83360755443572998 0.57295948266983032 0.081490099430084229
0.87181580066680908 0.57804322242736816 0.076142482459545135
0.9111362099647522 0.58914893865585327 0.074141241610050201
0.53895258903503418 0.59209847450256348 0
0.54583847522735596 0.59436368942260742 0
0.55713105201721191 0.59645837545394897 0.00016371783567592502
0.58128702640533447 0.59828895330429077 0.00059443456120789051
0.61030286550521851 0.60037922859191895 0.0011907989392057061
0.64998215436935425 0.60536432266235352 0.0037706561852246523
0.6920628547668457 0.61175364255905151 0.0041919485665857792
0.73380285501480103 0.61927890777587891 0.0065563726238906384
0.77185916900634766 0.62535345554351807 0.021208310499787331
0.81169277429580688 0.63499242067337036 0.093468278646469116
0.84897643327713013 0.64042884111404419 0.14131161570549011
0.88478857278823853 0.6442490816116333 0.1466461569070816
0.91981178522109985 0.6546553373336792 0.15171068906784058
0.5732235312461853 0.65851610898971558 0
0.57937139272689819 0.65925687551498413 0
0.58800792694091797 0.6594616174697876 0
0.61034214496612549 0.66250866651535034 0
0.63653260469436646 0.66442424058914185 0.00039720721542835236
0.66922712326049805 0.66836851835250854 0.0027084650937467813
0.71067607402801514 0.67495626211166382 0.0038361942861229181
0.75061661005020142 0.68095368146896362 0.0057844575494527817
0.78914886713027954 0.68587410449981689 0.0077791549265384674
0.82584315538406372 0.69145572185516357 0.054996281862258911
0.86311823129653931 0.69991940259933472 0.16007566452026367
0.89683729410171509 0.70767617225646973 0.22018776834011078
0.92400705814361572 0.71354073286056519 0.23867928981781006
0.60787069797515869 0.72369503974914551 9.3347889560391195e-06
0.6145625114440918 0.72206664085388184 0
0.62383675575256348 0.72241365909576416 0
0.64423590898513794 0.72363483905792236 3.7069879908813164e-05
0.66721546649932861 0.72531759738922119 0.00040356506360694766
0.69263559579849243 0.72771209478378296 0.00051200715824961662
0.73011690378189087 0.73208677768707275 0.001690344768576324
0.76933437585830688 0.736408531665802 0.0032627030741423368
0.80728447437286377 0.74118345975875854 0.0051072514615952969
0.84268778562545776 0.74669396877288818 0.049642585217952728
0.87613546848297119 0.75096440315246582 0.16472087800502777
0.90464085340499878 0.75572824478149414 0.25065553188323975
0.92986655235290527 0.76362115144729614 0.32042214274406433
0.65492773056030273 0.77901464700698853 0.0014362110523506999
0.65942138433456421 0.7775612473487854 6.7856730311177671e-05
0.66642290353775024 0.77842360734939575 0
0.68563932180404663 0.77764201164245605 0.00096628523897379637
0.70918482542037964 0.77772784233093262 0.0018912521190941334
0.73025494813919067 0.77703583240509033 0.001883084187284112
0.75909119844436646 0.78055983781814575 0.0034198386128991842
0.79403740167617798 0.78546702861785889 0.0017400105716660619
0.82821410894393921 0.7897113561630249 0.0047620437107980251
0.86217391490936279 0.79387032985687256 0.085220709443092346
0.8911547064781189 0.79429513216018677 0.20037765800952911
0.91649675369262695 0.79632472991943359 0.28268465399742126
0.937630295753479 0.80079352855682373 0.35181042551994324
0.71008753776550293 0.82636398077011108 0.001394369057379663
0.71210366487503052 0.82581537961959839 2.1541820842685411e-06
0.71934205293655396 0.82714956998825073 2.3336971935350448e-05
0.73274439573287964 0.82578480243682861 0.00088557822164148092
0.7509339451789856 0.82402390241622925 0.00087726069614291191
0.77009028196334839 0.82047432661056519 0.0035046148113906384
0.79394781589508057 0.82252651453018188 0.0039495727978646755
0.82315868139266968 0.82818603515625 0.0057417778298258781
0.85378396511077881 0.83115887641906738 0.055922415107488632
0.88245433568954468 0.83096480369567871 0.17825359106063843
0.9081692099571228 0.83079737424850464 0.27083182334899902
0.93047517538070679 0.83248800039291382 0.34949538111686707
0.94796913862228394 0.83321034908294678 0.41708588600158691
0.38571375608444214 0.19020064175128937 0.08360975980758667
0.3885338306427002 0.18893273174762726 0.084676124155521393
0.40412029623985291 0.18874183297157288 0.088507995009422302
0.43516954779624939 0.18790720403194427 0.09369213879108429
0.47554513812065125 0.18432833254337311 0.092610254883766174
0.52370887994766235 0.18886052072048187 0.096953324973583221
0.5735815167427063 0.19746941328048706 0.10173163563013077
0.62451028823852539 0.2045767605304718 0.10563834756612778
0.67875152826309204 0.21609219908714294 0.11250004172325134
0.73336255550384521 0.22850547730922699 0.11996932327747345
0.78849738836288452 0.24260196089744568 0.12638355791568756
0.84578824043273926 0.26546600461006165 0.13874511420726776
0.90135020017623901 0.28886640071868896 0.15141366422176361
0.3903907835483551 0.20267212390899658 0.086213327944278717
0.39497703313827515 0.20064836740493774 0.084736421704292297
0.41425758600234985 0.20436355471611023 0.08890264481306076
0.44748038053512573 0.20731833577156067 0.092143908143043518
0.48597744107246399 0.20793910324573517 0.089369006454944611
0.53054958581924438 0.21160843968391418 0.090695984661579132
0.57945752143859863 0.21965412795543671 0.09585137665271759
0.62890934944152832 0.22669236361980438 0.10210277885198593
0.68332511186599731 0.23772245645523071 0.10977163910865784
0.73929446935653687 0.24960125982761383 0.11855745315551758
0.79391920566558838 0.26328191161155701 0.12692390382289886
0.84966045618057251 0.28392228484153748 0.13670602440834045
0.90434426069259644 0.30709832906723022 0.14964261651039124
0.39935734868049622 0.23357871174812317 0.080347709357738495
0.40881237387657166 0.23592594265937805 0.075590364634990692
0.43004539608955383 0.23995572328567505 0.08105526864528656
0.45964014530181885 0.24327653646469116 0.085220113396644592
0.49840465188026428 0.24558335542678833 0.084044449031352997
0.53907221555709839 0.24518556892871857 0.083012811839580536
0.58738255500793457 0.25181642174720764 0.088095240294933319
0.63658291101455688 0.25803700089454651 0.094860076904296875
0.68839448690414429 0.26603206992149353 0.10154746472835541
0.74357825517654419 0.27768278121948242 0.11074842512607574
0.79702860116958618 0.29176193475723267 0.12133557349443436
0.8520275354385376 0.31046620011329651 0.13052952289581299
0.90700840950012207 0.33329683542251587 0.14569038152694702
0.41307410597801208 0.28642207384109497 0.062760099768638611
0.42618784308433533 0.28993386030197144 0.057775475084781647
0.44817373156547546 0.29427200555801392 0.055715013295412064
0.47740975022315979 0.29304516315460205 0.068714573979377747
0.513530433177948 0.29326081275939941 0.079947933554649353
0.55530428886413574 0.29712310433387756 0.079810738563537598
0.59993839263916016 0.30012288689613342 0.081388168036937714
0.64722877740859985 0.3062557578086853 0.084137886762619019
0.69520664215087891 0.3082578182220459 0.088795877993106842
0.74630290269851685 0.31833824515342712 0.097555480897426605
0.79873085021972656 0.33272406458854675 0.10918959230184555
0.85275208950042725 0.34984210133552551 0.12133888155221939
0.90613812208175659 0.37153875827789307 0.13831187784671783
0.43292495608329773 0.34608662128448486 0.036954693496227264
0.44673007726669312 0.34868505597114563 0.031762607395648956
0.46539768576622009 0.35208028554916382 0.024621462449431419
0.49644628167152405 0.35313138365745544 0.03698565810918808
0.53292924165725708 0.35453340411186218 0.056328553706407547
0.57366281747817993 0.35663929581642151 0.07644113153219223
0.61629217863082886 0.35965591669082642 0.079897128045558929
0.65831434726715088 0.36161383986473083 0.074988529086112976
0.70295363664627075 0.36508464813232422 0.074334584176540375
0.75155067443847656 0.37462586164474487 0.080256439745426178
0.80248540639877319 0.38485178351402283 0.090941421687602997
0.85512858629226685 0.39680713415145874 0.10565091669559479
0.90715354681015015 0.41652753949165344 0.12456956505775452
0.45689359307289124 0.40927249193191528 0.012801630422472954
0.47014835476875305 0.40862265229225159 0.013352891430258751
0.48838460445404053 0.41105353832244873 0.0090291937813162804
0.51731389760971069 0.41464760899543762 0.0090916203334927559
0.55293780565261841 0.41571485996246338 0.018573552370071411
0.5929906964302063 0.42036497592926025 0.048028998076915741
0.63561171293258667 0.425607830286026 0.078165791928768158
0.67675918340682983 0.428791344165802 0.082693494856357574
0.71619969606399536 0.43028134107589722 0.074678458273410797
0.75949853658676147 0.43436357378959656 0.066223129630088806
0.80767935514450073 0.4422055184841156 0.067711681127548218
0.85809195041656494 0.45400598645210266 0.081739313900470734
0.90639686584472656 0.47133967280387878 0.10197854042053223
0.48275884985923767 0.46905985474586487 0.0050482056103646755
0.49412485957145691 0.46880781650543213 0.005567498505115509
0.51303446292877197 0.4709174633026123 0.0045215380378067493
0.53757023811340332 0.47456231713294983 0.0040856306441128254
0.57182163000106812 0.47818130254745483 0.0071644950658082962
0.61099523305892944 0.4840661883354187 0.011601093225181103
0.65398174524307251 0.48983937501907349 0.039149533957242966
0.69650417566299438 0.49636834859848022 0.080495633184909821
0.73619705438613892 0.50006157159805298 0.091554842889308929
0.77577537298202515 0.50133079290390015 0.080556727945804596
0.81722742319107056 0.50499951839447021 0.06883607804775238
0.86226499080657959 0.51439458131790161 0.063514605164527893
0.90513229370117188 0.52789938449859619 0.080802977085113525
0.5113757848739624 0.53127700090408325 0.00064625457162037492
0.52055096626281738 0.53220617771148682 0.0026568244211375713
0.53630399703979492 0.53481310606002808 0.0038596210069954395
0.55981123447418213 0.53628426790237427 0.0049307281151413918
0.59120917320251465 0.53946173191070557 0.0064950231462717056
0.63007938861846924 0.54567909240722656 0.0043822047300636768
0.67259752750396729 0.55077493190765381 0.0099974833428859711
0.7149396538734436 0.55745154619216919 0.03329741582274437
0.75608211755752563 0.56632483005523682 0.090289920568466187
0.79465198516845703 0.57055181264877319 0.11093717068433762
0.83344197273254395 0.57416343688964844 0.10744032263755798
0.87272924184799194 0.57979577779769897 0.10232232511043549
0.9116552472114563 0.58917617797851562 0.100589320063591
0.54277271032333374 0.59579116106033325 0.00033947813790291548
0.5492706298828125 0.59811663627624512 0.000817347492557019
0.56146502494812012 0.60064446926116943 0.002492627827450633
0.58414018154144287 0.60068458318710327 0.0039630364626646042
0.6129298210144043 0.60165715217590332 0.0045650857500731945
0.6493411660194397 0.60701924562454224 0.0045079546980559826
0.69113177061080933 0.61255615949630737 0.0061583276838064194
0.73314464092254639 0.61922299861907959 0.010086358524858952
0.77274107933044434 0.62793970108032227 0.044156752526760101
0.81276130676269531 0.6376417875289917 0.12080269306898117
0.85044139623641968 0.64476323127746582 0.16234672069549561
0.88460451364517212 0.64696395397186279 0.16673949360847473
0.91946673393249512 0.65536189079284668 0.1699625551700592
0.57543450593948364 0.6612052321434021 0.00036849975003860891
0.58117300271987915 0.66147023439407349 9.5322553534060717e-05
0.59131443500518799 0.66194528341293335 0.00071149342693388462
0.61290198564529419 0.66450792551040649 0.0033567990176379681
0.63845831155776978 0.66590189933776855 0.0038905423134565353
0.66997069120407104 0.66919624805450439 0.0039125927723944187
0.70927983522415161 0.67472308874130249 0.0039408663287758827
0.75040930509567261 0.68040025234222412 0.0051984451711177826
0.79035615921020508 0.68778902292251587 0.013893606141209602
0.8287736177444458 0.69485169649124146 0.091659203171730042
0.86386477947235107 0.70222288370132446 0.18322367966175079
0.89533418416976929 0.70859557390213013 0.23584170639514923
0.92535805702209473 0.71696972846984863 0.25434902310371399
0.610676109790802 0.72308701276779175 0.0020954357460141182
0.61603569984436035 0.72033500671386719 0.0011156568070873618
0.62537205219268799 0.72211474180221558 0.0011452469043433666
0.64541083574295044 0.72379380464553833 0.0030809140298515558
0.66878128051757812 0.72692358493804932 0.0038610422052443027
0.69596511125564575 0.72829610109329224 0.003765046363696456
0.73083388805389404 0.73177057504653931 0.0039503211155533791
0.76900070905685425 0.73596650362014771 0.0040907915681600571
0.80736225843429565 0.7420545220375061 0.0063015208579599857
0.84538573026657104 0.74802881479263306 0.079332359135150909
0.87676805257797241 0.75180047750473022 0.18412896990776062
0.90503090620040894 0.75734412670135498 0.26735216379165649
0.92986726760864258 0.76452845335006714 0.32928609848022461
0.65821546316146851 0.7781827449798584 0.003775682533159852
0.66203105449676514 0.77712744474411011 0.0012897417182102799
0.66823369264602661 0.77795690298080444 0.0029454848263412714
0.68726128339767456 0.77871304750442505 0.0038776621222496033
0.70932912826538086 0.77929341793060303 0.0051861931569874287
0.73157888650894165 0.77929872274398804 0.0036063699517399073
0.75986438989639282 0.78161990642547607 0.0038834365550428629
0.79372608661651611 0.78579497337341309 0.0027638005558401346
0.82927614450454712 0.79051822423934937 0.013559812679886818
0.86304765939712524 0.79426127672195435 0.11155179888010025
0.89124441146850586 0.79336220026016235 0.21597611904144287
0.91578900814056396 0.79641073942184448 0.29528269171714783
0.93664979934692383 0.80094164609909058 0.3629315197467804
0.71128708124160767 0.829334557056427 0.0088557824492454529
0.71354103088378906 0.82717400789260864 0.0042894850485026836
0.71902287006378174 0.82594692707061768 0.0031139000784605742
0.73308324813842773 0.82577550411224365 0.004414023831486702
0.74825435876846313 0.82394295930862427 0.006300817709416151
0.7680659294128418 0.82307904958724976 0.0020977393724024296
0.79293215274810791 0.82416850328445435 0.0039215688593685627
0.82203829288482666 0.8298114538192749 0.0066752117127180099
0.85435599088668823 0.83168888092041016 0.075748175382614136
0.88337737321853638 0.83115321397781372 0.19648908078670502
0.90838199853897095 0.83087915182113647 0.28627288341522217
0.92936331033706665 0.8315657377243042 0.35802581906318665
0.94737035036087036 0.83338522911071777 0.42104437947273254
0.39356955885887146 0.18965743482112885 0.1050848588347435
0.39750528335571289 0.18884426355361938 0.10865896195173264
0.41000255942344666 0.18911594152450562 0.1113436371088028
0.43466556072235107 0.18891525268554688 0.11459111422300339
0.47855722904205322 0.19175209105014801 0.12256821244955063
0.53047162294387817 0.19818860292434692 0.13421396911144257
0.58086609840393066 0.20668235421180725 0.13595260679721832
0.63104182481765747 0.21463271975517273 0.13701537251472473
0.68292319774627686 0.22651764750480652 0.14230598509311676
0.73789769411087036 0.2396482527256012 0.14770181477069855
0.79259347915649414 0.25313767790794373 0.15421056747436523
0.84892857074737549 0.27320611476898193 0.1651201993227005
0.90474212169647217 0.29550325870513916 0.17637772858142853
0.39731720089912415 0.20482087135314941 0.10816559195518494
0.40533220767974854 0.20458678901195526 0.11077871918678284
0.4210999608039856 0.20810997486114502 0.11339295655488968
0.44770175218582153 0.20955613255500793 0.11592556536197662
0.48767989873886108 0.21215730905532837 0.11871523410081863
0.53723788261413574 0.21895654499530792 0.12734079360961914
0.5863339900970459 0.22753173112869263 0.13198082149028778
0.6349303126335144 0.23580588400363922 0.13554289937019348
0.68677413463592529 0.24664415419101715 0.14103934168815613
0.74171233177185059 0.2578437328338623 0.14648996293544769
0.7970004677772522 0.2718929648399353 0.15494026243686676
0.85241639614105225 0.28966444730758667 0.16436539590358734
0.9063420295715332 0.31217768788337708 0.17548862099647522
0.40357741713523865 0.2314898818731308 0.1069144606590271
0.4155387282371521 0.2351142019033432 0.10807190090417862
0.43501833081245422 0.24012476205825806 0.10988443344831467
0.46450293064117432 0.24510073661804199 0.11406522244215012
0.5041617751121521 0.24852955341339111 0.11680867522954941
0.54674118757247925 0.25399044156074524 0.12011464685201645
0.59391969442367554 0.26183983683586121 0.12621203064918518
0.64210575819015503 0.26696375012397766 0.13007771968841553
0.69293016195297241 0.27407130599021912 0.13583667576313019
0.74681186676025391 0.28324985504150391 0.14161187410354614
0.800342857837677 0.29764637351036072 0.15010878443717957
0.85516589879989624 0.31539034843444824 0.15947619080543518
0.90928888320922852 0.33682319521903992 0.17228750884532928
0.41789665818214417 0.28527373075485229 0.099236398935317993
0.42913365364074707 0.28706324100494385 0.099554724991321564
0.45359578728675842 0.28986883163452148 0.098878033459186554
0.4854065477848053 0.29577720165252686 0.10795678198337555
0.52097558975219727 0.29926496744155884 0.11581162363290787
0.56070089340209961 0.30105280876159668 0.11421135067939758
0.60474699735641479 0.30757421255111694 0.11786115914583206
0.65151828527450562 0.31594839692115784 0.1224563866853714
0.70093637704849243 0.31823804974555969 0.12897352874279022
0.75098782777786255 0.32629230618476868 0.13238047063350677
0.80243086814880371 0.33854436874389648 0.1405678391456604
0.85695332288742065 0.35567715764045715 0.15176808834075928
0.91021621227264404 0.37627002596855164 0.16692054271697998
0.44016382098197937 0.34664130210876465 0.085697010159492493
0.45290708541870117 0.34860080480575562 0.084923282265663147
0.47406947612762451 0.35064375400543213 0.081706419587135315
0.50401520729064941 0.35432791709899902 0.084766820073127747
0.53926104307174683 0.35779684782028198 0.10045166313648224
