luts/instant_consumer/polaroid_px-680_cold_+.cube
# Created by: G'MIC (https://gmic.eu)
TITLE "polaroid_px-680_cold_+"
# LUT size
LUT_3D_SIZE 5
# Data domain
DOMAIN_MIN 0.0 0.0 0.0
DOMAIN_MAX 1.0 1.0 1.0
# LUT data points
0.038663960993289948 0.20751115679740906 0.26061326265335083
0.088574878871440887 0.20758219063282013 0.25882354378700256
0.36229583621025085 0.21754921972751617 0.25882354378700256
0.79989498853683472 0.30208906531333923 0.24756543338298798
0.98051780462265015 0.48334091901779175 0.26753947138786316
0.010383561253547668 0.2398170679807663 0.25882354378700256
0.10338311642408371 0.25196108222007751 0.2594141960144043
0.43730995059013367 0.29904311895370483 0.25137075781822205
0.80461591482162476 0.40713700652122498 0.23286227881908417
0.9747697114944458 0.53869670629501343 0.27100899815559387
0 0.45373240113258362 0.25368174910545349
0.0070183547213673592 0.4666876494884491 0.25445297360420227
0.45785173773765564 0.52555453777313232 0.23814032971858978
0.79328793287277222 0.57900017499923706 0.23000836372375488
0.95318198204040527 0.61767888069152832 0.26626315712928772
0.004666945431381464 0.67238795757293701 0.2770821750164032
0.062762901186943054 0.67110228538513184 0.27644768357276917
0.46776899695396423 0.68713819980621338 0.29439830780029297
0.76022255420684814 0.7224997878074646 0.32275426387786865
0.93194615840911865 0.7524486780166626 0.38350272178649902
0.56161463260650635 0.81870025396347046 0.43671274185180664
0.59550106525421143 0.81592756509780884 0.44352641701698303
0.70079869031906128 0.81932556629180908 0.47766613960266113
0.82562214136123657 0.82883983850479126 0.52104312181472778
0.92660403251647949 0.84074431657791138 0.57279384136199951
0.024846678599715233 0.21176470816135406 0.27964478731155396
0.094514913856983185 0.21055270731449127 0.27415564656257629
0.38992190361022949 0.19910377264022827 0.28672531247138977
0.82761687040328979 0.30633717775344849 0.31928321719169617
0.9780769944190979 0.53897780179977417 0.38381516933441162
0.0075137568637728691 0.25412535667419434 0.28342285752296448
0.14983716607093811 0.27340996265411377 0.29002472758293152
0.50173395872116089 0.31626462936401367 0.30131968855857849
0.82656043767929077 0.45090100169181824 0.32983222603797913
0.97173881530761719 0.58237123489379883 0.38453030586242676
0.0038114809431135654 0.47797906398773193 0.30537593364715576
0.086284533143043518 0.49578633904457092 0.30030766129493713
0.5212477445602417 0.54747962951660156 0.30636575818061829
0.80492633581161499 0.58363586664199829 0.3135097324848175
0.95613616704940796 0.64027857780456543 0.36241644620895386
0.046931367367506027 0.68139076232910156 0.31931117177009583
0.23245979845523834 0.68133038282394409 0.32566490769386292
0.52299278974533081 0.69645649194717407 0.35689347982406616
0.78006225824356079 0.72874206304550171 0.38938084244728088
0.93964558839797974 0.75472533702850342 0.44212600588798523
0.58157426118850708 0.81931173801422119 0.45987597107887268
0.61460268497467041 0.81827402114868164 0.46718224883079529
0.71670269966125488 0.81977564096450806 0.4996941089630127
0.83506470918655396 0.82908934354782104 0.54269444942474365
0.93177330493927002 0.84327787160873413 0.59571993350982666
0.014804600737988949 0.2234174907207489 0.37076646089553833
0.23965470492839813 0.23687548935413361 0.38008788228034973
0.50229591131210327 0.3169267475605011 0.40134662389755249
0.81211179494857788 0.31927895545959473 0.44892427325248718
0.97589606046676636 0.52681595087051392 0.491545170545578
0.015240448527038097 0.31149354577064514 0.40587660670280457
0.28180745244026184 0.33328986167907715 0.41654708981513977
0.5762324333190918 0.43600714206695557 0.43223896622657776
0.82130283117294312 0.46258234977722168 0.46256065368652344
0.96877044439315796 0.60612219572067261 0.51136749982833862
0.011186801828444004 0.50701236724853516 0.40495511889457703
0.2762068510055542 0.52089470624923706 0.41412848234176636
0.62284153699874878 0.5874817967414856 0.45360806584358215
0.82697033882141113 0.63938021659851074 0.48486199975013733
0.95391857624053955 0.70133626461029053 0.53306382894515991
0.35177025198936462 0.6808401346206665 0.42814674973487854
0.46039581298828125 0.68717414140701294 0.43736997246742249
0.6170470118522644 0.70567011833190918 0.45444238185882568
0.81100559234619141 0.73738795518875122 0.49456033110618591
0.94502919912338257 0.75506323575973511 0.51982986927032471
0.63653677701950073 0.81760913133621216 0.51752269268035889
0.6540912389755249 0.81762635707855225 0.51419675350189209
0.72974604368209839 0.82167160511016846 0.53438794612884521
0.83879643678665161 0.82891237735748291 0.58333873748779297
0.93544274568557739 0.84602254629135132 0.63545048236846924
0.35263869166374207 0.30126544833183289 0.57824522256851196
0.51984995603561401 0.34167063236236572 0.58172601461410522
0.7346007227897644 0.50837832689285278 0.58952772617340088
0.85445421934127808 0.62739056348800659 0.60461950302124023
0.94302427768707275 0.62606573104858398 0.61479860544204712
0.3426518440246582 0.4188595712184906 0.58332210779190063
0.5139390230178833 0.45525392889976501 0.58457726240158081
0.7448585033416748 0.58059722185134888 0.59760010242462158
0.85943573713302612 0.66910964250564575 0.61073148250579834
0.94065463542938232 0.66463202238082886 0.62218248844146729
0.14782564342021942 0.58030706644058228 0.55520772933959961
0.390218585729599 0.58322054147720337 0.56079614162445068
0.70865756273269653 0.64578843116760254 0.59316611289978027
0.85996609926223755 0.71472662687301636 0.62209850549697876
0.94277763366699219 0.72315442562103271 0.64004862308502197
0.36889660358428955 0.6936003565788269 0.53252625465393066
0.46551668643951416 0.69628387689590454 0.54013514518737793
0.65979540348052979 0.71362370252609253 0.56580948829650879
0.85059410333633423 0.75964176654815674 0.62125670909881592
0.94662106037139893 0.78660476207733154 0.66262507438659668
0.56311768293380737 0.8112185001373291 0.56871730089187622
0.61426019668579102 0.81125032901763916 0.57537925243377686
0.73595905303955078 0.81722438335418701 0.6038670539855957
0.85484766960144043 0.83139395713806152 0.64654642343521118
0.95086526870727539 0.85403704643249512 0.70577579736709595
0.72314906120300293 0.61765474081039429 0.74690461158752441
0.76315385103225708 0.63581389188766479 0.73900783061981201
0.85083627700805664 0.69453483819961548 0.73698955774307251
0.91771972179412842 0.76323038339614868 0.7357475757598877
0.94594556093215942 0.78546154499053955 0.7399141788482666
0.7191842794418335 0.65292894840240479 0.74404311180114746
0.76477634906768799 0.66620939970016479 0.73945122957229614
0.85003703832626343 0.71255487203598022 0.73788678646087646
0.91911673545837402 0.77293890714645386 0.73855793476104736
0.94919115304946899 0.79434990882873535 0.74321281909942627
0.6655692458152771 0.70019477605819702 0.7367779016494751
0.72058898210525513 0.70323562622070312 0.73646533489227295
0.82509726285934448 0.73584103584289551 0.73576182126998901
0.91787707805633545 0.78934770822525024 0.74614197015762329
0.94896465539932251 0.81112045049667358 0.75204563140869141
0.55645835399627686 0.75842690467834473 0.72158616781234741
0.59785211086273193 0.75499856472015381 0.72148388624191284
0.72098672389984131 0.75861501693725586 0.7292485237121582
0.88409674167633057 0.79460656642913818 0.74676835536956787
0.95719456672668457 0.83182567358016968 0.77567917108535767
0.64215826988220215 0.83861380815505981 0.72486859560012817
0.66695219278335571 0.83777093887329102 0.72630709409713745
0.74539017677307129 0.83813691139221191 0.73377299308776855
0.84758639335632324 0.84076380729675293 0.74788928031921387
0.96328085660934448 0.866435706615448 0.7983282208442688
