luts/instant_consumer/polaroid_time_zero_expired_cold_--.cube
# Created by: G'MIC (https://gmic.eu)
TITLE "polaroid_time_zero_expired_cold_--"
# LUT size
LUT_3D_SIZE 13
# Data domain
DOMAIN_MIN 0.0 0.0 0.0
DOMAIN_MAX 1.0 1.0 1.0
# LUT data points
0.25525668263435364 0.097429148852825165 0.035721767693758011
0.25948062539100647 0.093864843249320984 0.035360239446163177
0.26605254411697388 0.087823905050754547 0.034823637455701828
0.28648006916046143 0.083724990487098694 0.033671464771032333
0.32944414019584656 0.078001119196414948 0.031921729445457458
0.37949725985527039 0.066987596452236176 0.029647542163729668
0.44594407081604004 0.044115986675024033 0.028007641434669495
0.52758103609085083 0.011652553454041481 0.025336636230349541
0.62115150690078735 0.0041489545255899429 0.021249044686555862
0.71645748615264893 0.0039215688593685627 0.014062335714697838
0.79974168539047241 0.004096596036106348 0.011464960873126984
0.8754425048828125 0.0042287488467991352 0.012609533965587616
0.9398190975189209 0.053255043923854828 0.025733962655067444
0.25593596696853638 0.10279172658920288 0.03321443498134613
0.26020735502243042 0.10023488104343414 0.031885586678981781
0.27042499184608459 0.097085557878017426 0.031969647854566574
0.2982751727104187 0.097368292510509491 0.030616715550422668
0.33790683746337891 0.094194315373897552 0.028616303578019142
0.39232996106147766 0.090355470776557922 0.025482537224888802
0.45828220248222351 0.074899338185787201 0.023286812007427216
0.54156768321990967 0.046135023236274719 0.02144254744052887
0.63020187616348267 0.021195115521550179 0.016211235895752907
0.71931940317153931 0.0096173305064439774 0.010284618474543095
0.80417954921722412 0.013317961245775223 0.0076296939514577389
0.8804250955581665 0.036892086267471313 0.0065857083536684513
0.94098597764968872 0.11353527754545212 0.021313447505235672
0.26224946975708008 0.13112269341945648 0.025700049474835396
0.27012455463409424 0.13274399936199188 0.02296232245862484
0.28416091203689575 0.13161833584308624 0.023339290171861649
0.31225776672363281 0.13163302838802338 0.02239653654396534
0.35531184077262878 0.13119257986545563 0.020412040874361992
0.41052341461181641 0.12855798006057739 0.01755257323384285
0.4762079119682312 0.12387871742248535 0.015086214989423752
0.56032717227935791 0.11153027415275574 0.013727345503866673
0.64719879627227783 0.091035269200801849 0.0087866690009832382
0.73004794120788574 0.086204588413238525 0.0056244945153594017
0.8110576868057251 0.096699915826320648 0.0031246261205524206
0.88411629199981689 0.13718454539775848 0.0026609981432557106
0.9415099024772644 0.19113269448280334 0.012410242110490799
0.27427834272384644 0.18458987772464752 0.010483715683221817
0.2870323657989502 0.18619601428508759 0.0098373861983418465
0.30534884333610535 0.18537910282611847 0.010271977633237839
0.33339875936508179 0.18266388773918152 0.011402204632759094
0.38103631138801575 0.18516813218593597 0.011447383090853691
0.43959632515907288 0.18939289450645447 0.0096102999523282051
0.50245612859725952 0.18863488733768463 0.0063706939108669758
0.57842868566513062 0.18603868782520294 0.0053415936417877674
0.66216552257537842 0.18437814712524414 0.0044056912884116173
0.74254792928695679 0.18958057463169098 0.0028894911520183086
0.81850290298461914 0.19962921738624573 0.002721449825912714
0.88541162014007568 0.23029260337352753 0.0040973289869725704
0.94093209505081177 0.27137959003448486 0.0043090074323117733
0.29652643203735352 0.24985848367214203 0.001507239299826324
0.31347733736038208 0.25515034794807434 0.0038018918130546808
0.3371025025844574 0.2590179443359375 0.004235241562128067
0.37237733602523804 0.25987610220909119 0.0053897183388471603
0.4179915189743042 0.25899848341941833 0.0037282158154994249
0.47390097379684448 0.26208198070526123 0.0022512548603117466
0.5406794548034668 0.27029559016227722 0.0017576180398464203
0.60848546028137207 0.27583727240562439 0.001582037191838026
0.68023258447647095 0.2778465747833252 0.0019054487347602844
0.75326573848724365 0.28648623824119568 0.00042762007797136903
0.82642543315887451 0.29787617921829224 0.00091422587865963578
0.88712817430496216 0.32128402590751648 0.0032107634469866753
0.93922138214111328 0.35156440734863281 0.0022597818169742823
0.33164075016975403 0.33607661724090576 0
0.3492034375667572 0.33944469690322876 0.0012521781027317047
0.37320408225059509 0.343901127576828 0.0035349677782505751
0.41446274518966675 0.34393003582954407 0.002751578576862812
0.46277478337287903 0.34526607394218445 0.00023812687140889466
0.52086782455444336 0.35286787152290344 0
0.58693677186965942 0.36379134654998779 0.0001179414612124674
0.65155208110809326 0.37077590823173523 0.00098422181326895952
0.70911157131195068 0.37577360868453979 0.0012298434739932418
0.77149379253387451 0.38306298851966858 0.00056116440100595355
0.83630603551864624 0.39081576466560364 0.00034760119160637259
0.88809585571289062 0.40871801972389221 0.00068929337430745363
0.93962764739990234 0.43494367599487305 9.011661313707009e-05
0.36951723694801331 0.42879131436347961 0
0.38721448183059692 0.42947268486022949 0
0.41243571043014526 0.4329860508441925 0.00027097814017906785
0.45896580815315247 0.43491250276565552 0.00072489719605073333
0.51025509834289551 0.43992358446121216 0.0002820183290168643
0.56916779279708862 0.44795647263526917 0
0.63167357444763184 0.45713284611701965 0.00077857222640886903
0.69002115726470947 0.46523904800415039 0.0033943476155400276
0.74097031354904175 0.47469529509544373 0.0038184970617294312
0.79385501146316528 0.48111942410469055 0.0014590843347832561
0.84784924983978271 0.48478510975837708 0
0.89198213815689087 0.49557220935821533 4.9007641791831702e-05
0.93556362390518188 0.51377099752426147 0.00019369686197023839
0.41678711771965027 0.51967000961303711 0
0.43493795394897461 0.51933258771896362 0.0004509420832619071
0.46040648221969604 0.52195298671722412 0.00053118536015972495
0.50449633598327637 0.52809441089630127 6.7677217884920537e-05
0.55391860008239746 0.53433960676193237 0.0001077091001207009
0.61153215169906616 0.54108792543411255 5.5290671298280358e-05
0.66846519708633423 0.54714065790176392 0.0023992650676518679
0.72081243991851807 0.55587542057037354 0.0039215688593685627
0.7692188024520874 0.56704211235046387 0.0039586084894835949
0.81712073087692261 0.57445263862609863 0.0028365938924252987
0.86131387948989868 0.57750290632247925 0.0024700837675482035
0.89893412590026855 0.58215391635894775 0.0025721380952745676
0.93418043851852417 0.59116882085800171 0.0051096151582896709
0.47334599494934082 0.60719853639602661 0
0.48791536688804626 0.60765892267227173 0.00047409956459887326
0.5095100998878479 0.60989242792129517 0.00073529413202777505
0.54884874820709229 0.61553800106048584 0.00031684426357969642
0.59179008007049561 0.62077927589416504 0
0.64154160022735596 0.62374097108840942 8.0422796600032598e-05
0.69371199607849121 0.62741369009017944 0.0017562865978106856
0.74322980642318726 0.63482660055160522 0.00359193398617208
0.78956717252731323 0.64555126428604126 0.0033481672871857882
0.83340030908584595 0.65512681007385254 0.010733062401413918
0.87217962741851807 0.66203755140304565 0.076563693583011627
0.90460556745529175 0.66370946168899536 0.092948183417320251
0.93482387065887451 0.66760867834091187 0.10948650538921356
0.53028255701065063 0.69193917512893677 0.00032438390189781785
0.53991234302520752 0.69029051065444946 0.00022955502208787948
0.55690884590148926 0.68750530481338501 0.00053280103020370007
0.58374130725860596 0.68707907199859619 2.5850184101727791e-05
0.62131732702255249 0.68995273113250732 0
0.66534280776977539 0.69088137149810791 0.00032915602787397802
0.71146738529205322 0.69282644987106323 0.0013539183419197798
0.75676769018173218 0.69806843996047974 0.0021499034482985735
0.80061089992523193 0.70620673894882202 0.004117629025131464
0.84212404489517212 0.71583110094070435 0.014479947276413441
0.87659281492233276 0.72439008951187134 0.14840658009052277
0.90489089488983154 0.73062843084335327 0.26152020692825317
0.9327472448348999 0.73507142066955566 0.29219904541969299
0.58781963586807251 0.75294095277786255 0.0063053206540644169
0.59268695116043091 0.75431329011917114 0.0026112126652151346
0.60480803251266479 0.75154340267181396 9.406594472238794e-05
0.6267702579498291 0.75100398063659668 1.2566061741381418e-05
0.65245360136032104 0.7532157301902771 8.3654063928406686e-05
0.68806648254394531 0.75149345397949219 0.00043130014091730118
0.73026168346405029 0.75142645835876465 0.00048207302461378276
0.77244657278060913 0.75481903553009033 0.00073895923560485244
0.81233745813369751 0.76128751039505005 0.0025216646026819944
0.85044586658477783 0.7692374587059021 0.034483861178159714
0.88267934322357178 0.77461105585098267 0.19082799553871155
0.90803134441375732 0.77932864427566528 0.3281150758266449
0.93039000034332275 0.78646355867385864 0.41800606250762939
0.64510989189147949 0.80558323860168457 0.012636356987059116
0.64922046661376953 0.80753862857818604 0.0072591891512274742
0.65486752986907959 0.8095933198928833 0.0020363901276141405
0.67411130666732788 0.80674272775650024 0.0011301826452836394
0.69667673110961914 0.80417740345001221 0.0011582766892388463
0.72156798839569092 0.80360424518585205 0.0027395510114729404
0.75621551275253296 0.80536550283432007 0.004112662747502327
0.79284083843231201 0.80834287405014038 0.0013977200724184513
0.82779133319854736 0.8131260871887207 0.007602691650390625
0.86389744281768799 0.81749916076660156 0.11950691044330597
0.89365178346633911 0.81974035501480103 0.27214804291725159
0.9165082573890686 0.82194620370864868 0.38051828742027283
0.93517470359802246 0.82641386985778809 0.47382661700248718
0.70199006795883179 0.85680240392684937 0.017419852316379547
0.70557445287704468 0.85781329870223999 0.0090521872043609619
0.71064168214797974 0.85673707723617554 0.0060582929290831089
0.72484278678894043 0.85539102554321289 0.00099764054175466299
0.74241191148757935 0.85280263423919678 0.00021721335360780358
0.76127892732620239 0.85073906183242798 0.00069503783015534282
0.78759187459945679 0.85250931978225708 0.00260136928409338
0.82035553455352783 0.85829591751098633 0.016283342614769936
0.85207241773605347 0.86026489734649658 0.11734988540410995
0.88254183530807495 0.85990488529205322 0.26719829440116882
0.90891039371490479 0.86119556427001953 0.37925392389297485
0.92880433797836304 0.86191672086715698 0.46226650476455688
0.94643759727478027 0.86316442489624023 0.53857767581939697
0.25492978096008301 0.093659870326519012 0.041822966188192368
0.25744718313217163 0.090036056935787201 0.041338469833135605
0.26760971546173096 0.086102835834026337 0.042913593351840973
0.29178240895271301 0.085060164332389832 0.044089958071708679
0.33722779154777527 0.083173803985118866 0.043594960123300552
0.39069214463233948 0.073343195021152496 0.046340957283973694
0.45641487836837769 0.052905812859535217 0.045952636748552322
0.53973865509033203 0.017002973705530167 0.043691523373126984
0.63040852546691895 0.0053856195881962776 0.042527683079242706
0.72329175472259521 0.0039215688593685627 0.038656167685985565
0.80435436964035034 0.003989245742559433 0.039236780256032944
0.87965667247772217 0.0056786183267831802 0.044243831187486649
0.94159561395645142 0.060922153294086456 0.062670029699802399
0.25519144535064697 0.099404729902744293 0.038015119731426239
0.26317968964576721 0.09967658668756485 0.039540249854326248
0.27538630366325378 0.099346041679382324 0.041026350110769272
0.30148568749427795 0.098549559712409973 0.040215823799371719
0.34432703256607056 0.096823990345001221 0.040828943252563477
0.40394377708435059 0.093251250684261322 0.041801691055297852
0.46994084119796753 0.080854363739490509 0.041738998144865036
0.55400955677032471 0.053907014429569244 0.042677801102399826
0.63946980237960815 0.024980956688523293 0.038856834173202515
0.72607141733169556 0.011573911644518375 0.033391330391168594
0.80844330787658691 0.018797826021909714 0.033017296344041824
0.88340455293655396 0.041492536664009094 0.037732891738414764
0.9422646164894104 0.12276497483253479 0.058410614728927612
0.26263117790222168 0.12710610032081604 0.030659455806016922
0.27490270137786865 0.13421854376792908 0.030583519488573074
0.2899361252784729 0.13544507324695587 0.033221345394849777
0.315206378698349 0.13315290212631226 0.034925289452075958
0.35898837447166443 0.13410909473896027 0.032285504043102264
0.41904422640800476 0.13085649907588959 0.031883299350738525
0.48842203617095947 0.12633195519447327 0.031470727175474167
0.57265454530715942 0.11605745553970337 0.029434338212013245
0.65656429529190063 0.095820330083370209 0.025150418281555176
0.73704081773757935 0.091143570840358734 0.021275883540511131
0.81603491306304932 0.10610993206501007 0.018209898844361305
0.88622438907623291 0.14008219540119171 0.023843534290790558
0.94221478700637817 0.19517870247364044 0.047403611242771149
0.27559664845466614 0.18210984766483307 0.016957571730017662
0.28860580921173096 0.185524582862854 0.01514485664665699
0.30677521228790283 0.18681396543979645 0.016137456521391869
0.33973482251167297 0.18824499845504761 0.022154055535793304
0.385976642370224 0.19099231064319611 0.020705234259366989
0.4447874128818512 0.19169831275939941 0.017371503636240959
0.51034849882125854 0.19082067906856537 0.012948743067681789
0.59032136201858521 0.19056764245033264 0.011881151236593723
0.67080390453338623 0.18719606101512909 0.0089280521497130394
0.74917227029800415 0.19457170367240906 0.0070046219043433666
0.82313007116317749 0.20532900094985962 0.0047308378852903843
0.88868075609207153 0.2331644594669342 0.0099924877285957336
0.94358259439468384 0.27097851037979126 0.028118373826146126
0.29636415839195251 0.2514985203742981 0.0038941625971347094
0.31262442469596863 0.25541654229164124 0.0048811817541718483
0.3368067741394043 0.2594512403011322 0.0053159827366471291
0.37526437640190125 0.26262766122817993 0.0077936658635735512
0.42500269412994385 0.26502740383148193 0.0059901815839111805
0.48245316743850708 0.26788419485092163 0.0047220564447343349
0.54686921834945679 0.27341416478157043 0.0053420122712850571
0.61832040548324585 0.2767544686794281 0.0057195923291146755
0.68855524063110352 0.2804226279258728 0.0041720070876181126
0.76024842262268066 0.28816768527030945 0.0037806790787726641
0.83041137456893921 0.2979181706905365 0.0039665373042225838
0.89037370681762695 0.31940290331840515 0.0069745080545544624
0.94039225578308105 0.34920123219490051 0.010619144886732101
0.33179208636283875 0.33783233165740967 0.000237214335356839
0.34919440746307373 0.34103399515151978 0.0028555027674883604
0.37367638945579529 0.34413278102874756 0.003917274996638298
0.41595950722694397 0.34680941700935364 0.0039835013449192047
0.46832707524299622 0.35183915495872498 0.0020898706279695034
0.52750891447067261 0.35728538036346436 0.00054749136324971914
0.59113830327987671 0.36483702063560486 0.0017874623881652951
0.65595543384552002 0.37289577722549438 0.0039821998216211796
0.71448701620101929 0.37774449586868286 0.0047511081211268902
0.77765452861785889 0.38260748982429504 0.0040072719566524029
0.83930391073226929 0.38937121629714966 0.0034396601840853691
0.89167660474777222 0.40687459707260132 0.0042539858259260654
0.93935316801071167 0.43269109725952148 0.0024535385891795158
0.37242928147315979 0.42891725897789001 0.0010952668963000178
0.38934379816055298 0.43271264433860779 0.0025003170594573021
0.41556397080421448 0.43533763289451599 0.0035546994768083096
0.45975089073181152 0.43837764859199524 0.0040707606822252274
0.51415771245956421 0.44465547800064087 0.0038307639770209789
0.57392561435699463 0.45103162527084351 0.0023631227668374777
0.63360285758972168 0.45801272988319397 0.0029453053139150143
0.6933591365814209 0.46777302026748657 0.0039215688593685627
0.74710643291473389 0.47780951857566833 0.0039875553920865059
0.8002699613571167 0.48135197162628174 0.0033230052795261145
0.8495631217956543 0.48474755883216858 0.0015074636321514845
0.89545756578445435 0.49657881259918213 0.0021102456375956535
0.93748891353607178 0.513408362865448 0.0018513698596507311
0.42093062400817871 0.52173787355422974 0.0028346341568976641
0.4383600652217865 0.52394098043441772 0.0038965113926678896
0.46325507760047913 0.5257905125617981 0.0039045596495270729
0.50591361522674561 0.53161841630935669 0.0037875606212764978
0.55641961097717285 0.53636229038238525 0.0037453894037753344
0.61413484811782837 0.54119759798049927 0.0038139491807669401
0.66974085569381714 0.54625809192657471 0.0039184121415019035
0.72388112545013428 0.55577033758163452 0.0043322993442416191
0.77403247356414795 0.56848740577697754 0.0052164713852107525
0.82029104232788086 0.57736295461654663 0.0090737733989953995
0.8619200587272644 0.57842588424682617 0.0091773234307765961
0.90117835998535156 0.58368790149688721 0.0085120256990194321
0.93608182668685913 0.59188181161880493 0.011853969655930996
0.47655853629112244 0.6096155047416687 0.001183932414278388
0.49155899882316589 0.61299997568130493 0.0038889118004590273
0.51255625486373901 0.61270076036453247 0.0039215688593685627
0.55047553777694702 0.61760938167572021 0.0038866978138685226
0.59389197826385498 0.62106525897979736 0.0032978730741888285
0.64397615194320679 0.62301570177078247 0.0038401584606617689
0.69597363471984863 0.62670493125915527 0.0039258468896150589
0.74594545364379883 0.63366830348968506 0.0039215688593685627
0.79216355085372925 0.64460998773574829 0.0046750684268772602
0.83476060628890991 0.656044602394104 0.036461595445871353
0.87216174602508545 0.66197431087493896 0.11744465678930283
0.90481185913085938 0.66340005397796631 0.12822756171226501
0.93558073043823242 0.66970479488372803 0.14872369170188904
0.53314268589019775 0.69165623188018799 0.0008544921875
0.54303187131881714 0.69196814298629761 0.0037834018003195524
0.55955439805984497 0.68821674585342407 0.0039046942256391048
0.58586972951889038 0.68841171264648438 0.0035437340848147869
0.62232160568237305 0.69023215770721436 0.0023571688216179609
0.66813290119171143 0.69105631113052368 0.0036661035846918821
0.71506816148757935 0.69497382640838623 0.0039215688593685627
0.75987273454666138 0.70052838325500488 0.004393888171762228
0.80253511667251587 0.7077096700668335 0.0050929500721395016
0.84292101860046387 0.71611851453781128 0.03793272003531456
0.87548905611038208 0.7240636944770813 0.18837207555770874
0.90490341186523438 0.73063421249389648 0.27879351377487183
0.93264573812484741 0.73548811674118042 0.31102782487869263
0.58971107006072998 0.75365382432937622 0.0023487764410674572
0.59462952613830566 0.7546270489692688 0.0038392909336835146
0.60734552145004272 0.75248867273330688 0.0029400994535535574
0.6285356879234314 0.75153273344039917 0.0017294790595769882
0.65387076139450073 0.75294369459152222 0.00089202582603320479
0.69011110067367554 0.75182098150253296 0.0019579869695007801
0.73192936182022095 0.75329148769378662 0.0032210855279117823
0.77290982007980347 0.75624072551727295 0.0045171403326094151
0.81251293420791626 0.76256859302520752 0.0054858038201928139
0.85049629211425781 0.7692524790763855 0.070202797651290894
0.88200384378433228 0.77486401796340942 0.22332887351512909
0.90797549486160278 0.78053450584411621 0.34757453203201294
0.93122488260269165 0.78745490312576294 0.42988374829292297
0.64489096403121948 0.80690604448318481 0.0034464816562831402
0.64956021308898926 0.80769258737564087 0.0044977525249123573
0.65789681673049927 0.80834251642227173 0.0032674900721758604
0.67511886358261108 0.8067355751991272 0.003331352723762393
0.69600659608840942 0.80531078577041626 0.0046555912122130394
0.7244223952293396 0.80524736642837524 0.0045110066421329975
0.75782305002212524 0.80682778358459473 0.0031017677392810583
0.79350000619888306 0.80924755334854126 0.0016419205348938704
0.82820302248001099 0.81361925601959229 0.02159525640308857
0.86369490623474121 0.8174775242805481 0.15106610953807831
0.89342004060745239 0.8192746639251709 0.29288136959075928
0.91612762212753296 0.82229161262512207 0.39574959874153137
0.93547946214675903 0.82689553499221802 0.48404994606971741
0.703133225440979 0.85883194208145142 0.026366304606199265
0.70648252964019775 0.85914486646652222 0.021531272679567337
0.71372681856155396 0.85917985439300537 0.017201052978634834
0.72618764638900757 0.85802203416824341 0.011530079878866673
0.74257367849349976 0.85623860359191895 0.0063545675948262215
0.76258987188339233 0.85498607158660889 0.003934808075428009
0.78926920890808105 0.85547363758087158 0.0042127720080316067
0.82073843479156494 0.85992640256881714 0.023585479706525803
0.85153067111968994 0.85992443561553955 0.14368771016597748
0.88246077299118042 0.85998094081878662 0.28546386957168579
0.90919464826583862 0.86010420322418213 0.39397341012954712
0.92952078580856323 0.86181837320327759 0.47827199101448059
0.94597756862640381 0.86253100633621216 0.54432374238967896
0.26008588075637817 0.088067196309566498 0.058301500976085663
0.26251929998397827 0.087315097451210022 0.05753796175122261
0.27118775248527527 0.085156761109828949 0.058066889643669128
0.29364892840385437 0.084396809339523315 0.058793473988771439
0.34230169653892517 0.081774391233921051 0.065089613199234009
0.39963120222091675 0.075322531163692474 0.072327800095081329
0.46864736080169678 0.060411207377910614 0.078950680792331696
0.55224776268005371 0.025121336802840233 0.081182591617107391
0.64097422361373901 0.0053803236223757267 0.08039131760597229
0.7312050461769104 0.0015890832291916013 0.081103004515171051
0.81140732765197754 0.002492119325324893 0.088205493986606598
0.88388025760650635 0.0057780095376074314 0.09560692310333252
0.94474977254867554 0.06893099844455719 0.11209995299577713
0.2639179527759552 0.098873689770698547 0.059346713125705719
0.27237805724143982 0.10072892159223557 0.061162747442722321
0.28120732307434082 0.1008344441652298 0.059188287705183029
0.30561205744743347 0.1025446280837059 0.060359042137861252
0.35175091028213501 0.1029525026679039 0.064348317682743073
0.41353139281272888 0.098332948982715607 0.070395484566688538
0.4834798276424408 0.086956635117530823 0.074905842542648315
0.56648403406143188 0.059895876795053482 0.0753822922706604
0.65087687969207764 0.024255026131868362 0.073567964136600494
0.7360299825668335 0.010614896193146706 0.075151078402996063
0.81660336256027222 0.0123990373685956 0.079314768314361572
0.88708066940307617 0.042128425091505051 0.089250870048999786
0.94426149129867554 0.12684282660484314 0.11110641062259674
0.27207484841346741 0.12694434821605682 0.056116528809070587
0.28257620334625244 0.13301722705364227 0.056061103940010071
0.29577776789665222 0.13684234023094177 0.05605112761259079
0.32342052459716797 0.13895680010318756 0.059265121817588806
0.36773920059204102 0.14008074998855591 0.059932336211204529
0.42961570620536804 0.13576065003871918 0.065321318805217743
0.50135546922683716 0.12916642427444458 0.06482774019241333
0.58487457036972046 0.11778260767459869 0.061052165925502777
0.66707080602645874 0.10182608664035797 0.061071403324604034
0.74672240018844604 0.094737455248832703 0.061264261603355408
0.8224678635597229 0.10256762057542801 0.064538128674030304
0.88785457611083984 0.14060668647289276 0.08009791374206543
0.94281065464019775 0.20236985385417938 0.10397123545408249
0.28745153546333313 0.18410018086433411 0.044310729950666428
0.29692259430885315 0.18429262936115265 0.043551411479711533
0.3120577335357666 0.18565399944782257 0.043407335877418518
0.34788420796394348 0.19344022870063782 0.044047769159078598
0.39492371678352356 0.19648948311805725 0.048062883317470551
0.45348429679870605 0.19428844749927521 0.048399306833744049
0.52344155311584473 0.19254451990127563 0.044370941817760468
0.60373175144195557 0.19190444052219391 0.040320347994565964
0.68063372373580933 0.18847267329692841 0.03951181098818779
0.75698435306549072 0.19550301134586334 0.043221358209848404
0.82843369245529175 0.207436203956604 0.046281538903713226
0.89100736379623413 0.23543143272399902 0.061550214886665344
0.94385421276092529 0.27491721510887146 0.092222921550273895
0.30591681599617004 0.2573055624961853 0.024106942117214203
