luts/instant_consumer/polaroid_px-70_++.cube
# Created by: G'MIC (https://gmic.eu)
TITLE "polaroid_px-70_++"
# LUT size
LUT_3D_SIZE 13
# Data domain
DOMAIN_MIN 0.0 0.0 0.0
DOMAIN_MAX 1.0 1.0 1.0
# LUT data points
0.21085456013679504 0.32004919648170471 0.25929510593414307
0.21699698269367218 0.3207823634147644 0.25967550277709961
0.22239652276039124 0.32074698805809021 0.26034450531005859
0.22842387855052948 0.31964138150215149 0.25995439291000366
0.24417488276958466 0.31893214583396912 0.25887882709503174
0.29118183255195618 0.32132631540298462 0.25883987545967102
0.36376681923866272 0.32360497117042542 0.25886785984039307
0.4912569522857666 0.33019301295280457 0.25679954886436462
0.64360058307647705 0.34325692057609558 0.24953661859035492
0.78174936771392822 0.37194311618804932 0.239667147397995
0.88235640525817871 0.42151123285293579 0.22967027127742767
0.94212609529495239 0.47688537836074829 0.22906629741191864
0.97158235311508179 0.52236193418502808 0.23933762311935425
0.21127676963806152 0.32344138622283936 0.25882568955421448
0.21709558367729187 0.3236660361289978 0.25978729128837585
0.22375181317329407 0.32254096865653992 0.26265525817871094
0.23088490962982178 0.32157453894615173 0.26272469758987427
0.25058788061141968 0.32195022702217102 0.26079440116882324
0.29329025745391846 0.32385757565498352 0.25882354378700256
0.37668135762214661 0.32873570919036865 0.25873252749443054
0.50402861833572388 0.33921089768409729 0.2552846372127533
0.6513792872428894 0.35753318667411804 0.24698707461357117
0.78965544700622559 0.38879969716072083 0.23545543849468231
0.88673239946365356 0.43822380900382996 0.22534070909023285
0.94187676906585693 0.4888552725315094 0.22779391705989838
0.97250300645828247 0.53598475456237793 0.24177730083465576
0.21068401634693146 0.32676553726196289 0.25882354378700256
0.21641239523887634 0.32852143049240112 0.25897625088691711
0.22411534190177917 0.32839217782020569 0.26154354214668274
0.23592387139797211 0.32797381281852722 0.26269647479057312
0.2634444534778595 0.32990148663520813 0.26092937588691711
0.31565937399864197 0.33506253361701965 0.25872200727462769
0.40082329511642456 0.34196758270263672 0.25601747632026672
0.52482056617736816 0.35682904720306396 0.25079965591430664
0.66610783338546753 0.37660494446754456 0.24258986115455627
0.79805785417556763 0.41393318772315979 0.23039957880973816
0.89047318696975708 0.46253979206085205 0.22005748748779297
0.94211941957473755 0.50950068235397339 0.22260485589504242
0.97196394205093384 0.55471909046173096 0.23988530039787292
0.20902422070503235 0.33698832988739014 0.25882354378700256
0.2142549604177475 0.33811700344085693 0.25882354378700256
0.22531309723854065 0.34027808904647827 0.25911635160446167
0.24652746319770813 0.34531670808792114 0.25946769118309021
0.27838656306266785 0.34554669260978699 0.25891220569610596
0.33975401520729065 0.35288733243942261 0.25668132305145264
0.43304681777954102 0.36590960621833801 0.25190481543540955
0.55654799938201904 0.38642668724060059 0.24485979974269867
0.68971377611160278 0.41023629903793335 0.23532393574714661
0.80737411975860596 0.44808307290077209 0.22322362661361694
0.88823097944259644 0.49246639013290405 0.21543247997760773
0.93904197216033936 0.53624212741851807 0.21881839632987976
0.96610796451568604 0.57690262794494629 0.2378857433795929
0.20200775563716888 0.3697693943977356 0.2580682635307312
0.20842039585113525 0.3719232976436615 0.25727656483650208
0.22481684386730194 0.36980512738227844 0.25755658745765686
0.25334915518760681 0.37334468960762024 0.25683394074440002
0.29742845892906189 0.37807199358940125 0.25568649172782898
0.37439003586769104 0.39321541786193848 0.25127378106117249
0.47453063726425171 0.4139915406703949 0.24364149570465088
0.58781701326370239 0.42698681354522705 0.23699113726615906
0.70206773281097412 0.4478890597820282 0.22694884240627289
0.80861926078796387 0.48605489730834961 0.21384294331073761
0.88310402631759644 0.5300525426864624 0.20804311335086823
0.92886096239089966 0.56558394432067871 0.21351996064186096
0.95940214395523071 0.59968298673629761 0.2337440550327301
0.18235790729522705 0.42918887734413147 0.25183877348899841
0.19526199996471405 0.42911729216575623 0.25186443328857422
0.22289383411407471 0.43113109469413757 0.25165051221847534
0.26313060522079468 0.43451711535453796 0.25033080577850342
0.32396012544631958 0.44100305438041687 0.24797891080379486
0.40975111722946167 0.45592328906059265 0.24268853664398193
0.51565253734588623 0.47731992602348328 0.23360900580883026
0.62484121322631836 0.49341005086898804 0.22418481111526489
0.7262732982635498 0.51631009578704834 0.21301974356174469
0.81682771444320679 0.54390090703964233 0.20292003452777863
0.88180392980575562 0.57642871141433716 0.1988636702299118
0.92036402225494385 0.59944021701812744 0.20885783433914185
0.95040214061737061 0.62727957963943481 0.23140415549278259
0.15969109535217285 0.51810044050216675 0.24124948680400848
0.18476198613643646 0.51683753728866577 0.24254760146141052
0.223462775349617 0.51092541217803955 0.24408209323883057
0.27868255972862244 0.51604592800140381 0.24245589971542358
0.35311469435691833 0.5228198766708374 0.24001026153564453
0.44839459657669067 0.53916710615158081 0.23379011452198029
0.55130410194396973 0.55431360006332397 0.22568514943122864
0.66313451528549194 0.5741889476776123 0.21336014568805695
0.75520122051239014 0.5958017110824585 0.20196442306041718
0.82555902004241943 0.61569464206695557 0.19614498317241669
0.87771850824356079 0.63136368989944458 0.19658301770687103
0.91297018527984619 0.63989096879959106 0.20484691858291626
0.94220805168151855 0.65734845399856567 0.22625419497489929
0.19358058273792267 0.61000478267669678 0.23466731607913971
0.22353839874267578 0.61051201820373535 0.23540806770324707
0.2640569806098938 0.60384953022003174 0.23659431934356689
0.31796044111251831 0.60338395833969116 0.23745489120483398
0.3957676887512207 0.61016905307769775 0.23685364425182343
0.49094939231872559 0.62604010105133057 0.23172016441822052
0.58674556016921997 0.63934719562530518 0.22434735298156738
0.67975819110870361 0.65018212795257568 0.21599829196929932
0.76620614528656006 0.66840630769729614 0.20888014137744904
0.82670390605926514 0.68196576833724976 0.20645767450332642
0.86829853057861328 0.68700516223907471 0.21042220294475555
0.90267890691757202 0.69026440382003784 0.22024998068809509
0.93012100458145142 0.69602322578430176 0.2359110563993454
0.31180059909820557 0.7040029764175415 0.24180696904659271
0.32444670796394348 0.69811367988586426 0.2425989955663681
0.35692235827445984 0.6965709924697876 0.24405629932880402
0.40314182639122009 0.69447523355484009 0.24749383330345154
0.46579104661941528 0.69826847314834595 0.24874889850616455
0.54203146696090698 0.70674866437911987 0.24855557084083557
0.61973869800567627 0.71226507425308228 0.24553008377552032
0.6936957836151123 0.71738129854202271 0.24156442284584045
0.7599341869354248 0.7240070104598999 0.23796041309833527
0.81622302532196045 0.73365229368209839 0.23816180229187012
0.86027520895004272 0.73951947689056396 0.24169659614562988
0.89172184467315674 0.74140220880508423 0.2570740282535553
0.91925173997879028 0.74760681390762329 0.28109902143478394
0.4454919695854187 0.76942926645278931 0.27621155977249146
0.45373785495758057 0.7665482759475708 0.27656209468841553
0.47240042686462402 0.76322442293167114 0.27768853306770325
0.5032808780670166 0.76137959957122803 0.28058519959449768
0.54599845409393311 0.7619931697845459 0.28471654653549194
0.5970991849899292 0.76373845338821411 0.28950399160385132
0.654246985912323 0.76570534706115723 0.29098078608512878
0.71156090497970581 0.76989048719406128 0.29158329963684082
0.76491963863372803 0.77122998237609863 0.29358071088790894
0.81457877159118652 0.77728700637817383 0.29381087422370911
0.85417532920837402 0.7848173975944519 0.29415994882583618
0.8823668360710144 0.78776174783706665 0.30966663360595703
0.90816307067871094 0.79325616359710693 0.34028476476669312
0.57728844881057739 0.81517487764358521 0.33639320731163025
0.57774358987808228 0.81270319223403931 0.33540365099906921
0.58830422163009644 0.80946308374404907 0.33611476421356201
0.60354304313659668 0.80481100082397461 0.33817276358604431
0.63053297996520996 0.80434024333953857 0.34315323829650879
0.66813689470291138 0.80883890390396118 0.35212251543998718
0.70488631725311279 0.80955523252487183 0.35272562503814697
0.7384486198425293 0.8113444447517395 0.35627603530883789
0.77554303407669067 0.81144148111343384 0.36320036649703979
0.81891798973083496 0.81425827741622925 0.36654850840568542
0.85074186325073242 0.81956642866134644 0.36832955479621887
0.87578749656677246 0.82493561506271362 0.37604665756225586
0.89755725860595703 0.82765084505081177 0.40028315782546997
0.6962735652923584 0.84490287303924561 0.40890282392501831
0.69308972358703613 0.84415727853775024 0.40573018789291382
0.69604849815368652 0.84149962663650513 0.40456244349479675
0.70746564865112305 0.84019613265991211 0.40785098075866699
0.71942335367202759 0.83786964416503906 0.41063079237937927
0.73703980445861816 0.83817118406295776 0.41559609770774841
0.76236379146575928 0.84220820665359497 0.42317289113998413
0.78572505712509155 0.8432161808013916 0.4272615909576416
0.80597907304763794 0.84379005432128906 0.43045079708099365
0.82825744152069092 0.84678757190704346 0.43624681234359741
0.85097366571426392 0.84746634960174561 0.43806847929954529
0.87478733062744141 0.84748721122741699 0.44085025787353516
0.89258736371994019 0.84910321235656738 0.45642849802970886
0.78203970193862915 0.86268079280853271 0.47007608413696289
0.78045022487640381 0.86217725276947021 0.4694366455078125
0.78275316953659058 0.86233401298522949 0.46946388483047485
0.78851109743118286 0.86236691474914551 0.47041717171669006
0.79299288988113403 0.86079984903335571 0.47281578183174133
0.80307549238204956 0.860556960105896 0.47614070773124695
0.81716221570968628 0.86252909898757935 0.48168927431106567
0.83022958040237427 0.86234116554260254 0.48461213707923889
0.84059721231460571 0.86209911108016968 0.48532786965370178
0.85373693704605103 0.86345362663269043 0.49014836549758911
0.86529582738876343 0.8630061149597168 0.49125954508781433
0.87881726026535034 0.86320024728775024 0.49461209774017334
0.89051014184951782 0.8657497763633728 0.50422686338424683
0.21230648458003998 0.32156103849411011 0.26272314786911011
0.21732062101364136 0.32156863808631897 0.26274511218070984
0.22321526706218719 0.32156863808631897 0.26274511218070984
0.23007038235664368 0.3215668797492981 0.26273983716964722
0.24708414077758789 0.32010558247566223 0.26094439625740051
0.29056403040885925 0.32093986868858337 0.26121264696121216
0.37355425953865051 0.32399022579193115 0.2614230215549469
0.50660455226898193 0.33238548040390015 0.25809106230735779
0.65951806306838989 0.34714198112487793 0.25354599952697754
0.79431068897247314 0.37667438387870789 0.24529440701007843
0.89178049564361572 0.42594724893569946 0.23851191997528076
0.94319009780883789 0.48047903180122375 0.24244607985019684
0.97222131490707397 0.53441363573074341 0.25820270180702209
0.21253693103790283 0.32459753751754761 0.2625727653503418
0.21735641360282898 0.32385134696960449 0.26273229718208313
0.22359175980091095 0.32317984104156494 0.26274511218070984
0.23067884147167206 0.32246306538581848 0.26274511218070984
0.25628694891929626 0.32326135039329529 0.26254725456237793
0.30320954322814941 0.32504630088806152 0.2617793083190918
0.38798779249191284 0.32914215326309204 0.26031339168548584
0.52380776405334473 0.34091091156005859 0.25656133890151978
0.6699865460395813 0.3611285388469696 0.25094044208526611
0.8006213903427124 0.39357700943946838 0.24273981153964996
0.89379793405532837 0.44309353828430176 0.23638705909252167
0.94197744131088257 0.49291190505027771 0.24177643656730652
0.97258949279785156 0.54171901941299438 0.2554621696472168
0.21216140687465668 0.32801744341850281 0.26160314679145813
0.2170407772064209 0.32745775580406189 0.26229053735733032
0.22349563241004944 0.32668787240982056 0.26274245977401733
0.23838686943054199 0.32785499095916748 0.26274511218070984
0.2664673924446106 0.33023467659950256 0.26256725192070007
0.322731614112854 0.33530530333518982 0.26025283336639404
0.41132369637489319 0.34325525164604187 0.25772342085838318
0.5430949330329895 0.35680815577507019 0.25296905636787415
0.68294638395309448 0.38326123356819153 0.24636484682559967
0.80800813436508179 0.42139691114425659 0.23842304944992065
0.8962896466255188 0.46962875127792358 0.23235724866390228
0.9432341456413269 0.51748549938201904 0.23908489942550659
0.97010546922683716 0.56106358766555786 0.25646746158599854
0.21084369719028473 0.34147810935974121 0.26109069585800171
0.21568608283996582 0.34265190362930298 0.261566162109375
0.22506998479366302 0.34177461266517639 0.26201081275939941
0.24858945608139038 0.34513622522354126 0.26209843158721924
0.28362193703651428 0.34891000390052795 0.26073169708251953
0.34660449624061584 0.35546824336051941 0.258077472448349
0.44806787371635437 0.36781769990921021 0.25385144352912903
0.57360637187957764 0.38657274842262268 0.24784138798713684
0.70242619514465332 0.41421622037887573 0.24010680615901947
0.81421130895614624 0.45403313636779785 0.2321447879076004
0.89586937427520752 0.50095629692077637 0.22708603739738464
0.94112825393676758 0.54481726884841919 0.23524065315723419
0.96567296981811523 0.58044552803039551 0.25180533528327942
0.20479537546634674 0.37318611145019531 0.26025569438934326
0.21214674413204193 0.37491762638092041 0.26001143455505371
0.22737455368041992 0.37229979038238525 0.25968411564826965
0.25869378447532654 0.37729611992835999 0.25895428657531738
0.3050682544708252 0.38286229968070984 0.25773525238037109
0.38597398996353149 0.40059173107147217 0.25292602181434631
0.48902115225791931 0.4142172634601593 0.24694201350212097
0.60232096910476685 0.42817860841751099 0.23983612656593323
0.7161712646484375 0.45310500264167786 0.23120640218257904
0.8148534893989563 0.49510869383811951 0.22291138768196106
0.88824653625488281 0.53796124458312988 0.22162353992462158
0.93240147829055786 0.57460629940032959 0.23021635413169861
0.95872306823730469 0.60597884654998779 0.25106379389762878
0.18635974824428558 0.43469208478927612 0.2554377019405365
0.20161798596382141 0.43756508827209473 0.25461721420288086
0.22676211595535278 0.43690633773803711 0.25444334745407104
0.26801392436027527 0.43816375732421875 0.25376847386360168
0.33335256576538086 0.44857370853424072 0.25082197785377502
0.42278403043746948 0.46228787302970886 0.24575287103652954
0.52921199798583984 0.480915367603302 0.23829855024814606
0.64023083448410034 0.50137466192245483 0.23001912236213684
0.73739773035049438 0.52287060022354126 0.22021274268627167
0.81942915916442871 0.54559189081192017 0.21107634902000427
0.88468462228775024 0.57995957136154175 0.21252478659152985
0.92374581098556519 0.60491496324539185 0.22421954572200775
0.95159214735031128 0.63208991289138794 0.24593903124332428
0.1689126193523407 0.52588933706283569 0.24559983611106873
0.19428275525569916 0.51820415258407593 0.24650296568870544
0.23240461945533752 0.51756769418716431 0.24798280000686646
0.28787583112716675 0.51994830369949341 0.24863144755363464
0.36680501699447632 0.52938336133956909 0.24682991206645966
0.46182054281234741 0.54392075538635254 0.24266849458217621
0.56495273113250732 0.56132513284683228 0.23493145406246185
0.67360734939575195 0.58218216896057129 0.22425062954425812
0.75965249538421631 0.60111105442047119 0.21434061229228973
0.82952308654785156 0.61818975210189819 0.20933826267719269
0.88093680143356323 0.63219481706619263 0.21146951615810394
0.91516971588134766 0.64179432392120361 0.21839465200901031
0.94170171022415161 0.66005122661590576 0.23960280418395996
0.21385027468204498 0.61845237016677856 0.24169377982616425
0.23946957290172577 0.61240231990814209 0.24273401498794556
0.28018110990524292 0.60991412401199341 0.24401375651359558
0.33594515919685364 0.61047172546386719 0.24607163667678833
0.41276562213897705 0.61715018749237061 0.24639101326465607
0.50235664844512939 0.62843310832977295 0.24519526958465576
0.5948752760887146 0.64184427261352539 0.23793499171733856
0.68930768966674805 0.65715724229812622 0.22794619202613831
0.76999825239181519 0.67165142297744751 0.22080738842487335
0.82727563381195068 0.68213164806365967 0.22092659771442413
0.87054550647735596 0.68900161981582642 0.22790460288524628
0.90447932481765747 0.69376808404922485 0.23857654631137848
0.93188196420669556 0.70041924715042114 0.25436654686927795
0.33088868856430054 0.70693910121917725 0.25290307402610779
0.34494173526763916 0.70095968246459961 0.25323450565338135
0.37477433681488037 0.6977958083152771 0.25442507863044739
0.41946908831596375 0.69703620672225952 0.25820484757423401
0.47677689790725708 0.7003900408744812 0.26053336262702942
0.55159693956375122 0.70826202630996704 0.26301005482673645
0.62898176908493042 0.71731269359588623 0.25919550657272339
0.69992923736572266 0.72162580490112305 0.2561018168926239
0.76404929161071777 0.72795647382736206 0.25328493118286133
0.8182186484336853 0.73629724979400635 0.25239342451095581
0.8618018627166748 0.74220526218414307 0.25945726037025452
0.8935120701789856 0.74523121118545532 0.27386066317558289
0.91910040378570557 0.75030755996704102 0.29734322428703308
0.4638969898223877 0.77316558361053467 0.28934565186500549
0.47235789895057678 0.76949447393417358 0.28963232040405273
0.48833233118057251 0.7646375298500061 0.29042205214500427
0.51784265041351318 0.76407402753829956 0.29307785630226135
0.55344343185424805 0.76214385032653809 0.29757466912269592
0.60529547929763794 0.76454657316207886 0.30256664752960205
0.66263705492019653 0.7666594386100769 0.30605140328407288
0.71602749824523926 0.77017748355865479 0.30663895606994629
0.7705681324005127 0.77491694688796997 0.30672532320022583
0.81731140613555908 0.78053218126296997 0.30743846297264099
0.85720163583755493 0.78832215070724487 0.30973803997039795
0.88403850793838501 0.79012823104858398 0.32697555422782898
0.90720444917678833 0.79321128129959106 0.3529561460018158
0.58901005983352661 0.81564301252365112 0.34655144810676575
0.58897078037261963 0.81166237592697144 0.34646806120872498
0.59927463531494141 0.80821150541305542 0.34788644313812256
0.61425566673278809 0.80527669191360474 0.35085982084274292
0.63832610845565796 0.80530166625976562 0.35396981239318848
0.67043477296829224 0.80647021532058716 0.35874339938163757
0.70854753255844116 0.80916178226470947 0.36347547173500061
0.74360054731369019 0.81145697832107544 0.36812475323677063
0.78212440013885498 0.81274259090423584 0.37371659278869629
0.82120972871780396 0.81666195392608643 0.37751847505569458
0.85121637582778931 0.82221847772598267 0.37998351454734802
0.87492209672927856 0.82608717679977417 0.39210635423660278
0.89642935991287231 0.82837307453155518 0.41001024842262268
0.70059752464294434 0.8443107008934021 0.41382873058319092
0.69792348146438599 0.84262377023696899 0.41204789280891418
0.70264226198196411 0.84093779325485229 0.41223293542861938
0.71082407236099243 0.83865964412689209 0.41424280405044556
0.72318887710571289 0.83822876214981079 0.41725319623947144
0.74107652902603149 0.8380352258682251 0.42034316062927246
0.76516819000244141 0.84000247716903687 0.42693606019020081
0.7871401309967041 0.84209656715393066 0.43280363082885742
0.80764400959014893 0.84281069040298462 0.43575656414031982
0.83108651638031006 0.84538489580154419 0.44009768962860107
0.85412406921386719 0.8475382924079895 0.44421446323394775
0.87510234117507935 0.84866523742675781 0.45040595531463623
0.89295512437820435 0.85070538520812988 0.46220627427101135
0.78254687786102295 0.86221516132354736 0.4729408323764801
0.78204333782196045 0.86219710111618042 0.47230318188667297
0.78315538167953491 0.86161237955093384 0.47036424279212952
0.78869152069091797 0.86185401678085327 0.47270914912223816
0.79625952243804932 0.86103969812393188 0.47580245137214661
0.80679279565811157 0.86097818613052368 0.47910380363464355
0.81958341598510742 0.86189603805541992 0.48294168710708618
0.82972431182861328 0.8620491623878479 0.48621067404747009
0.83982712030410767 0.86148923635482788 0.48739081621170044
0.85270482301712036 0.86181586980819702 0.49003398418426514
0.86642694473266602 0.86274498701095581 0.49477621912956238
0.88221442699432373 0.86424082517623901 0.50027871131896973
0.89198523759841919 0.86538815498352051 0.50490260124206543
0.21379423141479492 0.32236146926879883 0.26421761512756348
0.21719692647457123 0.32180953025817871 0.2637321949005127
0.22330199182033539 0.32157221436500549 0.26404568552970886
0.23123806715011597 0.32156863808631897 0.26415440440177917
0.25164872407913208 0.32116255164146423 0.26372173428535461
0.29553744196891785 0.32029053568840027 0.26351636648178101
0.38865554332733154 0.32121333479881287 0.26513862609863281
0.52542895078659058 0.32595348358154297 0.26497295498847961
0.67823296785354614 0.34273216128349304 0.263723224401474
0.8079761266708374 0.38023155927658081 0.26076573133468628
0.8954232931137085 0.43510892987251282 0.26229959726333618
0.94499427080154419 0.49666380882263184 0.27365949749946594
0.97112917900085449 0.54935556650161743 0.29056268930435181
0.2147996574640274 0.32643216848373413 0.26485258340835571
0.2178528904914856 0.32545357942581177 0.26434361934661865
0.2243843674659729 0.32477286458015442 0.26432126760482788
0.23234757781028748 0.32349333167076111 0.26481077075004578
0.25836208462715149 0.32372096180915833 0.26535665988922119
0.31073105335235596 0.32524192333221436 0.26559701561927795
0.40671208500862122 0.32672974467277527 0.26567381620407104
0.54255038499832153 0.33441480994224548 0.26415356993675232
0.68795961141586304 0.35866656899452209 0.26157912611961365
0.81276810169219971 0.3961491584777832 0.25744771957397461
0.89857298135757446 0.44907379150390625 0.25851243734359741
0.9430701732635498 0.50629812479019165 0.27063587307929993
0.97127127647399902 0.55781489610671997 0.28935372829437256
0.21479363739490509 0.33297052979469299 0.26553052663803101
0.21800516545772552 0.33006149530410767 0.26497897505760193
0.22459957003593445 0.32732507586479187 0.26460754871368408
0.24069976806640625 0.32890385389328003 0.264952152967453
0.27053108811378479 0.33179160952568054 0.26559111475944519
0.33072799444198608 0.33582779765129089 0.26520279049873352
0.42954975366592407 0.34254699945449829 0.26334568858146667
0.56306391954421997 0.35463041067123413 0.26152566075325012
0.70155906677246094 0.38543087244033813 0.25831589102745056
0.82139730453491211 0.42597505450248718 0.25403282046318054
0.8996051549911499 0.47699090838432312 0.25651299953460693
0.94344949722290039 0.52576988935470581 0.26716405153274536
0.96808111667633057 0.57362228631973267 0.28814584016799927
0.21452377736568451 0.34720540046691895 0.26508438587188721
0.21762356162071228 0.34786731004714966 0.26499453186988831
0.22890143096446991 0.34384620189666748 0.26512017846107483
0.25185590982437134 0.34488710761070251 0.26497897505760193
0.29100620746612549 0.35122436285018921 0.26498043537139893
0.36049368977546692 0.35817438364028931 0.26431560516357422
0.46695637702941895 0.36880949139595032 0.26102599501609802
0.58927708864212036 0.38561561703681946 0.25678464770317078
0.71779268980026245 0.41646727919578552 0.25192528963088989
0.82416516542434692 0.45868760347366333 0.24795469641685486
0.89813041687011719 0.50624674558639526 0.25051698088645935
0.93839293718338013 0.55154705047607422 0.26501798629760742
0.96309018135070801 0.5924496054649353 0.28523051738739014
0.21080291271209717 0.3763103187084198 0.26441872119903564
0.21709555387496948 0.37796738743782043 0.26490047574043274
0.2345573902130127 0.37882602214813232 0.26457548141479492
0.26593011617660522 0.37965339422225952 0.26366925239562988
0.31714275479316711 0.38847371935844421 0.26235264539718628
0.40286949276924133 0.40404725074768066 0.26002076268196106
0.5064207911491394 0.41539701819419861 0.25617370009422302
0.61879980564117432 0.43173235654830933 0.25045794248580933
0.72906327247619629 0.45784264802932739 0.24438102543354034
