luts/instant_consumer/polaroid_px-70.cube
# Created by: G'MIC (https://gmic.eu)
TITLE "polaroid_px-70"
# LUT size
LUT_3D_SIZE 7
# Data domain
DOMAIN_MIN 0.0 0.0 0.0
DOMAIN_MAX 1.0 1.0 1.0
# LUT data points
0 0.16399119794368744 0.20392157137393951
0.0038935344200581312 0.16430778801441193 0.20392157137393951
0.081231899559497833 0.1661045104265213 0.20682635903358459
0.33699476718902588 0.18561804294586182 0.20866721868515015
0.67983347177505493 0.22464105486869812 0.19945533573627472
0.91294181346893311 0.3786500096321106 0.17978657782077789
0.98823881149291992 0.52867609262466431 0.21249088644981384
0 0.18947325646877289 0.2070782333612442
0.0026915606576949358 0.18992409110069275 0.20597964525222778
0.13372126221656799 0.2027733325958252 0.20728868246078491
0.38521993160247803 0.22888100147247314 0.20406056940555573
0.70391392707824707 0.29191741347312927 0.19144405424594879
0.91367757320404053 0.44428101181983948 0.17313085496425629
0.98829251527786255 0.56529843807220459 0.20849424600601196
0 0.29532811045646667 0.20810684561729431
0.001494867610745132 0.29469180107116699 0.20864808559417725
0.19315432012081146 0.32634714245796204 0.20249445736408234
0.4770658016204834 0.36206820607185364 0.18793152272701263
0.73827135562896729 0.41893279552459717 0.16789647936820984
0.90134280920028687 0.52439004182815552 0.15450070798397064
0.97528058290481567 0.61117750406265259 0.20261427760124207
0.0015551099786534905 0.52597635984420776 0.19754359126091003
0.0035761964973062277 0.52017617225646973 0.19648565351963043
0.26372352242469788 0.53670120239257812 0.19006732106208801
0.55625778436660767 0.56999564170837402 0.17041191458702087
0.76466912031173706 0.6040031909942627 0.14485915005207062
0.89182585477828979 0.64163839817047119 0.14699274301528931
0.95854109525680542 0.67500197887420654 0.19380924105644226
0.23423038423061371 0.7276841402053833 0.2149604856967926
0.30665150284767151 0.71876507997512817 0.21813176572322845
0.4528728723526001 0.72144758701324463 0.22627879679203033
0.62200450897216797 0.72862833738327026 0.22371035814285278
0.7713121771812439 0.74209874868392944 0.2169228196144104
0.87014168500900269 0.75428128242492676 0.2243705540895462
0.93903523683547974 0.76869285106658936 0.27638447284698486
0.58766597509384155 0.83209633827209473 0.34198814630508423
0.59321713447570801 0.82593047618865967 0.33841362595558167
0.63493806123733521 0.822532057762146 0.3461340069770813
0.71480470895767212 0.82848334312438965 0.36113795638084412
0.79251480102539062 0.83474361896514893 0.37126877903938293
0.86320412158966064 0.8421592116355896 0.37773466110229492
0.92249727249145508 0.85246425867080688 0.40283635258674622
0.77672743797302246 0.90529066324234009 0.49316656589508057
0.78240662813186646 0.90533339977264404 0.49244391918182373
0.79592359066009521 0.90465331077575684 0.49592596292495728
0.82089561223983765 0.90833646059036255 0.50606811046600342
0.85361337661743164 0.91001296043395996 0.50962233543395996
0.89079135656356812 0.91662096977233887 0.51963746547698975
0.92851799726486206 0.92647367715835571 0.531516432762146
0 0.16161331534385681 0.21082609891891479
0.0039215688593685627 0.16724057495594025 0.21304738521575928
0.08612525463104248 0.17160734534263611 0.21545106172561646
0.36541476845741272 0.18241885304450989 0.22160738706588745
0.71569728851318359 0.25217095017433167 0.23023904860019684
0.91683900356292725 0.41642865538597107 0.2375645786523819
0.98769938945770264 0.56292355060577393 0.27575927972793579
0 0.19861245155334473 0.21802046895027161
0.0043303845450282097 0.1947815865278244 0.21815106272697449
0.15358076989650726 0.20962156355381012 0.2217959463596344
0.42821615934371948 0.23842237889766693 0.22459065914154053
0.73597890138626099 0.32095971703529358 0.22444666922092438
0.91974377632141113 0.46956130862236023 0.23095226287841797
0.98626267910003662 0.58991444110870361 0.27395150065422058
0.00019405588682275265 0.30753439664840698 0.22577911615371704
0.0094219734892249107 0.30987149477005005 0.22528743743896484
0.22745092213153839 0.33820250630378723 0.22326815128326416
0.50802183151245117 0.37463626265525818 0.21387925744056702
0.75464153289794922 0.44102990627288818 0.2060055285692215
0.90274578332901001 0.54261636734008789 0.21684834361076355
0.97147238254547119 0.6322447657585144 0.26947471499443054
0.0035615959204733372 0.54307061433792114 0.22495792806148529
0.040879838168621063 0.53653353452682495 0.22218823432922363
0.31173160672187805 0.54433172941207886 0.22271351516246796
0.57721471786499023 0.57710444927215576 0.20970185101032257
0.78022927045822144 0.61681312322616577 0.19724784791469574
0.89108967781066895 0.63938850164413452 0.20471657812595367
0.95698624849319458 0.68335860967636108 0.25037410855293274
0.31662130355834961 0.73295027017593384 0.25275522470474243
0.37512269616127014 0.72617679834365845 0.25679835677146912
0.49236953258514404 0.7211574912071228 0.2682441771030426
0.6367499828338623 0.73039638996124268 0.26687914133071899
0.7815055251121521 0.74721699953079224 0.26751318573951721
0.87526363134384155 0.75666934251785278 0.27704712748527527
0.93768894672393799 0.76958280801773071 0.31197643280029297
0.61485785245895386 0.83376181125640869 0.36914950609207153
0.62278956174850464 0.82929235696792603 0.36556693911552429
0.66428172588348389 0.82763057947158813 0.38020029664039612
0.72610199451446533 0.83178472518920898 0.38977548480033875
0.80432420969009399 0.83737665414810181 0.39182278513908386
0.86851412057876587 0.84422367811203003 0.40281996130943298
0.91944789886474609 0.85459959506988525 0.4274466335773468
0.78016084432601929 0.90535145998001099 0.49888968467712402
0.78435683250427246 0.90333849191665649 0.49815255403518677
0.79984676837921143 0.90378516912460327 0.50325644016265869
0.82142484188079834 0.90545439720153809 0.50835835933685303
0.85831910371780396 0.91255617141723633 0.52013140916824341
0.89221644401550293 0.91686242818832397 0.52493643760681152
0.93087685108184814 0.9266473650932312 0.53631448745727539
0.0011093438370153308 0.16811932623386383 0.23706634342670441
0.0096896905452013016 0.17657274007797241 0.23737476766109467
0.12206920236349106 0.19702312350273132 0.23950682580471039
0.36783561110496521 0.19369125366210938 0.26027226448059082
0.72901105880737305 0.19394619762897491 0.28295037150382996
0.93282133340835571 0.39158439636230469 0.31611394882202148
0.97688066959381104 0.61434686183929443 0.38436764478683472
0 0.21233022212982178 0.25051030516624451
0.027853379026055336 0.21377398073673248 0.25214928388595581
0.19019913673400879 0.23633439838886261 0.25672781467437744
0.44581687450408936 0.25036075711250305 0.27210751175880432
0.76342201232910156 0.31496867537498474 0.29370993375778198
0.92491048574447632 0.50629150867462158 0.3340306282043457
0.96968865394592285 0.6505393385887146 0.39471489191055298
0 0.32742214202880859 0.26568508148193359
0.05834629014134407 0.33333170413970947 0.26928931474685669
0.29408803582191467 0.35722747445106506 0.27635091543197632
0.55638450384140015 0.40165075659751892 0.28563675284385681
0.78512179851531982 0.4969840943813324 0.30400446057319641
0.90399545431137085 0.59686636924743652 0.33427697420120239
0.96136212348937988 0.68140685558319092 0.38445422053337097
0.15297195315361023 0.55947071313858032 0.28974884748458862
0.2757020890712738 0.5605347752571106 0.29206499457359314
0.40859931707382202 0.56141895055770874 0.29270079731941223
0.620522141456604 0.59029281139373779 0.2936798632144928
0.78819304704666138 0.61658793687820435 0.2947617769241333
0.89198946952819824 0.66090536117553711 0.30671817064285278
0.94923633337020874 0.71366322040557861 0.35840612649917603
0.4797050952911377 0.74185144901275635 0.34273529052734375
0.48375514149665833 0.73317277431488037 0.3304133415222168
0.56184649467468262 0.73064815998077393 0.34040084481239319
0.67536753416061401 0.73897475004196167 0.34892645478248596
0.79915213584899902 0.74830031394958496 0.34859618544578552
0.87829530239105225 0.76201337575912476 0.35200706124305725
0.93638545274734497 0.77287596464157104 0.37408939003944397
0.66009747982025146 0.83394742012023926 0.41738057136535645
0.66442549228668213 0.82950127124786377 0.41648146510124207
0.69587653875350952 0.82892155647277832 0.42443183064460754
0.74879187345504761 0.8295905590057373 0.43606993556022644
0.81222492456436157 0.83829885721206665 0.44192618131637573
0.8722909688949585 0.84757113456726074 0.45158112049102783
0.92710787057876587 0.86195003986358643 0.47232264280319214
0.78915035724639893 0.90413212776184082 0.51401931047439575
0.79445755481719971 0.90518480539321899 0.51569795608520508
0.80629652738571167 0.90656507015228271 0.5158383846282959
0.83431446552276611 0.90822523832321167 0.52459132671356201
0.86349159479141235 0.91295993328094482 0.53478813171386719
0.89474505186080933 0.91831028461456299 0.53791654109954834
0.93197828531265259 0.92649358510971069 0.54804176092147827
0.0097086438909173012 0.1866220086812973 0.30582776665687561
0.11572403460741043 0.19905520975589752 0.30970752239227295
0.30065831542015076 0.23896382749080658 0.31843248009681702
0.49284437298774719 0.3070426881313324 0.33545920252799988
0.72536391019821167 0.30709144473075867 0.37336698174476624
0.91714799404144287 0.39814794063568115 0.41262438893318176
0.97870641946792603 0.57907354831695557 0.44120147824287415
0.01125151664018631 0.23940636217594147 0.33279627561569214
0.1467956155538559 0.25265571475028992 0.33454284071922302
0.35987132787704468 0.29757007956504822 0.3408990204334259
0.5438159704208374 0.37822401523590088 0.35107883810997009
0.75052732229232788 0.38354787230491638 0.38178324699401855
0.91580367088317871 0.48612049221992493 0.41898474097251892
0.97115707397460938 0.63128846883773804 0.45300880074501038
0.0029563454445451498 0.37945061922073364 0.35121428966522217
0.11907429248094559 0.38237899541854858 0.35452172160148621
0.41055035591125488 0.421455979347229 0.36828741431236267
0.61468076705932617 0.49523040652275085 0.37605732679367065
0.78494054079055786 0.51655608415603638 0.4013550877571106
0.90072172880172729 0.61732077598571777 0.43752223253250122
0.9496530294418335 0.71557080745697021 0.48088374733924866
0.19961389899253845 0.57848066091537476 0.37490519881248474
0.30514705181121826 0.57380098104476929 0.37479233741760254
0.47840723395347595 0.58215951919555664 0.38193148374557495
0.67032337188720703 0.61808103322982788 0.39987027645111084
0.80604195594787598 0.662067711353302 0.41954299807548523
0.88649970293045044 0.7139509916305542 0.4449743926525116
0.94100618362426758 0.7657807469367981 0.4792141318321228
0.52611708641052246 0.7436898946762085 0.41704964637756348
0.56363165378570557 0.74114042520523071 0.41988492012023926
0.64150643348693848 0.74088805913925171 0.42608344554901123
0.72013676166534424 0.74496686458587646 0.43203598260879517
0.81023514270782471 0.75577980279922485 0.43579080700874329
0.87855762243270874 0.76894915103912354 0.44431132078170776
0.93614679574966431 0.78941208124160767 0.45605456829071045
0.71020883321762085 0.83532607555389404 0.47762948274612427
0.71728074550628662 0.83100694417953491 0.47451722621917725
0.7386474609375 0.82892155647277832 0.47806680202484131
0.77864676713943481 0.83380895853042603 0.48335251212120056
0.82109171152114868 0.84302186965942383 0.49012526869773865
0.87679839134216309 0.8499751091003418 0.50059860944747925
0.93143928050994873 0.8577304482460022 0.50796079635620117
0.80559784173965454 0.90428465604782104 0.53389519453048706
0.80927884578704834 0.9046177864074707 0.53547400236129761
0.81454145908355713 0.90382295846939087 0.53753316402435303
0.83582597970962524 0.90408784151077271 0.54157829284667969
0.86836844682693481 0.91274315118789673 0.54974639415740967
0.90080076456069946 0.91701769828796387 0.55512404441833496
0.9364205002784729 0.92861270904541016 0.56553512811660767
0.21701984107494354 0.23357851803302765 0.44996941089630127
0.32677963376045227 0.24608910083770752 0.45281544327735901
0.52374756336212158 0.30784660577774048 0.46222576498985291
0.71007108688354492 0.44774001836776733 0.47410431504249573
0.81595391035079956 0.55654442310333252 0.4882710874080658
0.88877320289611816 0.55478250980377197 0.49637126922607422
0.95871466398239136 0.6270064115524292 0.51544660329818726
0.23168972134590149 0.30836132168769836 0.47113636136054993
0.35217505693435669 0.31865194439888 0.46884772181510925
0.54797554016113281 0.38521632552146912 0.47296100854873657
0.73015940189361572 0.51338416337966919 0.4835096001625061
0.821067214012146 0.60527163743972778 0.4946809709072113
0.89015823602676392 0.60760229825973511 0.50334751605987549
0.95341938734054565 0.66778403520584106 0.52154958248138428
0.23057667911052704 0.4638117253780365 0.48130100965499878
0.35498577356338501 0.4584600031375885 0.48118919134140015
0.56269091367721558 0.49725168943405151 0.48865720629692078
0.74352544546127319 0.60142570734024048 0.49273937940597534
0.82438826560974121 0.67538541555404663 0.50031393766403198
0.88556373119354248 0.67303603887557983 0.50957536697387695
0.94372671842575073 0.71871179342269897 0.52683186531066895
0.28110647201538086 0.62259745597839355 0.48005783557891846
0.36723530292510986 0.61584752798080444 0.47651210427284241
0.52997177839279175 0.62218236923217773 0.4835115373134613
0.72493427991867065 0.67769938707351685 0.49774211645126343
0.82981175184249878 0.73483598232269287 0.51156282424926758
0.88232076168060303 0.74410057067871094 0.52126365900039673
0.93452030420303345 0.78364330530166626 0.54011732339859009
0.54732298851013184 0.75343883037567139 0.49267098307609558
0.57791620492935181 0.74835067987442017 0.4927096962928772
0.64723283052444458 0.74572634696960449 0.49503540992736816
0.74582052230834961 0.75747036933898926 0.50435334444046021
0.82478666305541992 0.78091365098953247 0.51476281881332397
0.88472318649291992 0.79912275075912476 0.52684319019317627
0.9335816502571106 0.82914406061172485 0.53970712423324585
0.70473068952560425 0.83766627311706543 0.52019870281219482
0.71708083152770996 0.83468729257583618 0.51670724153518677
0.74385732412338257 0.83293581008911133 0.5196654200553894
0.79688930511474609 0.83731210231781006 0.5256158709526062
0.83750730752944946 0.84739261865615845 0.52960103750228882
0.8882414698600769 0.85648196935653687 0.54527860879898071
0.93420326709747314 0.86453860998153687 0.54589557647705078
0.81230223178863525 0.90828794240951538 0.56029289960861206
0.81531268358230591 0.90825778245925903 0.55745333433151245
0.82117319107055664 0.90454542636871338 0.55716186761856079
0.84155160188674927 0.90718561410903931 0.56136465072631836
0.87404453754425049 0.9132118821144104 0.56846952438354492
0.90892684459686279 0.91945916414260864 0.57569825649261475
0.9399031400680542 0.92833727598190308 0.58333122730255127
0.53042548894882202 0.37703272700309753 0.59097826480865479
0.59911316633224487 0.40048447251319885 0.58813989162445068
0.71502286195755005 0.48120748996734619 0.5838627815246582
0.81915199756622314 0.60971885919570923 0.57757765054702759
0.8680422306060791 0.72834235429763794 0.56940281391143799
0.90148782730102539 0.75040340423583984 0.56646931171417236
0.93949103355407715 0.74580287933349609 0.57074391841888428
0.54102075099945068 0.45816424489021301 0.58935248851776123
0.60248351097106934 0.47488069534301758 0.58423900604248047
0.71732801198959351 0.53942269086837769 0.58059418201446533
0.82106524705886841 0.65016704797744751 0.57508987188339233
0.86883449554443359 0.7457999587059021 0.57059282064437866
0.90131223201751709 0.76570576429367065 0.56767147779464722
0.92921328544616699 0.75599783658981323 0.56970548629760742
0.54214560985565186 0.56760287284851074 0.58345991373062134
0.59643787145614624 0.57435685396194458 0.57895165681838989
0.71668785810470581 0.61841446161270142 0.57795137166976929
0.80884146690368652 0.69294613599777222 0.57110726833343506
0.86479479074478149 0.77360838651657104 0.56993961334228516
0.89945250749588013 0.7929491400718689 0.56916755437850952
0.93386757373809814 0.79179912805557251 0.57555502653121948
0.49717298150062561 0.67805325984954834 0.57051163911819458
0.55436891317367554 0.67511379718780518 0.56519067287445068
0.68765592575073242 0.69521832466125488 0.57035177946090698
0.79625892639160156 0.73699963092803955 0.56999242305755615
0.85856974124908447 0.79276764392852783 0.57089507579803467
0.89676511287689209 0.8199923038482666 0.57245516777038574
0.93139100074768066 0.81758719682693481 0.57819044589996338
0.58979612588882446 0.76796317100524902 0.56095761060714722
0.60864806175231934 0.76158982515335083 0.55928105115890503
0.66567635536193848 0.7597205638885498 0.56200075149536133
0.74892318248748779 0.77314990758895874 0.56342726945877075
0.84231102466583252 0.80767923593521118 0.56817173957824707
0.9010242223739624 0.84767347574234009 0.57585769891738892
0.93432849645614624 0.84776973724365234 0.58192521333694458
0.71543949842453003 0.84317755699157715 0.56450635194778442
0.72376197576522827 0.84218209981918335 0.56133973598480225
0.75770461559295654 0.84214669466018677 0.56530880928039551
0.79915750026702881 0.84558343887329102 0.56938356161117554
0.84485876560211182 0.85514175891876221 0.57283216714859009
0.89604848623275757 0.86737334728240967 0.57841795682907104
0.93943530321121216 0.8854796290397644 0.58131462335586548
0.81385636329650879 0.91332197189331055 0.58045917749404907
0.81888550519943237 0.91483217477798462 0.58185893297195435
0.82771044969558716 0.91214996576309204 0.58105331659317017
0.85180330276489258 0.91487568616867065 0.58419591188430786
0.88229769468307495 0.91987091302871704 0.59199589490890503
0.91763055324554443 0.92838305234909058 0.59800976514816284
0.94733321666717529 0.93465143442153931 0.60400629043579102
0.7689937949180603 0.65367287397384644 0.63793802261352539
0.78880858421325684 0.66811925172805786 0.63536262512207031
0.82781392335891724 0.70108127593994141 0.62899661064147949
0.87183070182800293 0.75741744041442871 0.62259918451309204
0.89822906255722046 0.80196881294250488 0.60977315902709961
0.92747926712036133 0.84929156303405762 0.60944664478302002
0.94493216276168823 0.85965871810913086 0.61083024740219116
0.77406710386276245 0.68582993745803833 0.63580775260925293
0.79175597429275513 0.69533663988113403 0.63177114725112915
0.83047223091125488 0.72825407981872559 0.62692886590957642
0.87125700712203979 0.7713698148727417 0.62114840745925903
0.90535432100296021 0.81748682260513306 0.61551624536514282
0.93014001846313477 0.85710638761520386 0.61148679256439209
0.9448312520980835 0.86106836795806885 0.61126458644866943
0.7698969841003418 0.72648823261260986 0.63089263439178467
0.78553062677383423 0.73003453016281128 0.62877428531646729
0.82523643970489502 0.75556004047393799 0.62506264448165894
0.86022424697875977 0.78791254758834839 0.61739295721054077
0.89731937646865845 0.82844620943069458 0.61406445503234863
0.93028587102890015 0.86651134490966797 0.61164766550064087
0.94244658946990967 0.87590724229812622 0.61073321104049683
0.74442905187606812 0.7661089301109314 0.62396228313446045
0.76095938682556152 0.76622730493545532 0.62355464696884155
0.80192941427230835 0.78179967403411865 0.62040096521377563
0.85036516189575195 0.80403667688369751 0.61770713329315186
0.89021915197372437 0.83878260850906372 0.6126973032951355
0.93159431219100952 0.87647688388824463 0.61503291130065918
0.93963587284088135 0.87083512544631958 0.60900342464447021
0.68514096736907959 0.80180531740188599 0.61478680372238159
0.70192116498947144 0.80193096399307251 0.61243933439254761
0.75042665004730225 0.80778497457504272 0.61441683769226074
0.8178367018699646 0.82375955581665039 0.61497455835342407
0.87947386503219604 0.85306286811828613 0.61576247215270996
0.92509132623672485 0.88591814041137695 0.61768460273742676
0.94560468196868896 0.89751070737838745 0.61844873428344727
0.76146411895751953 0.86936843395233154 0.61406207084655762
0.76567596197128296 0.86801791191101074 0.61246263980865479
0.78196924924850464 0.86313730478286743 0.61049562692642212
0.8113105297088623 0.86331510543823242 0.61174857616424561
0.85004538297653198 0.87031149864196777 0.61226999759674072
0.91250205039978027 0.89677655696868896 0.62076163291931152
0.94950157403945923 0.92321693897247314 0.62705689668655396
0.833526611328125 0.92813682556152344 0.62210983037948608
0.83438688516616821 0.92846035957336426 0.62164437770843506
0.84431272745132446 0.92603427171707153 0.61748760938644409
0.8655129075050354 0.9288221001625061 0.62470138072967529
0.89094161987304688 0.92756450176239014 0.62632131576538086
0.9197843074798584 0.93594968318939209 0.63210886716842651
0.9512665867805481 0.94699633121490479 0.64428257942199707
