luts/instant_consumer/polaroid_px-680_cold_-.cube
# Created by: G'MIC (https://gmic.eu)
TITLE "polaroid_px-680_cold_-"
# LUT size
LUT_3D_SIZE 7
# Data domain
DOMAIN_MIN 0.0 0.0 0.0
DOMAIN_MAX 1.0 1.0 1.0
# LUT data points
0.013640997931361198 0.10984960943460464 0.16505318880081177
0.068235717713832855 0.10888749361038208 0.16324906051158905
0.23287813365459442 0.11717795580625534 0.16750906407833099
0.50441461801528931 0.14038032293319702 0.1761394590139389
0.75045508146286011 0.22118765115737915 0.18466860055923462
0.88047093152999878 0.34236231446266174 0.22028267383575439
0.96133279800415039 0.47379690408706665 0.29201442003250122
0.0021586848888546228 0.15093806385993958 0.16998887062072754
0.063253112137317657 0.1604716032743454 0.17250622808933258
0.26265689730644226 0.17590659856796265 0.16866195201873779
0.5316053032875061 0.22051572799682617 0.17171549797058105
0.74717861413955688 0.29475048184394836 0.18169452250003815
0.87464594841003418 0.39145991206169128 0.21996693313121796
0.95513415336608887 0.504891037940979 0.2921898365020752
0.0016893872525542974 0.28560474514961243 0.18814800679683685
0.013951904140412807 0.30032521486282349 0.18845327198505402
0.26322880387306213 0.34424373507499695 0.17942364513874054
0.54402333498001099 0.39115530252456665 0.163688063621521
0.73460584878921509 0.40910714864730835 0.15968841314315796
0.85430777072906494 0.47275391221046448 0.20596587657928467
0.94309186935424805 0.55571281909942627 0.28002822399139404
0.0013172673061490059 0.47339200973510742 0.2039182186126709
0.0061185499653220177 0.48327285051345825 0.20754769444465637
0.12784329056739807 0.5086524486541748 0.20227949321269989
0.48325476050376892 0.55461424589157104 0.19514328241348267
0.70945686101913452 0.5855715274810791 0.19676414132118225
0.83424091339111328 0.5830758810043335 0.20955216884613037
0.92911392450332642 0.61744678020477295 0.26300227642059326
0 0.62333399057388306 0.23915985226631165
0.0016876071458682418 0.62505501508712769 0.24190534651279449
0.065020345151424408 0.63836926221847534 0.25212109088897705
0.41519579291343689 0.66504967212677002 0.26359379291534424
0.639504075050354 0.69551724195480347 0.27978634834289551
0.80503445863723755 0.7230217456817627 0.30478119850158691
0.90242236852645874 0.73540914058685303 0.33709365129470825
0.0043642530217766762 0.74691945314407349 0.31756675243377686
0.025890126824378967 0.74560964107513428 0.31772556900978088
0.23005400598049164 0.75020056962966919 0.33709689974784851
0.44282466173171997 0.76219081878662109 0.36272540688514709
0.61417126655578613 0.78124099969863892 0.38216695189476013
0.76151162385940552 0.80755573511123657 0.40854349732398987
0.87605619430541992 0.83740860223770142 0.44294804334640503
0.41142255067825317 0.87319391965866089 0.45878183841705322
0.43712285161018372 0.87141096591949463 0.46183383464813232
0.50246578454971313 0.87233960628509521 0.47565510869026184
0.58251148462295532 0.87499821186065674 0.49149030447006226
0.69157236814498901 0.88887059688568115 0.5150565505027771
0.78748065233230591 0.90349960327148438 0.5383305549621582
0.86330097913742065 0.91574108600616455 0.56350725889205933
0.0067282435484230518 0.11402881145477295 0.19806008040904999
0.0676751509308815 0.11823906749486923 0.19580818712711334
0.24127775430679321 0.11863638460636139 0.20847572386264801
0.53252661228179932 0.12997227907180786 0.23645633459091187
0.75835782289505005 0.26915305852890015 0.28033566474914551
0.87436628341674805 0.40160432457923889 0.32644718885421753
0.95174390077590942 0.52010470628738403 0.38198554515838623
0.0042590121738612652 0.16381685435771942 0.21097029745578766
0.091597661375999451 0.17453929781913757 0.21781185269355774
0.29285624623298645 0.19126312434673309 0.22659026086330414
0.55720251798629761 0.24549134075641632 0.25217655301094055
0.75285273790359497 0.33469951152801514 0.27775740623474121
0.87067645788192749 0.44130045175552368 0.31920009851455688
0.94786942005157471 0.54735642671585083 0.38274729251861572
0.00089748605387285352 0.31034514307975769 0.23661190271377563
0.037866927683353424 0.31903523206710815 0.24044650793075562
0.30510208010673523 0.35944345593452454 0.24308107793331146
0.5654875636100769 0.39375963807106018 0.24306659400463104
0.741596519947052 0.43024742603302002 0.25601309537887573
0.85655349493026733 0.50284594297409058 0.29785183072090149
0.93750369548797607 0.58378911018371582 0.3644050657749176
0.0007694917730987072 0.49385052919387817 0.25615647435188293
0.0065452577546238899 0.49992859363555908 0.26434803009033203
0.19959516823291779 0.52280455827713013 0.26497641205787659
0.51197546720504761 0.56612640619277954 0.26878949999809265
0.71493744850158691 0.58738106489181519 0.27698513865470886
0.83383321762084961 0.58947592973709106 0.29114875197410583
0.92526847124099731 0.63426274061203003 0.34040930867195129
0.00027148675872012973 0.63125705718994141 0.29209911823272705
0.0044907513074576855 0.6363227367401123 0.29291853308677673
0.16079863905906677 0.64400178194046021 0.30328285694122314
0.44500958919525146 0.66690880060195923 0.32049056887626648
0.65301108360290527 0.7000691294670105 0.33975973725318909
0.80700993537902832 0.72527992725372314 0.36136111617088318
0.90110248327255249 0.73799306154251099 0.38575121760368347
0.022506490349769592 0.747336745262146 0.34772399067878723
0.09025091677904129 0.74744445085525513 0.34959018230438232
0.28684869408607483 0.75290471315383911 0.36775499582290649
0.4708392322063446 0.76407539844512939 0.396971195936203
0.63049930334091187 0.78508764505386353 0.41773366928100586
0.76733499765396118 0.81127572059631348 0.44169586896896362
0.87673598527908325 0.83861720561981201 0.47049969434738159
0.42542323470115662 0.87297952175140381 0.47067651152610779
0.44856166839599609 0.86988002061843872 0.4740130603313446
0.51439499855041504 0.87342739105224609 0.48743286728858948
0.59820419549942017 0.87907189130783081 0.5071181058883667
0.69419270753860474 0.88736790418624878 0.52502346038818359
0.78785222768783569 0.9015389084815979 0.54799199104309082
0.86407685279846191 0.91517943143844604 0.57361257076263428
0.0037174001336097717 0.12958383560180664 0.28952649235725403
0.13397447764873505 0.14674660563468933 0.29638156294822693
0.27678731083869934 0.18426954746246338 0.30368176102638245
0.51626574993133545 0.15296491980552673 0.34382712841033936
0.75536280870437622 0.21645896136760712 0.37917631864547729
0.87743222713470459 0.40968412160873413 0.42613053321838379
0.93844258785247803 0.58000564575195312 0.49176979064941406
0.0063261142931878567 0.19784153997898102 0.3209322988986969
0.13775902986526489 0.20973989367485046 0.32659119367599487
0.32893615961074829 0.25465771555900574 0.33867403864860535
0.56255406141281128 0.2598094642162323 0.36685755848884583
0.76037925481796265 0.34771028161048889 0.39990043640136719
0.86498880386352539 0.50212615728378296 0.45185858011245728
0.93265241384506226 0.61580240726470947 0.50011199712753296
0.0014504676219075918 0.33349189162254333 0.33484408259391785
0.09886583685874939 0.34980463981628418 0.34719172120094299
0.37778112292289734 0.3932858407497406 0.37227475643157959
0.59280973672866821 0.43689844012260437 0.3903089165687561
0.74696648120880127 0.50549697875976562 0.41789248585700989
0.84711271524429321 0.57548350095748901 0.44788083434104919
0.92337381839752197 0.6415368914604187 0.48195680975914001
0.011704732663929462 0.50415539741516113 0.35646519064903259
0.17526379227638245 0.52155458927154541 0.37065386772155762
0.35215824842453003 0.54404217004776001 0.38156002759933472
0.5611419677734375 0.5768430233001709 0.39273944497108459
0.72402822971343994 0.5899658203125 0.39549487829208374
0.83013105392456055 0.61626178026199341 0.4126855731010437
0.91556710004806519 0.67190605401992798 0.45707038044929504
0.16738258302211761 0.64447706937789917 0.39059868454933167
0.20583102107048035 0.64664864540100098 0.38622221350669861
0.32611927390098572 0.6558377742767334 0.39402416348457336
0.50067925453186035 0.67499810457229614 0.41197663545608521
0.67933398485183716 0.70466214418411255 0.43258240818977356
0.80926185846328735 0.72574645280838013 0.44479808211326599
0.89796477556228638 0.73605024814605713 0.45550358295440674
0.22592552006244659 0.74865800142288208 0.41141307353973389
0.26520195603370667 0.74873441457748413 0.41019096970558167
0.37287208437919617 0.75662165880203247 0.42241078615188599
0.50718265771865845 0.76607245206832886 0.44882282614707947
0.64804720878601074 0.78659588098526001 0.46768444776535034
0.7776414155960083 0.81196480989456177 0.4939403235912323
0.87926506996154785 0.83717590570449829 0.51438701152801514
0.44448083639144897 0.87034392356872559 0.49420556426048279
0.469095379114151 0.86951345205307007 0.49847897887229919
0.5234215259552002 0.87131059169769287 0.50653928518295288
0.60541254281997681 0.8783068060874939 0.52857756614685059
0.69728577136993408 0.89035272598266602 0.55042099952697754
0.78980123996734619 0.90394335985183716 0.57240164279937744
0.87056642770767212 0.91839838027954102 0.59935474395751953
0.068269394338130951 0.17036424577236176 0.44367018342018127
0.23812752962112427 0.1932390034198761 0.45380634069442749
0.43795767426490784 0.27632954716682434 0.46522194147109985
0.58786207437515259 0.36504250764846802 0.47845929861068726
0.72406858205795288 0.34706056118011475 0.49435842037200928
0.85228955745697021 0.43025189638137817 0.51908296346664429
0.93472582101821899 0.55953884124755859 0.54857683181762695
0.045608580112457275 0.24268850684165955 0.46670100092887878
0.24336060881614685 0.27024513483047485 0.47272247076034546
0.4660743772983551 0.35394170880317688 0.4847656786441803
0.6028633713722229 0.43578901886940002 0.49363431334495544
0.73148882389068604 0.42303305864334106 0.50548535585403442
0.85030311346054077 0.49480220675468445 0.52496814727783203
0.93157827854156494 0.59761708974838257 0.55578464269638062
0.0027967863716185093 0.38954350352287292 0.46973118185997009
0.13780345022678375 0.39989975094795227 0.47820627689361572
0.43661025166511536 0.45086297392845154 0.49307015538215637
0.61460816860198975 0.52742838859558105 0.50716602802276611
0.73519790172576904 0.53300601243972778 0.5189095139503479
0.84002530574798584 0.59178835153579712 0.53990215063095093
0.9182741641998291 0.67038512229919434 0.57350450754165649
0.010729501955211163 0.52001476287841797 0.45664593577384949
0.19002771377563477 0.53178709745407104 0.4636329710483551
0.41866341233253479 0.5566030740737915 0.48466259241104126
0.61350113153457642 0.60937035083770752 0.50839328765869141
0.73529303073883057 0.63476336002349854 0.52453291416168213
0.8285210132598877 0.67553794384002686 0.54403048753738403
0.90817093849182129 0.72411668300628662 0.56893503665924072
0.20238007605075836 0.63069623708724976 0.45524638891220093
0.30089208483695984 0.63733679056167603 0.46573165059089661
0.45813480019569397 0.66166442632675171 0.48787936568260193
0.58841180801391602 0.68514800071716309 0.50168752670288086
0.70736432075500488 0.71038568019866943 0.51480227708816528
0.81518411636352539 0.72933787107467651 0.5284954309463501
0.89974039793014526 0.75131285190582275 0.5374334454536438
0.37428992986679077 0.74479502439498901 0.48718914389610291
0.41284853219985962 0.7452813982963562 0.48911014199256897
0.477712482213974 0.75621777772903442 0.49521484971046448
0.55878138542175293 0.77047121524810791 0.508056640625
0.67436361312866211 0.79096835851669312 0.52908974885940552
0.79025000333786011 0.81981563568115234 0.55930668115615845
0.88513088226318359 0.83886802196502686 0.56952619552612305
0.49865895509719849 0.86755585670471191 0.54124397039413452
0.50973939895629883 0.86794990301132202 0.53940027952194214
0.5452502965927124 0.87401968240737915 0.54321587085723877
0.61329561471939087 0.88226372003555298 0.55638700723648071
0.70254373550415039 0.89137297868728638 0.58063274621963501
0.79354000091552734 0.90553379058837891 0.61031144857406616
0.87151235342025757 0.91919785737991333 0.6302914023399353
0.279155433177948 0.26415595412254333 0.57383847236633301
0.38778325915336609 0.29379147291183472 0.58053851127624512
0.54775315523147583 0.37866690754890442 0.58610814809799194
0.6787726879119873 0.5188252329826355 0.59327042102813721
0.75378942489624023 0.57274740934371948 0.59458953142166138
0.81998085975646973 0.56019407510757446 0.6011054515838623
0.91285192966461182 0.59929418563842773 0.61920881271362305
0.28767377138137817 0.34166374802589417 0.5833202600479126
0.39998188614845276 0.36437740921974182 0.58893579244613647
0.55804693698883057 0.44279426336288452 0.59065723419189453
0.68016338348388672 0.55608165264129639 0.59651261568069458
0.75588417053222656 0.60942322015762329 0.59881371259689331
0.82328391075134277 0.59545445442199707 0.60463911294937134
0.90873265266418457 0.62577086687088013 0.62178987264633179
0.24921306967735291 0.45631504058837891 0.58031678199768066
0.3697374165058136 0.47225815057754517 0.58181798458099365
0.53426849842071533 0.51893627643585205 0.58690589666366577
0.67501860857009888 0.60787355899810791 0.59742367267608643
0.75445014238357544 0.65665197372436523 0.60572320222854614
0.82064616680145264 0.64430952072143555 0.60961467027664185
0.90778982639312744 0.67959326505661011 0.63124126195907593
0.11045186966657639 0.55433493852615356 0.55750799179077148
0.26120427250862122 0.55908000469207764 0.55980080366134644
0.45268025994300842 0.58369767665863037 0.5721704363822937
0.64707267284393311 0.64146769046783447 0.59435468912124634
0.75545626878738403 0.70010143518447876 0.61199724674224854
0.82489264011383057 0.70126569271087646 0.62024646997451782
0.90322721004486084 0.73910945653915405 0.64328873157501221
0.25302141904830933 0.64847415685653687 0.53999561071395874
0.32479175925254822 0.65110665559768677 0.54148036241531372
0.44412168860435486 0.66273945569992065 0.54917782545089722
0.59727072715759277 0.69112932682037354 0.5749092698097229
0.73586368560791016 0.73914080858230591 0.60658144950866699
0.82254958152770996 0.7610669732093811 0.61703759431838989
0.90020465850830078 0.79952043294906616 0.64531606435775757
0.2662508487701416 0.72867852449417114 0.52659642696380615
0.33510810136795044 0.7295798659324646 0.52997028827667236
0.45629751682281494 0.74301612377166748 0.54502683877944946
0.59767353534698486 0.7673984169960022 0.5702512264251709
0.69785863161087036 0.79817140102386475 0.59541451930999756
0.7972182035446167 0.82272768020629883 0.61793231964111328
0.89276069402694702 0.84202605485916138 0.62983202934265137
0.46497413516044617 0.8626672625541687 0.58633559942245483
0.49334758520126343 0.86043316125869751 0.58381563425064087
0.56029051542282104 0.86889523267745972 0.59447932243347168
0.63031154870986938 0.87939971685409546 0.60184228420257568
0.70529836416244507 0.89018869400024414 0.6209147572517395
0.79098808765411377 0.90528088808059692 0.64935755729675293
0.87291014194488525 0.91996467113494873 0.67515873908996582
0.50063461065292358 0.43059790134429932 0.68017178773880005
0.55420869588851929 0.45663407444953918 0.68212097883224487
0.64896410703659058 0.51627278327941895 0.68189620971679688
0.74064880609512329 0.60962444543838501 0.68517673015594482
0.8021741509437561 0.69733458757400513 0.68692177534103394
0.84464085102081299 0.71809488534927368 0.68788498640060425
0.89022588729858398 0.70367646217346191 0.68963658809661865
0.49758872389793396 0.48090517520904541 0.68059223890304565
0.5614006519317627 0.51452910900115967 0.68293613195419312
0.64550542831420898 0.56101816892623901 0.68469417095184326
0.73546344041824341 0.62987381219863892 0.68621712923049927
0.8025626540184021 0.71442145109176636 0.68729627132415771
0.84479093551635742 0.73534774780273438 0.69086271524429321
0.89582985639572144 0.72577804327011108 0.6983182430267334
0.48072826862335205 0.55159753561019897 0.67258214950561523
0.52993762493133545 0.56214982271194458 0.67554211616516113
0.63515180349349976 0.60732311010360718 0.67892348766326904
0.72656345367431641 0.66374844312667847 0.68298941850662231
0.79812633991241455 0.73466426134109497 0.6933099627494812
0.84457790851593018 0.76443052291870117 0.69828528165817261
0.88982886075973511 0.74834680557250977 0.70153558254241943
0.35145536065101624 0.60861712694168091 0.65166556835174561
0.42233744263648987 0.616890549659729 0.65459674596786499
0.56465107202529907 0.64160710573196411 0.66294914484024048
0.69707256555557251 0.68775904178619385 0.67749035358428955
0.78691273927688599 0.75383377075195312 0.69505870342254639
0.84475195407867432 0.79412841796875 0.70721393823623657
0.89198762178421021 0.78281140327453613 0.70990276336669922
0.30172032117843628 0.68121308088302612 0.63140362501144409
0.36597526073455811 0.68610131740570068 0.63452887535095215
0.47176903486251831 0.69006228446960449 0.64070254564285278
0.60729312896728516 0.71203649044036865 0.65645503997802734
0.75558018684387207 0.76552027463912964 0.68515658378601074
0.84374791383743286 0.81848996877670288 0.7116052508354187
0.89235168695449829 0.8227231502532959 0.72188699245452881
0.32721498608589172 0.75169295072555542 0.61297577619552612
0.3723570704460144 0.75341296195983887 0.61473792791366577
0.46735298633575439 0.75896584987640381 0.62092071771621704
0.5737418532371521 0.76906806230545044 0.63255101442337036
0.69487011432647705 0.79712218046188354 0.65812623500823975
0.82323622703552246 0.85067033767700195 0.70904541015625
0.89654791355133057 0.87267285585403442 0.73272061347961426
0.30751365423202515 0.85508865118026733 0.62223625183105469
0.35024791955947876 0.8538585901260376 0.62174504995346069
0.44607627391815186 0.85953301191329956 0.6293102502822876
0.56408178806304932 0.8681219220161438 0.643707275390625
0.69436490535736084 0.88669800758361816 0.67085278034210205
0.80117452144622803 0.90567952394485474 0.70853906869888306
0.88246577978134155 0.92365467548370361 0.74478650093078613
0.6800808310508728 0.63698321580886841 0.78226232528686523
0.70416337251663208 0.64893883466720581 0.78196758031845093
0.75053900480270386 0.67992830276489258 0.7810547947883606
0.80232399702072144 0.72201526165008545 0.77576589584350586
0.84464305639266968 0.77341312170028687 0.77815520763397217
0.87671703100204468 0.82286715507507324 0.77709901332855225
0.89342868328094482 0.82684218883514404 0.77467018365859985
0.67309308052062988 0.65883302688598633 0.78265106678009033
0.70013940334320068 0.66882926225662231 0.78458452224731445
0.74460691213607788 0.69280719757080078 0.78249043226242065
0.79863357543945312 0.73288333415985107 0.78071194887161255
0.84288269281387329 0.77928107976913452 0.77762287855148315
0.87433630228042603 0.82713258266448975 0.77831542491912842
0.89444434642791748 0.84072738885879517 0.78018307685852051
0.65272235870361328 0.6834830641746521 0.78364121913909912
0.67613184452056885 0.68857359886169434 0.78059154748916626
0.73370593786239624 0.71507936716079712 0.78318613767623901
0.78851950168609619 0.74684768915176392 0.78098493814468384
0.83837074041366577 0.79161393642425537 0.78066915273666382
0.87247186899185181 0.83706295490264893 0.78248697519302368
0.89406305551528931 0.85203224420547485 0.78620672225952148
0.59638470411300659 0.71691858768463135 0.7766910195350647
0.62788325548171997 0.7191474437713623 0.77752012014389038
0.68521273136138916 0.73306065797805786 0.77739602327346802
0.75672221183776855 0.76278817653656006 0.77857387065887451
0.83013546466827393 0.80865693092346191 0.78679054975509644
0.87166476249694824 0.85409897565841675 0.79142951965332031
0.89648634195327759 0.87039083242416382 0.7964596152305603
0.44874140620231628 0.7618173360824585 0.76456344127655029
0.47917595505714417 0.75909614562988281 0.76295119524002075
0.56422466039657593 0.76259630918502808 0.76719313859939575
0.68554162979125977 0.7772718071937561 0.77629381418228149
0.79254168272018433 0.81302762031555176 0.78609728813171387
0.8657880425453186 0.86724013090133667 0.80109119415283203
0.89540672302246094 0.88858413696289062 0.80508190393447876
0.44083499908447266 0.82768785953521729 0.75869983434677124
0.46684864163398743 0.82651233673095703 0.76095050573348999
0.52099227905273438 0.82533007860183716 0.76161015033721924
0.60345637798309326 0.82875382900238037 0.76993280649185181
0.70908874273300171 0.83548665046691895 0.78079688549041748
0.8382905125617981 0.87535828351974487 0.80211025476455688
0.89669346809387207 0.91594022512435913 0.82334631681442261
0.45087781548500061 0.90125805139541626 0.76526612043380737
0.47028514742851257 0.90120476484298706 0.76429033279418945
0.51724940538406372 0.9022640585899353 0.76884198188781738
0.58644527196884155 0.9033743143081665 0.77320641279220581
0.67667561769485474 0.91131991147994995 0.78177708387374878
0.78410953283309937 0.91396337747573853 0.79545646905899048
0.89229059219360352 0.93790805339813232 0.83378046751022339
