luts/instant_consumer/polaroid_px-70_warm_++.cube
# Created by: G'MIC (https://gmic.eu)
TITLE "polaroid_px-70_warm_++"
# LUT size
LUT_3D_SIZE 7
# Data domain
DOMAIN_MIN 0.0 0.0 0.0
DOMAIN_MAX 1.0 1.0 1.0
# LUT data points
0.42512699961662292 0.26533430814743042 0.16556505858898163
0.43708318471908569 0.26666668057441711 0.16544117033481598
0.45076724886894226 0.26547649502754211 0.16470588743686676
0.50853925943374634 0.26797178387641907 0.16194853186607361
0.6672942042350769 0.28955826163291931 0.15296821296215057
0.90546667575836182 0.38487476110458374 0.11274342238903046
1 0.50561153888702393 0.11058822274208069
0.42451459169387817 0.27101156115531921 0.16546747088432312
0.43342733383178711 0.27510976791381836 0.16487821936607361
0.45173141360282898 0.27575936913490295 0.16456355154514313
0.52606070041656494 0.28406158089637756 0.160016268491745
0.685280442237854 0.31897929310798645 0.14564307034015656
0.91359758377075195 0.42472186684608459 0.096455670893192291
0.99910187721252441 0.54050910472869873 0.10889307409524918
0.42540138959884644 0.31465712189674377 0.16365882754325867
0.43553474545478821 0.31760647892951965 0.16327454149723053
0.47202631831169128 0.32602846622467041 0.16030780971050262
0.5600210428237915 0.35001495480537415 0.14745363593101501
0.71547114849090576 0.39315292239189148 0.12337113916873932
0.91991549730300903 0.50440686941146851 0.055811218917369843
0.99870580434799194 0.59062653779983521 0.088376931846141815
0.42141801118850708 0.44886216521263123 0.15503779053688049
0.43958279490470886 0.44630825519561768 0.15653534233570099
0.49011522531509399 0.45933175086975098 0.15191376209259033
0.60044819116592407 0.49380362033843994 0.12989982962608337
0.76425105333328247 0.55315542221069336 0.072330445051193237
0.91571342945098877 0.61139339208602905 0.0070258197374641895
0.9979320764541626 0.65895766019821167 0.056000024080276489
0.42329990863800049 0.67399704456329346 0.15233930945396423
0.45175009965896606 0.66403305530548096 0.15507808327674866
0.52440798282623291 0.67133241891860962 0.16578130424022675
0.64803361892700195 0.69094431400299072 0.153525710105896
0.78929829597473145 0.71283423900604248 0.13059571385383606
0.91758006811141968 0.73810666799545288 0.12829300761222839
0.99473929405212402 0.75857681035995483 0.19848194718360901
0.56642049551010132 0.82559698820114136 0.3043462336063385
0.58268004655838013 0.81950807571411133 0.30244678258895874
0.63967478275299072 0.81851446628570557 0.31827583909034729
0.72536993026733398 0.82497102022171021 0.33399736881256104
0.82685065269470215 0.83448821306228638 0.34793826937675476
0.91614741086959839 0.84262269735336304 0.35966342687606812
0.98480510711669922 0.8532378077507019 0.40140044689178467
0.81921845674514771 0.90792107582092285 0.49095499515533447
0.82223004102706909 0.90628886222839355 0.48968642950057983
0.84150892496109009 0.90539699792861938 0.49254956841468811
0.87365061044692993 0.9080129861831665 0.50638824701309204
0.90597867965698242 0.91052311658859253 0.51082557439804077
0.94613522291183472 0.91331988573074341 0.51947176456451416
0.9747927188873291 0.9181818962097168 0.53802859783172607
0.42585784196853638 0.26717093586921692 0.17242647707462311
0.4323238730430603 0.26789554953575134 0.17191267013549805
0.44679480791091919 0.2663663923740387 0.17037826776504517
0.51762419939041138 0.26424896717071533 0.16989511251449585
0.69337767362594604 0.2850080132484436 0.17221835255622864
0.92360842227935791 0.39233243465423584 0.17383953928947449
0.99996030330657959 0.51388591527938843 0.20230609178543091
0.42745098471641541 0.28045529127120972 0.17405495047569275
0.43268540501594543 0.27583122253417969 0.17103606462478638
0.46225354075431824 0.28008368611335754 0.17220787703990936
0.54087561368942261 0.28914138674736023 0.17241986095905304
0.71385025978088379 0.32717040181159973 0.17183955013751984
0.93264353275299072 0.43599823117256165 0.16364447772502899
0.99950796365737915 0.55155998468399048 0.20628561079502106
0.42964479327201843 0.32251086831092834 0.17607761919498444
0.44016918540000916 0.32253387570381165 0.17578727006912231
0.48098629713058472 0.3357301652431488 0.17672932147979736
0.57549208402633667 0.35437741875648499 0.16763885319232941
0.73971664905548096 0.40601992607116699 0.1530938595533371
0.93005222082138062 0.51265543699264526 0.14297427237033844
0.99984157085418701 0.60137343406677246 0.19067440927028656
0.42805004119873047 0.46359875798225403 0.17909885942935944
0.44882366061210632 0.46028712391853333 0.17919687926769257
0.50090324878692627 0.47129645943641663 0.18080876767635345
0.61216151714324951 0.50209015607833862 0.16437514126300812
0.77950519323348999 0.56297308206558228 0.13443715870380402
0.92288225889205933 0.61064267158508301 0.10987997800111771
0.99880790710449219 0.6633000373840332 0.16582302749156952
0.43399122357368469 0.68431323766708374 0.19775472581386566
0.4657585620880127 0.67325770854949951 0.20255911350250244
0.53494453430175781 0.6764947772026062 0.2146001011133194
0.65778416395187378 0.69818592071533203 0.21229669451713562
0.79796403646469116 0.7184375524520874 0.2010752409696579
0.91735506057739258 0.73879987001419067 0.20853541791439056
0.99577301740646362 0.7600066065788269 0.2591497004032135
0.59010815620422363 0.8297426700592041 0.34494024515151978
0.60353696346282959 0.8228912353515625 0.33909246325492859
0.65726250410079956 0.82179033756256104 0.35350415110588074
0.73871409893035889 0.82716315984725952 0.37229663133621216
0.83369415998458862 0.83541667461395264 0.38535958528518677
0.91542810201644897 0.84119826555252075 0.38661772012710571
0.98498904705047607 0.85429853200912476 0.42482930421829224
0.82617712020874023 0.90724915266036987 0.49817907810211182
0.83009761571884155 0.90629053115844727 0.49675825238227844
0.84828132390975952 0.90616947412490845 0.50152826309204102
0.87817937135696411 0.90533697605133057 0.50984185934066772
0.91216957569122314 0.90998613834381104 0.51871335506439209
0.94384241104125977 0.91408711671829224 0.52673602104187012
0.97382545471191406 0.91785091161727905 0.54322630167007446
0.42722472548484802 0.26734596490859985 0.18628600239753723
0.43751239776611328 0.26878312230110168 0.18997058272361755
0.45061549544334412 0.27090573310852051 0.18492934107780457
0.52405351400375366 0.26685097813606262 0.2030801922082901
0.71118462085723877 0.25938478112220764 0.23051398992538452
0.95121997594833374 0.32668372988700867 0.2681354284286499
1 0.54281783103942871 0.35645350813865662
0.42959049344062805 0.28178650140762329 0.19713130593299866
0.44002225995063782 0.27987101674079895 0.19648854434490204
0.46450075507164001 0.28412169218063354 0.19961205124855042
0.55109333992004395 0.29116162657737732 0.21409480273723602
0.74102157354354858 0.30297163128852844 0.23843808472156525
0.95496827363967896 0.43042489886283875 0.29257071018218994
1 0.59494078159332275 0.375215083360672
0.43358621001243591 0.32976803183555603 0.20989552140235901
0.44981968402862549 0.33388647437095642 0.21463529765605927
0.49658399820327759 0.34601441025733948 0.22295555472373962
0.59897726774215698 0.36854216456413269 0.23150499165058136
0.7786368727684021 0.43387141823768616 0.25719308853149414
0.94512861967086792 0.53874295949935913 0.29569077491760254
0.99904716014862061 0.63831394910812378 0.36139160394668579
0.45212432742118835 0.47969076037406921 0.2474832683801651
0.47210118174552917 0.47792243957519531 0.24482652544975281
0.52446663379669189 0.4914700984954834 0.25168386101722717
0.6333930492401123 0.51671326160430908 0.24818903207778931
0.79639172554016113 0.56645196676254272 0.24391992390155792
0.9332042932510376 0.61994904279708862 0.25938189029693604
0.99925762414932251 0.68522030115127563 0.33425670862197876
0.49506083130836487 0.70027750730514526 0.31300881505012512
0.5041663646697998 0.69170928001403809 0.29749345779418945
0.56595504283905029 0.69074892997741699 0.30266261100769043
0.67185002565383911 0.70468705892562866 0.31520044803619385
0.81082165241241455 0.72506284713745117 0.31445139646530151
0.92609983682632446 0.74412286281585693 0.32315903902053833
0.99344515800476074 0.7589002251625061 0.35053795576095581
0.63565093278884888 0.83299064636230469 0.40776112675666809
0.64229732751846313 0.82884019613265991 0.40161523222923279
0.6882215142250061 0.82655900716781616 0.40826618671417236
0.76484841108322144 0.83105933666229248 0.4302213191986084
0.84465962648391724 0.83516991138458252 0.43250811100006104
0.91990232467651367 0.84704852104187012 0.44257867336273193
0.98066246509552002 0.85663741827011108 0.46287506818771362
0.84323149919509888 0.90802496671676636 0.5145113468170166
0.84568947553634644 0.90648722648620605 0.51322478055953979
0.86298799514770508 0.90545719861984253 0.51716023683547974
0.88938421010971069 0.90546828508377075 0.52393198013305664
0.920451819896698 0.91005933284759521 0.53509235382080078
0.94758433103561401 0.91402274370193481 0.53999418020248413
0.97613644599914551 0.92106360197067261 0.55064511299133301
0.43580710887908936 0.26834312081336975 0.24451480805873871
0.45368081331253052 0.27041387557983398 0.24522799253463745
0.49579930305480957 0.28327876329421997 0.25617101788520813
0.56327223777770996 0.30839204788208008 0.27566468715667725
0.70737570524215698 0.30126404762268066 0.32773685455322266
0.93808352947235107 0.32265540957450867 0.40912717580795288
0.99895024299621582 0.48753997683525085 0.44698721170425415
0.43862178921699524 0.28811559081077576 0.27012690901756287
0.45952117443084717 0.2892988920211792 0.27031517028808594
0.51424860954284668 0.31059053540229797 0.28331586718559265
0.59005987644195557 0.34557285904884338 0.30271884799003601
0.73378276824951172 0.3436799943447113 0.35029461979866028
0.9474216103553772 0.39101600646972656 0.41724491119384766
0.99998599290847778 0.5538020133972168 0.45906597375869751
0.43313047289848328 0.36020773649215698 0.29849383234977722
0.45562046766281128 0.36096376180648804 0.30511254072189331
0.52731591463088989 0.37666863203048706 0.32259011268615723
0.63406175374984741 0.4309367835521698 0.34402087330818176
0.78526955842971802 0.44608891010284424 0.38534179329872131
0.95427125692367554 0.54501873254776001 0.44031193852424622
0.99973750114440918 0.66982662677764893 0.48257693648338318
0.44878062605857849 0.49737399816513062 0.3408227264881134
0.47887003421783447 0.49983662366867065 0.34399023652076721
0.54599308967590332 0.51350599527359009 0.35817614197731018
0.66868102550506592 0.54807990789413452 0.38301002979278564
0.82472246885299683 0.60483431816101074 0.41370907425880432
0.94339656829833984 0.67978876829147339 0.44780135154724121
0.99649947881698608 0.74524909257888794 0.48033595085144043
0.52331209182739258 0.71067851781845093 0.41886460781097412
0.55455905199050903 0.70465052127838135 0.41483289003372192
0.62953102588653564 0.71104669570922852 0.42338040471076965
0.71747845411300659 0.7236139178276062 0.43195915222167969
0.83041834831237793 0.73531615734100342 0.43650326132774353
0.93231731653213501 0.75286799669265747 0.43696346879005432
0.99357277154922485 0.77742272615432739 0.45590794086456299
0.70489323139190674 0.83584511280059814 0.47926527261734009
0.71585553884506226 0.82924103736877441 0.47212857007980347
0.74633949995040894 0.83089900016784668 0.47349861264228821
0.7978019118309021 0.83540540933609009 0.48141682147979736
0.8677399754524231 0.84101998805999756 0.48839709162712097
0.93154293298721313 0.85058873891830444 0.48938629031181335
0.98589837551116943 0.85937094688415527 0.50298404693603516
0.86593747138977051 0.90679198503494263 0.53614908456802368
0.86516642570495605 0.90600121021270752 0.53391009569168091
0.87530243396759033 0.90631896257400513 0.53561890125274658
0.90181899070739746 0.90689396858215332 0.54500395059585571
0.92930394411087036 0.91144603490829468 0.55493688583374023
0.95548069477081299 0.91595458984375 0.56092959642410278
0.97971510887145996 0.92225688695907593 0.56723690032958984
0.47792220115661621 0.28039929270744324 0.4111417829990387
0.51300978660583496 0.28462007641792297 0.41954979300498962
0.59435915946960449 0.30358952283859253 0.4375421404838562
0.71311360597610474 0.38533893227577209 0.461110919713974
0.82212358713150024 0.47315117716789246 0.48953154683113098
0.92450851202011108 0.46374151110649109 0.51021546125411987
0.99905824661254883 0.54360693693161011 0.52926540374755859
0.47285163402557373 0.31616887450218201 0.44166150689125061
0.51528525352478027 0.31765547394752502 0.44609746336936951
0.60561919212341309 0.34360116720199585 0.45879063010215759
0.73100370168685913 0.43586823344230652 0.47875270247459412
0.83611977100372314 0.53116625547409058 0.49934327602386475
0.92972749471664429 0.52260690927505493 0.51543819904327393
0.99813777208328247 0.59874677658081055 0.53174126148223877
0.44818547368049622 0.41381531953811646 0.46632379293441772
0.49047514796257019 0.40915456414222717 0.47065967321395874
0.59727293252944946 0.42936348915100098 0.48497697710990906
0.7509039044380188 0.5292351245880127 0.50106668472290039
0.84963417053222656 0.61928105354309082 0.50932919979095459
0.93653780221939087 0.61720973253250122 0.52009999752044678
0.99725079536437988 0.67470872402191162 0.53371721506118774
0.42605185508728027 0.57036960124969482 0.48373502492904663
0.46012809872627258 0.55917567014694214 0.47797951102256775
0.55217790603637695 0.56322658061981201 0.48743486404418945
0.73257476091384888 0.61495542526245117 0.50760602951049805
0.8579210638999939 0.69731360673904419 0.5161513090133667
0.93841010332107544 0.70523267984390259 0.52463275194168091
0.99569737911224365 0.76177793741226196 0.53877723217010498
0.52784687280654907 0.72352999448776245 0.49872398376464844
0.55894815921783447 0.71933883428573608 0.49632394313812256
0.63251948356628418 0.71988862752914429 0.50138574838638306
0.74295127391815186 0.73176932334899902 0.51316094398498535
0.85936605930328369 0.75989359617233276 0.5157044529914856
0.94333368539810181 0.78604680299758911 0.52443450689315796
0.99168539047241211 0.82062894105911255 0.53749769926071167
0.70932602882385254 0.83621293306350708 0.51834052801132202
0.72446697950363159 0.82962638139724731 0.51529479026794434
0.76761800050735474 0.83323913812637329 0.51909792423248291
0.83295869827270508 0.84099644422531128 0.52938741445541382
0.89625555276870728 0.8459894061088562 0.53465288877487183
0.95071160793304443 0.85273629426956177 0.5381128191947937
0.98806291818618774 0.85820060968399048 0.53964412212371826
0.8740081787109375 0.90893232822418213 0.55936437845230103
0.8791312575340271 0.90780019760131836 0.55925172567367554
0.89053833484649658 0.90680325031280518 0.56369668245315552
0.91481953859329224 0.90815401077270508 0.56931000947952271
0.9389948844909668 0.91219693422317505 0.577170729637146
0.96315228939056396 0.91626858711242676 0.58670949935913086
0.98212844133377075 0.91702282428741455 0.58786529302597046
0.60930341482162476 0.33458229899406433 0.59211993217468262
0.65512263774871826 0.35120916366577148 0.59053581953048706
0.7496832013130188 0.40231040120124817 0.59187585115432739
0.85248655080795288 0.52407479286193848 0.58660328388214111
0.92135417461395264 0.68412679433822632 0.5731995701789856
0.96404647827148438 0.72021377086639404 0.57378178834915161
0.99642783403396606 0.70332145690917969 0.57244527339935303
0.59834545850753784 0.39132905006408691 0.59493458271026611
0.64831119775772095 0.40323561429977417 0.59330791234970093
0.74569463729858398 0.45575287938117981 0.59166222810745239
0.85454368591308594 0.57320845127105713 0.58556610345840454
0.92438077926635742 0.70929491519927979 0.57511574029922485
0.9651482105255127 0.7478339672088623 0.57572513818740845
0.99493443965911865 0.73813050985336304 0.57752299308776855
0.56302899122238159 0.4982416033744812 0.59200137853622437
0.60860621929168701 0.50020480155944824 0.58982604742050171
0.72877979278564453 0.54980182647705078 0.58482003211975098
0.84878778457641602 0.64646869897842407 0.58032822608947754
0.92666018009185791 0.74761497974395752 0.57619750499725342
0.96044319868087769 0.7779310941696167 0.57600969076156616
0.98990345001220703 0.77056765556335449 0.5784447193145752
0.49717462062835693 0.63879632949829102 0.5739905834197998
0.55048471689224243 0.63668107986450195 0.57336753606796265
0.67742043733596802 0.64709806442260742 0.57676607370376587
0.81826198101043701 0.69949495792388916 0.57617616653442383
0.91909265518188477 0.77774655818939209 0.57593387365341187
0.96397167444229126 0.81663668155670166 0.57871395349502563
0.98928642272949219 0.81082934141159058 0.5811697244644165
0.55582588911056519 0.75022339820861816 0.56292265653610229
0.58265775442123413 0.74917340278625488 0.5629040002822876
0.64926159381866455 0.74676978588104248 0.56296110153198242
0.76637154817581177 0.75563234090805054 0.56813836097717285
0.89422881603240967 0.79975634813308716 0.57361781597137451
0.96291327476501465 0.84309846162796021 0.58147293329238892
0.99203407764434814 0.84205842018127441 0.58364176750183105
0.71901553869247437 0.84285807609558105 0.56455498933792114
0.73776555061340332 0.84122437238693237 0.56637924909591675
0.78076404333114624 0.8437274694442749 0.56738680601119995
0.84099560976028442 0.84699970483779907 0.57483041286468506
0.90227240324020386 0.85444849729537964 0.582511305809021
0.96161812543869019 0.87559109926223755 0.59043508768081665
0.98918813467025757 0.88382315635681152 0.5900580883026123
0.87416213750839233 0.91149419546127319 0.58745837211608887
0.87900656461715698 0.90921378135681152 0.59013468027114868
0.89579290151596069 0.91133743524551392 0.59199428558349609
0.91983485221862793 0.91313707828521729 0.59650230407714844
0.94467818737030029 0.91462701559066772 0.60453969240188599
0.96660518646240234 0.91849088668823242 0.61187458038330078
0.98260563611984253 0.92696183919906616 0.6210026741027832
0.79446929693222046 0.59500479698181152 0.65821158885955811
0.81926053762435913 0.60999995470046997 0.65469354391098022
0.86877739429473877 0.65943163633346558 0.6476672887802124
0.92459803819656372 0.72899419069290161 0.63964450359344482
0.96170002222061157 0.79453158378601074 0.62814348936080933
0.98221367597579956 0.85249119997024536 0.62298238277435303
0.98926323652267456 0.85800427198410034 0.62177294492721558
0.79709708690643311 0.63681930303573608 0.65263074636459351
0.8209264874458313 0.64974570274353027 0.65068620443344116
0.87144243717193604 0.69189357757568359 0.64650624990463257
0.92428827285766602 0.74960446357727051 0.63685876131057739
0.96193200349807739 0.80959063768386841 0.62742042541503906
0.98139959573745728 0.85775864124298096 0.62380772829055786
0.99161171913146973 0.86317837238311768 0.62639796733856201
0.78632628917694092 0.68749147653579712 0.64872163534164429
0.81065571308135986 0.69677823781967163 0.64627915620803833
0.86449742317199707 0.72767674922943115 0.64205479621887207
0.92147165536880493 0.77437567710876465 0.63492703437805176
0.96013820171356201 0.8276594877243042 0.63009238243103027
0.98127299547195435 0.86724019050598145 0.62732070684432983
0.98827874660491943 0.87302708625793457 0.62402904033660889
0.76484465599060059 0.74781113862991333 0.6420099139213562
0.78380715847015381 0.74483728408813477 0.63973772525787354
0.83881908655166626 0.76249003410339355 0.63749611377716064
0.9065205454826355 0.7992103099822998 0.63348233699798584
0.9563172459602356 0.84085285663604736 0.63029366731643677
0.97959619760513306 0.87903803586959839 0.62853753566741943
0.9843137264251709 0.88652104139328003 0.62937283515930176
0.68653082847595215 0.79308676719665527 0.63162732124328613
0.70311188697814941 0.79208469390869141 0.63028454780578613
0.7688794732093811 0.7949405312538147 0.62996077537536621
0.86602520942687988 0.81493657827377319 0.63062304258346558
0.94243907928466797 0.85081577301025391 0.63039135932922363
0.97561651468276978 0.88905167579650879 0.63319563865661621
0.98496466875076294 0.90490150451660156 0.63454276323318481
0.79803001880645752 0.86338311433792114 0.62897282838821411
0.80249488353729248 0.86078864336013794 0.62644439935684204
0.82913172245025635 0.86315953731536865 0.62726908922195435
0.86846631765365601 0.86352062225341797 0.62864494323730469
0.91737353801727295 0.87102150917053223 0.63163000345230103
0.96896719932556152 0.89975655078887939 0.63938194513320923
0.98340582847595215 0.91796189546585083 0.639984130859375
0.89692461490631104 0.9186398983001709 0.63554507493972778
0.89889174699783325 0.91815578937530518 0.63550925254821777
0.9101911187171936 0.91843551397323608 0.63546764850616455
0.92820829153060913 0.92206454277038574 0.6370471715927124
0.94786220788955688 0.92334002256393433 0.64294791221618652
0.96585994958877563 0.92685240507125854 0.64701664447784424
0.98141336441040039 0.93526178598403931 0.65426397323608398
