luts/instant_consumer/polaroid_px-680_cold.cube
# Created by: G'MIC (https://gmic.eu)
TITLE "polaroid_px-680_cold"
# LUT size
LUT_3D_SIZE 13
# Data domain
DOMAIN_MIN 0.0 0.0 0.0
DOMAIN_MAX 1.0 1.0 1.0
# LUT data points
0.16615411639213562 0.22521123290061951 0.25098040699958801
0.17089460790157318 0.22084258496761322 0.25098040699958801
0.17369326949119568 0.21732883155345917 0.25071123242378235
0.17681896686553955 0.21487259864807129 0.24866516888141632
0.1904931515455246 0.2117919921875 0.24820394814014435
0.24657827615737915 0.21110758185386658 0.248736172914505
0.37360534071922302 0.21053832769393921 0.24568866193294525
0.54588872194290161 0.21277512609958649 0.24227845668792725
0.68869239091873169 0.23648829758167267 0.23635204136371613
0.79741197824478149 0.28779786825180054 0.22879707813262939
0.8687589168548584 0.34111300110816956 0.23100098967552185
0.92007648944854736 0.39493325352668762 0.23926834762096405
0.9548649787902832 0.45337224006652832 0.2725147008895874
0.16461293399333954 0.22628527879714966 0.25098040699958801
0.16931428015232086 0.2216842919588089 0.25095686316490173
0.17575207352638245 0.21900570392608643 0.24967819452285767
0.18303842842578888 0.21584504842758179 0.24740703403949738
0.19775640964508057 0.21304406225681305 0.24710620939731598
0.25927475094795227 0.21487008035182953 0.24676106870174408
0.39351841807365417 0.2228332906961441 0.24319474399089813
0.55689054727554321 0.2347724586725235 0.23795749247074127
0.69851136207580566 0.25899508595466614 0.23221820592880249
0.80015361309051514 0.30655449628829956 0.22387434542179108
0.87026429176330566 0.35932105779647827 0.22417451441287994
0.9165271520614624 0.41164544224739075 0.23998907208442688
0.9533194899559021 0.46953064203262329 0.2776336669921875
0.16148911416530609 0.22728022933006287 0.24914148449897766
0.16507157683372498 0.22346538305282593 0.24887174367904663
0.17338745296001434 0.22005528211593628 0.24786631762981415
0.18546013534069061 0.22023682296276093 0.2470598965883255
0.21124699711799622 0.22165317833423615 0.24705882370471954
0.28844496607780457 0.22924205660820007 0.24481727182865143
0.41781178116798401 0.24965797364711761 0.2385173887014389
0.57643115520477295 0.27232661843299866 0.23094993829727173
0.70681673288345337 0.3008267879486084 0.22424700856208801
0.80159443616867065 0.33847412467002869 0.21772201359272003
0.86818677186965942 0.38440981507301331 0.21857792139053345
0.91338640451431274 0.43104797601699829 0.23918740451335907
0.95060569047927856 0.48717281222343445 0.27849826216697693
0.15797854959964752 0.22955721616744995 0.24705882370471954
0.15860971808433533 0.23000079393386841 0.24705882370471954
0.16793209314346313 0.23002876341342926 0.24698355793952942
0.19064256548881531 0.23848749697208405 0.24587957561016083
0.23075203597545624 0.24608652293682098 0.2442881166934967
0.32695263624191284 0.26810961961746216 0.239057257771492
0.45715230703353882 0.29203510284423828 0.23144830763339996
0.59640538692474365 0.32108581066131592 0.22166295349597931
0.7067025899887085 0.35342821478843689 0.21457570791244507
0.79778313636779785 0.38867092132568359 0.20897075533866882
0.8619009256362915 0.42620238661766052 0.21555161476135254
0.90651214122772217 0.46408715844154358 0.24169303476810455
0.94418066740036011 0.51746922731399536 0.28479301929473877
0.12821957468986511 0.25917845964431763 0.24506902694702148
0.13444162905216217 0.26227039098739624 0.2450079619884491
0.14693847298622131 0.26971724629402161 0.24334679543972015
0.17721655964851379 0.28367793560028076 0.24117791652679443
0.24024727940559387 0.29994070529937744 0.23775149881839752
0.35284900665283203 0.33390653133392334 0.22910402715206146
0.48831474781036377 0.37258210778236389 0.21732413768768311
0.60873287916183472 0.3958030641078949 0.20718088746070862
0.71154028177261353 0.41231581568717957 0.20029707252979279
0.79501479864120483 0.4409174919128418 0.19848956167697906
0.85389578342437744 0.46875333786010742 0.21217454969882965
0.89753347635269165 0.50054359436035156 0.23830582201480865
0.9349745512008667 0.5440635085105896 0.2821052074432373
0.033667456358671188 0.33602744340896606 0.23760287463665009
0.040453039109706879 0.34020456671714783 0.237000972032547
0.062638990581035614 0.34664174914360046 0.23578944802284241
0.12859655916690826 0.36124131083488464 0.23354913294315338
0.22747866809368134 0.38690987229347229 0.22842805087566376
0.34991055727005005 0.41814479231834412 0.21945887804031372
0.49715995788574219 0.45966523885726929 0.20488822460174561
0.62176096439361572 0.48889493942260742 0.19437022507190704
0.71105939149856567 0.49804845452308655 0.19409865140914917
0.78191441297531128 0.50538831949234009 0.19632062315940857
0.84109467267990112 0.51383042335510254 0.20604622364044189
0.88630658388137817 0.54046344757080078 0.23742978274822235
0.92506718635559082 0.57750892639160156 0.28503185510635376
0.005591418594121933 0.44161629676818848 0.23145470023155212
0.0055076000280678272 0.44257360696792603 0.23075070977210999
0.0066223591566085815 0.44683510065078735 0.23031871020793915
0.035560205578804016 0.45567089319229126 0.22756399214267731
0.16808329522609711 0.48131820559501648 0.22439341247081757
0.32650455832481384 0.50871425867080688 0.21773751080036163
0.47083303332328796 0.53304678201675415 0.20970314741134644
0.60474175214767456 0.56419843435287476 0.19979983568191528
0.70535999536514282 0.58552283048629761 0.20108051598072052
0.77165287733078003 0.58636218309402466 0.2087695300579071
0.82687872648239136 0.58209079504013062 0.2216639518737793
0.87352544069290161 0.58861041069030762 0.24402883648872375
0.91403764486312866 0.61126887798309326 0.28374069929122925
0.0004289215721655637 0.54411584138870239 0.22891519963741302
0.0004289215721655637 0.54158419370651245 0.22960008680820465
0.0024541369639337063 0.54080504179000854 0.23234172165393829
0.0039355410262942314 0.54627460241317749 0.23315159976482391
0.09970613569021225 0.56226509809494019 0.23162522912025452
0.29143425822257996 0.57806408405303955 0.23298978805541992
0.43420165777206421 0.59359836578369141 0.23128888010978699
0.56213808059692383 0.61695694923400879 0.23004068434238434
0.68008291721343994 0.64905798435211182 0.23782072961330414
0.75777775049209595 0.65790510177612305 0.25280147790908813
0.81156456470489502 0.65514206886291504 0.27098652720451355
0.85818201303482056 0.65444481372833252 0.29117333889007568
0.89893883466720581 0.66273754835128784 0.31578356027603149
0 0.61456161737442017 0.24324573576450348
7.8986677181092091e-06 0.61073571443557739 0.24566049873828888
0.00049284391570836306 0.61113607883453369 0.24719473719596863
0.0030306498520076275 0.61777478456497192 0.25169816613197327
0.080276206135749817 0.62699496746063232 0.25434300303459167
0.27396818995475769 0.6390845775604248 0.2595401406288147
0.41911908984184265 0.65051168203353882 0.26418349146842957
0.53825610876083374 0.66593581438064575 0.27426373958587646
0.63910788297653198 0.68721789121627808 0.28615310788154602
0.73120647668838501 0.70949113368988037 0.30611565709114075
0.796028733253479 0.71818369626998901 0.33083736896514893
0.84491193294525146 0.72006964683532715 0.35635611414909363
0.88634723424911499 0.73126041889190674 0.37977230548858643
0.00049707747530192137 0.67655742168426514 0.27692866325378418
0.0018899656133726239 0.67575967311859131 0.28147608041763306
0.0026006512343883514 0.67596167325973511 0.28077241778373718
0.015036280266940594 0.68077176809310913 0.28366890549659729
0.13650959730148315 0.68722862005233765 0.29254287481307983
0.29593086242675781 0.69351506233215332 0.30108678340911865
0.42112880945205688 0.70211195945739746 0.31260028481483459
0.5296216607093811 0.71419435739517212 0.32602348923683167
0.62341374158859253 0.72785681486129761 0.34172335267066956
0.70460027456283569 0.74305194616317749 0.35854396224021912
0.7749677300453186 0.76149064302444458 0.38647288084030151
0.83446377515792847 0.77758550643920898 0.41789898276329041
0.87352567911148071 0.784321129322052 0.43843621015548706
0.030376898124814034 0.73813974857330322 0.32824888825416565
0.043064311146736145 0.73740983009338379 0.32959675788879395
0.081206180155277252 0.73737925291061401 0.33094578981399536
0.16492146253585815 0.73863518238067627 0.33801499009132385
0.26370406150817871 0.73963701725006104 0.34852802753448486
0.35852965712547302 0.74227213859558105 0.35868158936500549
0.45646429061889648 0.75014007091522217 0.37158489227294922
0.54072213172912598 0.75851213932037354 0.38664272427558899
0.62619823217391968 0.77009564638137817 0.4050934910774231
0.69789963960647583 0.78231692314147949 0.4213176965713501
0.75909429788589478 0.79519885778427124 0.44198092818260193
0.8129953145980835 0.80963742733001709 0.46510836482048035
0.86150097846984863 0.82732510566711426 0.49378189444541931
0.28731414675712585 0.79377347230911255 0.40432733297348022
0.28563189506530762 0.79122394323348999 0.4015565812587738
0.31455704569816589 0.79022431373596191 0.40493088960647583
0.35912266373634338 0.79294306039810181 0.41236117482185364
0.4024868905544281 0.79362708330154419 0.42221039533615112
0.4634380042552948 0.7962186336517334 0.43118861317634583
0.52423173189163208 0.80143201351165771 0.44383233785629272
0.59175914525985718 0.80833643674850464 0.45814123749732971
0.65459012985229492 0.81680858135223389 0.47220289707183838
0.71221762895584106 0.82698333263397217 0.48866835236549377
0.76965087652206421 0.83840417861938477 0.50796115398406982
0.81105977296829224 0.8460116982460022 0.52271068096160889
0.85044819116592407 0.85844624042510986 0.54167693853378296
0.47605964541435242 0.8485596776008606 0.48940390348434448
0.47734704613685608 0.84713125228881836 0.48688873648643494
0.48856952786445618 0.84676629304885864 0.48863667249679565
0.51329296827316284 0.84835946559906006 0.49537822604179382
0.53858786821365356 0.84852015972137451 0.5016857385635376
0.57406216859817505 0.85069239139556885 0.51141703128814697
0.61912345886230469 0.85549873113632202 0.5238988995552063
0.66320937871932983 0.8606913685798645 0.53371202945709229
0.7046433687210083 0.86705094575881958 0.54460453987121582
0.75056546926498413 0.87696975469589233 0.5603945255279541
0.78927302360534668 0.88314783573150635 0.57478165626525879
0.82529586553573608 0.89078480005264282 0.59216225147247314
0.85462099313735962 0.89595943689346313 0.60487091541290283
0.1658380925655365 0.22383104264736176 0.25446632504463196
0.17154279351234436 0.22009599208831787 0.25390470027923584
0.17789888381958008 0.21663942933082581 0.25256425142288208
0.18387818336486816 0.21466773748397827 0.25121590495109558
0.19524230062961578 0.21178409457206726 0.25093927979469299
0.25245246291160583 0.2109912633895874 0.24852162599563599
0.38456502556800842 0.21116359531879425 0.24743188917636871
0.5579877495765686 0.21585364639759064 0.24853308498859406
0.69822472333908081 0.23781363666057587 0.24558219313621521
0.80210047960281372 0.28567743301391602 0.23588429391384125
0.87173193693161011 0.3414866030216217 0.24131679534912109
0.91799831390380859 0.40321362018585205 0.26530462503433228
0.95219486951828003 0.46778056025505066 0.30523201823234558
0.16317537426948547 0.22660286724567413 0.25337842106819153
0.16953460872173309 0.22247685492038727 0.25246062874794006
0.17800243198871613 0.21916918456554413 0.25110325217247009
0.18492233753204346 0.21589122712612152 0.25065356492996216
0.19981519877910614 0.21433383226394653 0.25006076693534851
0.27136588096618652 0.21656112372875214 0.24804359674453735
0.40931504964828491 0.22330200672149658 0.24571101367473602
0.57813769578933716 0.23491305112838745 0.24379731714725494
0.70559060573577881 0.26409372687339783 0.24231313169002533
0.80492132902145386 0.30813556909561157 0.23681564629077911
0.87069356441497803 0.36135181784629822 0.24231311678886414
0.91524839401245117 0.42135283350944519 0.26821425557136536
0.95041936635971069 0.48516830801963806 0.31169816851615906
0.16010232269763947 0.2280927449464798 0.25155293941497803
0.16526585817337036 0.22537992894649506 0.25098225474357605
0.17547136545181274 0.22359743714332581 0.25052741169929504
0.18444038927555084 0.22054553031921387 0.24829746782779694
0.21324010193347931 0.22114895284175873 0.24836394190788269
0.29677069187164307 0.23184391856193542 0.24661676585674286
0.43512111902236938 0.25376385450363159 0.24199582636356354
0.59458279609680176 0.2743573784828186 0.23855264484882355
0.71444433927536011 0.30606487393379211 0.23671430349349976
0.8071553111076355 0.34527075290679932 0.23306773602962494
0.87071353197097778 0.39160239696502686 0.24172303080558777
0.91362309455871582 0.44209817051887512 0.26910975575447083
0.94879269599914551 0.50094801187515259 0.31081312894821167
0.15707844495773315 0.22957596182823181 0.24922777712345123
0.15931260585784912 0.22986570000648499 0.24830503761768341
0.16755896806716919 0.23711656033992767 0.24741266667842865
0.18811328709125519 0.24041055142879486 0.24690254032611847
0.23564204573631287 0.24826137721538544 0.24654063582420349
0.33664646744728088 0.26794779300689697 0.24170859158039093
0.4717121422290802 0.29875248670578003 0.2359422892332077
0.60952085256576538 0.3260500431060791 0.23090562224388123
0.71896594762802124 0.35790202021598816 0.22907561063766479
0.80523598194122314 0.39285823702812195 0.2273360937833786
0.86599183082580566 0.43241021037101746 0.24122127890586853
0.90795648097991943 0.47518670558929443 0.27180272340774536
0.94189172983169556 0.52513980865478516 0.31381464004516602
0.12286635488271713 0.26390370726585388 0.24612577259540558
0.12635424733161926 0.26713681221008301 0.24609014391899109
0.14153590798377991 0.27692505717277527 0.24545818567276001
0.17829181253910065 0.2854188084602356 0.24388459324836731
0.24867981672286987 0.30448067188262939 0.24148723483085632
0.36717039346694946 0.34296262264251709 0.2333683967590332
0.50015068054199219 0.37537038326263428 0.22468741238117218
0.62038719654083252 0.38921916484832764 0.21885429322719574
0.71820616722106934 0.41459846496582031 0.21614748239517212
0.80023872852325439 0.44453930854797363 0.21885791420936584
0.85839319229125977 0.47498044371604919 0.23709414899349213
0.89838486909866333 0.51202678680419922 0.27346381545066833
0.93031859397888184 0.55163782835006714 0.31405311822891235
0.024507081136107445 0.34600445628166199 0.24261721968650818
0.030473656952381134 0.34963762760162354 0.24095581471920013
0.05441780760884285 0.35957625508308411 0.24077758193016052
0.1228734627366066 0.37059566378593445 0.2393089085817337
0.22424352169036865 0.39764726161956787 0.23631742596626282
0.358366459608078 0.42654678225517273 0.2285054624080658
0.50916355848312378 0.46568432450294495 0.21610647439956665
0.62597781419754028 0.48860400915145874 0.21353580057621002
0.71655333042144775 0.49796280264854431 0.21161085367202759
0.79100215435028076 0.5038331151008606 0.21281048655509949
0.8451392650604248 0.52061164379119873 0.23045922815799713
0.8865896463394165 0.55080950260162354 0.2687734067440033
0.92059600353240967 0.58685308694839478 0.31519284844398499
0.0055257012136280537 0.44613271951675415 0.24278604984283447
0.004355710931122303 0.44891229271888733 0.2424062043428421
0.0053939521312713623 0.45674464106559753 0.24120783805847168
0.032119676470756531 0.46828559041023254 0.2380361407995224
0.16935686767101288 0.49000278115272522 0.23664039373397827
0.32533514499664307 0.51184666156768799 0.23476673662662506
0.48153167963027954 0.54039162397384644 0.22813132405281067
0.61638349294662476 0.5728716254234314 0.22083409130573273
0.70894503593444824 0.58572787046432495 0.22466108202934265
0.77660918235778809 0.58609908819198608 0.23358927667140961
0.82923883199691772 0.58210551738739014 0.24932406842708588
0.8761523962020874 0.59212517738342285 0.26783350110054016
0.91253030300140381 0.61867368221282959 0.30939579010009766
0.0010512408334761858 0.54376709461212158 0.24525189399719238
0.0011910682078450918 0.54369676113128662 0.24812544882297516
0.0039675543084740639 0.54641914367675781 0.2493271678686142
0.0070866155438125134 0.55102384090423584 0.24748556315898895
0.11607078462839127 0.5662766695022583 0.24737337231636047
0.29591935873031616 0.58427363634109497 0.2515701949596405
0.44236338138580322 0.60119456052780151 0.25198867917060852
0.57248538732528687 0.6245543360710144 0.25277057290077209
0.68279671669006348 0.64839595556259155 0.26600828766822815
0.75867849588394165 0.65802818536758423 0.28103715181350708
0.81197953224182129 0.65587514638900757 0.29629647731781006
0.85992246866226196 0.65675991773605347 0.31387907266616821
0.89981424808502197 0.66616666316986084 0.33456248044967651
2.5790344807319343e-05 0.61798840761184692 0.25917112827301025
0.00046109966933727264 0.61595863103866577 0.26735773682594299
0.0030839359387755394 0.6170995831489563 0.26937729120254517
0.0056177773512899876 0.62199020385742188 0.26780372858047485
0.10333015769720078 0.63173586130142212 0.27138695120811462
0.29146158695220947 0.64622867107391357 0.28152120113372803
0.42998787760734558 0.65741312503814697 0.2868160605430603
0.54610943794250488 0.67122560739517212 0.29590430855751038
0.64454978704452515 0.69141471385955811 0.31101420521736145
0.73351728916168213 0.71268993616104126 0.33077684044837952
0.79798024892807007 0.72195428609848022 0.35273784399032593
0.84451985359191895 0.72341239452362061 0.37455639243125916
0.88468539714813232 0.73170256614685059 0.39443251490592957
0.0027113372925668955 0.68231797218322754 0.29430505633354187
0.0037308936007320881 0.68039065599441528 0.29891380667686462
0.005157051607966423 0.6802554726600647 0.29818636178970337
0.031999070197343826 0.68540382385253906 0.29856505990028381
0.17403586208820343 0.69153815507888794 0.31011652946472168
0.31107613444328308 0.69761490821838379 0.3231494128704071
0.43231385946273804 0.70640099048614502 0.33343183994293213
0.53849440813064575 0.71808880567550659 0.34497189521789551
0.62786883115768433 0.73188906908035278 0.36318215727806091
0.71145784854888916 0.74804151058197021 0.38177314400672913
0.78237807750701904 0.76634615659713745 0.40744683146476746
0.83322793245315552 0.77709025144577026 0.43019714951515198
0.87225693464279175 0.78485685586929321 0.4488825798034668
0.055020172148942947 0.74142789840698242 0.34238690137863159
0.068408161401748657 0.74114274978637695 0.34278246760368347
0.11336511373519897 0.73894959688186646 0.3437899649143219
0.19669674336910248 0.74013102054595947 0.35065621137619019
0.29480218887329102 0.74366861581802368 0.36353525519371033
0.37858673930168152 0.74673038721084595 0.37707439064979553
0.47273698449134827 0.75373387336730957 0.38956412672996521
0.55487799644470215 0.7628818154335022 0.40380248427391052
0.62945878505706787 0.77258437871932983 0.41943866014480591
0.70286476612091064 0.78541797399520874 0.43579623103141785
0.76611649990081787 0.79939049482345581 0.45660239458084106
0.81788462400436401 0.81118500232696533 0.47530320286750793
0.8626590371131897 0.82781678438186646 0.50019919872283936
0.30330055952072144 0.79437905550003052 0.41149124503135681
0.30757540464401245 0.7927059531211853 0.41064953804016113
0.33075812458992004 0.79055994749069214 0.41327136754989624
0.36825475096702576 0.79306614398956299 0.42237111926078796
0.41852164268493652 0.79571235179901123 0.43225425481796265
0.47522950172424316 0.79880279302597046 0.44376227259635925
0.53969359397888184 0.80407619476318359 0.45881468057632446
0.60437601804733276 0.81209230422973633 0.47354957461357117
0.66365897655487061 0.81943029165267944 0.48460805416107178
0.71629005670547485 0.82850438356399536 0.49757581949234009
0.76771879196166992 0.83759129047393799 0.51292449235916138
0.81417489051818848 0.84617322683334351 0.52867811918258667
0.85358530282974243 0.8601454496383667 0.55009061098098755
0.48371154069900513 0.8500971794128418 0.49255436658859253
0.48561173677444458 0.84829854965209961 0.49180057644844055
0.49380886554718018 0.8465467095375061 0.49298155307769775
0.51794743537902832 0.849090576171875 0.50076776742935181
0.54690670967102051 0.85062015056610107 0.50875353813171387
0.58253401517868042 0.85301762819290161 0.5182759165763855
0.62232762575149536 0.85505759716033936 0.52889609336853027
0.66227447986602783 0.860362708568573 0.54027777910232544
0.71035265922546387 0.86858260631561279 0.55368268489837646
0.75094294548034668 0.87626391649246216 0.56385940313339233
0.79081588983535767 0.88256460428237915 0.57638734579086304
0.82606536149978638 0.8872571587562561 0.59132707118988037
0.85779052972793579 0.89665758609771729 0.61191976070404053
0.16506296396255493 0.22061155736446381 0.2583974301815033
0.17053556442260742 0.21867209672927856 0.2574489414691925
0.17834058403968811 0.21575272083282471 0.25586751103401184
0.18534491956233978 0.21354536712169647 0.25400230288505554
0.19750517606735229 0.21125638484954834 0.25130414962768555
0.26076152920722961 0.20452593266963959 0.2520567774772644
0.4048440158367157 0.19141937792301178 0.25355014204978943
0.57544684410095215 0.19735480844974518 0.25739094614982605
0.71694695949554443 0.23271328210830688 0.26249271631240845
0.81135505437850952 0.29358646273612976 0.27320635318756104
0.87252265214920044 0.35971984267234802 0.28887453675270081
0.91218310594558716 0.42775240540504456 0.32209253311157227
0.9453614354133606 0.49560219049453735 0.36165067553520203
0.16414362192153931 0.22260808944702148 0.25704658031463623
0.16934172809123993 0.22059395909309387 0.25704589486122131
0.17550833523273468 0.21761874854564667 0.2543618381023407
0.18219374120235443 0.21433226764202118 0.25151512026786804
0.20713979005813599 0.2122829258441925 0.25276172161102295
0.28600943088531494 0.20924301445484161 0.25406056642532349
0.4338814914226532 0.20246078073978424 0.25377064943313599
0.59587007761001587 0.22125512361526489 0.25605157017707825
0.72294485569000244 0.26328235864639282 0.26414394378662109
0.81372237205505371 0.31812521815299988 0.27361616492271423
0.87067943811416626 0.38111007213592529 0.2926734983921051
0.91007441282272339 0.44515052437782288 0.32509773969650269
0.94373816251754761 0.51094323396682739 0.36716991662979126
0.16010990738868713 0.22666779160499573 0.25557622313499451
0.16571539640426636 0.22380699217319489 0.2551485002040863
0.174420565366745 0.2232881635427475 0.25325879454612732
0.18445697426795959 0.22084906697273254 0.25125324726104736
0.22801798582077026 0.22238272428512573 0.25394999980926514
0.32321590185165405 0.22792486846446991 0.25673934817314148
0.46601974964141846 0.2397637665271759 0.25676268339157104
0.61545854806900024 0.26792061328887939 0.25634357333183289
0.72972279787063599 0.30893748998641968 0.26299488544464111
0.81293439865112305 0.35784697532653809 0.27464762330055237
0.87101632356643677 0.41002130508422852 0.29294073581695557
0.90907025337219238 0.46448841691017151 0.32383891940116882
0.94189131259918213 0.52493035793304443 0.36485463380813599
0.15523533523082733 0.23247864842414856 0.25356805324554443
0.15754209458827972 0.23234473168849945 0.25285741686820984
0.16777095198631287 0.23880179226398468 0.25308063626289368
0.18961957097053528 0.24031725525856018 0.25214454531669617
0.25764790177345276 0.2533319890499115 0.25463768839836121
0.36350750923156738 0.27184650301933289 0.25478097796440125
0.4940352737903595 0.29549002647399902 0.25471419095993042
0.62736529111862183 0.32408002018928528 0.25234997272491455
0.73147130012512207 0.36031132936477661 0.25690189003944397
0.80989736318588257 0.40294268727302551 0.27026566863059998
0.86385947465896606 0.44891968369483948 0.29343992471694946
0.90349489450454712 0.49400362372398376 0.32257232069969177
0.93519145250320435 0.54325520992279053 0.36095163226127625
0.11857401579618454 0.27373316884040833 0.2546783983707428
0.12243713438510895 0.27827447652816772 0.25476440787315369
0.14177651703357697 0.28715449571609497 0.25604408979415894
0.18442019820213318 0.30054229497909546 0.25571948289871216
0.26501262187957764 0.31733852624893188 0.25331228971481323
0.39007261395454407 0.3504176139831543 0.24928702414035797
0.51805633306503296 0.37192514538764954 0.24628250300884247
0.63204729557037354 0.3871837854385376 0.2454620897769928
