luts/instant_consumer/polaroid_time_zero_expired_cold_---.cube
# Created by: G'MIC (https://gmic.eu)
TITLE "polaroid_time_zero_expired_cold_---"
# LUT size
LUT_3D_SIZE 7
# Data domain
DOMAIN_MIN 0.0 0.0 0.0
DOMAIN_MAX 1.0 1.0 1.0
# LUT data points
0.12733322381973267 0.022905148565769196 0.033384568989276886
0.15184164047241211 0.018059270456433296 0.031564481556415558
0.27434661984443665 0.0061192531138658524 0.028799707069993019
0.44900479912757874 0.0021843255963176489 0.028832679614424706
0.62142616510391235 0.001890085288323462 0.03817049041390419
0.77085697650909424 0.0023803561925888062 0.061756134033203125
0.90505462884902954 0.063279427587985992 0.11784135550260544
0.14436797797679901 0.082118630409240723 0.020272886380553246
0.18547098338603973 0.08316415548324585 0.020706774666905403
0.30150574445724487 0.086747340857982635 0.012679634615778923
0.47129487991333008 0.063871167600154877 0.013843416236341
0.63605070114135742 0.045792747288942337 0.013347282074391842
0.77808940410614014 0.080115377902984619 0.039755307137966156
0.90949386358261108 0.2092202752828598 0.11242964863777161
0.16798156499862671 0.28197810053825378 0.00014857872156426311
0.24469934403896332 0.2810606062412262 0.0052350214682519436
0.37082579731941223 0.29098907113075256 0.0040293973870575428
0.52077877521514893 0.29402664303779602 0.0039258771575987339
0.65631216764450073 0.29302924871444702 0.0064005982130765915
0.78329509496688843 0.31139299273490906 0.0047325133346021175
0.9054872989654541 0.36792740225791931 0.076244369149208069
0.20961669087409973 0.47993695735931396 0
0.29344546794891357 0.48750028014183044 0.00013212316844146699
0.42315620183944702 0.49049755930900574 0.0026061113458126783
0.56482350826263428 0.49764007329940796 0.0053916480392217636
0.6900782585144043 0.49791103601455688 0.006249790545552969
0.79581016302108765 0.49761834740638733 0.0065684448927640915
0.90852075815200806 0.51920336484909058 0.023834707215428352
0.32524523138999939 0.63604635000228882 0
0.37041524052619934 0.63564687967300415 0
0.47782880067825317 0.63911432027816772 0
0.60822480916976929 0.64361494779586792 0.002859706524759531
0.726970374584198 0.65064454078674316 0.0078961839899420738
0.83022928237915039 0.66188305616378784 0.181597501039505
0.92390841245651245 0.66536164283752441 0.19639645516872406
0.45089548826217651 0.76410049200057983 0
0.48851689696311951 0.7656327486038208 3.9672850107308477e-05
0.55500161647796631 0.76547551155090332 0
0.65473049879074097 0.76679235696792603 0.00060773361474275589
0.76806408166885376 0.77347433567047119 0.0034081402700394392
0.86495190858840942 0.78057265281677246 0.20005987584590912
0.94456231594085693 0.79188394546508789 0.39397314190864563
0.60048770904541016 0.89375096559524536 0
0.61718422174453735 0.88963907957077026 0
0.6680482029914856 0.89299142360687256 0
0.73691457509994507 0.8925706148147583 0
0.8314979076385498 0.89679253101348877 0.0060639027506113052
0.91730260848999023 0.8976406455039978 0.2403569221496582
0.9798770546913147 0.90098309516906738 0.44990628957748413
0.14225712418556213 0.016181826591491699 0.075190357863903046
0.16777606308460236 0.013524642214179039 0.079644806683063507
0.28583258390426636 0.0021493949461728334 0.10338469594717026
0.46665969491004944 0.00035300161107443273 0.11952700465917587
0.63109672069549561 0.0035670113284140825 0.13185460865497589
0.77366656064987183 0.0037972843274474144 0.15679505467414856
0.90567493438720703 0.14089661836624146 0.20136687159538269
0.15128029882907867 0.076473236083984375 0.078632041811943054
0.20136919617652893 0.089710026979446411 0.081171087920665741
0.32739260792732239 0.088140211999416351 0.096746571362018585
0.49248331785202026 0.073181644082069397 0.103812076151371
0.64248132705688477 0.076796770095825195 0.11943529546260834
0.7808387279510498 0.13661287724971771 0.14910170435905457
0.90536141395568848 0.24003618955612183 0.1971413791179657
0.16447210311889648 0.27989393472671509 0.049002926796674728
0.24706454575061798 0.29395845532417297 0.038238778710365295
0.38500803709030151 0.30141288042068481 0.063200406730175018
0.52689772844314575 0.30452921986579895 0.08200632780790329
0.65579795837402344 0.30589407682418823 0.079935826361179352
0.78465801477432251 0.32583329081535339 0.11630591750144958
0.9067082405090332 0.37912309169769287 0.18542565405368805
0.22173497080802917 0.48251891136169434 0.0079164691269397736
0.2946302592754364 0.49216526746749878 0.0056784236803650856
0.42997798323631287 0.49590343236923218 0.0072509166784584522
0.57112389802932739 0.50171810388565063 0.053527921438217163
0.69016999006271362 0.50158607959747314 0.12455399334430695
0.79468721151351929 0.50266891717910767 0.093461893498897552
0.9064100980758667 0.52349478006362915 0.15022702515125275
0.32810533046722412 0.63283324241638184 0.0053593502379953861
0.38130643963813782 0.63540637493133545 0.0040567736141383648
0.47924977540969849 0.64182865619659424 0.0011544919107109308
0.60679513216018677 0.64508837461471558 0.0031613816972821951
0.72694021463394165 0.65332049131393433 0.11627635359764099
0.83056700229644775 0.66309195756912231 0.25986060500144958
0.92114108800888062 0.66469305753707886 0.26964297890663147
0.45702084898948669 0.76394397020339966 0.00087989360326901078
0.49115702509880066 0.76513487100601196 0.0038986057043075562
0.5541985034942627 0.76412087678909302 0.00041518866783007979
0.65635758638381958 0.76758855581283569 0.0018012850778177381
0.76627916097640991 0.77401971817016602 0.0426010861992836
0.86299186944961548 0.78134596347808838 0.27797040343284607
0.94240278005599976 0.79264110326766968 0.43534460663795471
0.60172683000564575 0.893565833568573 0.009754600003361702
0.62237781286239624 0.8938145637512207 0.0029147427994757891
0.66704839468002319 0.8934028148651123 0.0014439153019338846
0.74090027809143066 0.89723318815231323 0
0.83162051439285278 0.89838629961013794 0.022209092974662781
0.91558545827865601 0.89821696281433105 0.30269598960876465
0.97654998302459717 0.89987748861312866 0.48052552342414856
0.21759191155433655 0.00675175990909338 0.24618232250213623
0.24565568566322327 0.009115586057305336 0.25576183199882507
0.31394302845001221 0.0083572836592793465 0.25587695837020874
0.47513443231582642 0.002301190048456192 0.28377798199653625
0.63339638710021973 0.0076026469469070435 0.30377167463302612
0.77234315872192383 0.12960194051265717 0.3193875253200531
0.89881426095962524 0.25720611214637756 0.34705910086631775
0.24896658957004547 0.11270970106124878 0.2501966655254364
0.29097294807434082 0.13163313269615173 0.25535604357719421
0.35713788866996765 0.13819286227226257 0.25967097282409668
0.50351148843765259 0.11505599319934845 0.28684818744659424
0.64856129884719849 0.1638903021812439 0.29409262537956238
0.7824590802192688 0.23349502682685852 0.30734726786613464
0.90261411666870117 0.30455115437507629 0.33321449160575867
0.24382548034191132 0.27962008118629456 0.2354964017868042
0.3106120228767395 0.29747918248176575 0.243546262383461
0.41302952170372009 0.32104092836380005 0.25789400935173035
0.53743070363998413 0.32320120930671692 0.26675635576248169
0.6654389500617981 0.33688443899154663 0.27499562501907349
0.79048019647598267 0.35772836208343506 0.28254422545433044
0.90648198127746582 0.40259635448455811 0.32129567861557007
0.26726031303405762 0.47692781686782837 0.21634487807750702
0.33617275953292847 0.49026006460189819 0.22808997333049774
0.44771763682365417 0.49950748682022095 0.21881237626075745
0.5787661075592041 0.50825726985931396 0.26471841335296631
0.69121187925338745 0.50797396898269653 0.28034502267837524
0.7938380241394043 0.51156854629516602 0.26844453811645508
0.90516549348831177 0.53704333305358887 0.309856116771698
0.3716684877872467 0.6345677375793457 0.22161272168159485
0.41231748461723328 0.63554763793945312 0.20372404158115387
0.48930832743644714 0.64118856191635132 0.17577368021011353
0.60716915130615234 0.6466439962387085 0.19076246023178101
0.72722220420837402 0.65675592422485352 0.30227309465408325
0.82779812812805176 0.66381800174713135 0.37174403667449951
0.91816449165344238 0.66890162229537964 0.35515877604484558
0.47733420133590698 0.76165616512298584 0.21174460649490356
0.50267165899276733 0.76322561502456665 0.19724975526332855
0.55999720096588135 0.76583921909332275 0.15242248773574829
0.65032941102981567 0.7690117359161377 0.10584478825330734
0.76415532827377319 0.77461081743240356 0.24852514266967773
0.86121284961700439 0.78489738702774048 0.39169073104858398
0.94310349225997925 0.79903179407119751 0.50605481863021851
0.60823529958724976 0.89082533121109009 0.27055034041404724
0.62790721654891968 0.89216327667236328 0.24958238005638123
0.66585719585418701 0.89444470405578613 0.20294861495494843
0.73272281885147095 0.89763355255126953 0.09813188761472702
0.82459884881973267 0.89957499504089355 0.19593285024166107
0.91239398717880249 0.89889168739318848 0.39872431755065918
0.97880762815475464 0.90480834245681763 0.54580748081207275
0.3449288010597229 0.047853492200374603 0.46003779768943787
0.37235870957374573 0.065040916204452515 0.467629075050354
0.42781159281730652 0.10425754636526108 0.4756847620010376
0.51457852125167847 0.11609775573015213 0.46391609311103821
0.64229977130889893 0.08088354766368866 0.46453976631164551
0.76834249496459961 0.14147557318210602 0.49570602178573608
0.88173896074295044 0.27871584892272949 0.52072471380233765
0.40633508563041687 0.22095632553100586 0.45314088463783264
0.42640253901481628 0.22729888558387756 0.46267759799957275
0.47428292036056519 0.25033897161483765 0.47166913747787476
0.54187405109405518 0.2486015111207962 0.46362054347991943
0.65247398614883423 0.22240659594535828 0.46784734725952148
0.77587085962295532 0.25269290804862976 0.49244755506515503
0.89103138446807861 0.34950163960456848 0.51107347011566162
0.41843420267105103 0.33848881721496582 0.45514553785324097
0.46263405680656433 0.36619573831558228 0.45854660868644714
0.51964175701141357 0.39692971110343933 0.45679223537445068
0.57207196950912476 0.39709135890007019 0.46039000153541565
0.66999417543411255 0.37318897247314453 0.4601866602897644
0.78712457418441772 0.39168715476989746 0.46888744831085205
0.89831364154815674 0.44836968183517456 0.48980927467346191
0.3861134946346283 0.48540365695953369 0.4134967029094696
0.43014392256736755 0.4940001368522644 0.41869768500328064
0.50721979141235352 0.51021760702133179 0.42858606576919556
0.59542369842529297 0.52178657054901123 0.43513020873069763
0.69516086578369141 0.51808804273605347 0.44231894612312317
0.79906046390533447 0.52734553813934326 0.44579002261161804
0.90753293037414551 0.54873645305633545 0.46656918525695801
0.42583221197128296 0.62188220024108887 0.39579850435256958
0.45683810114860535 0.62939274311065674 0.40414205193519592
0.51630562543869019 0.64171040058135986 0.41354477405548096
0.6134827733039856 0.64850521087646484 0.40358999371528625
0.72724860906600952 0.65947210788726807 0.45470741391181946
0.82264804840087891 0.66141551733016968 0.47688004374504089
0.9174996018409729 0.66664808988571167 0.46567639708518982
0.495645672082901 0.75826126337051392 0.42170104384422302
0.52179396152496338 0.76322847604751587 0.42096123099327087
0.58062255382537842 0.76512354612350464 0.4189155101776123
0.65851509571075439 0.76876842975616455 0.38240194320678711
0.75260484218597412 0.77310973405838013 0.4096602201461792
0.860126793384552 0.78981083631515503 0.52360409498214722
0.94021528959274292 0.79662585258483887 0.58100694417953491
0.61786341667175293 0.88775849342346191 0.4777601957321167
0.63157516717910767 0.88575398921966553 0.4620477557182312
0.67032617330551147 0.8899390697479248 0.44200927019119263
0.72891169786453247 0.8943292498588562 0.40499264001846313
0.80951136350631714 0.89882004261016846 0.36996734142303467
0.90770435333251953 0.90208631753921509 0.50142592191696167
0.97586911916732788 0.90725195407867432 0.61999064683914185
0.49850445985794067 0.21564111113548279 0.64535123109817505
0.51783102750778198 0.23319414258003235 0.65125858783721924
0.55294102430343628 0.26722532510757446 0.65243852138519287
0.60459363460540771 0.29702901840209961 0.6612517237663269
0.67327642440795898 0.311613529920578 0.64006835222244263
0.76641213893890381 0.29389563202857971 0.62381035089492798
0.88770884275436401 0.32557529211044312 0.67903333902359009
0.54194962978363037 0.34119734168052673 0.63731914758682251
0.55641633272171021 0.34960770606994629 0.64539062976837158
0.58576864004135132 0.36648449301719666 0.64829492568969727
0.63005238771438599 0.38875249028205872 0.65847361087799072
0.68818885087966919 0.38624715805053711 0.63678085803985596
0.77145630121231079 0.35845524072647095 0.62701702117919922
0.88834196329116821 0.37433299422264099 0.67400878667831421
0.58100199699401855 0.46030929684638977 0.63214528560638428
0.59919828176498413 0.47386705875396729 0.63489151000976562
0.62124550342559814 0.48606106638908386 0.63342112302780151
0.65923476219177246 0.50267934799194336 0.64310789108276367
0.70461738109588623 0.49630588293075562 0.63482785224914551
0.78482109308242798 0.46341699361801147 0.62973314523696899
0.88767421245574951 0.46610227227210999 0.66019004583358765
0.54986852407455444 0.53318518400192261 0.61540770530700684
0.58372652530670166 0.54784351587295532 0.6157798171043396
0.63409167528152466 0.5676652193069458 0.62072610855102539
0.68118846416473389 0.58907854557037354 0.62043017148971558
0.72328686714172363 0.59223425388336182 0.62659865617752075
0.79711830615997314 0.55764353275299072 0.62521803379058838
0.89865022897720337 0.57218891382217407 0.63996994495391846
0.53256118297576904 0.64231383800506592 0.57864725589752197
0.55340981483459473 0.64508193731307983 0.58001065254211426
0.60872185230255127 0.64801692962646484 0.58378404378890991
0.66953074932098389 0.66260135173797607 0.59459084272384644
0.73642098903656006 0.67018014192581177 0.60396313667297363
0.81765997409820557 0.66615897417068481 0.60720729827880859
0.91866284608840942 0.67383360862731934 0.61528515815734863
0.572032630443573 0.7486836314201355 0.56970083713531494
0.5828443169593811 0.75044900178909302 0.57088202238082886
0.61436295509338379 0.75699436664581299 0.57710462808609009
0.66870319843292236 0.76754248142242432 0.58711665868759155
0.7519868016242981 0.77474987506866455 0.57713967561721802
0.85579997301101685 0.79245156049728394 0.64044559001922607
0.9401887059211731 0.79630106687545776 0.65907156467437744
0.61396485567092896 0.88316851854324341 0.60768687725067139
0.62793153524398804 0.88487023115158081 0.61020916700363159
0.6634756326675415 0.88855934143066406 0.61426669359207153
0.72376686334609985 0.89190131425857544 0.60871446132659912
0.79846054315567017 0.89678037166595459 0.58404189348220825
0.89133208990097046 0.90132910013198853 0.61203551292419434
0.97027409076690674 0.90913265943527222 0.70599073171615601
0.63478982448577881 0.39844030141830444 0.78932839632034302
0.64438587427139282 0.4070889949798584 0.7853996753692627
0.66576862335205078 0.42574924230575562 0.78673946857452393
0.69851994514465332 0.45000708103179932 0.79471844434738159
0.74350243806838989 0.4882926344871521 0.79870849847793579
0.793354332447052 0.47954109311103821 0.77802819013595581
0.8708423376083374 0.46868118643760681 0.77041065692901611
0.65975868701934814 0.47140243649482727 0.78275966644287109
0.6709970235824585 0.48224338889122009 0.78497940301895142
0.69117170572280884 0.49456202983856201 0.78685528039932251
0.71515733003616333 0.50917083024978638 0.78598827123641968
0.75437062978744507 0.53435283899307251 0.79272556304931641
0.80025631189346313 0.52234625816345215 0.78035032749176025
0.87331211566925049 0.50705647468566895 0.77249383926391602
0.70332938432693481 0.57586228847503662 0.77923107147216797
0.70909100770950317 0.58102166652679443 0.78132861852645874
0.7220882773399353 0.58444732427597046 0.7817196249961853
0.74388271570205688 0.59620839357376099 0.78699666261672974
0.77598518133163452 0.60903251171112061 0.78949075937271118
0.81511646509170532 0.59942853450775146 0.78336501121520996
0.88207703828811646 0.56872224807739258 0.77821201086044312
0.71689462661743164 0.62885779142379761 0.7744562029838562
0.72672146558761597 0.63757884502410889 0.77390050888061523
0.7489389181137085 0.65679138898849487 0.77719229459762573
0.76915532350540161 0.66623222827911377 0.77893638610839844
0.79873776435852051 0.67829817533493042 0.78842222690582275
0.83030742406845093 0.66994398832321167 0.78417056798934937
0.89814132452011108 0.63350361585617065 0.78503191471099854
0.67464345693588257 0.68528318405151367 0.76165485382080078
0.68875408172607422 0.68778306245803833 0.76071232557296753
0.72749835252761841 0.70086109638214111 0.76733458042144775
0.77322590351104736 0.71996939182281494 0.77231961488723755
0.81554180383682251 0.73753464221954346 0.7811356782913208
0.85022550821304321 0.73648214340209961 0.78172463178634644
0.91292339563369751 0.70312178134918213 0.77987116575241089
0.65566873550415039 0.77085942029953003 0.7377617359161377
0.66800010204315186 0.7711300253868103 0.74051684141159058
0.69783788919448853 0.77491700649261475 0.7428290843963623
0.74330341815948486 0.78104251623153687 0.7481500506401062
0.79941141605377197 0.79048305749893188 0.75091344118118286
0.86077725887298584 0.79921489953994751 0.76661390066146851
0.93521535396575928 0.79213970899581909 0.76643472909927368
0.69318419694900513 0.87050110101699829 0.75019818544387817
0.70569652318954468 0.87159639596939087 0.7533189058303833
0.72160732746124268 0.8778499960899353 0.75684481859207153
0.75118482112884521 0.88546472787857056 0.75866401195526123
0.79576045274734497 0.89337986707687378 0.75442790985107422
0.87684744596481323 0.9035642147064209 0.74865496158599854
0.96171975135803223 0.91225767135620117 0.80350750684738159
0.75226974487304688 0.56891053915023804 0.89352220296859741
0.76034772396087646 0.57542145252227783 0.89607024192810059
0.7705112099647522 0.58206844329833984 0.89820963144302368
0.79065275192260742 0.59580206871032715 0.89866602420806885
0.81379097700119019 0.61084455251693726 0.90124833583831787
0.84585481882095337 0.62539422512054443 0.90425378084182739
0.88974279165267944 0.62887942790985107 0.89786010980606079
0.77003633975982666 0.61138832569122314 0.89614021778106689
0.77443289756774902 0.61478197574615479 0.89636242389678955
0.7859959602355957 0.62045150995254517 0.89620232582092285
0.80024898052215576 0.62618780136108398 0.8964691162109375
0.82431846857070923 0.64228314161300659 0.89847707748413086
0.85149914026260376 0.65196675062179565 0.90677475929260254
0.89081823825836182 0.65326774120330811 0.90099251270294189
0.79153436422348022 0.66787749528884888 0.8877529501914978
0.79747945070266724 0.6723511815071106 0.8953554630279541
0.80577188730239868 0.67354673147201538 0.8938148021697998
0.81962794065475464 0.67904388904571533 0.89454168081283569
0.84207314252853394 0.68835926055908203 0.89801877737045288
0.86596763134002686 0.69788700342178345 0.90684777498245239
0.90294146537780762 0.69102185964584351 0.90074402093887329
0.81824779510498047 0.72110897302627563 0.89242780208587646
0.82152795791625977 0.72468966245651245 0.89252769947052002
0.82701981067657471 0.72843503952026367 0.89306467771530151
0.84178656339645386 0.73427993059158325 0.89431667327880859
0.86098909378051758 0.74251753091812134 0.89942282438278198
0.88161224126815796 0.74975574016571045 0.90691846609115601
0.91009819507598877 0.74577194452285767 0.90412431955337524
0.8130459189414978 0.75222104787826538 0.89512485265731812
0.81930911540985107 0.75470423698425293 0.89533537626266479
0.83802354335784912 0.76713204383850098 0.89401519298553467
0.86197590827941895 0.78678584098815918 0.89896631240844727
0.88002973794937134 0.79467153549194336 0.89826858043670654
0.90245842933654785 0.80332809686660767 0.90507501363754272
0.92460554838180542 0.7992127537727356 0.90586394071578979
0.78010749816894531 0.80966305732727051 0.89120733737945557
0.78866875171661377 0.813740074634552 0.8911777138710022
0.81368482112884521 0.82169216871261597 0.88747799396514893
0.84286719560623169 0.8261944055557251 0.89561474323272705
0.88593077659606934 0.83928209543228149 0.90103745460510254
0.92397034168243408 0.8595881462097168 0.91026908159255981
0.94739782810211182 0.86036646366119385 0.91320747137069702
0.77137470245361328 0.89102363586425781 0.88918459415435791
0.77649164199829102 0.89209514856338501 0.88331085443496704
0.79861259460449219 0.89566224813461304 0.88971608877182007
0.82549262046813965 0.89634078741073608 0.89360195398330688
0.86343890428543091 0.90452724695205688 0.89714711904525757
0.90846198797225952 0.91229307651519775 0.90373224020004272
0.96572071313858032 0.92541247606277466 0.91146367788314819
