luts/instant_consumer/polaroid_px-680.cube
# Created by: G'MIC (https://gmic.eu)
TITLE "polaroid_px-680"
# LUT size
LUT_3D_SIZE 13
# Data domain
DOMAIN_MIN 0.0 0.0 0.0
DOMAIN_MAX 1.0 1.0 1.0
# LUT data points
0.020204881206154823 0.1886250227689743 0.20784313976764679
0.024208277463912964 0.1859317421913147 0.20784313976764679
0.04290606826543808 0.18410508334636688 0.20771555602550507
0.08851933479309082 0.18446244299411774 0.2053375244140625
0.1926158219575882 0.18490996956825256 0.20396596193313599
0.33163285255432129 0.1866132915019989 0.20269268751144409
0.5073009729385376 0.18741050362586975 0.20105676352977753
0.67203152179718018 0.20087654888629913 0.19802004098892212
0.78978854417800903 0.25263893604278564 0.19666421413421631
0.86435902118682861 0.33100029826164246 0.20361383259296417
0.91458851099014282 0.4095730185508728 0.21693846583366394
0.94678586721420288 0.47848924994468689 0.24901695549488068
0.97492998838424683 0.5432700514793396 0.28614538908004761
0.015106949023902416 0.19257104396820068 0.20830322802066803
0.026920663192868233 0.19082920253276825 0.20782157778739929
0.049327969551086426 0.18829444050788879 0.20667473971843719
0.11008325964212418 0.19188253581523895 0.20573852956295013
0.213215172290802 0.19445551931858063 0.20424717664718628
0.35587558150291443 0.19988824427127838 0.20178447663784027
0.52687758207321167 0.2075335681438446 0.1990472823381424
0.68141096830368042 0.22912600636482239 0.19584988057613373
0.79372990131378174 0.28357809782028198 0.19576866924762726
0.86923331022262573 0.35701143741607666 0.20180132985115051
0.91100615262985229 0.42902183532714844 0.21672318875789642
0.94374758005142212 0.49211966991424561 0.24632309377193451
0.97344833612442017 0.55007672309875488 0.28240740299224854
0.0075587253086268902 0.19908016920089722 0.20883752405643463
0.017842207103967667 0.2022411972284317 0.20734816789627075
0.054459471255540848 0.20323842763900757 0.20624144375324249
0.13204391300678253 0.21071983873844147 0.20590247213840485
0.24857145547866821 0.21968808770179749 0.20273420214653015
0.39203879237174988 0.22921080887317657 0.1979810893535614
0.55196964740753174 0.24890494346618652 0.19492250680923462
0.69439011812210083 0.27851754426956177 0.19129306077957153
0.79464054107666016 0.3326239287853241 0.19386948645114899
0.86401551961898804 0.39826568961143494 0.20290108025074005
0.91000556945800781 0.45802792906761169 0.21601393818855286
0.93992292881011963 0.51056373119354248 0.2453664243221283
0.97033518552780151 0.56659805774688721 0.28561121225357056
0.00063422706443816423 0.23556265234947205 0.20709012448787689
0.0042084935121238232 0.23727446794509888 0.20580698549747467
0.039849106222391129 0.24525408446788788 0.20575056970119476
0.14254868030548096 0.25780892372131348 0.203274205327034
0.28755903244018555 0.27821734547615051 0.19788254797458649
0.43712684512138367 0.29551020264625549 0.19151949882507324
0.58246225118637085 0.3082701563835144 0.18675173819065094
0.70224285125732422 0.33517870306968689 0.1839015781879425
0.78984540700912476 0.38582074642181396 0.18840447068214417
0.85414767265319824 0.44201210141181946 0.1989801824092865
0.90480250120162964 0.49790528416633606 0.21680453419685364
0.93443280458450317 0.53964394330978394 0.24315851926803589
0.96607422828674316 0.58713388442993164 0.28622806072235107
0 0.31023710966110229 0.20555467903614044
0.0033357208594679832 0.31803816556930542 0.20477673411369324
0.017300968989729881 0.32178303599357605 0.20349042117595673
0.12941254675388336 0.33713617920875549 0.20020343363285065
0.29390442371368408 0.36145779490470886 0.19515947997570038
0.47172081470489502 0.39482691884040833 0.18636688590049744
0.60553675889968872 0.40777859091758728 0.17990976572036743
0.71043425798416138 0.42074692249298096 0.1751432865858078
0.78769546747207642 0.44372513890266418 0.17708501219749451
0.84847217798233032 0.48235431313514709 0.18564058840274811
0.88956844806671143 0.52767455577850342 0.21010613441467285
0.92358231544494629 0.56831192970275879 0.24105875194072723
0.9567641019821167 0.60624402761459351 0.27899461984634399
0 0.40583249926567078 0.2063983678817749
0.001035533263348043 0.40813329815864563 0.20440991222858429
0.00350163783878088 0.41279342770576477 0.20351754128932953
0.091108985245227814 0.42454373836517334 0.2014748603105545
0.27761048078536987 0.44659209251403809 0.20031823217868805
0.45333772897720337 0.4758051335811615 0.19312627613544464
0.60663056373596191 0.50406938791275024 0.18400424718856812
0.71361595392227173 0.52215194702148438 0.18002751469612122
0.783378005027771 0.52571302652359009 0.17741486430168152
0.84154367446899414 0.54158461093902588 0.18560992181301117
0.88058531284332275 0.5662798285484314 0.20265993475914001
0.91510874032974243 0.59773033857345581 0.23539285361766815
0.94891929626464844 0.63063335418701172 0.27639579772949219
0 0.49306082725524902 0.20694571733474731
0.00067850749474018812 0.49976089596748352 0.20754428207874298
0.0020971859339624643 0.50374972820281982 0.20979933440685272
0.073237277567386627 0.50692570209503174 0.20962058007717133
0.27159464359283447 0.5221291184425354 0.20876961946487427
0.43212446570396423 0.54031753540039062 0.20712023973464966
0.57611316442489624 0.56502747535705566 0.20473651587963104
0.69743776321411133 0.59344756603240967 0.20389823615550995
0.7744717001914978 0.60700541734695435 0.20539470016956329
0.82708454132080078 0.61520266532897949 0.21040837466716766
0.8700406551361084 0.62349516153335571 0.22137041389942169
0.90574014186859131 0.63261431455612183 0.2364790290594101
0.94114279747009277 0.65740036964416504 0.27229019999504089
0.00065137079218402505 0.57359343767166138 0.21608893573284149
0.0026853971648961306 0.57010185718536377 0.21867041289806366
0.0081551345065236092 0.57230240106582642 0.21962831914424896
0.11160015314817429 0.57767051458358765 0.22283588349819183
0.2900034487247467 0.58690541982650757 0.2274097204208374
0.43587887287139893 0.60043478012084961 0.23074115812778473
0.56352335214614868 0.61861681938171387 0.2324591726064682
0.66691160202026367 0.63678836822509766 0.23560774326324463
0.75841689109802246 0.66349631547927856 0.24464955925941467
0.81765705347061157 0.67744791507720947 0.25615397095680237
0.8578650951385498 0.68015885353088379 0.26762804388999939
0.89562898874282837 0.68409436941146851 0.28007981181144714
0.93083691596984863 0.6943320631980896 0.29620492458343506
0.0080908834934234619 0.63521945476531982 0.23392494022846222
0.019293617457151413 0.63671547174453735 0.23489555716514587
0.087478116154670715 0.6356741189956665 0.23679202795028687
0.20966777205467224 0.63632524013519287 0.24167877435684204
0.33524057269096375 0.64360398054122925 0.24957740306854248
0.45413005352020264 0.65589618682861328 0.26021841168403625
0.56267774105072021 0.66410845518112183 0.26613211631774902
0.65411365032196045 0.67663544416427612 0.27266547083854675
0.73628324270248413 0.69663476943969727 0.28331413865089417
0.80314552783966064 0.7215462327003479 0.30244496464729309
0.84926426410675049 0.73344129323959351 0.32139468193054199
0.88822513818740845 0.73747777938842773 0.33527234196662903
0.92306268215179443 0.74611210823059082 0.35059750080108643
0.1645788699388504 0.69503098726272583 0.26173466444015503
0.19309502840042114 0.69279462099075317 0.26244887709617615
0.2498498260974884 0.69122308492660522 0.26583719253540039
0.31843951344490051 0.69178402423858643 0.27284982800483704
0.3991248607635498 0.69507747888565063 0.28333783149719238
0.48646870255470276 0.70133125782012939 0.29590806365013123
0.58163297176361084 0.70905762910842896 0.30813425779342651
0.66076576709747314 0.72062039375305176 0.31861680746078491
0.72374796867370605 0.73451095819473267 0.32954299449920654
0.78165775537490845 0.7504352331161499 0.34439420700073242
0.83532238006591797 0.76993513107299805 0.36638614535331726
0.88172590732574463 0.78667813539505005 0.38781440258026123
0.91165655851364136 0.79301631450653076 0.40052652359008789
0.3377305269241333 0.74491477012634277 0.30530935525894165
0.35606980323791504 0.74273025989532471 0.30564162135124207
0.37411659955978394 0.73888319730758667 0.30735328793525696
0.41767469048500061 0.73952633142471313 0.31433072686195374
0.47179186344146729 0.74079537391662598 0.32258737087249756
0.53054249286651611 0.74530899524688721 0.33649072051048279
0.60809928178787231 0.75382965803146362 0.35219475626945496
0.67186135053634644 0.76520967483520508 0.36569377779960632
0.72518801689147949 0.77615070343017578 0.3783932626247406
0.77651762962341309 0.78702598810195923 0.39028629660606384
0.82200473546981812 0.80093371868133545 0.40734624862670898
0.86324381828308105 0.81758493185043335 0.42801427841186523
0.90053379535675049 0.83708280324935913 0.45279192924499512
0.48308542370796204 0.79721778631210327 0.36761012673377991
0.48844122886657715 0.79488897323608398 0.36634606122970581
0.49848505854606628 0.79270440340042114 0.36690706014633179
0.52733248472213745 0.79433828592300415 0.37436047196388245
0.55837714672088623 0.79761791229248047 0.38505804538726807
0.60103386640548706 0.80082309246063232 0.39640533924102783
0.6470678448677063 0.80465865135192871 0.40659388899803162
0.68898296356201172 0.81317353248596191 0.42003527283668518
0.73689830303192139 0.82283705472946167 0.43382620811462402
0.7820889949798584 0.83258944749832153 0.44685864448547363
0.82212281227111816 0.84451162815093994 0.4629606306552887
0.85542339086532593 0.85516577959060669 0.4777466356754303
0.88439357280731201 0.86995375156402588 0.49542462825775146
0.59744513034820557 0.85760372877120972 0.44265681505203247
0.60078078508377075 0.85513597726821899 0.44256424903869629
0.60838574171066284 0.85443884134292603 0.44292089343070984
0.62307953834533691 0.85598057508468628 0.44937378168106079
0.643105149269104 0.85815715789794922 0.45850029587745667
0.66796636581420898 0.86125814914703369 0.46913906931877136
0.69633805751800537 0.86533159017562866 0.4785066545009613
0.72528678178787231 0.87177121639251709 0.4895423948764801
0.75949186086654663 0.8783448338508606 0.4997866153717041
0.7952263355255127 0.88593345880508423 0.51200038194656372
0.82426446676254272 0.89138954877853394 0.52342778444290161
0.85013276338577271 0.90016067028045654 0.54035323858261108
0.87325119972229004 0.91316413879394531 0.55878859758377075
0.022663012146949768 0.1882559061050415 0.21070966124534607
0.024358771741390228 0.18587476015090942 0.20962138473987579
0.038799017667770386 0.18287581205368042 0.20825578272342682
0.09734528511762619 0.18259890377521515 0.20855838060379028
0.20552285015583038 0.18099322915077209 0.2085801362991333
0.35560369491577148 0.18295374512672424 0.21075709164142609
0.52957862615585327 0.1876169890165329 0.21395029127597809
0.68626981973648071 0.21263527870178223 0.21738843619823456
0.79898571968078613 0.2714405357837677 0.22377489507198334
0.86799615621566772 0.35183781385421753 0.23474507033824921
0.91348469257354736 0.42898142337799072 0.25167429447174072
0.94511014223098755 0.49497488141059875 0.28476765751838684
0.97254961729049683 0.55550020933151245 0.32015228271484375
0.015596471726894379 0.19414940476417542 0.21210344135761261
0.025617321953177452 0.19239324331283569 0.2114960253238678
0.052270554006099701 0.19145812094211578 0.2101106196641922
0.12682759761810303 0.19346264004707336 0.21069911122322083
0.23682714998722076 0.19377695024013519 0.21070986986160278
0.38171303272247314 0.19972220063209534 0.21046850085258484
0.55016058683395386 0.2117626965045929 0.21160566806793213
0.69086498022079468 0.24679729342460632 0.21740546822547913
0.79500418901443481 0.30720698833465576 0.22503714263439178
0.86786454916000366 0.37374457716941833 0.23446094989776611
0.90996325016021729 0.44576787948608398 0.25215393304824829
0.94195711612701416 0.50890296697616577 0.28311643004417419
0.96978467702865601 0.56547325849533081 0.32035207748413086
0.0071964189410209656 0.20335735380649567 0.21261137723922729
0.021203164011240005 0.20695826411247253 0.21302509307861328
0.06614164263010025 0.21305133402347565 0.21348555386066437
0.15041971206665039 0.21798618137836456 0.21372091770172119
0.27746108174324036 0.22663676738739014 0.21132656931877136
0.41724666953086853 0.23358793556690216 0.20780594646930695
0.57585692405700684 0.25589084625244141 0.20921023190021515
0.70406609773635864 0.29299366474151611 0.21333181858062744
0.80117422342300415 0.35013404488563538 0.22165338695049286
0.86531209945678711 0.41084414720535278 0.23437218368053436
0.90807783603668213 0.47182562947273254 0.25095129013061523
0.93850839138031006 0.52462106943130493 0.28028857707977295
0.9683418869972229 0.57942956686019897 0.32031601667404175
0.0027943330351263285 0.24370963871479034 0.21347631514072418
0.00885009765625 0.25037568807601929 0.2146211713552475
0.050303634256124496 0.25620248913764954 0.21406112611293793
0.16656984388828278 0.26606380939483643 0.21232783794403076
0.31292518973350525 0.28492861986160278 0.20878872275352478
0.45597389340400696 0.29682233929634094 0.20486542582511902
0.59890329837799072 0.31376710534095764 0.20425340533256531
0.71308320760726929 0.34522223472595215 0.20532906055450439
0.79619187116622925 0.39527994394302368 0.2159758061170578
0.85875153541564941 0.4530729353427887 0.23128518462181091
0.90011155605316162 0.50708705186843872 0.25117048621177673
0.93181604146957397 0.55224645137786865 0.27814123034477234
0.96302735805511475 0.59460824728012085 0.31207054853439331
0.0018721786327660084 0.32237640023231506 0.2184232622385025
0.0043716132640838623 0.32813894748687744 0.2172417938709259
0.024791179224848747 0.33289691805839539 0.21519160270690918
0.15479421615600586 0.34943553805351257 0.21361330151557922
0.3172207772731781 0.37206807732582092 0.2100309282541275
0.48553162813186646 0.39772754907608032 0.20499812066555023
0.61491519212722778 0.40972694754600525 0.20190560817718506
0.71671533584594727 0.42567846179008484 0.19977737963199615
0.79214143753051758 0.4576338529586792 0.20705252885818481
0.8490479588508606 0.49664413928985596 0.2208496630191803
0.88856750726699829 0.54102855920791626 0.24282072484493256
0.92237919569015503 0.57976943254470825 0.27408066391944885
0.9563562273979187 0.61677294969558716 0.31211966276168823
0.0022208718582987785 0.41848281025886536 0.22424519062042236
0.0041391262784600258 0.42363771796226501 0.2227080762386322
0.008418004959821701 0.42532196640968323 0.21887807548046112
0.12790408730506897 0.43852072954177856 0.21843424439430237
0.30540436506271362 0.45890149474143982 0.21776829659938812
0.46780538558959961 0.4803321361541748 0.21268968284130096
0.61484283208847046 0.50775825977325439 0.20787295699119568
0.71621602773666382 0.52383744716644287 0.20874789357185364
0.78606170415878296 0.53225326538085938 0.2094348818063736
0.83937442302703857 0.5456702709197998 0.21313914656639099
0.87996256351470947 0.57263839244842529 0.23348632454872131
0.91472160816192627 0.60610020160675049 0.26738908886909485
0.94921767711639404 0.63896769285202026 0.30793681740760803
0.00064525229390710592 0.50245547294616699 0.22302627563476562
0.0036905177403241396 0.51036357879638672 0.226438969373703
0.0082348845899105072 0.51128113269805908 0.22440774738788605
0.11985541135072708 0.51576364040374756 0.22655752301216125
0.30048239231109619 0.52868473529815674 0.22901321947574615
0.45143738389015198 0.54422140121459961 0.23000149428844452
0.58795428276062012 0.5679250955581665 0.22775854170322418
0.70310807228088379 0.59721070528030396 0.2296125590801239
0.77676641941070557 0.60995453596115112 0.23314578831195831
0.82762783765792847 0.61590826511383057 0.23719161748886108
0.86901330947875977 0.62495565414428711 0.25079718232154846
0.90671229362487793 0.63983279466629028 0.26375168561935425
0.93958777189254761 0.66218656301498413 0.29828032851219177
0.0030279571656137705 0.57739251852035522 0.23311860859394073
0.0036297067999839783 0.57770097255706787 0.23366972804069519
0.033911790698766708 0.57817643880844116 0.23381970822811127
0.17134402692317963 0.58253848552703857 0.23929412662982941
0.31679686903953552 0.58787757158279419 0.24501195549964905
0.4541199803352356 0.60273414850234985 0.2521425187587738
0.57672858238220215 0.61899703741073608 0.25494694709777832
0.67951327562332153 0.64142227172851562 0.26051515340805054
0.76482027769088745 0.66770249605178833 0.27022722363471985
0.81661146879196167 0.67728734016418457 0.28116348385810852
0.85822415351867676 0.68307352066040039 0.29167279601097107
0.89722555875778198 0.68900305032730103 0.30230608582496643
0.93118971586227417 0.69787502288818359 0.31776991486549377
0.036634571850299835 0.64303338527679443 0.24898681044578552
0.064819037914276123 0.64172512292861938 0.24868907034397125
0.14743231236934662 0.63990604877471924 0.25128209590911865
0.25186514854431152 0.63932883739471436 0.25903642177581787
0.35783195495605469 0.64564383029937744 0.26905876398086548
0.46724259853363037 0.6569664478302002 0.27927792072296143
0.57345712184906006 0.66567432880401611 0.28527969121932983
0.66703140735626221 0.68349373340606689 0.29359763860702515
0.74447447061538696 0.70457476377487183 0.30763569474220276
0.80322045087814331 0.72341835498809814 0.32457265257835388
0.84797084331512451 0.73379242420196533 0.33713421225547791
0.88854849338531494 0.74030667543411255 0.34930410981178284
0.9218820333480835 0.74667495489120483 0.36418560147285461
0.21048423647880554 0.69827497005462646 0.27605047821998596
0.2352367639541626 0.69655054807662964 0.27673709392547607
0.28564995527267456 0.6955181360244751 0.28012019395828247
0.34010642766952515 0.69328278303146362 0.28772068023681641
0.41649982333183289 0.69621211290359497 0.29901668429374695
0.49643528461456299 0.70273751020431519 0.30932855606079102
0.58366334438323975 0.71026599407196045 0.31848326325416565
0.66105872392654419 0.72315549850463867 0.33011320233345032
0.72680521011352539 0.73829865455627441 0.3453974723815918
0.78685450553894043 0.75447589159011841 0.36292916536331177
0.83592736721038818 0.77048522233963013 0.37936112284660339
0.87837123870849609 0.78550684452056885 0.39721155166625977
0.91176772117614746 0.79356938600540161 0.41178029775619507
0.35498753190040588 0.74537116289138794 0.31561571359634399
0.37240517139434814 0.7453722357749939 0.31654608249664307
0.40039187669754028 0.74425911903381348 0.31990301609039307
0.43746304512023926 0.74380248785018921 0.32857963442802429
0.48941424489021301 0.74397236108779907 0.33851748704910278
0.54380202293395996 0.74725407361984253 0.34781929850578308
0.610007643699646 0.75537210702896118 0.36125034093856812
0.6665729284286499 0.76566439867019653 0.3756309449672699
0.72318536043167114 0.77701282501220703 0.38932269811630249
0.77910220623016357 0.7900620698928833 0.4034004807472229
0.82488369941711426 0.80533671379089355 0.42146828770637512
0.86394953727722168 0.82321500778198242 0.44180303812026978
0.89908504486083984 0.83993536233901978 0.4605446457862854
0.49111667275428772 0.79771327972412109 0.37325349450111389
0.4941307008266449 0.79786664247512817 0.37529560923576355
0.50654613971710205 0.79733967781066895 0.37897813320159912
0.53453725576400757 0.79820710420608521 0.38779395818710327
0.57041674852371216 0.79991525411605835 0.39643076062202454
0.6106947660446167 0.8017275333404541 0.40502691268920898
0.64969182014465332 0.80715703964233398 0.41605794429779053
0.69124722480773926 0.8151506781578064 0.42966967821121216
0.73795115947723389 0.82418239116668701 0.44231897592544556
0.78250455856323242 0.83415383100509644 0.45521354675292969
0.81718790531158447 0.84438633918762207 0.47001564502716064
0.84975564479827881 0.85753172636032104 0.48610895872116089
0.88154143095016479 0.87335687875747681 0.50256365537643433
0.60024809837341309 0.85645920038223267 0.44421842694282532
0.60194551944732666 0.85604089498519897 0.44572633504867554
0.6108284592628479 0.85768383741378784 0.44961303472518921
0.62681418657302856 0.85880094766616821 0.45670339465141296
0.64810556173324585 0.85842263698577881 0.4632757306098938
0.67198431491851807 0.86154866218566895 0.47252848744392395
0.69826608896255493 0.86592686176300049 0.48215726017951965
0.72568309307098389 0.87016785144805908 0.49185600876808167
0.7590288519859314 0.87737458944320679 0.50363898277282715
0.7956308126449585 0.88596755266189575 0.51665377616882324
0.82173693180084229 0.89115804433822632 0.52903449535369873
0.8460686206817627 0.90099465847015381 0.54641515016555786
0.87109726667404175 0.91374891996383667 0.56315833330154419
0.026747923344373703 0.18695351481437683 0.21340189874172211
0.031747438013553619 0.1852814108133316 0.21261174976825714
0.045079667121171951 0.18307125568389893 0.21214325726032257
0.10125461965799332 0.18195882439613342 0.2141687273979187
0.21327681839466095 0.17807838320732117 0.22034640610218048
0.37583175301551819 0.17022587358951569 0.22703757882118225
0.55098700523376465 0.17083276808261871 0.23530252277851105
0.70032286643981934 0.21332439780235291 0.25118568539619446
0.80748200416564941 0.29815834760665894 0.26850986480712891
0.87013226747512817 0.38036707043647766 0.28395038843154907
0.9099547266960144 0.45914807915687561 0.3099309504032135
0.94075673818588257 0.51994282007217407 0.33665052056312561
0.96794551610946655 0.57111471891403198 0.36164399981498718
0.018138870596885681 0.1943284273147583 0.21845482289791107
0.029325807467103004 0.19222730398178101 0.21747542917728424
0.058443032205104828 0.19218681752681732 0.21782822906970978
0.12847280502319336 0.19288438558578491 0.21974770724773407
0.24765005707740784 0.19121314585208893 0.22454573214054108
0.40318560600280762 0.19714541733264923 0.23068475723266602
0.57205462455749512 0.21684654057025909 0.24290943145751953
0.70909953117370605 0.26604202389717102 0.2577548623085022
0.80668503046035767 0.33159071207046509 0.26945307850837708
0.86794567108154297 0.40185430645942688 0.28623178601264954
0.90685391426086426 0.47375118732452393 0.30780881643295288
0.93794101476669312 0.53098589181900024 0.33311653137207031
0.96443504095077515 0.58087307214736938 0.36240503191947937
0.0073687233962118626 0.20455576479434967 0.22142961621284485
0.024113420397043228 0.20784266293048859 0.22144615650177002
0.079252921044826508 0.21555721759796143 0.22362346947193146
0.16397443413734436 0.22213830053806305 0.22707493603229523
0.29496684670448303 0.22978396713733673 0.23094387352466583
0.4435388445854187 0.2427925169467926 0.23524533212184906
0.59754061698913574 0.27142047882080078 0.24552908539772034
0.72100883722305298 0.31709781289100647 0.25627213716506958
0.80961149930953979 0.37416771054267883 0.26763999462127686
0.86501955986022949 0.43528196215629578 0.28392669558525085
0.90398234128952026 0.49471363425254822 0.30599460005760193
0.9352077841758728 0.54498636722564697 0.3293117880821228
0.96284860372543335 0.59447699785232544 0.3615739643573761
0.0033655653242021799 0.24731071293354034 0.22613674402236938
0.022488342598080635 0.25532472133636475 0.22832852602005005
0.087514989078044891 0.26109039783477783 0.23058563470840454
0.19873860478401184 0.27271351218223572 0.23419457674026489
0.33907949924468994 0.28922811150550842 0.23307356238365173
0.48355039954185486 0.3057345449924469 0.23521082103252411
0.61517190933227539 0.32934689521789551 0.24142517149448395
0.72393667697906494 0.36704525351524353 0.24890369176864624
0.80623733997344971 0.41811531782150269 0.26057326793670654
0.86018210649490356 0.46808508038520813 0.2767522931098938
0.89594101905822754 0.52059143781661987 0.3021276593208313
0.92910456657409668 0.56805849075317383 0.32606256008148193
0.9583970308303833 0.6069151759147644 0.35388895869255066
0.0050136642530560493 0.33367052674293518 0.23916818201541901
0.019296742975711823 0.33762460947036743 0.23727190494537354
0.076506249606609344 0.34519368410110474 0.23843026161193848
0.20056939125061035 0.35849538445472717 0.2396140992641449
0.35125938057899475 0.37977829575538635 0.2384670078754425
0.50798714160919189 0.40371245145797729 0.23924054205417633
0.62724405527114868 0.41843101382255554 0.24153886735439301
0.7201417088508606 0.43461224436759949 0.24212551116943359
