luts/instant_consumer/polaroid_px-100uv+_warm_+.cube
# Created by: G'MIC (https://gmic.eu)
TITLE "polaroid_px-100uv+_warm_+"
# LUT size
LUT_3D_SIZE 7
# Data domain
DOMAIN_MIN 0.0 0.0 0.0
DOMAIN_MAX 1.0 1.0 1.0
# LUT data points
0.32313081622123718 0.29981395602226257 0.30422347784042358
0.32809817790985107 0.30696627497673035 0.31108775734901428
0.35199800133705139 0.3337351381778717 0.33794975280761719
0.39862397313117981 0.38435494899749756 0.3883422315120697
0.45580264925956726 0.44488492608070374 0.44841188192367554
0.52524751424789429 0.51626259088516235 0.51684749126434326
0.61828339099884033 0.60774421691894531 0.60145026445388794
0.3318723738193512 0.3099784255027771 0.31429752707481384
0.33614945411682129 0.31639736890792847 0.32067441940307617
0.35608723759651184 0.33887195587158203 0.3429601788520813
0.39753207564353943 0.38398668169975281 0.38779956102371216
0.45634028315544128 0.44645226001739502 0.44959369301795959
0.52960795164108276 0.52132391929626465 0.52072024345397949
0.61949586868286133 0.60991579294204712 0.60238546133041382
0.36542424559593201 0.34820681810379028 0.35243117809295654
0.36649343371391296 0.3510729968547821 0.35576194524765015
0.37992176413536072 0.3665061891078949 0.37159284949302673
0.41258341073989868 0.40145760774612427 0.40629535913467407
0.46534770727157593 0.45655146241188049 0.45970273017883301
0.53761571645736694 0.52983689308166504 0.52835774421691895
0.62656480073928833 0.61731612682342529 0.6079026460647583
0.42053332924842834 0.40944567322731018 0.41309383511543274
0.41746491193771362 0.4073755145072937 0.4121738076210022
0.42399179935455322 0.41476923227310181 0.42041134834289551
0.44693982601165771 0.438680499792099 0.44400253891944885
0.48967722058296204 0.48253265023231506 0.48562473058700562
0.55816888809204102 0.55054229497909546 0.54761046171188354
0.64679145812988281 0.63745975494384766 0.62516987323760986
0.49234649538993835 0.48503351211547852 0.48608213663101196
0.48944500088691711 0.48239439725875854 0.48457145690917969
0.48943445086479187 0.48265549540519714 0.48543402552604675
0.5063062310218811 0.49924474954605103 0.50170028209686279
0.54313200712203979 0.53597927093505859 0.5357290506362915
0.60552418231964111 0.59728682041168213 0.59029442071914673
0.69048190116882324 0.68005537986755371 0.66240769624710083
0.60279273986816406 0.59410840272903442 0.58616584539413452
0.60196506977081299 0.5930977463722229 0.58516013622283936
0.59682410955429077 0.58843564987182617 0.5814928412437439
0.61018073558807373 0.60105407238006592 0.59348362684249878
0.64288836717605591 0.63262605667114258 0.62263542413711548
0.68954586982727051 0.67871403694152832 0.66317528486251831
0.7526664137840271 0.74035483598709106 0.71656745672225952
0.75161075592041016 0.73722100257873535 0.71320241689682007
0.75063407421112061 0.73629003763198853 0.71234810352325439
0.74874889850616455 0.73434102535247803 0.71071487665176392
0.7523341178894043 0.73812413215637207 0.71486812829971313
0.77247029542922974 0.75787800550460815 0.73335045576095581
0.79268562793731689 0.7779962420463562 0.75186651945114136
0.82389706373214722 0.80841851234436035 0.77962720394134521
0.34136030077934265 0.3203352689743042 0.32487356662750244
0.34736037254333496 0.32896289229393005 0.33316859602928162
0.36896634101867676 0.35344031453132629 0.35795658826828003
0.42119988799095154 0.40937036275863647 0.41349786520004272
0.4825732409954071 0.47406092286109924 0.47681844234466553
0.55017709732055664 0.54286426305770874 0.54234820604324341
0.64017415046691895 0.63060486316680908 0.62240874767303467
0.34910368919372559 0.32770109176635742 0.33196032047271729
0.35827070474624634 0.34060132503509521 0.34463959932327271
0.38030195236206055 0.36595237255096436 0.36997506022453308
0.42446008324623108 0.41372716426849365 0.41734883189201355
0.48574981093406677 0.47799003124237061 0.47984901070594788
0.55786985158920288 0.55102300643920898 0.54887270927429199
0.64526653289794922 0.63637065887451172 0.62644463777542114
0.39007288217544556 0.37380304932594299 0.37675982713699341
0.39418593049049377 0.38068452477455139 0.38432860374450684
0.40843445062637329 0.39733326435089111 0.4015006422996521
0.44137018918991089 0.43258455395698547 0.43644624948501587
0.49367177486419678 0.48668515682220459 0.48830237984657288
0.56369423866271973 0.55726104974746704 0.55333131551742554
0.65059280395507812 0.64177364110946655 0.62994170188903809
0.45618817210197449 0.4473051130771637 0.44830939173698425
0.45129144191741943 0.44309467077255249 0.44539397954940796
0.45498478412628174 0.44686216115951538 0.45050519704818726
0.4752655029296875 0.46765881776809692 0.47119912505149841
0.51361119747161865 0.50687247514724731 0.50777804851531982
0.57664608955383301 0.56979149580001831 0.5646863579750061
0.66466009616851807 0.65537875890731812 0.64112371206283569
0.52352941036224365 0.51595115661621094 0.51514452695846558
0.52253192663192749 0.51586520671844482 0.5156862735748291
0.52037650346755981 0.51313138008117676 0.51312494277954102
0.53062045574188232 0.52321690320968628 0.52266281843185425
0.56261414289474487 0.55518639087677002 0.55186939239501953
0.62097442150115967 0.61270642280578613 0.60295987129211426
0.70160567760467529 0.69126790761947632 0.6723746657371521
0.6228376030921936 0.61417078971862793 0.60404807329177856
0.62679225206375122 0.61743724346160889 0.60739815235137939
0.62283015251159668 0.61302429437637329 0.60346263647079468
0.62602442502975464 0.61613315343856812 0.60593259334564209
0.65240764617919922 0.64223366975784302 0.62962013483047485
0.69804424047470093 0.68712490797042847 0.6697157621383667
0.75885188579559326 0.74651187658309937 0.72194796800613403
0.7591240406036377 0.74485325813293457 0.72107100486755371
0.76136255264282227 0.74644643068313599 0.72263062000274658
0.7573007345199585 0.74218785762786865 0.71855872869491577
0.75604784488677979 0.74148285388946533 0.71773272752761841
0.76960557699203491 0.75515842437744141 0.73039096593856812
0.79306268692016602 0.77877765893936157 0.75179398059844971
0.82803189754486084 0.81327122449874878 0.78281378746032715
0.38763052225112915 0.37206804752349854 0.37623485922813416
0.39717903733253479 0.38423013687133789 0.38731202483177185
0.41067644953727722 0.39923521876335144 0.40210661292076111
0.44607001543045044 0.43634805083274841 0.43994241952896118
0.5187719464302063 0.51077389717102051 0.51181936264038086
0.59253621101379395 0.58471006155014038 0.58008986711502075
0.67835509777069092 0.6674884557723999 0.65449100732803345
0.39693713188171387 0.38066849112510681 0.3840850293636322
0.40852540731430054 0.39583685994148254 0.39843016862869263
0.42678102850914001 0.41650885343551636 0.41922175884246826
0.46255037188529968 0.45436492562294006 0.4568219780921936
0.52516180276870728 0.51854771375656128 0.51816534996032715
0.60081642866134644 0.59347164630889893 0.58695286512374878
0.6842915415763855 0.67420923709869385 0.65987259149551392
0.43064087629318237 0.41795068979263306 0.4208737313747406
0.43722391128540039 0.42709830403327942 0.42993086576461792
0.45185336470603943 0.44326159358024597 0.44618076086044312
0.48478338122367859 0.47736430168151855 0.47900217771530151
0.54085034132003784 0.53426110744476318 0.53222602605819702
0.60914134979248047 0.60175019502639771 0.5936131477355957
0.68963140249252319 0.67968583106994629 0.66362941265106201
0.4913012683391571 0.48372256755828857 0.48470255732536316
0.48833274841308594 0.48117804527282715 0.48276609182357788
0.49464017152786255 0.48692131042480469 0.48859056830406189
0.51813030242919922 0.51037997007369995 0.51047098636627197
0.5579826831817627 0.55062341690063477 0.54714345932006836
0.61494195461273193 0.60673743486404419 0.59772342443466187
0.69858229160308838 0.68795406818389893 0.67035382986068726
0.5683133602142334 0.55996298789978027 0.55513417720794678
0.56734448671340942 0.55861717462539673 0.55472779273986816
0.56727170944213867 0.55716395378112793 0.55421346426010132
0.57323205471038818 0.56374549865722656 0.55903053283691406
0.60176461935043335 0.59268271923065186 0.58457332849502563
0.65373367071151733 0.64409804344177246 0.63086044788360596
0.7267531156539917 0.7153022289276123 0.69438844919204712
0.66890692710876465 0.6573445200920105 0.64338260889053345
0.67037820816040039 0.65746283531188965 0.6445654034614563
0.66510099172592163 0.65162211656570435 0.63908463716506958
0.65796488523483276 0.64583355188369751 0.63209301233291626
0.67969489097595215 0.66806352138519287 0.65198177099227905
0.72071284055709839 0.70891934633255005 0.6884501576423645
0.77537256479263306 0.76249712705612183 0.7363165020942688
0.78088033199310303 0.76532495021820068 0.74068015813827515
0.78262686729431152 0.76601922512054443 0.74160587787628174
0.77743792533874512 0.76061004400253296 0.73623746633529663
0.77219587564468384 0.75634026527404785 0.73141354322433472
0.78090369701385498 0.76606398820877075 0.73982173204421997
0.80306267738342285 0.78844481706619263 0.76003038883209229
0.83694183826446533 0.82234770059585571 0.79051470756530762
0.46404683589935303 0.45473995804786682 0.45746722817420959
0.47984844446182251 0.47200173139572144 0.4721280038356781
0.50018978118896484 0.49338862299919128 0.491315096616745
0.51319509744644165 0.5058479905128479 0.50457066297531128
0.54879176616668701 0.54084283113479614 0.53888946771621704
0.62624061107635498 0.61674576997756958 0.60777974128723145
0.71723294258117676 0.704243004322052 0.68620699644088745
0.48160189390182495 0.47282367944717407 0.47356206178665161
0.49140849709510803 0.48349052667617798 0.48314917087554932
0.50723016262054443 0.4994906485080719 0.49825409054756165
0.52790719270706177 0.52043187618255615 0.51914083957672119
0.56214934587478638 0.55516654253005981 0.5521695613861084
0.63557422161102295 0.62689298391342163 0.61632269620895386
0.72221839427947998 0.70998853445053101 0.69044822454452515
0.49448612332344055 0.48626941442489624 0.48834168910980225
0.50300365686416626 0.49507984519004822 0.49615734815597534
0.51908600330352783 0.51089811325073242 0.51058626174926758
0.54553323984146118 0.53748995065689087 0.53537607192993164
0.59132248163223267 0.58339494466781616 0.57736706733703613
0.65488165616989136 0.64519906044006348 0.63256561756134033
0.7327767014503479 0.72014844417572021 0.69930756092071533
0.5185965895652771 0.51091736555099487 0.51447349786758423
0.52777743339538574 0.52017927169799805 0.52141106128692627
0.54602199792861938 0.53746300935745239 0.53614944219589233
0.57665139436721802 0.56707125902175903 0.56235575675964355
0.61544907093048096 0.60557901859283447 0.59671580791473389
0.66918909549713135 0.65820598602294922 0.6440395712852478
0.74337846040725708 0.7301633358001709 0.70825493335723877
0.60073155164718628 0.59067779779434204 0.58532726764678955
0.60445594787597656 0.59368467330932617 0.58813965320587158
0.61820155382156372 0.60573804378509521 0.59895449876785278
0.63158750534057617 0.61972320079803467 0.60987299680709839
0.65780162811279297 0.6462591290473938 0.63273769617080688
0.70253247022628784 0.69037061929702759 0.67228102684020996
0.76534014940261841 0.75161123275756836 0.72710376977920532
0.70432978868484497 0.69061481952667236 0.67427009344100952
0.70632851123809814 0.69119822978973389 0.67581170797348022
0.71301454305648804 0.69652312994003296 0.68097138404846191
0.71143019199371338 0.69642812013626099 0.67834126949310303
0.72538250684738159 0.71176254749298096 0.69111675024032593
0.75585711002349854 0.74239480495452881 0.71875631809234619
0.80029046535491943 0.78628170490264893 0.758014976978302
0.80304533243179321 0.78636324405670166 0.76089715957641602
0.80391675233840942 0.78611296415328979 0.76106178760528564
0.80268275737762451 0.78464341163635254 0.75905680656433105
0.80163240432739258 0.78475862741470337 0.75772374868392944
0.80723392963409424 0.79158353805541992 0.76298433542251587
0.82183539867401123 0.80703103542327881 0.77687782049179077
0.84901201725006104 0.83423900604248047 0.80135571956634521
0.56344336271286011 0.55549108982086182 0.55390185117721558
0.58004260063171387 0.57193940877914429 0.56720858812332153
0.59727662801742554 0.58846688270568848 0.58110034465789795
0.62207543849945068 0.61278516054153442 0.60234212875366211
0.63833194971084595 0.62811905145645142 0.61654740571975708
0.67015981674194336 0.65931665897369385 0.64399737119674683
0.74602389335632324 0.73146063089370728 0.70909428596496582
0.58290117979049683 0.57441186904907227 0.57025033235549927
0.59560912847518921 0.58594924211502075 0.58039534091949463
0.6103827953338623 0.59977024793624878 0.59220808744430542
0.63582396507263184 0.62481802701950073 0.61449015140533447
0.65018486976623535 0.63928067684173584 0.627208411693573
0.67676001787185669 0.66553878784179688 0.6495063304901123
0.74939066171646118 0.73543363809585571 0.71141237020492554
0.59283751249313354 0.58274745941162109 0.57877969741821289
0.60602402687072754 0.59424954652786255 0.58902043104171753
0.62044674158096313 0.60833531618118286 0.60038745403289795
0.64200890064239502 0.6298183798789978 0.61919522285461426
0.65464198589324951 0.64247041940689087 0.63031595945358276
0.69072699546813965 0.67774081230163574 0.66143852472305298
0.76780056953430176 0.75271952152252197 0.7278134822845459
0.60087460279464722 0.59063577651977539 0.58645367622375488
0.61180979013442993 0.60037124156951904 0.59433954954147339
0.62906962633132935 0.61706769466400146 0.60766434669494629
0.65656572580337524 0.64394611120223999 0.63070404529571533
0.68092334270477295 0.66799312829971313 0.65241843461990356
0.7158551812171936 0.70185792446136475 0.68344408273696899
0.77925252914428711 0.76360577344894409 0.73848807811737061
0.64206039905548096 0.6314806342124939 0.62103140354156494
0.64707756042480469 0.63568717241287231 0.62474995851516724
0.66022533178329468 0.64828717708587646 0.63506585359573364
0.6915702223777771 0.67848742008209229 0.66133302450180054
0.71903246641159058 0.70538753271102905 0.68537986278533936
0.75134783983230591 0.73700475692749023 0.71407431364059448
0.8002854585647583 0.78497564792633057 0.75754570960998535
0.72015303373336792 0.70711416006088257 0.68864721059799194
0.72458696365356445 0.71048623323440552 0.69194883108139038
0.73447394371032715 0.71982532739639282 0.69981950521469116
0.75436294078826904 0.73957973718643188 0.71666210889816284
0.77232259511947632 0.75784879922866821 0.7324633002281189
0.79194235801696777 0.77763032913208008 0.75045269727706909
0.82373338937759399 0.80920535326004028 0.77910327911376953
0.81763392686843872 0.8013761043548584 0.77525997161865234
0.81491941213607788 0.79809516668319702 0.77185869216918945
0.81796061992645264 0.80068278312683105 0.77352327108383179
0.8284837007522583 0.81210172176361084 0.78234356641769409
0.83578234910964966 0.82026129961013794 0.7887728214263916
0.84089463949203491 0.8261486291885376 0.79440772533416748
0.85924959182739258 0.84472298622131348 0.81137406826019287
0.69117391109466553 0.67976647615432739 0.66623777151107788
0.6987231969833374 0.68682622909545898 0.67213398218154907
0.70701777935028076 0.69417738914489746 0.67786473035812378
0.72665709257125854 0.71306008100509644 0.69382250308990479
0.75024503469467163 0.73601806163787842 0.71345621347427368
0.7567870020866394 0.74231380224227905 0.7187570333480835
0.77246803045272827 0.7571682333946228 0.73345345258712769
0.70552235841751099 0.69320261478424072 0.67800509929656982
0.71495085954666138 0.70095944404602051 0.68486720323562622
0.72307944297790527 0.7082030177116394 0.69050687551498413
0.74210828542709351 0.7269587516784668 0.70603877305984497
0.75971871614456177 0.74463611841201782 0.72082889080047607
0.76244860887527466 0.74792754650115967 0.72257512807846069
0.78176403045654297 0.76655775308609009 0.73877817392349243
0.71554481983184814 0.70164424180984497 0.68512356281280518
0.727752685546875 0.71123439073562622 0.69390016794204712
0.73545819520950317 0.71896010637283325 0.69938546419143677
0.75033152103424072 0.73459535837173462 0.71179425716400146
0.76096493005752563 0.74552363157272339 0.72147297859191895
0.76865142583847046 0.75346887111663818 0.72894322872161865
0.79650604724884033 0.78066933155059814 0.75225561857223511
0.7166287899017334 0.70288503170013428 0.68500405550003052
0.72609943151473999 0.71023201942443848 0.69159823656082153
0.73541384935379028 0.71984446048736572 0.69855278730392456
0.75545930862426758 0.74006873369216919 0.7152179479598999
0.77080506086349487 0.75550717115402222 0.72964674234390259
0.78133434057235718 0.76582580804824829 0.74075889587402344
0.8106987476348877 0.79475229978561401 0.76642036437988281
0.72362709045410156 0.71110051870346069 0.69048207998275757
0.73081851005554199 0.71700918674468994 0.69575363397598267
0.74046701192855835 0.7266535758972168 0.70352429151535034
0.76459455490112305 0.75009357929229736 0.72407239675521851
0.78499335050582886 0.7701791524887085 0.74284082651138306
0.80120247602462769 0.78597873449325562 0.75849777460098267
0.82886666059494019 0.81337076425552368 0.78341376781463623
0.76259934902191162 0.74965119361877441 0.72514450550079346
0.769572913646698 0.75537443161010742 0.73065739870071411
0.77703952789306641 0.76270526647567749 0.73688244819641113
0.79601031541824341 0.78118753433227539 0.75321090221405029
0.81215053796768188 0.7975468635559082 0.76801711320877075
0.82305848598480225 0.80867224931716919 0.77891570329666138
0.84272724390029907 0.82850676774978638 0.79716843366622925
0.83081686496734619 0.81633466482162476 0.78763002157211304
0.82997041940689087 0.81442642211914062 0.78607267141342163
0.83227312564849854 0.81630367040634155 0.78726500272750854
0.84349197149276733 0.82765656709671021 0.79688012599945068
0.8521619439125061 0.83713632822036743 0.80502378940582275
0.85381031036376953 0.83976525068283081 0.80732017755508423
0.86569666862487793 0.8522753119468689 0.81872224807739258
0.82146650552749634 0.80630648136138916 0.77765482664108276
0.82071018218994141 0.80519604682922363 0.77699863910675049
0.82034945487976074 0.8044053316116333 0.77619987726211548
0.8285834789276123 0.81270623207092285 0.78292351961135864
0.84368264675140381 0.82759243249893188 0.79583960771560669
0.84706300497055054 0.83087301254272461 0.79942595958709717
0.8461763858795166 0.83048754930496216 0.80009382963180542
0.82944053411483765 0.81353133916854858 0.78411579132080078
0.83258885145187378 0.8155897855758667 0.78594404458999634
0.83205926418304443 0.81488710641860962 0.7847592830657959
0.83642232418060303 0.82005089521408081 0.7882571816444397
0.84715700149536133 0.83116775751113892 0.79773706197738647
0.85158044099807739 0.8356747031211853 0.80214756727218628
0.8484998345375061 0.83299833536148071 0.79944342374801636
0.83527880907058716 0.81897521018981934 0.78797709941864014
0.83988744020462036 0.82203418016433716 0.79079508781433105
0.83983981609344482 0.82155776023864746 0.78976970911026001
0.84329748153686523 0.8265986442565918 0.79285407066345215
0.85194700956344604 0.83608144521713257 0.80154168605804443
0.86099374294281006 0.84538894891738892 0.81090837717056274
0.85983389616012573 0.84424376487731934 0.80945003032684326
0.8339998722076416 0.8182375431060791 0.7857239842414856
0.83737301826477051 0.81981003284454346 0.78743767738342285
0.83820873498916626 0.82069921493530273 0.7877277135848999
0.84533548355102539 0.82862156629562378 0.79374140501022339
0.85490471124649048 0.83881658315658569 0.80398261547088623
0.86250871419906616 0.84698790311813354 0.81290668249130249
0.86810743808746338 0.85256415605545044 0.8182750940322876
0.82756489515304565 0.81294703483581543 0.78025531768798828
0.83430999517440796 0.81762337684631348 0.78450894355773926
0.83433282375335693 0.81822746992111206 0.78459876775741577
0.84088051319122314 0.82504940032958984 0.79113650321960449
0.84969913959503174 0.83430707454681396 0.80045127868652344
0.85618966817855835 0.84129929542541504 0.80797368288040161
0.86822623014450073 0.85373032093048096 0.81943190097808838
0.83554965257644653 0.82183879613876343 0.78869670629501343
0.84402740001678467 0.82852888107299805 0.7952919602394104
0.84099841117858887 0.82517051696777344 0.7926214337348938
0.84438639879226685 0.82906812429428101 0.79662257432937622
0.85150086879730225 0.83692324161529541 0.80396682024002075
0.85620737075805664 0.84249305725097656 0.80954194068908691
0.86791318655014038 0.85471165180206299 0.82092404365539551
0.85671955347061157 0.84405308961868286 0.81083440780639648
0.86258000135421753 0.84797483682632446 0.81478917598724365
0.86045384407043457 0.84486359357833862 0.81306558847427368
0.86194252967834473 0.84664040803909302 0.81461429595947266
0.86859166622161865 0.85420399904251099 0.82113248109817505
0.87026810646057129 0.8570740818977356 0.82371771335601807
0.87785130739212036 0.86540788412094116 0.83118999004364014
