luts/instant_consumer/polaroid_time_zero_expired_--.cube
# Created by: G'MIC (https://gmic.eu)
TITLE "polaroid_time_zero_expired_--"
# LUT size
LUT_3D_SIZE 5
# Data domain
DOMAIN_MIN 0.0 0.0 0.0
DOMAIN_MAX 1.0 1.0 1.0
# LUT data points
0.25188040733337402 0.080359362065792084 0.037865255028009415
0.28843915462493896 0.078024037182331085 0.036866489797830582
0.4539908766746521 0.023923268541693687 0.031092012301087379
0.72909051179885864 0.0056932186707854271 0.0069630192592740059
0.9513586163520813 0.03152548149228096 0.0041811922565102577
0.27585688233375549 0.17869104444980621 0.011835315264761448
0.33882823586463928 0.17556388676166534 0.014173410832881927
0.51209867000579834 0.18069779872894287 0.0055960114113986492
0.75994396209716797 0.17628566920757294 8.3295039075892419e-05
0.95072966814041138 0.26234155893325806 0.00017448874132242054
0.38361051678657532 0.42869260907173157 0
0.4726719856262207 0.43067777156829834 9.9271885119378567e-05
0.65004557371139526 0.4583551287651062 0.00036764706601388752
0.81190162897109985 0.47445222735404968 0.0027272989973425865
0.94360244274139404 0.51157563924789429 0.0023454553447663784
0.5497620701789856 0.68702685832977295 0
0.60541599988937378 0.68638628721237183 0
0.72345662117004395 0.68955624103546143 0.0019063613144680858
0.84986025094985962 0.71003371477127075 0.0039774277247488499
0.93987154960632324 0.73458868265151978 0.22000867128372192
0.72471004724502563 0.84628313779830933 0.0011571098584681749
0.74680644273757935 0.84380847215652466 0.0024554233532398939
0.80793923139572144 0.84621322154998779 0.0027670618146657944
0.89809602499008179 0.85095304250717163 0.18582561612129211
0.96198487281799316 0.85145491361618042 0.50199621915817261
0.28170639276504517 0.081162489950656891 0.094244502484798431
0.30987164378166199 0.081067599356174469 0.091623134911060333
0.48513895273208618 0.039193037897348404 0.12188061326742172
0.75692057609558105 0.006137459073215723 0.12720856070518494
0.958049476146698 0.068701647222042084 0.1403992772102356
0.30200746655464172 0.17395325005054474 0.080572448670864105
0.36481598019599915 0.19146464765071869 0.080989792943000793
0.54886442422866821 0.19276764988899231 0.090754158794879913
0.78441876173019409 0.18317313492298126 0.084055475890636444
0.95484018325805664 0.27428871393203735 0.11891953647136688
0.38864487409591675 0.4356158971786499 0.0089643290266394615
0.47495043277740479 0.44378244876861572 0.0068804272450506687
0.66208857297897339 0.46122413873672485 0.01911652460694313
0.81831324100494385 0.47958272695541382 0.016012752428650856
0.94873523712158203 0.51376408338546753 0.048661474138498306
0.55984354019165039 0.68754720687866211 0.0039139841683208942
0.6076350212097168 0.68993771076202393 0.00061848957557231188
0.7296518087387085 0.69916146993637085 0.0033308290876448154
0.8548656702041626 0.71935582160949707 0.10981979221105576
0.93870687484741211 0.73652106523513794 0.31867766380310059
0.73050165176391602 0.85080051422119141 0.088345006108283997
0.75136780738830566 0.85048997402191162 0.059239599853754044
0.80746656656265259 0.84913402795791626 0.01461899746209383
0.89523839950561523 0.85045415163040161 0.29031810164451599
0.95888429880142212 0.85188084840774536 0.54986613988876343
0.43189883232116699 0.084805384278297424 0.31367012858390808
0.4728388786315918 0.095966234803199768 0.32831603288650513
0.57670146226882935 0.10317672789096832 0.3337090015411377
0.7784121036529541 0.0092992596328258514 0.36208018660545349
0.94702827930450439 0.19735826551914215 0.41461512446403503
0.50088071823120117 0.23213478922843933 0.32562527060508728
0.5485844612121582 0.25841632485389709 0.33429828286170959
0.6318964958190918 0.26461786031723022 0.3379569947719574
0.80447912216186523 0.22742465138435364 0.36362734436988831
0.95092761516571045 0.35430732369422913 0.39441433548927307
0.50001698732376099 0.43950513005256653 0.28572800755500793
0.56571090221405029 0.45125046372413635 0.2936767041683197
0.69279104471206665 0.48433321714401245 0.31052407622337341
0.82800650596618652 0.49306699633598328 0.32782119512557983
0.94382083415985107 0.54689186811447144 0.36343181133270264
0.59042954444885254 0.68929010629653931 0.27427223324775696
0.63537800312042236 0.69536083936691284 0.28859224915504456
0.73242568969726562 0.70192760229110718 0.26136404275894165
0.85051220655441284 0.72457301616668701 0.39336007833480835
0.93287724256515503 0.73613452911376953 0.44713684916496277
0.74717992544174194 0.84293192625045776 0.42837855219841003
0.76545697450637817 0.84325695037841797 0.42044243216514587
0.81183856725692749 0.84713351726531982 0.38478899002075195
0.8877938985824585 0.85019004344940186 0.43924054503440857
0.95329135656356812 0.85419243574142456 0.62879425287246704
0.66168117523193359 0.21507817506790161 0.64521926641464233
0.68412142992019653 0.23808859288692474 0.64775079488754272
0.73968720436096191 0.29642763733863831 0.66096442937850952
0.81698346138000488 0.35039061307907104 0.64659053087234497
0.92983263731002808 0.36031439900398254 0.65910524129867554
0.71692264080047607 0.4087626039981842 0.6390678882598877
0.73204958438873291 0.42416560649871826 0.64258325099945068
0.76831912994384766 0.45641964673995972 0.64855468273162842
0.82855010032653809 0.47771444916725159 0.64265012741088867
0.92649960517883301 0.45869186520576477 0.66289043426513672
0.74121683835983276 0.56047588586807251 0.62846106290817261
0.7659599781036377 0.58385998010635376 0.62637478113174438
0.79991692304611206 0.6177903413772583 0.63041895627975464
0.8386763334274292 0.62968987226486206 0.63862699270248413
0.92046022415161133 0.59046429395675659 0.65335345268249512
0.72032725811004639 0.70536404848098755 0.59121620655059814
0.73934656381607056 0.70628446340560913 0.59089595079421997
0.78834724426269531 0.71604973077774048 0.60093694925308228
0.84905284643173218 0.73693996667861938 0.62188094854354858
0.9237932562828064 0.73846638202667236 0.62637710571289062
0.77168011665344238 0.83402723073959351 0.63956660032272339
0.78135478496551514 0.83681482076644897 0.63888907432556152
0.81091523170471191 0.84201532602310181 0.6460457444190979
0.86980205774307251 0.84935879707336426 0.63135445117950439
0.94503110647201538 0.85764646530151367 0.73479652404785156
0.80402684211730957 0.55270946025848389 0.83951187133789062
0.80980849266052246 0.56179451942443848 0.83769321441650391
0.82830208539962769 0.59165000915527344 0.84264177083969116
0.85415345430374146 0.63261967897415161 0.84463733434677124
0.89357972145080566 0.65085017681121826 0.84038674831390381
0.82201045751571655 0.63784682750701904 0.83650428056716919
0.82782107591629028 0.64208674430847168 0.83621251583099365
0.84091454744338989 0.65921175479888916 0.83754175901412964
0.86108201742172241 0.68159478902816772 0.84150630235671997
0.89648950099945068 0.69070613384246826 0.84072971343994141
0.83950626850128174 0.72001355886459351 0.8305848240852356
0.84685397148132324 0.72526222467422485 0.8299790620803833
0.85872477293014526 0.73748171329498291 0.83660447597503662
0.87379461526870728 0.74820858240127563 0.84137523174285889
0.90423822402954102 0.74802494049072266 0.84200930595397949
0.82818466424942017 0.7736089825630188 0.82855641841888428
0.84345060586929321 0.77762353420257568 0.83004355430603027
0.86546564102172852 0.7898591160774231 0.83536666631698608
0.89269959926605225 0.80788016319274902 0.84855657815933228
0.91675561666488647 0.80875265598297119 0.84961789846420288
0.82859820127487183 0.84551548957824707 0.83550137281417847
0.83826404809951782 0.84905028343200684 0.83751034736633301
0.85910212993621826 0.85143792629241943 0.84068173170089722
0.89180415868759155 0.85882061719894409 0.84862935543060303
0.94025254249572754 0.86294448375701904 0.86529165506362915
