luts/instant_consumer/polaroid_px-70_--.cube
# Created by: G'MIC (https://gmic.eu)
TITLE "polaroid_px-70_--"
# LUT size
LUT_3D_SIZE 13
# Data domain
DOMAIN_MIN 0.0 0.0 0.0
DOMAIN_MAX 1.0 1.0 1.0
# LUT data points
0 0.023304330185055733 0.027230162173509598
0.0038946862332522869 0.033136717975139618 0.032223273068666458
0.040364582091569901 0.042635150253772736 0.039718642830848694
0.12289298325777054 0.051059182733297348 0.04957275465130806
0.23464570939540863 0.055582143366336823 0.064303077757358551
0.37109890580177307 0.051369328051805496 0.079457692801952362
0.51298493146896362 0.050963874906301498 0.088688835501670837
0.65154629945755005 0.090615831315517426 0.094405412673950195
0.76890671253204346 0.17103780806064606 0.094269804656505585
0.85767370462417603 0.26344645023345947 0.092100702226161957
0.924591064453125 0.34984579682350159 0.097234927117824554
0.97107905149459839 0.43023812770843506 0.10953052341938019
0.99616008996963501 0.49948659539222717 0.13266803324222565
0.00013571346062235534 0.065144576132297516 0.044521931558847427
0.003978983499109745 0.072441652417182922 0.045783847570419312
0.041915461421012878 0.07803790271282196 0.048074174672365189
0.13470794260501862 0.083324477076530457 0.05427715927362442
0.24736680090427399 0.087098769843578339 0.065400190651416779
0.37957105040550232 0.092514127492904663 0.078639954328536987
0.51744925975799561 0.1044275313615799 0.087030209600925446
0.65288627147674561 0.14177332818508148 0.090724065899848938
0.76773494482040405 0.20764234662055969 0.089229077100753784
0.85532301664352417 0.29197984933853149 0.08533187210559845
0.92209535837173462 0.37099331617355347 0.089931294322013855
0.96916478872299194 0.44420245289802551 0.10611893981695175
0.99554640054702759 0.5107036828994751 0.13263209164142609
4.3083641685370822e-06 0.1304592490196228 0.066666774451732635
0.0034333921503275633 0.14027591049671173 0.068714737892150879
0.024117907509207726 0.14513956010341644 0.065939746797084808
0.13270546495914459 0.14518572390079498 0.062917418777942657
0.26015552878379822 0.14799676835536957 0.067016512155532837
0.39317077398300171 0.1549784243106842 0.073629982769489288
0.52516388893127441 0.17359238862991333 0.078424371778964996
0.6532171368598938 0.21110080182552338 0.078378535807132721
0.76355642080307007 0.26099285483360291 0.073886767029762268
0.85089278221130371 0.32951352000236511 0.068700648844242096
0.91966432332992554 0.39756917953491211 0.071890003979206085
0.96686267852783203 0.46679270267486572 0.091915354132652283
0.99297314882278442 0.5285065770149231 0.12567175924777985
0 0.21509750187397003 0.090123087167739868
0.0018435908714309335 0.22029142081737518 0.089799590408802032
0.0056237461976706982 0.22626885771751404 0.084841333329677582
0.096681348979473114 0.23428171873092651 0.076555348932743073
0.26486536860466003 0.24360048770904541 0.070179328322410583
0.40372392535209656 0.24182841181755066 0.06541365385055542
0.53552228212356567 0.24971367418766022 0.057804226875305176
0.65771573781967163 0.27836123108863831 0.052622538059949875
0.76054060459136963 0.32023593783378601 0.046318609267473221
0.84101468324661255 0.37877443432807922 0.041460838168859482
0.91367173194885254 0.43815714120864868 0.040462344884872437
0.96009278297424316 0.49567452073097229 0.067460544407367706
0.98904615640640259 0.55019062757492065 0.11166459321975708
0 0.31781324744224548 0.10116663575172424
7.8986677181092091e-06 0.31923958659172058 0.1016695499420166
0.0015929876826703548 0.32548284530639648 0.098737709224224091
0.052956406027078629 0.33396086096763611 0.091302134096622467
0.25125426054000854 0.34505867958068848 0.074696317315101624
0.41526514291763306 0.35212120413780212 0.054264381527900696
0.54933613538742065 0.35589295625686646 0.039168264716863632
0.66546791791915894 0.36363306641578674 0.023546541109681129
0.7610284686088562 0.38725998997688293 0.012392350472509861
0.83993083238601685 0.43193823099136353 0.013516923412680626
0.90786856412887573 0.48004958033561707 0.014620567671954632
0.95586967468261719 0.529335618019104 0.032622735947370529
0.98752808570861816 0.57721030712127686 0.083161689341068268
0 0.4269348680973053 0.10618308931589127
7.915122841950506e-05 0.4281851053237915 0.1080002561211586
0.0016103707021102309 0.43247878551483154 0.10732462257146835
0.041303984820842743 0.43820688128471375 0.10014332830905914
0.24000516533851624 0.4471907913684845 0.083019524812698364
0.41907039284706116 0.45646589994430542 0.05309334397315979
0.56217777729034424 0.46458521485328674 0.02212555892765522
0.67656391859054565 0.47264924645423889 0.0098408116027712822
0.7658393383026123 0.47969025373458862 0.0071921702474355698
0.84087657928466797 0.49743011593818665 0.0055278106592595577
0.90295165777206421 0.5257871150970459 0.0044213240034878254
0.9507213830947876 0.5655677318572998 0.0062640169635415077
0.98660033941268921 0.60470014810562134 0.043218798935413361
0.00050485646352171898 0.53319597244262695 0.10902364552021027
0.00036191754043102264 0.53137022256851196 0.11312182247638702
0.0025276932865381241 0.53354358673095703 0.11399335414171219
0.074615329504013062 0.53758323192596436 0.10975831001996994
0.270750492811203 0.54281264543533325 0.095171846449375153
0.42983421683311462 0.55019783973693848 0.067971311509609222
0.56905657052993774 0.5561707615852356 0.028417401015758514
0.68228000402450562 0.56309723854064941 0.0093884039670228958
0.77126550674438477 0.57054227590560913 0.0074201845563948154
0.8412969708442688 0.57838290929794312 0.0041704662144184113
0.89687263965606689 0.58700299263000488 0.0033249200787395239
0.94104111194610596 0.61063945293426514 0.0039934343658387661
0.98039859533309937 0.63722974061965942 0.0087685529142618179
0.0055339885875582695 0.6237337589263916 0.12067950516939163
0.013618589378893375 0.62375617027282715 0.12170957773923874
0.069059662520885468 0.62459808588027954 0.1237337589263916
0.2003900408744812 0.62458276748657227 0.12793843448162079
0.34201166033744812 0.62545394897460938 0.12364432960748672
0.47095078229904175 0.6307557225227356 0.10359214246273041
0.58774679899215698 0.63471287488937378 0.07522602379322052
0.68990790843963623 0.63883322477340698 0.039211288094520569
0.77491575479507446 0.64475971460342407 0.013771745376288891
0.84048753976821899 0.64889723062515259 0.0059780646115541458
0.89037823677062988 0.65510571002960205 0.0051598493009805679
0.93454080820083618 0.66747438907623291 0.004513041116297245
0.97495186328887939 0.68151295185089111 0.0070860469713807106
0.15861688554286957 0.70113891363143921 0.15187487006187439
0.20519882440567017 0.69957160949707031 0.15509624779224396
0.27685219049453735 0.69861495494842529 0.16403260827064514
0.35680529475212097 0.69712835550308228 0.17249235510826111
0.4390099048614502 0.69642758369445801 0.16859833896160126
0.52801978588104248 0.69554895162582397 0.15859194099903107
0.61257469654083252 0.69801121950149536 0.14260999858379364
0.70026606321334839 0.70133429765701294 0.11511670053005219
0.77343636751174927 0.70482558012008667 0.088615819811820984
0.83571857213973999 0.7086862325668335 0.057588376104831696
0.88533544540405273 0.71468740701675415 0.045861773192882538
0.92822670936584473 0.72395378351211548 0.049412790685892105
0.97031521797180176 0.73471510410308838 0.073843784630298615
0.36912769079208374 0.75851196050643921 0.20824207365512848
0.39458474516868591 0.75898623466491699 0.21214543282985687
0.4300597608089447 0.75917148590087891 0.22172537446022034
0.4750514030456543 0.75793445110321045 0.23206160962581635
0.52586734294891357 0.75549995899200439 0.22871813178062439
0.58122962713241577 0.75478023290634155 0.22350539267063141
0.64492499828338623 0.75504219532012939 0.2140742689371109
0.71569359302520752 0.756866455078125 0.19936838746070862
0.77752965688705444 0.76024061441421509 0.18375857174396515
0.83004999160766602 0.76340019702911377 0.16608501970767975
0.87989383935928345 0.77005118131637573 0.14872303605079651
0.92229437828063965 0.77843344211578369 0.14789628982543945
0.9649355411529541 0.79038846492767334 0.17358092963695526
0.50917929410934448 0.81329607963562012 0.28038984537124634
0.52197384834289551 0.81151860952377319 0.28141114115715027
0.54183787107467651 0.81162983179092407 0.28796368837356567
0.56775259971618652 0.81132006645202637 0.29644560813903809
0.60364252328872681 0.80974793434143066 0.29748749732971191
0.63828551769256592 0.81057441234588623 0.29810935258865356
0.68276023864746094 0.81257349252700806 0.2964576780796051
0.7404787540435791 0.81466436386108398 0.28701218962669373
0.7887955904006958 0.81518363952636719 0.27305483818054199
0.8304714560508728 0.8177984356880188 0.26215317845344543
0.87469273805618286 0.82481223344802856 0.25377562642097473
0.91804558038711548 0.83338111639022827 0.24701878428459167
0.96081525087356567 0.84533029794692993 0.26224508881568909
0.62125533819198608 0.87143242359161377 0.36341407895088196
0.62587654590606689 0.86855775117874146 0.36264163255691528
0.63704568147659302 0.86691147089004517 0.36494666337966919
0.65324532985687256 0.86579638719558716 0.36851009726524353
0.67517894506454468 0.8679354190826416 0.37468224763870239
0.69854074716567993 0.87126868963241577 0.38269618153572083
0.72724270820617676 0.87394541501998901 0.38567811250686646
0.7644076943397522 0.87494885921478271 0.37839499115943909
0.80229562520980835 0.87697911262512207 0.37144014239311218
0.83798456192016602 0.87891179323196411 0.36550700664520264
0.87494224309921265 0.88542616367340088 0.3638242781162262
0.91542840003967285 0.89417779445648193 0.36156287789344788
0.95516753196716309 0.90313518047332764 0.36200249195098877
0.69563949108123779 0.93263214826583862 0.45341455936431885
0.69877868890762329 0.93139052391052246 0.45364618301391602
0.70570069551467896 0.93114560842514038 0.4569104015827179
0.71635395288467407 0.92995321750640869 0.46040469408035278
0.72945874929428101 0.93047529458999634 0.46467351913452148
0.74608248472213745 0.93344771862030029 0.47372293472290039
0.76623439788818359 0.93673676252365112 0.48106956481933594
0.79098856449127197 0.93734276294708252 0.4778951108455658
0.81758689880371094 0.93896156549453735 0.47339439392089844
0.84811699390411377 0.94348049163818359 0.47501015663146973
0.87908518314361572 0.94775378704071045 0.47543877363204956
0.91344368457794189 0.95351028442382812 0.47650504112243652
0.94724643230438232 0.95922553539276123 0.4787362813949585
0 0.038712803274393082 0.07207082211971283
0.0016419504536315799 0.044758830219507217 0.075494326651096344
0.030566750094294548 0.051381923258304596 0.079501882195472717
0.11714009195566177 0.06220577284693718 0.089402414858341217
0.23604580760002136 0.077580362558364868 0.10460671782493591
0.37350904941558838 0.097642324864864349 0.12182889133691788
0.51856863498687744 0.11519751697778702 0.1313045471906662
0.65586084127426147 0.1552787572145462 0.13703642785549164
0.77272933721542358 0.21611827611923218 0.13614943623542786
0.85878688097000122 0.29250016808509827 0.13718497753143311
0.92553192377090454 0.37191307544708252 0.14114964008331299
0.96960318088531494 0.4446689784526825 0.15516263246536255
0.99585282802581787 0.50998777151107788 0.17629297077655792
0.00059940112987533212 0.077363394200801849 0.085552692413330078
0.0039424970746040344 0.083520404994487762 0.090083658695220947
0.030832298099994659 0.088891498744487762 0.092217512428760529
0.12752616405487061 0.099844507873058319 0.097559504210948944
0.24997559189796448 0.10950683802366257 0.10725447535514832
0.38397443294525146 0.1289345771074295 0.12004140019416809
0.52336603403091431 0.15214794874191284 0.12753178179264069
0.65610998868942261 0.18885479867458344 0.13117522001266479
0.77174103260040283 0.24197106063365936 0.13193756341934204
0.85666078329086304 0.31616884469985962 0.13153380155563354
0.92289841175079346 0.38982921838760376 0.13505116105079651
0.96916043758392334 0.45691892504692078 0.14989614486694336
0.99543946981430054 0.5194782018661499 0.17389357089996338
7.9704732343088835e-05 0.1403018981218338 0.10422436892986298
0.0038669360801577568 0.14584189653396606 0.1048298105597496
0.022508988156914711 0.15040884912014008 0.10385511815547943
0.1365838348865509 0.15785107016563416 0.10435172915458679
0.26710546016693115 0.16322143375873566 0.10709065198898315
0.39947614073753357 0.17787519097328186 0.11236532032489777
0.53082859516143799 0.19936142861843109 0.11726056039333344
0.66037988662719727 0.23210704326629639 0.11938813328742981
0.76843410730361938 0.28472906351089478 0.11953989416360855
0.85488206148147583 0.34829896688461304 0.11724675446748734
0.92113411426544189 0.41381585597991943 0.12198242545127869
0.96762478351593018 0.47682943940162659 0.13906438648700714
0.99424648284912109 0.5353584885597229 0.16742332279682159
6.4445943280588835e-05 0.22473053634166718 0.12238170951604843
0.0036715788301080465 0.22996683418750763 0.12337342649698257
0.010751627385616302 0.23257410526275635 0.12007834017276764
0.11853667348623276 0.24101842939853668 0.1136687770485878
0.27393439412117004 0.24809619784355164 0.10898134112358093
0.41073933243751526 0.25079545378684998 0.10463021695613861
0.54042154550552368 0.26612061262130737 0.098945915699005127
0.66217434406280518 0.29855382442474365 0.097994953393936157
0.76605254411697388 0.33874636888504028 0.095704294741153717
0.84831827878952026 0.39402756094932556 0.092150472104549408
0.91268813610076904 0.45122787356376648 0.10049086809158325
0.95884692668914795 0.50655317306518555 0.11827544867992401
0.98952466249465942 0.5573885440826416 0.15384691953659058
1.7233456674148329e-05 0.33008918166160583 0.13115301728248596
0.001131154946051538 0.32928189635276794 0.13411526381969452
0.002298631938174367 0.33079680800437927 0.1301979273557663
0.081873908638954163 0.33883607387542725 0.12288112193346024
0.26588037610054016 0.34812849760055542 0.11297935247421265
0.42211806774139404 0.35381266474723816 0.099858783185482025
0.55509376525878906 0.36315736174583435 0.07993914932012558
0.66838878393173218 0.37292557954788208 0.069396302103996277
0.76649576425552368 0.39850884675979614 0.058460593223571777
0.84716606140136719 0.44181334972381592 0.053576212376356125
0.90706151723861694 0.49023783206939697 0.066539391875267029
0.95372259616851807 0.5393979549407959 0.084079280495643616
0.98620522022247314 0.584553062915802 0.12825508415699005
0 0.43666315078735352 0.13276906311511993
0.001163482666015625 0.43603411316871643 0.13601231575012207
0.0046998267062008381 0.43649452924728394 0.13466210663318634
0.072060436010360718 0.44132053852081299 0.1295340359210968
0.26250311732292175 0.4491502046585083 0.1178998276591301
0.43128639459609985 0.45740485191345215 0.09601910412311554
0.56851905584335327 0.466910719871521 0.064591199159622192
0.67826390266418457 0.47230672836303711 0.045141361653804779
0.77023768424987793 0.48445144295692444 0.029489165171980858
0.84504103660583496 0.50147449970245361 0.022337805479764938
0.90326958894729614 0.53184753656387329 0.023664571344852448
0.94867658615112305 0.56999081373214722 0.045536026358604431
0.98332929611206055 0.60945302248001099 0.097708351910114288
0.0022768955677747726 0.53672152757644653 0.13652972877025604
0.0026404436212033033 0.53668439388275146 0.13802853226661682
0.0098884282633662224 0.53792005777359009 0.13678337633609772
0.11351443827152252 0.53924274444580078 0.13724331557750702
0.28892001509666443 0.5422789454460144 0.13003388047218323
0.44356799125671387 0.54978680610656738 0.10865942388772964
0.57605463266372681 0.5582161545753479 0.075767785310745239
0.68877583742141724 0.5647549033164978 0.040035922080278397
0.77446550130844116 0.57237714529037476 0.021447096019983292
0.84335929155349731 0.57954663038253784 0.013575609773397446
0.89724135398864746 0.58913010358810425 0.012113982811570168
0.94134163856506348 0.60948675870895386 0.015903713181614876
0.98087316751480103 0.63813751935958862 0.051298417150974274
0.012674474157392979 0.62675821781158447 0.14475424587726593
0.03259175643324852 0.62747246026992798 0.14409436285495758
0.11328110098838806 0.62713277339935303 0.14721678197383881
0.23856261372566223 0.62528902292251587 0.15359507501125336
0.35832071304321289 0.62467378377914429 0.15418960154056549
0.48445877432823181 0.63028901815414429 0.13837696611881256
0.59251487255096436 0.63563674688339233 0.11567696928977966
0.69531106948852539 0.6405903697013855 0.079896144568920135
0.77958530187606812 0.6458619236946106 0.047401323914527893
0.84143877029418945 0.65007364749908447 0.035519886761903763
0.89121878147125244 0.65603125095367432 0.032913342118263245
0.93561077117919922 0.66683810949325562 0.028300385922193527
0.97680974006652832 0.68040424585342407 0.044216379523277283
0.20167262852191925 0.70125782489776611 0.17408177256584167
0.24585714936256409 0.70090830326080322 0.17552249133586884
0.3062293529510498 0.6996692419052124 0.18207958340644836
0.37677833437919617 0.6978035569190979 0.19016467034816742
0.45689013600349426 0.69728678464889526 0.19392076134681702
0.54010897874832153 0.69794571399688721 0.18642650544643402
0.61763191223144531 0.69976305961608887 0.1733546108007431
0.70403480529785156 0.70224440097808838 0.15045984089374542
0.77802532911300659 0.70587557554244995 0.12029819935560226
0.83518970012664795 0.70900309085845947 0.098536580801010132
0.88338494300842285 0.71519845724105835 0.091864161193370819
0.92762929201126099 0.72335559129714966 0.096858397126197815
0.97001761198043823 0.7348330020904541 0.11703160405158997
0.39450532197952271 0.75898849964141846 0.22636362910270691
0.41108918190002441 0.75835716724395752 0.22898446023464203
0.44509431719779968 0.75857716798782349 0.23604284226894379
0.48082473874092102 0.75664275884628296 0.24423974752426147
0.53194147348403931 0.75506454706192017 0.24768742918968201
0.5906059741973877 0.75442999601364136 0.24722075462341309
0.64944660663604736 0.75532495975494385 0.23977860808372498
0.71938526630401611 0.75766706466674805 0.22462001442909241
0.77821111679077148 0.76031714677810669 0.20930846035480499
0.83013373613357544 0.76342332363128662 0.19079826772212982
0.87765407562255859 0.76969921588897705 0.18039581179618835
0.92157483100891113 0.77817028760910034 0.17969179153442383
0.96362733840942383 0.78898555040359497 0.19608777761459351
0.52326780557632446 0.81174165010452271 0.29320001602172852
0.53331905603408813 0.81079721450805664 0.29505202174186707
0.55341511964797974 0.81135600805282593 0.30025592446327209
0.57869178056716919 0.80966097116470337 0.3078758716583252
0.60878950357437134 0.80758267641067505 0.31062778830528259
0.64677411317825317 0.8074498176574707 0.31052514910697937
0.68997633457183838 0.8099365234375 0.30702772736549377
0.73986220359802246 0.81200456619262695 0.2992129921913147
0.78546863794326782 0.81434524059295654 0.28938192129135132
0.8299252986907959 0.8179050087928772 0.2795940637588501
0.87381953001022339 0.824077308177948 0.27189356088638306
0.9177665114402771 0.83255147933959961 0.26715171337127686
0.9603387713432312 0.84540414810180664 0.28246799111366272
0.6264113187789917 0.86977982521057129 0.37300840020179749
0.63215595483779907 0.86765384674072266 0.37400883436203003
0.64276909828186035 0.86715352535247803 0.37572431564331055
0.65761399269104004 0.86647224426269531 0.38038578629493713
0.67659789323806763 0.86633789539337158 0.38756504654884338
0.70020204782485962 0.86953967809677124 0.39311051368713379
0.731891930103302 0.87156909704208374 0.39244922995567322
0.76286131143569946 0.87351936101913452 0.38977235555648804
0.80164253711700439 0.87630772590637207 0.38427332043647766
0.83750951290130615 0.8790658712387085 0.37935838103294373
0.8746001124382019 0.88530415296554565 0.3777516782283783
0.91489756107330322 0.89335823059082031 0.37654820084571838
0.95525914430618286 0.90355074405670166 0.38221681118011475
0.69871008396148682 0.9322044849395752 0.45957115292549133
0.70094317197799683 0.93050616979598999 0.45981073379516602
0.70700156688690186 0.93104630708694458 0.46332582831382751
0.71679878234863281 0.92986506223678589 0.4657471776008606
0.73066139221191406 0.93103867769241333 0.47261184453964233
0.74719047546386719 0.9335600733757019 0.48008215427398682
0.76855289936065674 0.93593817949295044 0.48477113246917725
0.79182618856430054 0.93792659044265747 0.48529240489006042
0.81944578886032104 0.94057822227478027 0.48411616683006287
0.84850800037384033 0.94375652074813843 0.4838869571685791
0.87881714105606079 0.94728648662567139 0.48379465937614441
0.91362458467483521 0.95394402742385864 0.48614978790283203
0.94687646627426147 0.95972687005996704 0.49102985858917236
0 0.064589619636535645 0.12387868762016296
0.0013443741481751204 0.066790066659450531 0.1228608638048172
0.024036677554249763 0.072613433003425598 0.12439650297164917
0.10064076632261276 0.082155622541904449 0.13026587665081024
0.22930604219436646 0.088458314538002014 0.14198869466781616
0.37420937418937683 0.095463894307613373 0.1547262966632843
0.52388876676559448 0.13147139549255371 0.16877888143062592
0.66375279426574707 0.19080151617527008 0.18106833100318909
0.7793964147567749 0.25846108794212341 0.18850016593933105
0.86471849679946899 0.33269408345222473 0.19411848485469818
0.92561286687850952 0.40254557132720947 0.20093922317028046
0.96834224462509155 0.46876266598701477 0.2153303325176239
0.99351364374160767 0.52950942516326904 0.23675189912319183
0 0.096598036587238312 0.1345382034778595
0.0033527298364788294 0.10244354605674744 0.13571608066558838
0.024429874494671822 0.10730884224176407 0.13513199985027313
0.11853790283203125 0.11817362159490585 0.13909715414047241
0.24789819121360779 0.12593834102153778 0.14908134937286377
0.38869908452033997 0.14262144267559052 0.1596461683511734
0.53199023008346558 0.18164457380771637 0.17243051528930664
0.6658855676651001 0.2284509688615799 0.18021534383296967
0.77756577730178833 0.28272771835327148 0.18607044219970703
0.86191660165786743 0.3502441942691803 0.19028632342815399
0.92248028516769409 0.41757717728614807 0.19716522097587585
0.96534097194671631 0.47941958904266357 0.21154128015041351
0.99234557151794434 0.53520554304122925 0.23140892386436462
0 0.14863409101963043 0.14419358968734741
0.0035524256527423859 0.15753066539764404 0.14770768582820892
0.031435888260602951 0.16505071520805359 0.14781634509563446
0.14190037548542023 0.17566676437854767 0.14913652837276459
0.27159124612808228 0.1859208345413208 0.15346401929855347
0.40847936272621155 0.20338903367519379 0.15971031785011292
0.54292577505111694 0.23651133477687836 0.16745458543300629
0.670154869556427 0.2716268002986908 0.17276759445667267
0.77560025453567505 0.31841370463371277 0.17673499882221222
0.85798829793930054 0.37973237037658691 0.18065600097179413
0.91876161098480225 0.44125837087631226 0.19053201377391815
0.9627881646156311 0.49684089422225952 0.20469175279140472
0.99200427532196045 0.54715245962142944 0.22306381165981293
0.00086068548262119293 0.23308651149272919 0.15603485703468323
0.0051688700914382935 0.23886311054229736 0.15988397598266602
0.026609368622303009 0.24268746376037598 0.15927322208881378
0.15042421221733093 0.25260108709335327 0.15734715759754181
0.28965526819229126 0.26007828116416931 0.15606020390987396
0.4242616593837738 0.26724803447723389 0.15321491658687592
0.5526466965675354 0.29183560609817505 0.15352819859981537
0.67267417907714844 0.32771092653274536 0.15702779591083527
0.7736087441444397 0.36429768800735474 0.15950173139572144
0.85372233390808105 0.41695398092269897 0.16093242168426514
0.91277682781219482 0.4724123477935791 0.17166675627231598
0.95708960294723511 0.52166414260864258 0.18790654838085175
0.99091136455535889 0.56919199228286743 0.21291241049766541
0.00072619866114109755 0.33901768922805786 0.16736991703510284
0.0038715286646038294 0.33922070264816284 0.17005294561386108
0.018857993185520172 0.33914393186569214 0.16715463995933533
0.13884028792381287 0.34720519185066223 0.16438885033130646
0.28947710990905762 0.35474857687950134 0.15969814360141754
0.43428570032119751 0.35967224836349487 0.14991997182369232
0.56370145082473755 0.37182211875915527 0.13861194252967834
