luts/instant_consumer/polaroid_px-680_++.cube
# Created by: G'MIC (https://gmic.eu)
TITLE "polaroid_px-680_++"
# LUT size
LUT_3D_SIZE 13
# Data domain
DOMAIN_MIN 0.0 0.0 0.0
DOMAIN_MAX 1.0 1.0 1.0
# LUT data points
0.22858864068984985 0.28242078423500061 0.27230739593505859
0.23738406598567963 0.2836119532585144 0.27215605974197388
0.24705228209495544 0.28436070680618286 0.27248454093933105
0.25681930780410767 0.28468137979507446 0.27202033996582031
0.27116137742996216 0.2851308286190033 0.27182433009147644
0.31163299083709717 0.28766724467277527 0.27322489023208618
0.40630361437797546 0.29361444711685181 0.27119001746177673
0.56284695863723755 0.30707836151123047 0.26680660247802734
0.72481900453567505 0.33122384548187256 0.25909304618835449
0.83590227365493774 0.37416872382164001 0.25031644105911255
0.90683948993682861 0.42701816558837891 0.2504315972328186
0.9500768780708313 0.47995999455451965 0.25903171300888062
0.97284579277038574 0.53454864025115967 0.28341555595397949
0.23051624000072479 0.28741198778152466 0.27432310581207275
0.23927205801010132 0.28880766034126282 0.27448707818984985
0.24943946301937103 0.28942200541496277 0.27449735999107361
0.26192763447761536 0.28972348570823669 0.27433127164840698
0.27957990765571594 0.28987318277359009 0.27260920405387878
0.32354933023452759 0.29280385375022888 0.27178153395652771
0.42424899339675903 0.30220991373062134 0.27060642838478088
0.58029484748840332 0.32105275988578796 0.26583465933799744
0.73240900039672852 0.34938439726829529 0.25702342391014099
0.84040242433547974 0.39282944798469543 0.24928747117519379
0.90814316272735596 0.44550511240959167 0.24939997494220734
0.94690239429473877 0.49548414349555969 0.26166290044784546
0.97135013341903687 0.54917871952056885 0.28848105669021606
0.23158198595046997 0.29226073622703552 0.27450981736183167
0.23911198973655701 0.2957705557346344 0.27450981736183167
0.24744078516960144 0.29627522826194763 0.27450981736183167
0.25999975204467773 0.29537540674209595 0.27450981736183167
0.28789439797401428 0.29824736714363098 0.27337425947189331
0.34323084354400635 0.30532693862915039 0.27127751708030701
0.45365709066390991 0.31947410106658936 0.267955482006073
0.60417681932449341 0.34233272075653076 0.26128000020980835
0.73999696969985962 0.37843185663223267 0.25249177217483521
0.84104692935943604 0.42253974080085754 0.24558438360691071
0.90471404790878296 0.46928766369819641 0.24483200907707214
0.94422304630279541 0.51728665828704834 0.26093128323554993
0.96939212083816528 0.56543338298797607 0.28750342130661011
0.22947101294994354 0.30367538332939148 0.27450981736183167
0.23593977093696594 0.30830571055412292 0.27450981736183167
0.24496686458587646 0.30875357985496521 0.27450981736183167
0.25978401303291321 0.30834639072418213 0.27450981736183167
0.2997434139251709 0.31672015786170959 0.27341210842132568
0.37124496698379517 0.33208289742469788 0.26895341277122498
0.48779374361038208 0.35107439756393433 0.26311656832695007
0.62649047374725342 0.37817037105560303 0.25499781966209412
0.74966347217559814 0.41528421640396118 0.24454249441623688
0.83978211879730225 0.45823788642883301 0.23849581182003021
0.897865891456604 0.49677553772926331 0.23917044699192047
0.93854403495788574 0.53950166702270508 0.25496980547904968
0.96265542507171631 0.58226007223129272 0.2846781313419342
0.22029384970664978 0.33222854137420654 0.27450981736183167
0.22532178461551666 0.33436039090156555 0.27445533871650696
0.23795533180236816 0.33840921521186829 0.27421420812606812
0.2634766697883606 0.34262114763259888 0.27399107813835144
0.30951938033103943 0.35611236095428467 0.27143609523773193
0.39660876989364624 0.38285300135612488 0.26470813155174255
0.52463561296463013 0.41500774025917053 0.25609675049781799
0.64246994256973267 0.43604958057403564 0.24649240076541901
0.75362610816955566 0.46415549516677856 0.23578962683677673
0.8392220139503479 0.50097841024398804 0.2299685925245285
0.88897705078125 0.53173214197158813 0.23676212131977081
0.92623633146286011 0.56476712226867676 0.25238227844238281
0.95372313261032104 0.60394394397735596 0.28461238741874695
0.18483415246009827 0.3851020336151123 0.2700335681438446
0.19369786977767944 0.39054244756698608 0.27004212141036987
0.21112474799156189 0.39576846361160278 0.26898300647735596
0.24974940717220306 0.4009767472743988 0.26823145151138306
0.31088235974311829 0.42035993933677673 0.26477912068367004
0.40890216827392578 0.4506189227104187 0.25881922245025635
0.53847783803939819 0.48827958106994629 0.24988523125648499
0.65894663333892822 0.51798969507217407 0.23899556696414948
0.75424915552139282 0.53595203161239624 0.23121756315231323
0.82767581939697266 0.55146670341491699 0.22583572566509247
0.87873643636703491 0.57317942380905151 0.23205412924289703
0.91836369037628174 0.59861010313034058 0.24863442778587341
0.94793504476547241 0.63274788856506348 0.28581315279006958
0.085018247365951538 0.46635341644287109 0.26045233011245728
0.11208841949701309 0.46708953380584717 0.26103460788726807
0.15448060631752014 0.47003167867660522 0.26054364442825317
0.21557439863681793 0.47837328910827637 0.26068270206451416
0.29923364520072937 0.49506214261054993 0.25764968991279602
0.41028466820716858 0.52614110708236694 0.25457745790481567
0.53097784519195557 0.55437666177749634 0.24937431514263153
0.65826433897018433 0.58784693479537964 0.24191175401210785
0.75383514165878296 0.61146384477615356 0.23806500434875488
0.82347983121871948 0.62507551908493042 0.23862935602664948
0.87319594621658325 0.62783730030059814 0.24158185720443726
0.91120743751525879 0.63704729080200195 0.25393024086952209
0.94007068872451782 0.66253852844238281 0.28932136297225952
0.0077329748310148716 0.56100881099700928 0.25544753670692444
0.010673836804926395 0.55857926607131958 0.25380817055702209
0.061238173395395279 0.55836266279220581 0.25271502137184143
0.1699770987033844 0.56098532676696777 0.25390225648880005
0.28668543696403503 0.57804256677627563 0.2552935779094696
0.40882688760757446 0.59581148624420166 0.25812369585037231
0.52083128690719604 0.61492246389389038 0.25662806630134583
0.63247829675674438 0.63605958223342896 0.2570682168006897
0.74115896224975586 0.66506779193878174 0.26419690251350403
0.81388390064239502 0.68104952573776245 0.27617380023002625
0.85947686433792114 0.68453586101531982 0.28336217999458313
0.89781498908996582 0.68810325860977173 0.29277288913726807
0.92847192287445068 0.69765663146972656 0.31716141104698181
0.0060287625528872013 0.63844895362854004 0.25900250673294067
0.0053525888361036777 0.63403946161270142 0.25607430934906006
0.040526401251554489 0.6339840292930603 0.25254032015800476
0.1690918356180191 0.63554155826568604 0.25684612989425659
0.28666937351226807 0.64252996444702148 0.26149669289588928
0.41117259860038757 0.65997689962387085 0.26640015840530396
0.52194368839263916 0.67321246862411499 0.27272176742553711
0.62436312437057495 0.68543392419815063 0.28322803974151611
0.72292685508728027 0.70190906524658203 0.30119886994361877
0.80032795667648315 0.72118455171585083 0.3235173225402832
0.8499596118927002 0.72858107089996338 0.34007194638252258
0.88825482130050659 0.73243898153305054 0.35638457536697388
0.91730839014053345 0.7377316951751709 0.3800811767578125
0.053833965212106705 0.70627045631408691 0.26715782284736633
0.085371576249599457 0.70392793416976929 0.2673666775226593
0.15701255202293396 0.70164167881011963 0.26972740888595581
0.25234034657478333 0.70229017734527588 0.2767598032951355
0.34285572171211243 0.70662093162536621 0.28452453017234802
0.44139552116394043 0.70970427989959717 0.2946130633354187
0.54256302118301392 0.71738529205322266 0.30649584531784058
0.63697046041488647 0.72969239950180054 0.32425370812416077
0.72230881452560425 0.74249899387359619 0.34771621227264404
0.78437089920043945 0.750296950340271 0.3706936240196228
0.84026092290878296 0.75863903760910034 0.39409354329109192
0.88406276702880859 0.76900148391723633 0.42212480306625366
0.91126519441604614 0.7742469310760498 0.44368058443069458
0.27937406301498413 0.75651878118515015 0.30939260125160217
0.2905249297618866 0.75408440828323364 0.30934238433837891
0.32655441761016846 0.75212466716766357 0.31177413463592529
0.38047546148300171 0.75152379274368286 0.32000905275344849
0.43896904587745667 0.74963366985321045 0.33030796051025391
0.51203936338424683 0.75353586673736572 0.34228870272636414
0.59360939264297485 0.75821816921234131 0.35538995265960693
0.66958522796630859 0.76213318109512329 0.37496066093444824
0.73756808042526245 0.76948153972625732 0.39642733335494995
0.79207098484039307 0.77632135152816772 0.41667038202285767
0.8387870192527771 0.78055453300476074 0.43585458397865295
0.88023120164871216 0.78653126955032349 0.46370553970336914
0.90921568870544434 0.79359185695648193 0.48853448033332825
0.47845026850700378 0.7937048077583313 0.37884983420372009
0.48382124304771423 0.79177975654602051 0.37731242179870605
0.50179672241210938 0.78949743509292603 0.38068169355392456
0.53466486930847168 0.79041928052902222 0.38699108362197876
0.57842320203781128 0.78815680742263794 0.39857670664787292
0.61892843246459961 0.79010456800460815 0.40740948915481567
0.6675378680229187 0.78972709178924561 0.42085984349250793
0.72611463069915771 0.78784817457199097 0.43839123845100403
0.77564710378646851 0.79312241077423096 0.4540582001209259
0.81452876329421997 0.79858273267745972 0.46778079867362976
0.84998005628585815 0.80042892694473267 0.48673355579376221
0.88430666923522949 0.80187171697616577 0.5073707103729248
0.911967933177948 0.8076748251914978 0.52917319536209106
0.65771740674972534 0.81827884912490845 0.46103054285049438
0.65800207853317261 0.81687396764755249 0.45993080735206604
0.66774451732635498 0.81528842449188232 0.46166819334030151
0.68357586860656738 0.81506365537643433 0.46522426605224609
0.70720648765563965 0.81317603588104248 0.47393152117729187
0.73019880056381226 0.81281000375747681 0.48143419623374939
0.75804829597473145 0.81277096271514893 0.49227666854858398
0.79324436187744141 0.81260895729064941 0.50516486167907715
0.8224065899848938 0.81469458341598511 0.51482295989990234
0.84621095657348633 0.81658738851547241 0.52613598108291626
0.87373125553131104 0.81885480880737305 0.54218989610671997
0.8963509202003479 0.81911724805831909 0.55437827110290527
0.91870307922363281 0.822581946849823 0.57041245698928833
0.23102673888206482 0.28440892696380615 0.27662760019302368
0.23534546792507172 0.28466930985450745 0.27516639232635498
0.2435193806886673 0.28468525409698486 0.27450981736183167
0.25557088851928711 0.28548845648765564 0.27450805902481079
0.27267977595329285 0.28625524044036865 0.27467244863510132
0.32006794214248657 0.28784987330436707 0.27585244178771973
0.42714136838912964 0.29313933849334717 0.27586224675178528
0.58679622411727905 0.30655074119567871 0.27301806211471558
0.73973345756530762 0.33131209015846252 0.26677206158638
0.84614312648773193 0.37767663598060608 0.26416516304016113
0.91249632835388184 0.43563967943191528 0.26916396617889404
0.95133090019226074 0.49183985590934753 0.28446298837661743
0.97211945056915283 0.54596114158630371 0.31020793318748474
0.23229396343231201 0.28926116228103638 0.27698448300361633
0.23812086880207062 0.29130962491035461 0.27596011757850647
0.24863965809345245 0.29136985540390015 0.27478685975074768
0.26111620664596558 0.29035374522209167 0.27451524138450623
0.27894514799118042 0.29002586007118225 0.27514791488647461
0.33303090929985046 0.29407185316085815 0.27594676613807678
0.44594666361808777 0.30214455723762512 0.27551686763763428
0.6016497015953064 0.32250821590423584 0.27236741781234741
0.74780941009521484 0.35094806551933289 0.26614290475845337
0.84913867712020874 0.39763781428337097 0.26421049237251282
0.91128343343734741 0.45106709003448486 0.26832181215286255
0.94808101654052734 0.50425577163696289 0.28352606296539307
0.96947562694549561 0.56076455116271973 0.31568101048469543
0.23292522132396698 0.29538735747337341 0.27786719799041748
0.23896457254886627 0.29876446723937988 0.2770501971244812
0.24942357838153839 0.29883939027786255 0.27612957358360291
0.26358845829963684 0.297843337059021 0.27519932389259338
0.29198265075683594 0.29960125684738159 0.27504870295524597
0.3560178279876709 0.30684226751327515 0.27535659074783325
0.47470295429229736 0.32048654556274414 0.27216991782188416
0.6256905198097229 0.34587019681930542 0.26818719506263733
0.75742000341415405 0.38043510913848877 0.26236405968666077
0.85084527730941772 0.42718896269798279 0.25958609580993652
0.90706276893615723 0.474741131067276 0.26495459675788879
0.94167214632034302 0.52353763580322266 0.2825482189655304
0.96616894006729126 0.57376617193222046 0.31393349170684814
0.23161354660987854 0.30893608927726746 0.27833276987075806
0.23714357614517212 0.31161624193191528 0.27766492962837219
0.2462921142578125 0.30980339646339417 0.27737361192703247
0.26849573850631714 0.31361478567123413 0.27699750661849976
0.31076815724372864 0.32206073403358459 0.27577024698257446
0.38516625761985779 0.3346673846244812 0.27282625436782837
0.50539344549179077 0.3538934588432312 0.26744726300239563
0.64606583118438721 0.38315823674201965 0.26113766431808472
0.76339125633239746 0.42079564929008484 0.25535672903060913
0.84840059280395508 0.46280941367149353 0.25260969996452332
0.90035390853881836 0.50292152166366577 0.25868263840675354
0.93672424554824829 0.54459792375564575 0.27725687623023987
0.95989412069320679 0.59049898386001587 0.31157645583152771
0.22055736184120178 0.33815702795982361 0.2770768404006958
0.22441951930522919 0.34159168601036072 0.27636030316352844
0.23580721020698547 0.34555250406265259 0.27622652053833008
0.26847934722900391 0.35126498341560364 0.27677375078201294
0.32176101207733154 0.36478075385093689 0.27421161532402039
0.41037461161613464 0.38835334777832031 0.26961854100227356
0.53624868392944336 0.41821193695068359 0.26283243298530579
0.65937137603759766 0.43905961513519287 0.25402498245239258
0.76389962434768677 0.4684385359287262 0.24705062806606293
0.83870691061019897 0.50302749872207642 0.24601693451404572
0.88935118913650513 0.53772830963134766 0.25328406691551208
0.92685765027999878 0.57226425409317017 0.27437135577201843
0.95235425233840942 0.61170476675033569 0.31030824780464172
0.17633810639381409 0.39750310778617859 0.27253195643424988
0.1863684207201004 0.40071415901184082 0.27232453227043152
0.20882256329059601 0.40657347440719604 0.27232491970062256
0.2508825957775116 0.4149133563041687 0.27266836166381836
0.32092848420143127 0.43251797556877136 0.26925748586654663
0.42226645350456238 0.45925551652908325 0.26418375968933105
0.55401676893234253 0.4961152970790863 0.25679200887680054
0.67050409317016602 0.52100282907485962 0.24911363422870636
0.76396626234054565 0.53872412443161011 0.24453413486480713
0.83190757036209106 0.55237948894500732 0.23985894024372101
0.8833586573600769 0.57656526565551758 0.24606482684612274
0.91932255029678345 0.60636848211288452 0.2699735164642334
0.94690424203872681 0.63871932029724121 0.30831968784332275
0.070209980010986328 0.47836410999298096 0.26426243782043457
0.10336762666702271 0.47848275303840637 0.26457571983337402
0.1517290323972702 0.48397675156593323 0.26485779881477356
0.22004973888397217 0.4901043176651001 0.26644203066825867
0.31043210625648499 0.5058559775352478 0.26339229941368103
0.41798532009124756 0.52941548824310303 0.26035347580909729
0.54256248474121094 0.55929291248321533 0.25776532292366028
0.66773104667663574 0.5944821834564209 0.25497758388519287
0.76307010650634766 0.61853706836700439 0.25607240200042725
0.82803386449813843 0.62656766176223755 0.25585904717445374
0.87746602296829224 0.63103312253952026 0.25993829965591431
0.91329699754714966 0.64129996299743652 0.27175235748291016
0.93948107957839966 0.66458296775817871 0.30655685067176819
0.0017221637535840273 0.56888514757156372 0.2611253559589386
0.010158403776586056 0.56764417886734009 0.25981563329696655
0.072366230189800262 0.56824725866317749 0.25939679145812988
0.18466761708259583 0.56913787126541138 0.26157811284065247
0.29437169432640076 0.5808836817741394 0.26341655850410461
0.41484791040420532 0.5991395115852356 0.2660335898399353
0.53402090072631836 0.61986082792282104 0.26990124583244324
0.64797085523605347 0.64352774620056152 0.27654001116752625
0.74933373928070068 0.6705893874168396 0.28355729579925537
0.81702113151550293 0.68467193841934204 0.29455620050430298
0.86389583349227905 0.68458586931228638 0.30565711855888367
0.90171265602111816 0.68833118677139282 0.3154853880405426
0.92888772487640381 0.69781351089477539 0.33480501174926758
0.0039697084575891495 0.64341640472412109 0.26506286859512329
0.0062117781490087509 0.64131850004196167 0.26233723759651184
0.068931117653846741 0.64127713441848755 0.26150476932525635
0.19556625187397003 0.64257121086120605 0.26671978831291199
0.30537316203117371 0.64999836683273315 0.27227550745010376
0.42217609286308289 0.66365939378738403 0.27834397554397583
0.53529727458953857 0.67730671167373657 0.28864315152168274
0.63969439268112183 0.69056433439254761 0.30220088362693787
0.72999286651611328 0.70421767234802246 0.31884950399398804
0.80314004421234131 0.7225874662399292 0.34195807576179504
0.85497331619262695 0.73119628429412842 0.36056089401245117
0.89097028970718384 0.73362451791763306 0.37666696310043335
0.91730940341949463 0.73751205205917358 0.39513677358627319
0.08810107409954071 0.70985692739486694 0.27761852741241455
0.12329567968845367 0.70761728286743164 0.27796518802642822
0.19569946825504303 0.70619088411331177 0.2819715142250061
0.2756359875202179 0.70487308502197266 0.28820490837097168
0.36200469732284546 0.70814996957778931 0.2965582013130188
0.45440608263015747 0.71368110179901123 0.3062274158000946
0.55206358432769775 0.72099602222442627 0.32179343700408936
0.644012451171875 0.73066067695617676 0.33816236257553101
0.72373777627944946 0.74089187383651733 0.35938924551010132
0.79034018516540527 0.75145941972732544 0.38523465394973755
0.84754812717437744 0.76153242588043213 0.41072538495063782
0.88480406999588013 0.76831364631652832 0.43386349081993103
0.91003572940826416 0.77333682775497437 0.45245015621185303
0.30566543340682983 0.75838899612426758 0.32144150137901306
0.31577056646347046 0.7555619478225708 0.32093212008476257
0.34864556789398193 0.75359022617340088 0.32454925775527954
0.3914044201374054 0.75192958116531372 0.32876837253570557
0.45382475852966309 0.75206941366195679 0.33932244777679443
0.52398037910461426 0.75584971904754639 0.35223543643951416
0.60444849729537964 0.75918328762054443 0.36907479166984558
0.68005543947219849 0.762989342212677 0.3874933123588562
0.73676109313964844 0.76811075210571289 0.40453743934631348
0.79391491413116455 0.77596366405487061 0.42711871862411499
0.84287315607070923 0.78178459405899048 0.44887763261795044
0.88078916072845459 0.78773719072341919 0.47328346967697144
0.90870344638824463 0.79365295171737671 0.4943525493144989
0.49340677261352539 0.79483336210250854 0.38685446977615356
0.49375441670417786 0.7898680567741394 0.38836047053337097
0.50976759195327759 0.7875027060508728 0.39109191298484802
0.53839719295501709 0.78897237777709961 0.39330878853797913
0.57961827516555786 0.7885977029800415 0.40251955389976501
0.62302368879318237 0.78922575712203979 0.4149760901927948
0.6767195463180542 0.78901869058609009 0.43209683895111084
0.73712509870529175 0.78894293308258057 0.4497428834438324
0.77914124727249146 0.79223549365997314 0.46186107397079468
0.81774294376373291 0.79765975475311279 0.47647938132286072
0.85105443000793457 0.80047231912612915 0.49495390057563782
0.88387995958328247 0.80335140228271484 0.51436376571655273
0.91110849380493164 0.80785763263702393 0.53345799446105957
0.66126322746276855 0.81840795278549194 0.46416366100311279
0.66052931547164917 0.8152962327003479 0.46523401141166687
0.66888666152954102 0.81407690048217773 0.46672707796096802
0.68478113412857056 0.81349760293960571 0.47000530362129211
0.70794600248336792 0.81358891725540161 0.47563290596008301
0.73060458898544312 0.81210386753082275 0.48347210884094238
0.76016080379486084 0.81193393468856812 0.49621489644050598
0.79577821493148804 0.81260019540786743 0.50996369123458862
0.8243110179901123 0.81446373462677002 0.51925784349441528
0.84744918346405029 0.81509542465209961 0.52757984399795532
0.87126189470291138 0.81664961576461792 0.53993910551071167
0.89453458786010742 0.81814956665039062 0.55363112688064575
0.91657698154449463 0.8208848237991333 0.56927788257598877
0.23470461368560791 0.28659769892692566 0.28203722834587097
0.23702223598957062 0.28671905398368835 0.27981752157211304
0.24010647833347321 0.28595688939094543 0.2766568660736084
0.24993640184402466 0.28490418195724487 0.27549281716346741
0.27227398753166199 0.28509849309921265 0.27815976738929749
0.32599401473999023 0.28577139973640442 0.28097438812255859
0.44532835483551025 0.28453525900840759 0.28226718306541443
0.6099364161491394 0.29523131251335144 0.28455075621604919
0.75765293836593628 0.32684820890426636 0.28465095162391663
0.85565543174743652 0.37876003980636597 0.28803524374961853
0.91437661647796631 0.44491377472877502 0.30281350016593933
0.94843184947967529 0.50842541456222534 0.32506552338600159
0.96560442447662354 0.56880074739456177 0.35662984848022461
0.23539014160633087 0.29106655716896057 0.28187495470046997
0.2390991598367691 0.29218965768814087 0.28043675422668457
0.24564014375209808 0.2930598258972168 0.2792108952999115
0.25777712464332581 0.29194974899291992 0.27848824858665466
0.28193116188049316 0.29102644324302673 0.28041383624076843
0.34580853581428528 0.2934224009513855 0.2824099063873291
0.47198843955993652 0.29418295621871948 0.28494662046432495
0.63014394044876099 0.31301862001419067 0.28647246956825256
0.76647281646728516 0.35146504640579224 0.2851719856262207
0.85875201225280762 0.40327093005180359 0.29002788662910461
0.91313153505325317 0.46121889352798462 0.30258658528327942
0.94479739665985107 0.52049142122268677 0.32578706741333008
0.9645572304725647 0.57916915416717529 0.35884666442871094
0.23571957647800446 0.29583019018173218 0.28072592616081238
0.24094624817371368 0.29926568269729614 0.28097459673881531
0.24960073828697205 0.30096343159675598 0.28109705448150635
0.26718884706497192 0.30067929625511169 0.28086820244789124
0.29882755875587463 0.30060964822769165 0.28133219480514526
0.37662279605865479 0.30819988250732422 0.28276920318603516
0.50310635566711426 0.31863704323768616 0.28273147344589233
0.65206599235534668 0.3444652259349823 0.28171893954277039
0.77313530445098877 0.38261538743972778 0.28222721815109253
0.85700637102127075 0.43291181325912476 0.28829985857009888
0.90750426054000854 0.48626452684402466 0.30159151554107666
0.93915128707885742 0.53721219301223755 0.32340347766876221
0.96193581819534302 0.59073126316070557 0.35696610808372498
0.23442269861698151 0.30902844667434692 0.28137257695198059
0.23979946970939636 0.31238016486167908 0.28185495734214783
0.24853013455867767 0.31139776110649109 0.28127604722976685
0.27511882781982422 0.31613847613334656 0.28171145915985107
0.31943583488464355 0.32247018814086914 0.28154930472373962
0.40691465139389038 0.33625537157058716 0.28087356686592102
0.53289449214935303 0.35642221570014954 0.27859652042388916
0.66470801830291748 0.38476830720901489 0.27584740519523621
0.7746204137802124 0.42377391457557678 0.27561837434768677
0.85194641351699829 0.46840924024581909 0.28227630257606506
0.90218573808670044 0.51311403512954712 0.29583314061164856
0.93302780389785767 0.55787593126296997 0.32064333558082581
0.95685946941375732 0.60248208045959473 0.35030084848403931
0.2260054349899292 0.3427167534828186 0.28402140736579895
0.22846683859825134 0.34814989566802979 0.28300517797470093
0.24000681936740875 0.35113397240638733 0.28230899572372437
0.27375468611717224 0.3568994402885437 0.28320834040641785
0.33230656385421753 0.36997935175895691 0.28209593892097473
0.43200668692588806 0.39584991335868835 0.27951774001121521
0.55297720432281494 0.41898944973945618 0.27492359280586243
0.67056745290756226 0.43778225779533386 0.26944011449813843
