luts/instant_consumer/polaroid_time_zero_expired_cold.cube
# Created by: G'MIC (https://gmic.eu)
TITLE "polaroid_time_zero_expired_cold"
# LUT size
LUT_3D_SIZE 7
# Data domain
DOMAIN_MIN 0.0 0.0 0.0
DOMAIN_MAX 1.0 1.0 1.0
# LUT data points
0.57260733842849731 0.35639950633049011 0.18808594346046448
0.57912319898605347 0.35274586081504822 0.18566977977752686
0.59895032644271851 0.35536852478981018 0.18854793906211853
0.64115315675735474 0.36132192611694336 0.18975840508937836
0.70663213729858398 0.36869272589683533 0.18820436298847198
0.78465408086776733 0.38252702355384827 0.19289861619472504
0.86425179243087769 0.40463218092918396 0.20873968303203583
0.57598340511322021 0.37096163630485535 0.18600700795650482
0.58543252944946289 0.37029695510864258 0.18859113752841949
0.60867905616760254 0.37479421496391296 0.19223928451538086
0.65282523632049561 0.38255137205123901 0.19091929495334625
0.71797645092010498 0.39266940951347351 0.18552039563655853
0.79575622081756592 0.40697342157363892 0.18723011016845703
0.8760492205619812 0.42877036333084106 0.20363378524780273
0.58680349588394165 0.41401132941246033 0.17846886813640594
0.59909796714782715 0.41444283723831177 0.18251357972621918
0.6254006028175354 0.41867473721504211 0.18732336163520813
0.6712411642074585 0.42884665727615356 0.18597255647182465
0.7329859733581543 0.44175824522972107 0.17711156606674194
0.80661886930465698 0.45625543594360352 0.17521463334560394
0.88297092914581299 0.47591260075569153 0.19118820130825043
0.60700660943984985 0.49349531531333923 0.15675936639308929
0.62077856063842773 0.4930717945098877 0.15852025151252747
0.64917904138565063 0.49875617027282715 0.15845340490341187
0.69572198390960693 0.51023632287979126 0.16635806858539581
0.7536090612411499 0.52360993623733521 0.17070528864860535
0.81834310293197632 0.53831666707992554 0.1709233820438385
0.88406670093536377 0.55398166179656982 0.17152325809001923
0.63315439224243164 0.59562206268310547 0.11645276099443436
0.64684414863586426 0.59544229507446289 0.11231930553913116
0.67600226402282715 0.59967887401580811 0.10048189014196396
0.72239243984222412 0.60989022254943848 0.1278357058763504
0.77759158611297607 0.62403684854507446 0.16581594944000244
0.83623075485229492 0.64178955554962158 0.20765411853790283
0.89172184467315674 0.65456783771514893 0.22987349331378937
0.66900873184204102 0.70473551750183105 0.066604644060134888
0.68177354335784912 0.70483267307281494 0.055833164602518082
0.70929843187332153 0.70588421821594238 0.023714281618595123
0.75126689672470093 0.71319359540939331 0.063767679035663605
0.80477690696716309 0.72243434190750122 0.15022937953472137
0.85975080728530884 0.7365761399269104 0.24657295644283295
0.91023850440979004 0.74944972991943359 0.3351290225982666
0.73884284496307373 0.81053918600082397 0.13098789751529694
0.7459723949432373 0.81053918600082397 0.11226918548345566
0.76936274766921997 0.81053715944290161 0.10315676033496857
0.7999647855758667 0.81509178876876831 0.085049994289875031
0.84677302837371826 0.81704133749008179 0.1882234513759613
0.8961482048034668 0.82075589895248413 0.30877169966697693
0.94083058834075928 0.82638436555862427 0.42537140846252441
0.57286304235458374 0.35381788015365601 0.19379699230194092
0.5791773796081543 0.35254797339439392 0.19443076848983765
0.59800559282302856 0.35680603981018066 0.19824238121509552
0.64003497362136841 0.3623950183391571 0.20246259868144989
0.70783239603042603 0.36890384554862976 0.2092086523771286
0.7897375226020813 0.38346806168556213 0.21661376953125
0.87190115451812744 0.40936329960823059 0.23013439774513245
0.57682198286056519 0.3703673779964447 0.19692185521125793
0.58638077974319458 0.37224766612052917 0.20000191032886505
0.60933768749237061 0.37809228897094727 0.20499369502067566
0.65317171812057495 0.38407862186431885 0.20827414095401764
0.71874463558197021 0.3899395763874054 0.20840463042259216
0.79826050996780396 0.40311327576637268 0.21019618213176727
0.87941515445709229 0.42817220091819763 0.22248382866382599
0.58744782209396362 0.41482144594192505 0.19638410210609436
0.59994775056838989 0.41780379414558411 0.19819523394107819
0.62734317779541016 0.42552638053894043 0.20189616084098816
0.6736295223236084 0.43323895335197449 0.20611536502838135
0.73228734731674194 0.43787103891372681 0.19781354069709778
0.80611246824264526 0.45013216137886047 0.19661267101764679
0.885356605052948 0.47450259327888489 0.21174043416976929
0.60736191272735596 0.49621054530143738 0.18368656933307648
0.62023991346359253 0.49853622913360596 0.18089957535266876
0.64999067783355713 0.50682753324508667 0.18039242923259735
0.70111632347106934 0.51884126663208008 0.19781923294067383
0.755970299243927 0.52489924430847168 0.20020483434200287
0.81868153810501099 0.53519576787948608 0.19697725772857666
0.88589954376220703 0.55350470542907715 0.19978277385234833
0.63557881116867065 0.60176420211791992 0.15489348769187927
0.64738041162490845 0.60227996110916138 0.14731253683567047
0.67642432451248169 0.60643273591995239 0.13885796070098877
0.72553247213363647 0.61700165271759033 0.16358600556850433
0.78206139802932739 0.62866759300231934 0.20188209414482117
0.83803164958953857 0.64122062921524048 0.23239387571811676
0.88991266489028931 0.65400892496109009 0.24858531355857849
0.67490851879119873 0.7085568904876709 0.12307130545377731
0.68673181533813477 0.7098313570022583 0.11527258157730103
0.71136921644210815 0.7102961540222168 0.089266248047351837
0.75246471166610718 0.71647679805755615 0.10566742718219757
0.80787104368209839 0.72490233182907104 0.1819397509098053
0.86169111728668213 0.73626840114593506 0.26993724703788757
0.90767645835876465 0.75261330604553223 0.36060628294944763
0.73724520206451416 0.80930042266845703 0.17057874798774719
0.74945873022079468 0.81151896715164185 0.17277732491493225
0.77013188600540161 0.81147772073745728 0.15619395673274994
0.79936903715133667 0.81512051820755005 0.13980652391910553
0.84878814220428467 0.81929868459701538 0.22311101853847504
0.89947891235351562 0.82311064004898071 0.33406928181648254
0.93839985132217407 0.82656854391098022 0.42382031679153442
0.5893244743347168 0.35695075988769531 0.22677192091941833
0.59653574228286743 0.35711294412612915 0.23236572742462158
0.61223512887954712 0.36381474137306213 0.23637522757053375
0.6484367847442627 0.36981984972953796 0.23963925242424011
0.71553254127502441 0.37264612317085266 0.25530311465263367
0.79888719320297241 0.3854166567325592 0.27135524153709412
0.88112914562225342 0.41602501273155212 0.28083077073097229
0.5947079062461853 0.37553456425666809 0.23506425321102142
0.60589778423309326 0.38095325231552124 0.2394050806760788
0.62617093324661255 0.38806301355361938 0.2454763799905777
0.66408079862594604 0.39135879278182983 0.25096642971038818
0.72700637578964233 0.39277786016464233 0.26113921403884888
0.80429565906524658 0.40205079317092896 0.26621386408805847
0.88294535875320435 0.42891374230384827 0.27383613586425781
0.60262221097946167 0.41844788193702698 0.23738482594490051
0.61747103929519653 0.42730137705802917 0.23829379677772522
0.64168781042098999 0.435129314661026 0.24033154547214508
0.68142807483673096 0.4382311999797821 0.24586786329746246
0.73642987012863159 0.43784978985786438 0.24521532654762268
0.8096739649772644 0.4489072859287262 0.25135517120361328
0.88753271102905273 0.4783690869808197 0.26749637722969055
0.61915332078933716 0.49820259213447571 0.23112279176712036
0.63100248575210571 0.50341498851776123 0.22674304246902466
0.65711754560470581 0.51085007190704346 0.22275786101818085
0.70653229951858521 0.52200406789779663 0.24415433406829834
0.75982666015625 0.52693051099777222 0.25037661194801331
0.82142448425292969 0.53469693660736084 0.24771584570407867
0.89186638593673706 0.55774587392807007 0.2625795304775238
0.64572197198867798 0.60635924339294434 0.22574532032012939
0.65413063764572144 0.60584276914596558 0.21798115968704224
0.6789252758026123 0.60741877555847168 0.20627063512802124
0.72598975896835327 0.61900788545608521 0.22300076484680176
0.78479713201522827 0.63508373498916626 0.26713746786117554
0.84105592966079712 0.64550924301147461 0.29092252254486084
0.89147466421127319 0.65303254127502441 0.28515490889549255
0.68209683895111084 0.71080690622329712 0.21768419444561005
0.69268625974655151 0.71406346559524536 0.21638590097427368
0.71409076452255249 0.71275144815444946 0.19434185326099396
0.75063467025756836 0.71760135889053345 0.18575289845466614
0.80679982900619507 0.72879433631896973 0.23997500538825989
0.86176919937133789 0.73962187767028809 0.31934699416160583
0.90632861852645874 0.75010812282562256 0.37963387370109558
0.73842304944992065 0.8089669942855835 0.26065129041671753
0.75317621231079102 0.81294423341751099 0.26637464761734009
0.77085214853286743 0.81286764144897461 0.24675160646438599
0.79597717523574829 0.81474441289901733 0.2142414003610611
0.84566199779510498 0.81929659843444824 0.26818320155143738
0.89655357599258423 0.82287222146987915 0.36249175667762756
0.93789440393447876 0.82868474721908569 0.45581620931625366
0.63074803352355957 0.36415645480155945 0.31968027353286743
0.63848257064819336 0.36705338954925537 0.32404491305351257
0.65201872587203979 0.37691405415534973 0.33024433255195618
0.67925292253494263 0.38562199473381042 0.33074468374252319
0.72907668352127075 0.38514244556427002 0.32955172657966614
0.80871915817260742 0.38878357410430908 0.3606087863445282
0.88706678152084351 0.41280126571655273 0.37862458825111389
0.63948804140090942 0.39201408624649048 0.32366037368774414
0.65258288383483887 0.40120765566825867 0.32952037453651428
0.6672828197479248 0.4085480272769928 0.3369147777557373
0.69300836324691772 0.41188517212867737 0.34111028909683228
0.73959141969680786 0.40718251466751099 0.34180402755737305
0.80999422073364258 0.40830442309379578 0.35482478141784668
0.88651961088180542 0.4319230318069458 0.37396770715713501
0.64561963081359863 0.43742132186889648 0.31989362835884094
0.66332238912582397 0.45232394337654114 0.32472863793373108
0.67936748266220093 0.45861074328422546 0.32836273312568665
0.70417392253875732 0.46154424548149109 0.32851386070251465
0.74556601047515869 0.45404517650604248 0.32582351565361023
0.81763404607772827 0.45854365825653076 0.34836620092391968
0.89021217823028564 0.49193695187568665 0.36132276058197021
0.65002214908599854 0.50282758474349976 0.3055177628993988
0.66328102350234985 0.51284563541412354 0.3089490532875061
0.6823352575302124 0.51837313175201416 0.3098720908164978
0.71771198511123657 0.53027927875518799 0.32017210125923157
0.76520240306854248 0.53607869148254395 0.32319462299346924
0.82485073804855347 0.5367969274520874 0.32327771186828613
0.8920477032661438 0.56267052888870239 0.33863756060600281
0.66037571430206299 0.59508228302001953 0.30016830563545227
0.66990798711776733 0.60118257999420166 0.3051832914352417
0.68991947174072266 0.60179895162582397 0.29955339431762695
0.72912955284118652 0.61827129125595093 0.31103816628456116
0.78265213966369629 0.6342930793762207 0.33300244808197021
0.83977949619293213 0.64003944396972656 0.3468824028968811
0.89346134662628174 0.64844238758087158 0.33532822132110596
0.68684709072113037 0.70403808355331421 0.31188130378723145
0.69641363620758057 0.7096555233001709 0.31618443131446838
0.71775543689727783 0.70865178108215332 0.30709466338157654
0.74888724088668823 0.71697652339935303 0.29610183835029602
0.80016767978668213 0.72923934459686279 0.31410840153694153
0.86090147495269775 0.74545907974243164 0.39565664529800415
0.90918588638305664 0.75404566526412964 0.43784043192863464
0.73687613010406494 0.8063780665397644 0.35750719904899597
0.75483065843582153 0.81296217441558838 0.36694726347923279
0.77230328321456909 0.81332367658615112 0.35485368967056274
0.79401898384094238 0.81518959999084473 0.32287690043449402
0.83626639842987061 0.81831759214401245 0.32806950807571411
0.89202898740768433 0.82430189847946167 0.40659651160240173
0.94019192457199097 0.83120077848434448 0.50234073400497437
0.68932050466537476 0.38725876808166504 0.45270109176635742
0.69616281986236572 0.39192301034927368 0.45368105173110962
0.70778155326843262 0.40526464581489563 0.4588032066822052
0.73089408874511719 0.42238691449165344 0.46735239028930664
0.76331353187561035 0.4301876425743103 0.45570474863052368
0.81526845693588257 0.42470607161521912 0.4515678882598877
0.88653439283370972 0.43130877614021301 0.48295074701309204
0.70330929756164551 0.42999932169914246 0.45053160190582275
0.71408665180206299 0.43817201256752014 0.45515027642250061
0.72308892011642456 0.44514185190200806 0.46098330616950989
0.74067485332489014 0.45538371801376343 0.46805819869041443
0.76964622735977173 0.46006250381469727 0.4594636857509613
0.81491392850875854 0.44934076070785522 0.44636631011962891
0.88493901491165161 0.45332390069961548 0.48362711071968079
0.71344673633575439 0.48708555102348328 0.44199308753013611
0.72704845666885376 0.4991755485534668 0.44760429859161377
0.73590058088302612 0.5064704418182373 0.45451286435127258
0.75417369604110718 0.52182430028915405 0.46266499161720276
0.77760452032089233 0.51640415191650391 0.45220360159873962
0.82302433252334595 0.50124114751815796 0.44907054305076599
0.88960164785385132 0.51020801067352295 0.47591161727905273
0.70867329835891724 0.53965091705322266 0.42632600665092468
0.7196471095085144 0.54875040054321289 0.42858126759529114
0.73435628414154053 0.55947417020797729 0.43611451983451843
0.76183193922042847 0.58283817768096924 0.45214724540710449
0.79285740852355957 0.58725637197494507 0.44945609569549561
0.83347100019454956 0.56703025102615356 0.44323128461837769
0.89384317398071289 0.56644523143768311 0.46411797404289246
0.69919949769973755 0.60656589269638062 0.41146260499954224
0.70882952213287354 0.61215782165527344 0.41008579730987549
0.72837430238723755 0.61860924959182739 0.41587081551551819
0.75845795869827271 0.64074063301086426 0.43154245615005493
0.79710513353347778 0.65272551774978638 0.42985683679580688
0.84306371212005615 0.64301717281341553 0.42125025391578674
0.8977997899055481 0.6438450813293457 0.42823648452758789
0.70427578687667847 0.70210379362106323 0.40951347351074219
0.71070396900177002 0.70470786094665527 0.40345451235771179
0.73746722936630249 0.70471727848052979 0.41353052854537964
0.76353609561920166 0.72069805860519409 0.42637774348258972
0.80177491903305054 0.72927790880203247 0.4095948338508606
0.86311101913452148 0.74993324279785156 0.47656795382499695
0.91291898488998413 0.75352972745895386 0.48321464657783508
0.73815023899078369 0.80217289924621582 0.44583919644355774
0.74552839994430542 0.80970889329910278 0.44424518942832947
0.77453708648681641 0.8088688850402832 0.45851755142211914
0.79604941606521606 0.81334066390991211 0.45048832893371582
0.83130061626434326 0.81967365741729736 0.43669965863227844
0.8881726861000061 0.83225113153457642 0.47512111067771912
0.9355284571647644 0.84194743633270264 0.57151442766189575
0.75322282314300537 0.45345103740692139 0.58648228645324707
0.75649219751358032 0.4539560079574585 0.58475339412689209
0.76368433237075806 0.46711009740829468 0.58346211910247803
0.78013545274734497 0.48986539244651794 0.5889478325843811
0.80626595020294189 0.51438814401626587 0.59517210721969604
0.83521777391433716 0.52075159549713135 0.58195292949676514
0.88084495067596436 0.51745623350143433 0.57811528444290161
0.76696693897247314 0.50034970045089722 0.5824771523475647
0.77199578285217285 0.50229805707931519 0.58312517404556274
0.77725416421890259 0.50923293828964233 0.58521443605422974
0.79053646326065063 0.52731496095657349 0.59303557872772217
0.81470632553100586 0.55066674947738647 0.6031181812286377
0.84126967191696167 0.55290096998214722 0.58818811178207397
0.88292032480239868 0.5404667854309082 0.58147966861724854
0.78118008375167847 0.56174975633621216 0.57632404565811157
0.78544908761978149 0.56343185901641846 0.57786905765533447
0.79057604074478149 0.56983101367950439 0.58319813013076782
0.80295842885971069 0.5873725414276123 0.59291607141494751
0.82148754596710205 0.60297048091888428 0.5959782600402832
0.84420633316040039 0.59594202041625977 0.57737272977828979
0.88410729169845581 0.57370662689208984 0.56719529628753662
0.78347760438919067 0.61199760437011719 0.57061219215393066
0.78615927696228027 0.61244630813598633 0.56810927391052246
0.794688880443573 0.62099659442901611 0.57414776086807251
0.81299453973770142 0.64228063821792603 0.58821600675582886
0.83367407321929932 0.66301172971725464 0.59674137830734253
0.85152649879455566 0.65526890754699707 0.57774597406387329
0.89052015542984009 0.622475266456604 0.58255094289779663
0.76250284910202026 0.65215480327606201 0.55510824918746948
0.77172988653182983 0.65726315975189209 0.54988467693328857
0.78907757997512817 0.66519367694854736 0.55518031120300293
0.81410163640975952 0.68574649095535278 0.5708392858505249
0.83765965700149536 0.70566672086715698 0.57596844434738159
0.86189830303192139 0.70570284128189087 0.57465666532516479
0.89764362573623657 0.6752694845199585 0.57393091917037964
0.7542150616645813 0.7206462025642395 0.54111719131469727
0.76143485307693481 0.722312331199646 0.53442525863647461
0.78328293561935425 0.72361534833908081 0.53878486156463623
0.80736368894577026 0.73726677894592285 0.55113142728805542
0.83392781019210815 0.7527967095375061 0.55434513092041016
0.8700675368309021 0.76388704776763916 0.57111799716949463
0.91187739372253418 0.74754363298416138 0.5668410062789917
0.77131813764572144 0.80244171619415283 0.56099212169647217
0.77589321136474609 0.80576938390731812 0.55617958307266235
0.79491239786148071 0.80594849586486816 0.56200212240219116
0.81326282024383545 0.8089098334312439 0.5650600790977478
0.83869248628616333 0.81830281019210815 0.57250726222991943
0.8806949257850647 0.82999706268310547 0.56741565465927124
0.93082696199417114 0.83785903453826904 0.63483333587646484
0.81427192687988281 0.56730359792709351 0.70551472902297974
0.81301230192184448 0.55713075399398804 0.70220202207565308
0.81540274620056152 0.56132084131240845 0.69841545820236206
0.82570189237594604 0.57992243766784668 0.6998479962348938
0.84436947107315063 0.60650098323822021 0.70789062976837158
0.86604958772659302 0.63263070583343506 0.72211217880249023
0.89240002632141113 0.63861888647079468 0.70886582136154175
0.82186275720596313 0.60014265775680542 0.7027885913848877
0.82282078266143799 0.59551542997360229 0.70232844352722168
0.82575434446334839 0.59890198707580566 0.70203244686126709
0.8342319130897522 0.6151004433631897 0.70440375804901123
0.85123199224472046 0.63799083232879639 0.71554750204086304
0.87111693620681763 0.65625381469726562 0.72213125228881836
0.89496225118637085 0.65562343597412109 0.70828437805175781
0.83194726705551147 0.64777618646621704 0.7025408148765564
0.83323222398757935 0.64459335803985596 0.70224297046661377
0.83759009838104248 0.64683073759078979 0.70409172773361206
0.84538477659225464 0.66015094518661499 0.70873367786407471
0.85861480236053467 0.67577093839645386 0.71557879447937012
0.87439119815826416 0.6851610541343689 0.71469128131866455
0.89538484811782837 0.68346607685089111 0.70505118370056152
0.84112644195556641 0.69105523824691772 0.70471811294555664
0.84172326326370239 0.68798035383224487 0.70376163721084595
0.84743928909301758 0.68962728977203369 0.70689016580581665
0.85898715257644653 0.70247459411621094 0.71384567022323608
0.87016159296035767 0.71952599287033081 0.71891552209854126
0.88184446096420288 0.73172557353973389 0.72209626436233521
0.89863842725753784 0.72204697132110596 0.71115881204605103
0.82864540815353394 0.72124522924423218 0.700153648853302
0.83551645278930664 0.72243320941925049 0.70111870765686035
0.84810471534729004 0.72579056024551392 0.70283675193786621
0.8673974871635437 0.73769360780715942 0.71181607246398926
0.87869036197662354 0.75376063585281372 0.71636569499969482
0.88688844442367554 0.76610851287841797 0.7202533483505249
0.90316140651702881 0.75702297687530518 0.71070617437362671
0.81816774606704712 0.76371747255325317 0.69181495904922485
0.82649034261703491 0.76725554466247559 0.696555495262146
0.84053540229797363 0.76750850677490234 0.69317340850830078
0.8605194091796875 0.77307897806167603 0.69861418008804321
0.87779611349105835 0.78690391778945923 0.71129471063613892
0.89452958106994629 0.8070257306098938 0.73219364881515503
0.92151957750320435 0.79976952075958252 0.73374980688095093
0.82474595308303833 0.8204229474067688 0.70073807239532471
0.82926791906356812 0.82400012016296387 0.70138198137283325
0.83976984024047852 0.82416719198226929 0.69995963573455811
0.85406672954559326 0.8233075737953186 0.70133775472640991
0.87307381629943848 0.82751834392547607 0.71276229619979858
0.89649683237075806 0.84441554546356201 0.72967910766601562
0.9344976544380188 0.84578728675842285 0.7382349967956543
