luts/instant_consumer/polaroid_px-680_-.cube
# Created by: G'MIC (https://gmic.eu)
TITLE "polaroid_px-680_-"
# LUT size
LUT_3D_SIZE 13
# Data domain
DOMAIN_MIN 0.0 0.0 0.0
DOMAIN_MAX 1.0 1.0 1.0
# LUT data points
0.0039052178617566824 0.12126971781253815 0.16582313179969788
0.017087120562791824 0.11756306141614914 0.16639196872711182
0.069380424916744232 0.11451368033885956 0.16716767847537994
0.1385662704706192 0.11345003545284271 0.16580268740653992
0.24209749698638916 0.11556628346443176 0.16640925407409668
0.37295964360237122 0.11903258413076401 0.16890205442905426
0.52457261085510254 0.13584053516387939 0.17239768803119659
0.66485929489135742 0.17240066826343536 0.17417514324188232
0.77601408958435059 0.22721141576766968 0.17921340465545654
0.84890598058700562 0.29201307892799377 0.19410593807697296
0.90136265754699707 0.35772207379341125 0.2202947586774826
0.94493001699447632 0.42703709006309509 0.25388967990875244
0.97544324398040771 0.49008160829544067 0.29543367028236389
0.0014622856397181749 0.12510684132575989 0.16504131257534027
0.013517746701836586 0.12285492569208145 0.16544736921787262
0.077320292592048645 0.1273045688867569 0.1678144782781601
0.15483030676841736 0.13167357444763184 0.16741575300693512
0.25022748112678528 0.13525396585464478 0.16633054614067078
0.38325729966163635 0.14739653468132019 0.16858227550983429
0.53408491611480713 0.16666717827320099 0.16908736526966095
0.67222249507904053 0.20592238008975983 0.17101866006851196
0.77519106864929199 0.25727912783622742 0.1774851381778717
0.84587007761001587 0.31725761294364929 0.19462160766124725
0.89620989561080933 0.37989118695259094 0.22362279891967773
0.94329607486724854 0.43995007872581482 0.25356549024581909
0.97574520111083984 0.49982815980911255 0.29668799042701721
0.00012655819591600448 0.15113911032676697 0.1685347706079483
0.0078113628551363945 0.15518629550933838 0.16997797787189484
0.064129218459129333 0.16401180624961853 0.17177753150463104
0.15304002165794373 0.17482666671276093 0.17090591788291931
0.26601579785346985 0.18240292370319366 0.16922047734260559
0.40112212300300598 0.19444164633750916 0.1675722748041153
0.55024069547653198 0.22334155440330505 0.16637836396694183
0.67863941192626953 0.26085802912712097 0.16951827704906464
0.7732158899307251 0.30451241135597229 0.1747724711894989
0.84189999103546143 0.35615456104278564 0.19122301042079926
0.89290612936019897 0.408670574426651 0.21933744847774506
0.93856340646743774 0.46426966786384583 0.25202557444572449
0.97157245874404907 0.51836973428726196 0.29661533236503601
0.000687647785525769 0.20684316754341125 0.17740762233734131
0.0039538065902888775 0.21140493452548981 0.17748114466667175
0.031697832047939301 0.21719679236412048 0.17670615017414093
0.13984082639217377 0.23340168595314026 0.17492325603961945
0.28134831786155701 0.25659286975860596 0.17114189267158508
0.4257967472076416 0.27946275472640991 0.16571988165378571
0.56243091821670532 0.29536670446395874 0.15891292691230774
0.67961633205413818 0.32533857226371765 0.15976880490779877
0.7680431604385376 0.36186656355857849 0.16514343023300171
0.83544707298278809 0.40238803625106812 0.18360760807991028
0.88829100131988525 0.44525343179702759 0.21096205711364746
0.9323270320892334 0.49034911394119263 0.24590574204921722
0.96636730432510376 0.54151827096939087 0.29427018761634827
0.00089690263848751783 0.29172274470329285 0.1858510822057724
0.0036936143878847361 0.30004629492759705 0.18572796881198883
0.0087618958204984665 0.30492311716079712 0.18443688750267029
0.095893591642379761 0.32019510865211487 0.1811581552028656
0.2661164402961731 0.35466054081916809 0.17498290538787842
0.43440163135528564 0.38676661252975464 0.16296324133872986
0.56765145063400269 0.40347078442573547 0.15386486053466797
0.67425578832626343 0.40924766659736633 0.1495615690946579
0.75934988260269165 0.42516419291496277 0.1523444801568985
0.82447844743728638 0.45674195885658264 0.17016181349754333
0.87905377149581909 0.49175703525543213 0.19841901957988739
0.92081373929977417 0.52958947420120239 0.23805254697799683
0.95387661457061768 0.57099562883377075 0.28380569815635681
0.00013212316844146699 0.39450269937515259 0.19205106794834137
0.0030352124013006687 0.4027332067489624 0.19229687750339508
0.005303745623677969 0.41036421060562134 0.19116120040416718
0.032840311527252197 0.41865769028663635 0.18698565661907196
0.2090412825345993 0.44690540432929993 0.18399584293365479
0.39541900157928467 0.48149150609970093 0.17235739529132843
0.55548429489135742 0.50815743207931519 0.1593298614025116
0.66519922018051147 0.51552903652191162 0.15466895699501038
0.74648910760879517 0.51320314407348633 0.15649208426475525
0.81399142742156982 0.51641643047332764 0.16286492347717285
0.86848163604736328 0.53542721271514893 0.18570622801780701
0.90977770090103149 0.56739610433578491 0.22622206807136536
0.94380545616149902 0.59969609975814819 0.27272972464561462
0 0.49131262302398682 0.19696557521820068
0.0035162682179361582 0.49797177314758301 0.20074866712093353
0.0041345185600221157 0.50255614519119263 0.20172595977783203
0.0069646197371184826 0.5095827579498291 0.19910719990730286
0.13516555726528168 0.52922248840332031 0.19737827777862549
0.33944055438041687 0.55259472131729126 0.19672934710979462
0.49969345331192017 0.5755305290222168 0.19018305838108063
0.63888400793075562 0.59822911024093628 0.18263459205627441
0.73149096965789795 0.60313421487808228 0.18301862478256226
0.79851293563842773 0.6015591025352478 0.19149577617645264
0.85257679224014282 0.60103774070739746 0.20483870804309845
0.89936226606369019 0.60793519020080566 0.22702576220035553
0.93870997428894043 0.63063687086105347 0.26581430435180664
0 0.57357460260391235 0.20996502041816711
0.0015083611942827702 0.57482659816741943 0.21663407981395721
0.0038291481323540211 0.57820576429367065 0.21926932036876678
0.0053944606333971024 0.58691668510437012 0.21924597024917603
0.081901669502258301 0.59848916530609131 0.21842105686664581
0.29525044560432434 0.61353063583374023 0.22279444336891174
0.45847856998443604 0.63160538673400879 0.22738151252269745
0.59129780530929565 0.65111076831817627 0.22675585746765137
0.70522952079772949 0.6710924506187439 0.2342073917388916
0.78145968914031982 0.67691171169281006 0.24381320178508759
0.83386248350143433 0.67274308204650879 0.25496819615364075
0.882568359375 0.67197996377944946 0.27134543657302856
0.92457640171051025 0.6787344217300415 0.29123169183731079
0 0.64487534761428833 0.23608197271823883
9.6384683274663985e-05 0.64334255456924438 0.23673905432224274
0.0029507954604923725 0.64651477336883545 0.24225164949893951
0.004361515399068594 0.65214163064956665 0.24776318669319153
0.067259572446346283 0.65897470712661743 0.25005745887756348
0.28556397557258606 0.67080503702163696 0.2595629096031189
0.43598377704620361 0.68364870548248291 0.26682189106941223
0.5536847710609436 0.69756984710693359 0.27450317144393921
0.66268014907836914 0.71385097503662109 0.28405424952507019
0.74843615293502808 0.72878587245941162 0.29982173442840576
0.81754958629608154 0.73726457357406616 0.31442651152610779
0.86694490909576416 0.73885166645050049 0.33112823963165283
0.9080236554145813 0.74278861284255981 0.35144069790840149
0.0014444089028984308 0.70580005645751953 0.26921603083610535
0.0027991950046271086 0.70514583587646484 0.27335050702095032
0.0032234042882919312 0.70681387186050415 0.27774888277053833
0.0091091683134436607 0.71068847179412842 0.28285816311836243
0.12610569596290588 0.71560221910476685 0.29183456301689148
0.30540770292282104 0.72176909446716309 0.30543023347854614
0.44069090485572815 0.73042970895767212 0.31813743710517883
0.54653841257095337 0.74147284030914307 0.32620477676391602
0.63435745239257812 0.7529938817024231 0.33445367217063904
0.71455472707748413 0.76751959323883057 0.35048821568489075
0.79425227642059326 0.78520357608795166 0.36723917722702026
0.8489454984664917 0.79574185609817505 0.3878939151763916
0.89503395557403564 0.80404609441757202 0.41101211309432983
0.011921272613108158 0.76303505897521973 0.32013016939163208
0.017526455223560333 0.76296025514602661 0.32295244932174683
0.045974191278219223 0.76366120576858521 0.32584086060523987
0.12950985133647919 0.76560837030410767 0.33241161704063416
0.25666266679763794 0.76768684387207031 0.3451850414276123
0.36330780386924744 0.77084147930145264 0.35859498381614685
0.46476483345031738 0.7776225209236145 0.371397465467453
0.55841714143753052 0.78736644983291626 0.38236269354820251
0.63962465524673462 0.79801094532012939 0.39381644129753113
0.70942002534866333 0.80796009302139282 0.40588396787643433
0.77349168062210083 0.81908982992172241 0.41901057958602905
0.82817411422729492 0.83118897676467896 0.438577800989151
0.87773799896240234 0.84403139352798462 0.45994514226913452
0.21670173108577728 0.82089459896087646 0.39142432808876038
0.24076554179191589 0.82086676359176636 0.39250671863555908
0.28074550628662109 0.82089459896087646 0.39517664909362793
0.33401179313659668 0.82089459896087646 0.4008198082447052
0.39141860604286194 0.82144314050674438 0.4121488630771637
0.45697197318077087 0.82480138540267944 0.4239535927772522
0.52522104978561401 0.82925170660018921 0.43424102663993835
0.59736686944961548 0.83783870935440063 0.44870102405548096
0.66344130039215088 0.84684938192367554 0.46243920922279358
0.72599512338638306 0.85448616743087769 0.47289180755615234
0.77832573652267456 0.86073827743530273 0.48206326365470886
0.82251930236816406 0.86895358562469482 0.49498996138572693
0.86674797534942627 0.87940925359725952 0.51071810722351074
0.44476273655891418 0.87902659177780151 0.4765375554561615
0.45951509475708008 0.87857609987258911 0.47608378529548645
0.47489610314369202 0.8785940408706665 0.47818079590797424
0.49496665596961975 0.87821483612060547 0.48164525628089905
0.53004932403564453 0.87980997562408447 0.49089589715003967
0.56862622499465942 0.88177114725112915 0.50026607513427734
0.60910362005233765 0.88496148586273193 0.50980091094970703
0.66154319047927856 0.89067256450653076 0.52229106426239014
0.70773673057556152 0.89497774839401245 0.53140544891357422
0.75114494562149048 0.90067881345748901 0.54328864812850952
0.79599463939666748 0.90646237134933472 0.55324691534042358
0.83266645669937134 0.91098916530609131 0.56354564428329468
0.86830538511276245 0.91926687955856323 0.57970166206359863
0.0071111344732344151 0.12008264660835266 0.17866845428943634
0.016424546018242836 0.11429057270288467 0.17321796715259552
0.062142644077539444 0.11268208920955658 0.17326398193836212
0.14227648079395294 0.11451020836830139 0.17882645130157471
0.24399450421333313 0.11438504606485367 0.18171210587024689
0.38575324416160583 0.11576657742261887 0.18882869184017181
0.54018676280975342 0.14076690375804901 0.19998656213283539
0.67682564258575439 0.18898136913776398 0.21038010716438293
0.78018760681152344 0.2468852698802948 0.21930982172489166
0.8484305739402771 0.31860896944999695 0.23840534687042236
0.89823037385940552 0.38235735893249512 0.26503506302833557
0.94200766086578369 0.4445330798625946 0.29473733901977539
0.97170782089233398 0.50529652833938599 0.33273625373840332
0.002581487875431776 0.12965594232082367 0.17984330654144287
0.020210819318890572 0.12836669385433197 0.17832687497138977
0.08124244213104248 0.13240139186382294 0.18165639042854309
0.15687568485736847 0.1347644031047821 0.1823149174451828
0.25995030999183655 0.13941711187362671 0.18642328679561615
0.39686363935470581 0.15114061534404755 0.19297617673873901
0.54954147338867188 0.17623640596866608 0.19888463616371155
0.68284386396408081 0.21990783512592316 0.20704081654548645
0.77995604276657104 0.27597051858901978 0.21816074848175049
0.84957206249237061 0.33684757351875305 0.23559080064296722
0.89594572782516479 0.40219229459762573 0.26474687457084656
0.93729209899902344 0.46434494853019714 0.29756218194961548
0.96809953451156616 0.51833689212799072 0.33425787091255188
0.00022496242308989167 0.15662570297718048 0.18507206439971924
0.015577906742691994 0.15959261357784271 0.18545229732990265
0.07737191766500473 0.16870465874671936 0.18911395967006683
0.16566272079944611 0.17846909165382385 0.18948428332805634
0.28083887696266174 0.18436253070831299 0.1887412965297699
0.41805720329284668 0.20418804883956909 0.19306816160678864
0.5627826452255249 0.23314820230007172 0.1974567174911499
0.68692523241043091 0.27346071600914001 0.203899085521698
0.77719306945800781 0.32091993093490601 0.21374413371086121
0.84498685598373413 0.3742375373840332 0.2309872955083847
0.89390742778778076 0.42838558554649353 0.25861701369285583
0.93350744247436523 0.4845258891582489 0.29556044936180115
0.96673417091369629 0.53534209728240967 0.33483383059501648
0.001833687536418438 0.21502512693405151 0.19837912917137146
0.0053868610411882401 0.21636523306369781 0.19560961425304413
0.047418303787708282 0.22632098197937012 0.19625379145145416
0.1585613489151001 0.24282935261726379 0.19674189388751984
0.2977023720741272 0.2612336277961731 0.19321039319038391
0.44037559628486633 0.2811482846736908 0.19035324454307556
0.57300150394439697 0.30318298935890198 0.18928664922714233
0.68742823600769043 0.33439227938652039 0.19322545826435089
0.77196955680847168 0.37352991104125977 0.20317886769771576
0.8390384316444397 0.41498482227325439 0.22187288105487823
0.89024430513381958 0.45734897255897522 0.24966056644916534
0.92817485332489014 0.50746160745620728 0.28975111246109009
0.96173340082168579 0.55762016773223877 0.33104917407035828
0.0020808649715036154 0.30394113063812256 0.20764768123626709
0.0060982047580182552 0.30856770277023315 0.20701836049556732
0.014273908920586109 0.31424614787101746 0.20547561347484589
0.11081423610448837 0.32966756820678711 0.20309191942214966
0.28128117322921753 0.36020961403846741 0.19941738247871399
0.4460567831993103 0.39044448733329773 0.19074884057044983
0.57501941919326782 0.40633502602577209 0.18415679037570953
0.6806902289390564 0.41286391019821167 0.18446299433708191
0.76129364967346191 0.43385088443756104 0.19137029349803925
0.82742077112197876 0.46681860089302063 0.20916417241096497
0.87955814599990845 0.50105297565460205 0.23835554718971252
0.91819089651107788 0.54190820455551147 0.27916938066482544
0.95050692558288574 0.58297359943389893 0.31945112347602844
0.0011402802774682641 0.4057154655456543 0.21226960420608521
0.0041513927280902863 0.40985569357872009 0.21448820829391479
0.0048405216075479984 0.41664877533912659 0.21365432441234589
0.041481480002403259 0.42658320069313049 0.20959904789924622
0.22686193883419037 0.45134803652763367 0.20766988396644592
0.40868398547172546 0.4840545654296875 0.20228409767150879
0.56320279836654663 0.5105929970741272 0.19294479489326477
0.66816425323486328 0.51751244068145752 0.19664530456066132
0.74928629398345947 0.51708453893661499 0.19747054576873779
0.81703025102615356 0.52275484800338745 0.20189578831195831
0.86908406019210815 0.54335010051727295 0.22481770813465118
0.90876638889312744 0.57739627361297607 0.26566764712333679
0.94167131185531616 0.60911852121353149 0.30755484104156494
0 0.50149840116500854 0.2192506343126297
0.0021582809276878834 0.50239360332489014 0.22288884222507477
0.0038755978457629681 0.50634843111038208 0.22368499636650085
0.0095145134255290031 0.51367878913879395 0.22135618329048157
0.16049785912036896 0.53335410356521606 0.22125522792339325
0.35435521602630615 0.55604183673858643 0.22452224791049957
0.51253032684326172 0.57904130220413208 0.22195921838283539
0.64544832706451416 0.60292500257492065 0.21999476850032806
0.73563289642333984 0.60704141855239868 0.22337155044078827
0.80086040496826172 0.60342884063720703 0.23088234663009644
0.8548237681388855 0.60187220573425293 0.24086049199104309
0.89997172355651855 0.61299020051956177 0.2580873966217041
0.93484950065612793 0.63720405101776123 0.29773309826850891
0 0.57984209060668945 0.23505361378192902
0.00021692911104764789 0.57836061716079712 0.24018396437168121
0.0028500875923782587 0.58217442035675049 0.24313752353191376
0.0041887173429131508 0.59012329578399658 0.2426297515630722
0.10709201544523239 0.60125046968460083 0.2426571249961853
0.31015649437904358 0.61560583114624023 0.24974147975444794
0.46997937560081482 0.63387489318847656 0.25509855151176453
0.60179978609085083 0.65661334991455078 0.25923830270767212
0.71159964799880981 0.67664933204650879 0.26432991027832031
0.78409755229949951 0.67927402257919312 0.27620938420295715
0.83616727590560913 0.67208194732666016 0.28808718919754028
0.88407760858535767 0.67340856790542603 0.30003932118415833
0.92350476980209351 0.68622672557830811 0.32581683993339539
0.00030019422410987318 0.64873844385147095 0.25442931056022644
0.0017305262153968215 0.6479792594909668 0.26421675086021423
0.0036646225489675999 0.64946627616882324 0.26841819286346436
0.005398050881922245 0.65495377779006958 0.26877504587173462
0.097528122365474701 0.6620248556137085 0.27247220277786255
0.29683610796928406 0.67172783613204956 0.28118658065795898
0.44534003734588623 0.68473166227340698 0.29091125726699829
0.56300383806228638 0.69974470138549805 0.30015617609024048
0.66936397552490234 0.71759241819381714 0.31065070629119873
0.7532685399055481 0.73212277889251709 0.32717543840408325
0.81738179922103882 0.73661714792251587 0.34139016270637512
0.86639416217803955 0.7404177188873291 0.35834088921546936
0.90661710500717163 0.74796485900878906 0.37981083989143372
0.0034115959424525499 0.70911902189254761 0.28868597745895386
0.0036065792664885521 0.70879024267196655 0.29617184400558472
0.004687200766056776 0.70933568477630615 0.29843613505363464
0.027110530063509941 0.71334713697433472 0.29988229274749756
0.16881634294986725 0.71776914596557617 0.31044724583625793
0.32015776634216309 0.7222292423248291 0.32322824001312256
0.45033144950866699 0.73088878393173218 0.33609607815742493
0.55189043283462524 0.74323219060897827 0.3471519947052002
0.63813292980194092 0.75617015361785889 0.3591148853302002
0.71889364719390869 0.77121740579605103 0.37652945518493652
0.79505658149719238 0.78489404916763306 0.39090946316719055
0.8494410514831543 0.79528796672821045 0.40853828191757202
0.89230316877365112 0.80317312479019165 0.42842593789100647
0.019045885652303696 0.76514554023742676 0.3351885974407196
0.027227513492107391 0.76512187719345093 0.33649787306785583
0.06919407844543457 0.7656325101852417 0.33903923630714417
0.16801144182682037 0.76702499389648438 0.34583172202110291
0.27826979756355286 0.76900392770767212 0.35863474011421204
0.37523570656776428 0.77194154262542725 0.37198221683502197
0.48042431473731995 0.77919793128967285 0.38586735725402832
0.56951606273651123 0.78982079029083252 0.39914590120315552
0.64772123098373413 0.80086231231689453 0.41006776690483093
0.71679508686065674 0.8114284873008728 0.4248146116733551
0.77722454071044922 0.82055127620697021 0.43601971864700317
0.83180886507034302 0.83248257637023926 0.45158198475837708
0.88162386417388916 0.84700417518615723 0.47241172194480896
0.24561122059822083 0.82095026969909668 0.39981463551521301
0.26226004958152771 0.82089459896087646 0.40107536315917969
0.2904210090637207 0.82010835409164429 0.40497365593910217
0.34524360299110413 0.82077318429946899 0.41045615077018738
0.40247336030006409 0.82263201475143433 0.42162278294563293
0.46385923027992249 0.82545578479766846 0.43404754996299744
0.53350925445556641 0.83062458038330078 0.44541949033737183
0.60181128978729248 0.83864760398864746 0.4568365216255188
0.66728132963180542 0.84776240587234497 0.46771851181983948
0.72759097814559937 0.85517144203186035 0.47992700338363647
0.77853798866271973 0.86148655414581299 0.4909331202507019
0.82552629709243774 0.87093877792358398 0.50535100698471069
0.87281841039657593 0.88487309217453003 0.52394801378250122
0.45131686329841614 0.87853825092315674 0.48023813962936401
0.46231839060783386 0.87827390432357788 0.48056560754776001
0.47506451606750488 0.87863874435424805 0.48353025317192078
0.50049501657485962 0.87836146354675293 0.48753848671913147
0.53334653377532959 0.88105964660644531 0.49668094515800476
0.57148367166519165 0.88186919689178467 0.5050310492515564
0.6112750768661499 0.88406282663345337 0.51377004384994507
0.66133964061737061 0.88942575454711914 0.52615004777908325
0.70778733491897583 0.89491456747055054 0.5348430871963501
0.75344520807266235 0.90056723356246948 0.54590737819671631
0.79452729225158691 0.9059525728225708 0.55693483352661133
0.83355772495269775 0.91252917051315308 0.56929230690002441
0.86896544694900513 0.91970449686050415 0.58388715982437134
0.0031100553460419178 0.11676408350467682 0.19769133627414703
0.01936410553753376 0.1162463054060936 0.19453272223472595
0.063635945320129395 0.11790677160024643 0.19369301199913025
0.13327668607234955 0.12049135565757751 0.198955237865448
0.24389353394508362 0.11902863532304764 0.20957864820957184
0.3894992470741272 0.1081811785697937 0.22024373710155487
0.55168408155441284 0.11163171380758286 0.23599673807621002
0.69184869527816772 0.18973742425441742 0.25975975394248962
0.78518068790435791 0.27596980333328247 0.28284358978271484
0.8486020565032959 0.35420745611190796 0.30552488565444946
0.89505964517593384 0.42112964391708374 0.33132398128509521
0.93309605121612549 0.48070192337036133 0.3579687774181366
0.96079283952713013 0.53576475381851196 0.38904199004173279
0.0032629873603582382 0.13378940522670746 0.20543806254863739
0.023082388564944267 0.13592597842216492 0.20519186556339264
0.076086394488811493 0.13906274735927582 0.2048846036195755
0.15164083242416382 0.14249242842197418 0.20798201858997345
0.2630150318145752 0.14678262174129486 0.21964298188686371
0.4072701632976532 0.14878275990486145 0.2315809577703476
0.56672835350036621 0.18056957423686981 0.24672335386276245
0.69550424814224243 0.24004955589771271 0.26486697793006897
0.78347611427307129 0.30750063061714172 0.2837488055229187
0.84803980588912964 0.37194642424583435 0.30279457569122314
0.89153331518173218 0.43815258145332336 0.32915851473808289
0.92888516187667847 0.49713271856307983 0.35798108577728271
0.95722740888595581 0.5470428466796875 0.38979381322860718
0.0013370588421821594 0.16351817548274994 0.21283434331417084
0.016713101416826248 0.16586075723171234 0.21380718052387238
0.085148289799690247 0.17618988454341888 0.21758264303207397
0.17715920507907867 0.18410739302635193 0.221885085105896
0.29256269335746765 0.1922638863325119 0.2266947329044342
0.4342130720615387 0.2106645256280899 0.23576970398426056
0.57941991090774536 0.24707430601119995 0.24810649454593658
0.69753289222717285 0.29537376761436462 0.26291200518608093
0.78049904108047485 0.35218864679336548 0.28096884489059448
0.84251612424850464 0.40748631954193115 0.30053249001502991
0.88925909996032715 0.46195927262306213 0.32362955808639526
0.92540174722671509 0.51571083068847656 0.35737761855125427
0.9561048150062561 0.56396138668060303 0.39156430959701538
0.0021639056503772736 0.22000432014465332 0.2233230322599411
0.011095668189227581 0.22462171316146851 0.22430017590522766
0.074340015649795532 0.23221634328365326 0.22744998335838318
0.18790777027606964 0.24882090091705322 0.23420879244804382
0.32246986031532288 0.26916152238845825 0.23671352863311768
0.45880863070487976 0.28568905591964722 0.2346966564655304
0.58862757682800293 0.31535199284553528 0.24110977351665497
0.69646644592285156 0.35241255164146423 0.25185370445251465
0.77643370628356934 0.3949120044708252 0.26613852381706238
0.83641356229782104 0.44224470853805542 0.29018780589103699
0.88480103015899658 0.48687514662742615 0.31571212410926819
0.92089533805847168 0.53594624996185303 0.3513018786907196
0.95292729139328003 0.58322948217391968 0.38692718744277954
0.0027943928726017475 0.31409552693367004 0.23687520623207092
0.0077502382919192314 0.31954765319824219 0.24142797291278839
0.029654648154973984 0.32665732502937317 0.24012760818004608
0.14648355543613434 0.34138554334640503 0.24332302808761597
0.30840897560119629 0.36827853322029114 0.24390417337417603
0.46329373121261597 0.39387732744216919 0.23983736336231232
0.58851355314254761 0.4081743061542511 0.23602743446826935
0.68913727998733521 0.4230019748210907 0.24056415259838104
