luts/instant_consumer/polaroid_time_zero_expired_---.cube
# Created by: G'MIC (https://gmic.eu)
TITLE "polaroid_time_zero_expired_---"
# LUT size
LUT_3D_SIZE 13
# Data domain
DOMAIN_MIN 0.0 0.0 0.0
DOMAIN_MAX 1.0 1.0 1.0
# LUT data points
0.11864567548036575 0.020398952066898346 0.026273809373378754
0.1263670027256012 0.020205643028020859 0.027357034385204315
0.14236238598823547 0.018238769844174385 0.027007756754755974
0.18948157131671906 0.012248649261891842 0.028005607426166534
0.26475709676742554 0.0040720175020396709 0.027531672269105911
0.36598062515258789 0.00067014509113505483 0.026987142860889435
0.46910974383354187 0.00031756231328472495 0.02412019670009613
0.56999552249908447 4.308364077587612e-05 0.024156369268894196
0.66835647821426392 0.00088958739070221782 0.026559866964817047
0.74769759178161621 0.001220703125 0.036944728344678879
0.82373756170272827 0.0010678160469979048 0.0477321557700634
0.88760620355606079 0.0046024997718632221 0.066435135900974274
0.94834482669830322 0.043807908892631531 0.092484071850776672
0.12094313651323318 0.032812681049108505 0.025133440271019936
0.12916621565818787 0.032906282693147659 0.025346778333187103
0.1538739949464798 0.032709114253520966 0.025035034865140915
0.20555631816387177 0.02982533723115921 0.023715449497103691
0.28208115696907043 0.02150338888168335 0.021096322685480118
0.37823241949081421 0.0053806980140507221 0.019545851275324821
0.48379433155059814 0.0043410207144916058 0.01704762689769268
0.58380782604217529 0.0034241918474435806 0.016351213678717613
0.67559182643890381 0.004735101480036974 0.017710652202367783
0.75353950262069702 0.004504095297306776 0.026357643306255341
0.82594603300094604 0.0041259913705289364 0.038192570209503174
0.89216428995132446 0.010706463828682899 0.058546222746372223
0.94996631145477295 0.10320901125669479 0.091458640992641449
0.1351260244846344 0.081906534731388092 0.017023228108882904
0.14927965402603149 0.087963491678237915 0.018148759379982948
0.17630200088024139 0.081417575478553772 0.019994817674160004
0.23253165185451508 0.080297328531742096 0.01767546683549881
0.30895745754241943 0.082382798194885254 0.010462458245456219
0.40664654970169067 0.063185475766658783 0.0094121750444173813
0.5076371431350708 0.036678135395050049 0.0063521889969706535
0.60463625192642212 0.021546667441725731 0.0052229189313948154
0.68877708911895752 0.016884747892618179 0.0066240499727427959
0.76355141401290894 0.020472686737775803 0.011736806482076645
0.83314067125320435 0.039139498025178909 0.021088737994432449
0.89538335800170898 0.09978841245174408 0.044172309339046478
0.95102179050445557 0.19693635404109955 0.083932630717754364
0.15883603692054749 0.1703350692987442 0.0071039837785065174
0.18209321796894073 0.17474332451820374 0.010098520666360855
0.22046980261802673 0.17266187071800232 0.0096736233681440353
0.27671113610267639 0.16997428238391876 0.0083744572475552559
0.35512819886207581 0.17638939619064331 0.0040865582413971424
0.44695517420768738 0.17192055284976959 0.0031420390587300062
0.5386236310005188 0.16238661110401154 0.0015663296217098832
0.62271785736083984 0.1501440554857254 0.001153220422565937
0.7014240026473999 0.14317059516906738 0.0013681299751624465
0.77271628379821777 0.15011531114578247 0.0016975852195173502
0.83686023950576782 0.17759817838668823 0.0078998338431119919
0.89574474096298218 0.22282251715660095 0.024314207956194878
0.95029592514038086 0.27987247705459595 0.069906897842884064
0.18678788840770721 0.28073984384536743 0.0025350982323288918
0.22112515568733215 0.28364652395248413 0.0045437533408403397
0.2688620388507843 0.28249102830886841 0.0038690604269504547
0.33945643901824951 0.28641662001609802 0.0036461923737078905
0.41576921939849854 0.28889274597167969 0.00099218031391501427
0.49832633137702942 0.28625586628913879 0.0030205820221453905
0.57619941234588623 0.28263530135154724 0.0036450254265218973
0.64526468515396118 0.27457740902900696 0.0037224115803837776
0.71826267242431641 0.26869270205497742 0.0037873960100114346
0.78385066986083984 0.2763233482837677 0.0036990894004702568
0.84098720550537109 0.29769545793533325 0.0040040556341409683
0.89662832021713257 0.32245972752571106 0.0084079364314675331
0.94938695430755615 0.35880169272422791 0.043791558593511581
0.22874943912029266 0.38487496972084045 0
0.26741087436676025 0.38903576135635376 0.00017517688684165478
0.3182215690612793 0.39137604832649231 0.00010217404633294791
0.39329510927200317 0.39270323514938354 0.00011092541535617784
0.46592000126838684 0.39179530739784241 0.00042515175300650299
0.54286086559295654 0.39301356673240662 0.0038597106467932463
0.61738461256027222 0.39305451512336731 0.0066352244466543198
0.67612069845199585 0.38475310802459717 0.005637479480355978
0.7386399507522583 0.37857764959335327 0.0041061104275286198
0.7967793345451355 0.38490793108940125 0.0039215688593685627
0.84973835945129395 0.39774399995803833 0.0039215688593685627
0.90117388963699341 0.41499519348144531 0.0040435041300952435
0.94772368669509888 0.43798524141311646 0.018603051081299782
0.29120680689811707 0.47439450025558472 0
0.32436564564704895 0.47653910517692566 0
0.37127840518951416 0.48088961839675903 0
0.43781778216362 0.48052054643630981 0
0.50726133584976196 0.47537586092948914 0.00035250795190222561
0.57970857620239258 0.47646594047546387 0.003682559123262763
0.65031802654266357 0.48181456327438354 0.0053484747186303139
0.70648086071014404 0.4841424822807312 0.0068387798964977264
0.7592352032661438 0.48139241337776184 0.0043936185538768768
0.81182980537414551 0.48272907733917236 0.0051274318248033524
0.85980522632598877 0.48977512121200562 0.0046314913779497147
0.90437209606170654 0.50090807676315308 0.0070503684692084789
0.94681316614151001 0.5171312689781189 0.0092772990465164185
0.3641819953918457 0.55098652839660645 0
0.38820323348045349 0.55305784940719604 0
0.42704293131828308 0.55626428127288818 0.00027304256218485534
0.47956040501594543 0.55715984106063843 0
0.54535257816314697 0.5538749098777771 5.8282588724978268e-05
0.61355149745941162 0.55248880386352539 0.0026796378660947084
0.67734682559967041 0.55703353881835938 0.0042416742071509361
0.72992193698883057 0.5646931529045105 0.0058200908824801445
0.77923154830932617 0.5714605450630188 0.0071875480934977531
0.82727569341659546 0.57551604509353638 0.031599350273609161
0.86890280246734619 0.57771581411361694 0.029439155012369156
0.90899264812469482 0.58266139030456543 0.034758146852254868
0.94702619314193726 0.59170907735824585 0.039841238409280777
0.44209513068199158 0.62459075450897217 0
0.45635250210762024 0.62409752607345581 0
0.48196280002593994 0.6232905387878418 0
0.52514916658401489 0.62412643432617188 0
0.5814288854598999 0.62338799238204956 0
0.64574223756790161 0.62298774719238281 0.0014950322220101953
0.70215612649917603 0.62845307588577271 0.0039215688593685627
0.75122857093811035 0.63528895378112793 0.0039215688593685627
0.79755169153213501 0.64176809787750244 0.0041321101598441601
0.84165972471237183 0.64949285984039307 0.070463977754116058
0.87986034154891968 0.65427142381668091 0.14586935937404633
0.91590404510498047 0.65728837251663208 0.15560536086559296
0.95189905166625977 0.66605085134506226 0.16867257654666901
0.51452600955963135 0.69457501173019409 7.0010914896556642e-06
0.5250476598739624 0.69297748804092407 0
0.54208803176879883 0.6904977560043335 0
0.5738639235496521 0.68928349018096924 0
0.61769580841064453 0.68937432765960693 0
0.67460781335830688 0.69080543518066406 0.0012993905693292618
0.72480428218841553 0.69614660739898682 0.0039215688593685627
0.77009391784667969 0.70110642910003662 0.0039215688593685627
0.81300079822540283 0.70492863655090332 0.004140008706599474
0.85307610034942627 0.71006554365158081 0.04785296693444252
0.88985127210617065 0.7170555591583252 0.18572057783603668
0.92378747463226318 0.72503852844238281 0.26473844051361084
0.95706605911254883 0.73387175798416138 0.28958898782730103
0.58223652839660645 0.76079761981964111 0.00087322160834446549
0.59096741676330566 0.75949376821517944 2.6927275484922575e-06
0.60607409477233887 0.75800073146820068 0
0.63125109672546387 0.75596421957015991 0
0.66084867715835571 0.75531947612762451 0
0.69970154762268066 0.75732344388961792 0.00019089941633865237
0.7444341778755188 0.76013624668121338 0.0034283655695617199
0.78781205415725708 0.76309084892272949 0.0039992090314626694
0.82832938432693481 0.76498222351074219 0.0041855010204017162
0.86720544099807739 0.76865905523300171 0.049302149564027786
0.90174919366836548 0.77492326498031616 0.19398556649684906
0.93286246061325073 0.78368484973907471 0.30615466833114624
0.96168971061706543 0.79473572969436646 0.38822996616363525
0.64746266603469849 0.82465577125549316 0.001256097573786974
0.65412789583206177 0.82339167594909668 1.1488970812933985e-05
0.66689759492874146 0.8240777850151062 0
0.68663191795349121 0.8230292797088623 6.3009822042658925e-05
0.71006858348846436 0.82090955972671509 0
0.73566854000091553 0.82297039031982422 1.497455650678603e-05
0.77357244491577148 0.82545286417007446 0.0023444830439984798
0.81104153394699097 0.82677006721496582 0.005498833954334259
0.84871554374694824 0.82787549495697021 0.0054741804488003254
0.88547235727310181 0.83048588037490845 0.081423543393611908
0.91761523485183716 0.83535385131835938 0.23036801815032959
0.94599968194961548 0.84007060527801514 0.33218467235565186
0.97201144695281982 0.84636133909225464 0.42370960116386414
0.70863384008407593 0.88602513074874878 0.00075999239925295115
0.71451526880264282 0.88584518432617188 4.487879323278321e-06
0.72370761632919312 0.88566857576370239 0
0.73819553852081299 0.88751846551895142 2.8004365958622657e-05
0.75488102436065674 0.88488304615020752 0
0.77596324682235718 0.88710606098175049 0
0.8065793514251709 0.8884422779083252 0.0013234905200079083
0.83947330713272095 0.88944727182388306 0.0031266305595636368
0.87469577789306641 0.89292639493942261 0.024618979543447495
0.90875542163848877 0.89424610137939453 0.17073468863964081
0.93832147121429443 0.89689779281616211 0.29966205358505249
0.96436923742294312 0.89854633808135986 0.39494892954826355
0.98637151718139648 0.90202987194061279 0.47824954986572266
0.12117300927639008 0.020852271467447281 0.034594323486089706
0.12818515300750732 0.020686384290456772 0.03604951873421669
0.14687331020832062 0.018448803573846817 0.036543618887662888
0.20044219493865967 0.010889389552175999 0.044631525874137878
0.27762907743453979 0.0040598399937152863 0.051226820796728134
0.37660863995552063 0.0011944490252062678 0.052114211022853851
0.48172417283058167 0.00069777545286342502 0.050466004759073257
0.58129251003265381 0.00062119727954268456 0.054765768349170685
0.67407846450805664 0.0010695214150473475 0.061318594962358475
0.75004458427429199 0.00151824951171875 0.075584977865219116
0.82288181781768799 0.0028097862377762794 0.087889499962329865
0.88763636350631714 0.0058128656819462776 0.10078155249357224
0.94723033905029297 0.070335805416107178 0.12249298393726349
0.12312228977680206 0.033303458243608475 0.034741315990686417
0.13349498808383942 0.034539241343736649 0.037187360227108002
0.16148379445075989 0.032968677580356598 0.038730263710021973
0.21652592718601227 0.02534167654812336 0.040437810122966766
0.29488599300384521 0.013959667645394802 0.042513485997915268
0.39224731922149658 0.0044480417855083942 0.04309413954615593
0.49710449576377869 0.0046644769608974457 0.045170653611421585
0.59468764066696167 0.0042897392995655537 0.048976674675941467
0.68098276853561401 0.0054517411626875401 0.054117735475301743
0.75707119703292847 0.0034055672585964203 0.0661897212266922
0.82811588048934937 0.0036664926446974277 0.07866089791059494
0.89274138212203979 0.022225219756364822 0.09436364471912384
0.94820702075958252 0.12803131341934204 0.12069878727197647
0.13106492161750793 0.080072216689586639 0.029909320175647736
0.15039396286010742 0.084165342152118683 0.031305469572544098
0.18353308737277985 0.082922808825969696 0.034114599227905273
0.24409389495849609 0.083447232842445374 0.036053303629159927
0.32287758588790894 0.078226454555988312 0.032749399542808533
0.4205189049243927 0.062004674226045609 0.032041557133197784
0.52046686410903931 0.038250897079706192 0.032201357185840607
0.61234235763549805 0.025263827294111252 0.03546498715877533
0.69314229488372803 0.024662332609295845 0.041002999991178513
0.7660667896270752 0.026465067639946938 0.049809698015451431
0.83512383699417114 0.053167618811130524 0.063033699989318848
0.89550173282623291 0.12129886448383331 0.08516402542591095
0.94851624965667725 0.20707161724567413 0.11640837788581848
0.14996500313282013 0.16762024164199829 0.015013855881989002
0.17813844978809357 0.17262294888496399 0.014736609533429146
0.22268719971179962 0.17586849629878998 0.014396697282791138
0.28685763478279114 0.17660351097583771 0.02183431014418602
0.36711132526397705 0.1798684149980545 0.021389292553067207
0.45870301127433777 0.17896546423435211 0.017013115808367729
0.54789918661117554 0.1669066995382309 0.012580257840454578
0.6307559609413147 0.15633560717105865 0.01516799908131361
0.70511484146118164 0.15244591236114502 0.01887238398194313
0.77446466684341431 0.16297350823879242 0.027904825285077095
0.83735126256942749 0.19011814892292023 0.042263120412826538
0.89312171936035156 0.23197060823440552 0.069673575460910797
0.94786942005157471 0.28791460394859314 0.10549215972423553
0.18323542177677155 0.27680647373199463 0.0030392664484679699
0.21774707734584808 0.28227657079696655 0.0044361636973917484
0.27065077424049377 0.28562605381011963 0.0049620983190834522
0.34447884559631348 0.28906014561653137 0.0071673821657896042
0.42200553417205811 0.28961533308029175 0.0056517655029892921
0.50428146123886108 0.29070985317230225 0.0065658269450068474
0.58163845539093018 0.2877240777015686 0.0060584573075175285
0.65295052528381348 0.28163838386535645 0.0076735704205930233
0.71981871128082275 0.27863392233848572 0.0064604813233017921
0.78200274705886841 0.28612259030342102 0.0075342366471886635
0.84000426530838013 0.30223649740219116 0.016330225393176079
0.89430660009384155 0.32941737771034241 0.04323984682559967
0.94685757160186768 0.36445677280426025 0.086974337697029114
0.2336515486240387 0.38320347666740417 0.00031169815338216722
0.26858752965927124 0.38809719681739807 0.002152671106159687
0.32203841209411621 0.39061182737350464 0.0025475146248936653
0.3954002857208252 0.39205685257911682 0.0021805407013744116
0.47044044733047485 0.39181315898895264 0.0033974142279475927
0.54661339521408081 0.39254993200302124 0.0050433441065251827
0.62007343769073486 0.39541548490524292 0.0075341467745602131
0.68139320611953735 0.39178675413131714 0.0092452550306916237
0.73904889822006226 0.38758629560470581 0.0068752062506973743
0.79399353265762329 0.39051741361618042 0.0048368563875555992
0.8463442325592041 0.39842861890792847 0.0070827859453856945
0.89743286371231079 0.41493242979049683 0.020346397534012794
0.94526576995849609 0.43873816728591919 0.063031651079654694
0.29591688513755798 0.47421187162399292 0
0.32679221034049988 0.47827231884002686 0.0004937115591019392
0.37784412503242493 0.47938087582588196 0.0016115824691951275
0.44211599230766296 0.48110520839691162 0.00073138967854902148
0.51113408803939819 0.47779911756515503 0.0027783112600445747
0.58356624841690063 0.47900822758674622 0.0049552167765796185
0.65148955583572388 0.48451453447341919 0.0064054154790937901
0.70948928594589233 0.48865282535552979 0.008753548376262188
0.76237457990646362 0.48919540643692017 0.013123426586389542
0.80983662605285645 0.48778781294822693 0.0087809097021818161
0.85632932186126709 0.49096563458442688 0.0076331943273544312
0.90054792165756226 0.49999132752418518 0.0089056724682450294
0.94454926252365112 0.51641404628753662 0.037464216351509094
0.37121126055717468 0.55055242776870728 0
0.39669632911682129 0.5518336296081543 0.0011522031854838133
0.43526843190193176 0.55482751131057739 0.0039822296239435673
0.486644446849823 0.55749452114105225 0.0017255446873605251
0.54853314161300659 0.55576235055923462 0.0015869439812377095
0.61597764492034912 0.5568116307258606 0.002415571128949523
0.67906427383422852 0.56059902906417847 0.0034396601840853691
0.73303681612014771 0.56662130355834961 0.0074780932627618313
0.78197932243347168 0.57407444715499878 0.036993034183979034
0.8272513747215271 0.57763183116912842 0.072613552212715149
0.86786401271820068 0.57626307010650635 0.061282828450202942
0.90706294775009155 0.58020001649856567 0.061093080788850784
0.9461662769317627 0.59168124198913574 0.070840336382389069
0.44718310236930847 0.62305623292922974 0
0.46520704030990601 0.62323814630508423 0.00024007161846384406
0.49175983667373657 0.62340819835662842 0.0014858320355415344
0.5324903130531311 0.62473207712173462 0.0019689970649778843
0.58481651544570923 0.62501257658004761 0.00081830495037138462
0.64599430561065674 0.62707388401031494 0.0017198150744661689
0.70340430736541748 0.63123613595962524 0.0035783206112682819
0.75240188837051392 0.63602077960968018 0.0037418440915644169
0.79826515913009644 0.64242589473724365 0.014967585913836956
0.84213590621948242 0.65097147226333618 0.11518070101737976
0.88009250164031982 0.65445536375045776 0.17329816520214081
0.91584938764572144 0.65702682733535767 0.18290020525455475
0.95069891214370728 0.66659450531005859 0.19375118613243103
0.52047967910766602 0.69153988361358643 0.00086249556625261903
0.53309768438339233 0.69225955009460449 0.00012621411588042974
0.55139321088790894 0.69100773334503174 0.00016615624190308154
0.58130842447280884 0.6906927227973938 0.0010633879574015737
0.62241953611373901 0.69069081544876099 0.00070256250910460949
0.67411178350448608 0.69371289014816284 0.0018410028424113989
0.72408211231231689 0.6979372501373291 0.0039215688593685627
0.76963108777999878 0.70093822479248047 0.0038242714945226908
0.81263846158981323 0.70477461814880371 0.0062003941275179386
0.85416030883789062 0.7112586498260498 0.090938344597816467
0.89038372039794922 0.71873015165328979 0.21897479891777039
0.92349934577941895 0.72622144222259521 0.28787925839424133
0.95580315589904785 0.73473137617111206 0.30916440486907959
0.58527940511703491 0.75730699300765991 0.0032364788930863142
0.59474891424179077 0.75742346048355103 0.0011131436331197619
0.61024916172027588 0.75697535276412964 8.5105144535191357e-05
0.63404619693756104 0.75613117218017578 0.00088520423742011189
0.6639670729637146 0.75539779663085938 0.0017400854267179966
0.70228284597396851 0.75726771354675293 0.00030486163450405002
0.74462568759918213 0.75988095998764038 0.0036555121187120676
0.78774881362915039 0.76261574029922485 0.0038949404843151569
0.82864522933959961 0.7655566930770874 0.0082906689494848251
0.8676268458366394 0.76935672760009766 0.088936597108840942
0.90146619081497192 0.77546936273574829 0.22343558073043823
0.9323040246963501 0.78423190116882324 0.32860887050628662
0.96105730533599854 0.79413187503814697 0.40250933170318604
0.64829641580581665 0.82303863763809204 0.0046257618814706802
0.65559452772140503 0.82242381572723389 0.0032710055820643902
0.66789990663528442 0.82252192497253418 0.00041789634269662201
0.68723565340042114 0.82164883613586426 0.0031981226056814194
0.71031475067138672 0.82091164588928223 0.0013400508323684335
0.73836922645568848 0.82363688945770264 0
0.77324289083480835 0.82562255859375 0.0017128289910033345
0.81097328662872314 0.82618778944015503 0.002869968768209219
0.84979218244552612 0.82794612646102905 0.0098175648599863052
0.88560104370117188 0.83132398128509521 0.12263047695159912
0.91669803857803345 0.83548897504806519 0.25545474886894226
0.94558095932006836 0.84004002809524536 0.35091793537139893
0.97155332565307617 0.84614962339401245 0.43689927458763123
0.70920968055725098 0.88591092824935913 0.003971354104578495
0.71527719497680664 0.88551926612854004 0.0033592523541301489
0.72392863035202026 0.88530993461608887 0.0025842105969786644
0.7377622127532959 0.88482868671417236 0.0014256645226851106
0.75451749563217163 0.88458549976348877 9.0355963038746268e-05
0.77622377872467041 0.88516676425933838 0
0.80448490381240845 0.88545829057693481 0.00040245804120786488
0.83811062574386597 0.88868206739425659 0.0029901540838181973
0.87422609329223633 0.89317125082015991 0.04320811852812767
0.90690106153488159 0.89435219764709473 0.19620780646800995
0.9370110034942627 0.89689350128173828 0.31401911377906799
0.96389138698577881 0.89822059869766235 0.40649586915969849
0.98583471775054932 0.90175652503967285 0.48677211999893188
0.13341616094112396 0.019333424046635628 0.063842833042144775
0.141890749335289 0.017781799659132957 0.066872328519821167
0.15706731379032135 0.015345226041972637 0.067722231149673462
0.20308078825473785 0.0081352237612009048 0.074097365140914917
0.28378632664680481 0.0029076519422233105 0.090136662125587463
0.38601937890052795 0.0016390183009207249 0.10045390576124191
0.49182352423667908 0.00048238717135973275 0.10583778470754623
0.5907130241394043 0.00021146886865608394 0.11155365407466888
0.67994862794876099 0.0034587187692523003 0.11833413690328598
0.75697058439254761 0.003857586532831192 0.12709914147853851
0.82715022563934326 0.0017901252722367644 0.1347355842590332
0.89110720157623291 0.015832893550395966 0.14480376243591309
0.94705003499984741 0.11193252354860306 0.16647499799728394
0.13770970702171326 0.033654052764177322 0.067377321422100067
0.14963191747665405 0.034047264605760574 0.070476442575454712
0.1738763153553009 0.035402141511440277 0.072523720562458038
0.22302111983299255 0.027322880923748016 0.077903255820274353
0.30604055523872375 0.01199792604893446 0.090224079787731171
0.40704509615898132 0.0051466398872435093 0.093703776597976685
0.50992012023925781 0.0038151908665895462 0.098613768815994263
0.6042826771736145 0.0030123093165457249 0.10375906527042389
0.68815475702285767 0.0046073016710579395 0.10966012626886368
0.76391792297363281 0.0040115355513989925 0.11852923780679703
0.832469642162323 0.0090960338711738586 0.1271670013666153
0.89342713356018066 0.059209369122982025 0.14176993072032928
0.94795799255371094 0.16413012146949768 0.16550227999687195
0.14525958895683289 0.076342970132827759 0.066681578755378723
0.16384150087833405 0.08137405663728714 0.06952984631061554
0.19976937770843506 0.088263250887393951 0.073681987822055817
0.25559467077255249 0.089323274791240692 0.076190009713172913
0.34162262082099915 0.080165207386016846 0.082498274743556976
0.43813654780387878 0.061081081628799438 0.083718046545982361
0.53468602895736694 0.044823501259088516 0.086374573409557343
0.62243068218231201 0.03522905707359314 0.093122266232967377
0.7008708119392395 0.034458715468645096 0.098505698144435883
0.77164679765701294 0.045821845531463623 0.10671103745698929
0.8370516300201416 0.08878432959318161 0.11841665208339691
0.89468526840209961 0.15521712601184845 0.13787281513214111
0.9458003044128418 0.22787688672542572 0.16314323246479034
0.15699556469917297 0.16426941752433777 0.057011503726243973
0.1834070235490799 0.17158398032188416 0.058859221637248993
0.23277574777603149 0.17847694456577301 0.058532893657684326
0.30267834663391113 0.18418523669242859 0.064364627003669739
0.38585475087165833 0.18555903434753418 0.074927493929862976
0.47502368688583374 0.18292129039764404 0.071757204830646515
0.55953800678253174 0.17683824896812439 0.066985681653022766
0.63905888795852661 0.16736245155334473 0.074636004865169525
0.71204257011413574 0.16644616425037384 0.082454800605773926
0.779590904712677 0.18156038224697113 0.091715827584266663
0.83956766128540039 0.21142913401126862 0.10625284165143967
0.89305371046066284 0.24971842765808105 0.12810370326042175
0.94497412443161011 0.29885047674179077 0.15848171710968018
0.18492880463600159 0.27743315696716309 0.033744212239980698
0.21915847063064575 0.28394657373428345 0.032817017287015915
0.27483078837394714 0.29066780209541321 0.025921287015080452
0.3517015278339386 0.29418185353279114 0.028119031339883804
0.43233370780944824 0.29498034715652466 0.044887363910675049
0.51394951343536377 0.29682663083076477 0.060875117778778076
0.58984470367431641 0.29488137364387512 0.057192858308553696
