luts/instant_consumer/polaroid_time_zero_expired_--.cube
# Created by: G'MIC (https://gmic.eu)
TITLE "polaroid_time_zero_expired_--"
# LUT size
LUT_3D_SIZE 13
# Data domain
DOMAIN_MIN 0.0 0.0 0.0
DOMAIN_MAX 1.0 1.0 1.0
# LUT data points
0.25188040733337402 0.080359362065792084 0.037865255028009415
0.25797209143638611 0.081864207983016968 0.037414848804473877
0.26622894406318665 0.081535547971725464 0.037311390042304993
0.28843915462493896 0.078024037182331085 0.036866489797830582
0.3314659595489502 0.068419918417930603 0.035564050078392029
0.38772046566009521 0.049317661672830582 0.033902652561664581
0.4539908766746521 0.023923268541693687 0.031092012301087379
0.5443839430809021 0.0090998634696006775 0.024337468668818474
0.63853961229324341 0.0077435662969946861 0.014407258480787277
0.72909051179885864 0.0056932186707854271 0.0069630192592740059
0.81359541416168213 0.0060617486014962196 0.0046550827100872993
0.88717806339263916 0.0060763489454984665 0.0030975791160017252
0.9513586163520813 0.03152548149228096 0.0041811922565102577
0.25393754243850708 0.091757215559482574 0.035967793315649033
0.25972387194633484 0.093058779835700989 0.035775650292634964
0.27139905095100403 0.092751540243625641 0.035608313977718353
0.30343058705329895 0.093054600059986115 0.033408459275960922
0.3426412045955658 0.088961869478225708 0.030548529699444771
0.39598742127418518 0.078648000955581665 0.028337441384792328
0.46381333470344543 0.058190964162349701 0.026987457647919655
0.55171287059783936 0.025779081508517265 0.021308165043592453
0.64263641834259033 0.010401452891528606 0.010709426365792751
0.73338544368743896 0.0069671929813921452 0.0039132209494709969
0.81826120615005493 0.0084173167124390602 0.0023095523938536644
0.89225411415100098 0.01899300329387188 0.00034559660707600415
0.95239347219467163 0.089906983077526093 0.0020217746496200562
0.26039943099021912 0.12231285125017166 0.026941994205117226
0.26931282877922058 0.12680791318416595 0.025271650403738022
0.28639963269233704 0.12609128654003143 0.026366304606199265
0.31760302186012268 0.12710915505886078 0.025228418409824371
0.36261829733848572 0.12753528356552124 0.020610122010111809
0.41760408878326416 0.12263055145740509 0.016962956637144089
0.48335504531860352 0.11281340569257736 0.017317559570074081
0.56833845376968384 0.091365188360214233 0.012589981779456139
0.65690851211547852 0.070327788591384888 0.0040449402295053005
0.74418610334396362 0.057783134281635284 0.00040070776594802737
0.82588076591491699 0.072801999747753143 0.0010041181230917573
0.89203166961669922 0.11428795754909515 0.00039765599649399519
0.95024228096008301 0.1792413592338562 0.0012385648442432284
0.27585688233375549 0.17869104444980621 0.011835315264761448
0.28622111678123474 0.17899918556213379 0.0072657414712011814
0.3095695972442627 0.17802736163139343 0.010958981700241566
0.33882823586463928 0.17556388676166534 0.014173410832881927
0.38758474588394165 0.17677232623100281 0.010892277583479881
0.44554221630096436 0.18030670285224915 0.0059954174794256687
0.51209867000579834 0.18069779872894287 0.0055960114113986492
0.58986419439315796 0.17571562528610229 0.003318981034681201
0.67640239000320435 0.17162182927131653 0.00052436377154663205
0.75994396209716797 0.17628566920757294 8.3295039075892419e-05
0.83396893739700317 0.1925874799489975 0.00048304538358934224
0.89449924230575562 0.22507181763648987 0.0006776697700843215
0.95072966814041138 0.26234155893325806 0.00017448874132242054
0.29943385720252991 0.2477123886346817 0.0013956107432022691
0.3172355592250824 0.25188001990318298 0.00081787107046693563
0.34485357999801636 0.25255551934242249 0.0048898286186158657
0.38092398643493652 0.25268334150314331 0.0066313049755990505
0.42859971523284912 0.25219714641571045 0.0042105731554329395
0.48625215888023376 0.2580416202545166 0.0019012601114809513
0.55444014072418213 0.26706567406654358 0.00079299329081550241
0.6247069239616394 0.27270534634590149 1.4361213288793806e-05
0.69835251569747925 0.27112436294555664 0.00017843807290773839
0.77021652460098267 0.2767719030380249 8.5269704868551344e-05
0.83792811632156372 0.29021883010864258 0.0001910041319206357
0.89634668827056885 0.31652042269706726 0.00065379420993849635
0.9485621452331543 0.34612458944320679 0
0.33840474486351013 0.33365190029144287 0
0.35436397790908813 0.33742624521255493 0.00091011199401691556
0.38417285680770874 0.33752238750457764 0.0035376753658056259
0.4274253249168396 0.3376314640045166 0.002726132282987237
0.47495251893997192 0.33992728590965271 0.00084406533278524876
0.53494024276733398 0.35009515285491943 0.00087895110482349992
0.60495686531066895 0.36433002352714539 0.00084601010894402862
0.67198079824447632 0.37249365448951721 0.00014576631656382233
0.73203808069229126 0.37162548303604126 0.0015240986831486225
0.78624635934829712 0.37461787462234497 0.0018232158618047833
0.84422057867050171 0.38565447926521301 0.0010077233891934156
0.89670670032501221 0.40490216016769409 0.00044842888019047678
0.94511455297470093 0.4283258318901062 2.8004365958622657e-05
0.38361051678657532 0.42869260907173157 0
0.39603590965270996 0.4288736879825592 0.00013320025755092502
0.42842897772789001 0.42855477333068848 0.00020428825519047678
0.4726719856262207 0.43067777156829834 9.9271885119378567e-05
0.52147883176803589 0.4367733895778656 1.8310547602595761e-05
0.58303582668304443 0.4469980001449585 0.00014289407408796251
0.65004557371139526 0.4583551287651062 0.00036764706601388752
0.7115057110786438 0.46661785244941711 0.00035202925209887326
0.76428812742233276 0.47165012359619141 0.0017601761501282454
0.81190162897109985 0.47445222735404968 0.0027272989973425865
0.85498654842376709 0.47779223322868347 0.003259381977841258
0.89826273918151855 0.4913145899772644 0.0028199588414281607
0.94360244274139404 0.51157563924789429 0.0023454553447663784
0.43354934453964233 0.5256732702255249 0
0.45063495635986328 0.52234244346618652 0
0.47898620367050171 0.52548736333847046 0
0.52041476964950562 0.52743297815322876 0
0.56634128093719482 0.5328059196472168 0
0.62140846252441406 0.53809618949890137 0
0.68168163299560547 0.54517590999603271 0
0.73668301105499268 0.55311977863311768 0.00012530157982837409
0.78920572996139526 0.56620395183563232 0.00091792090097442269
0.82996386289596558 0.56862837076187134 0.0036695292219519615
0.86723554134368896 0.56822162866592407 0.0039616306312382221
0.90455514192581177 0.5778612494468689 0.0039466558955609798
0.94152551889419556 0.5919843316078186 0.0039318758063018322
0.49114528298377991 0.61038416624069214 0
0.50949752330780029 0.61244207620620728 0
0.53061008453369141 0.61624813079833984 0
0.56499773263931274 0.61403608322143555 0
0.6060599684715271 0.61329680681228638 0
0.65417104959487915 0.62203860282897949 0
0.70404475927352905 0.6274293065071106 0
0.75290042161941528 0.62910336256027222 0.00062435376457870007
0.79961192607879639 0.63539367914199829 0.0029174804221838713
0.84176957607269287 0.64762032032012939 0.0035427466500550508
0.88088881969451904 0.65817153453826904 0.01398830022662878
0.91288387775421143 0.66292673349380493 0.023830937221646309
0.94342875480651855 0.66952306032180786 0.037348892539739609
0.5497620701789856 0.68702685832977295 0
0.5664333701133728 0.68461316823959351 0
0.58286648988723755 0.68449175357818604 0
0.60541599988937378 0.68638628721237183 0
0.64341950416564941 0.68654155731201172 0
0.6852988600730896 0.68913501501083374 0
0.72345662117004395 0.68955624103546143 0.0019063613144680858
0.76477992534637451 0.69230252504348755 0.0038612515199929476
0.80852293968200684 0.69871985912322998 0.0039215688593685627
0.84986025094985962 0.71003371477127075 0.0039774277247488499
0.88757288455963135 0.72306746244430542 0.055733010172843933
0.91632580757141113 0.73123335838317871 0.18691213428974152
0.93987154960632324 0.73458868265151978 0.22000867128372192
0.60775226354598999 0.74982690811157227 0
0.62163174152374268 0.74708306789398193 8.2906088209711015e-05
0.6367308497428894 0.74712097644805908 0.0001898372865980491
0.65098661184310913 0.75028598308563232 6.9113339122850448e-06
0.67609548568725586 0.75083655118942261 0
0.71239578723907471 0.74748903512954712 0
0.74863791465759277 0.74730390310287476 0.0034983018413186073
0.78400439023971558 0.74780184030532837 0.0039215688593685627
0.82075041532516479 0.75385755300521851 0.0039266250096261501
0.85984325408935547 0.76329487562179565 0.0051700519397854805
0.89398634433746338 0.77175390720367432 0.090305328369140625
0.91842865943908691 0.77700388431549072 0.25722631812095642
0.93880748748779297 0.78383392095565796 0.36302348971366882
0.66581785678863525 0.80497854948043823 3.4825941838789731e-05
0.67758387327194214 0.80110621452331543 0.002553603146225214
0.68932843208312988 0.79942673444747925 0.0035479825455695391
0.70060116052627563 0.80031979084014893 0.0012309354497119784
0.7178913950920105 0.80245441198348999 0.00045002956176176667
0.74188446998596191 0.80353856086730957 0.0007296842522919178
0.77503061294555664 0.80208843946456909 0.0038460376672446728
0.80960965156555176 0.79991227388381958 0.0042925216257572174
0.84171903133392334 0.80324500799179077 0.0033695893362164497
0.87611222267150879 0.81063371896743774 0.03354128822684288
0.90543204545974731 0.8126225471496582 0.18587565422058105
0.92755275964736938 0.81458485126495361 0.31336838006973267
0.94654661417007446 0.81876868009567261 0.42032942175865173
0.72471004724502563 0.84628313779830933 0.0011571098584681749
0.72896003723144531 0.84134972095489502 0.003636468667536974
0.73522478342056274 0.84046149253845215 0.0039215688593685627
0.74680644273757935 0.84380847215652466 0.0024554233532398939
0.76260983943939209 0.84661155939102173 0.0014711866388097405
0.78166639804840088 0.84703850746154785 0.00099511235021054745
0.80793923139572144 0.84621322154998779 0.0027670618146657944
0.83810406923294067 0.84689211845397949 0.0052015115506947041
0.86844199895858765 0.85023975372314453 0.041580889374017715
0.89809602499008179 0.85095304250717163 0.18582561612129211
0.92240536212921143 0.85047441720962524 0.31772077083587646
0.94491356611251831 0.85050106048583984 0.41739931702613831
0.96198487281799316 0.85145491361618042 0.50199621915817261
0.25528505444526672 0.081083811819553375 0.046143371611833572
0.25945180654525757 0.081436917185783386 0.045862607657909393
0.26785686612129211 0.081623256206512451 0.044954877346754074
0.29558321833610535 0.077482037246227264 0.044897310435771942
0.33572256565093994 0.06942354142665863 0.046127647161483765
0.39202490448951721 0.053820036351680756 0.047702040523290634
0.46289780735969543 0.027589296922087669 0.04538867250084877
0.55120491981506348 0.0082739582285284996 0.0412277951836586
0.64392572641372681 0.0053535010665655136 0.034769020974636078
0.73645567893981934 0.0060206395573914051 0.029451930895447731
0.81917655467987061 0.0072496002539992332 0.02637900598347187
0.8894079327583313 0.0073002385906875134 0.025794295594096184
0.95197200775146484 0.03819999098777771 0.032694004476070404
0.25666889548301697 0.091509751975536346 0.043354634195566177
0.26406440138816833 0.097112186253070831 0.043193668127059937
0.27842938899993896 0.099173225462436676 0.044331330806016922
0.30812019109725952 0.095854200422763824 0.04413178563117981
0.3469633162021637 0.091126173734664917 0.042256224900484085
0.40635329484939575 0.085161425173282623 0.042788486927747726
0.47533506155014038 0.065505504608154297 0.043681245297193527
0.56067156791687012 0.029534073546528816 0.037698198109865189
0.65014266967773438 0.0095746507868170738 0.030086666345596313
0.74106842279434204 0.0078688077628612518 0.024018680676817894
0.8243752121925354 0.0094239627942442894 0.021215969696640968
0.89507156610488892 0.021387467160820961 0.017750848084688187
0.95255351066589355 0.093851961195468903 0.024504628032445908
0.2601102888584137 0.1232638955116272 0.034825433045625687
0.27167978882789612 0.12647521495819092 0.035605546087026596
0.29178979992866516 0.12887021899223328 0.038141109049320221
0.32247456908226013 0.13081514835357666 0.03850410133600235
0.36864286661148071 0.13210637867450714 0.033520057797431946
0.42689394950866699 0.12733381986618042 0.030308084562420845
0.49562376737594604 0.11481451988220215 0.03167826309800148
0.57769036293029785 0.09693310409784317 0.025804378092288971
0.66521340608596802 0.076044507324695587 0.016982823610305786
0.75193589925765991 0.059933919459581375 0.012639034539461136
0.83017647266387939 0.074526511132717133 0.013659399002790451
0.89532411098480225 0.11305397003889084 0.010737894102931023
0.95216327905654907 0.18001118302345276 0.014364459551870823
0.27560365200042725 0.17843790352344513 0.018900463357567787
0.28829771280288696 0.18031775951385498 0.01705494336783886
0.31269800662994385 0.18163302540779114 0.021869959309697151
0.34567171335220337 0.18119174242019653 0.026318777352571487
0.39435198903083801 0.18244636058807373 0.022636083886027336
0.45142042636871338 0.18443174660205841 0.013994389213621616
0.52207505702972412 0.18597055971622467 0.012265313416719437
0.60023397207260132 0.18187566101551056 0.0090436749160289764
0.68301433324813843 0.1746409684419632 0.0029400396160781384
0.76517719030380249 0.17851878702640533 0.0039533576928079128
0.83777701854705811 0.19393624365329742 0.0049480963498353958
0.89740288257598877 0.2255583256483078 0.0048221214674413204
0.95302855968475342 0.2653748095035553 0.0058853896334767342
0.30221760272979736 0.25077340006828308 0.0037945916410535574
0.3177945613861084 0.25383833050727844 0.0043108323588967323
0.34438392519950867 0.25425773859024048 0.0071080075576901436
0.38556140661239624 0.25838366150856018 0.0089927520602941513
0.43709859251976013 0.25790959596633911 0.0084495097398757935
0.49725145101547241 0.26444998383522034 0.0053312415257096291
0.56207501888275146 0.27032634615898132 0.0040128221735358238
0.63260191679000854 0.27442717552185059 0.0024476144462823868
0.70656460523605347 0.27585712075233459 0.0025524215307086706
0.77836865186691284 0.28076660633087158 0.0019408431835472584
0.84247821569442749 0.29090508818626404 0.0029441982042044401
0.8994758129119873 0.31595912575721741 0.0042458628304302692
0.95127713680267334 0.34763708710670471 0.0036858501844108105
0.34136837720870972 0.33795973658561707 0.00041925767436623573
0.35643759369850159 0.33999955654144287 0.0033838609233498573
0.38547107577323914 0.33929198980331421 0.0039215688593685627
0.43002235889434814 0.34308737516403198 0.0039215688593685627
0.48199367523193359 0.34424403309822083 0.0039084791205823421
0.54364585876464844 0.35365253686904907 0.0039177387952804565
0.61046278476715088 0.36575788259506226 0.0039187860675156116
0.67444813251495361 0.3727077841758728 0.0035791734699159861
0.73463016748428345 0.37417608499526978 0.0043781204149127007
0.79300272464752197 0.37760144472122192 0.0047766594216227531
0.84847915172576904 0.38547268509864807 0.0046309824101626873
0.90013384819030762 0.40441244840621948 0.0039384132251143456
0.9476698637008667 0.43001344799995422 0.0013459299225360155
0.38658049702644348 0.43333879113197327 0.0015540178865194321
0.40085670351982117 0.43097767233848572 0.0032877754420042038
0.43080800771713257 0.4309488832950592 0.0038251988589763641
0.47415664792060852 0.43429335951805115 0.0030570235103368759
0.52604824304580688 0.43994536995887756 0.0027702332008630037
0.58759236335754395 0.44824150204658508 0.003607132937759161
0.65136325359344482 0.45701572299003601 0.003823254257440567
0.71185177564620972 0.46655932068824768 0.0038896298501640558
0.76479971408843994 0.47240516543388367 0.0041029388085007668
0.81297534704208374 0.47442471981048584 0.006304632406681776
0.8583836555480957 0.47971144318580627 0.0057731028646230698
0.90118592977523804 0.49163919687271118 0.0040153800509870052
0.94226127862930298 0.51025336980819702 0.003642781637609005
0.43563452363014221 0.52495706081390381 0.0015637415926903486
0.45322513580322266 0.52389359474182129 0.0031825494952499866
0.48071402311325073 0.5256919264793396 0.0028346341568976641
0.52057301998138428 0.52802443504333496 0.0014077579835429788
0.56763291358947754 0.53394055366516113 0.00045177983702160418
0.62347716093063354 0.537617027759552 0.00069526222068816423
0.68230962753295898 0.54347354173660278 0.0027083451859652996
0.73713415861129761 0.55319952964782715 0.0038405922241508961
0.7873501181602478 0.56432449817657471 0.0047085331752896309
0.83093315362930298 0.56937193870544434 0.0055319694802165031
0.87110269069671631 0.57331126928329468 0.0052492180839180946
0.90726304054260254 0.57987254858016968 0.0051484052091836929
0.94167250394821167 0.59117180109024048 0.0046314462088048458
0.4931730329990387 0.60603493452072144 0.0015674366150051355
0.5100896954536438 0.60998296737670898 0.0023515590000897646
0.53060102462768555 0.61363005638122559 0.0013442095369100571
0.56309783458709717 0.6108127236366272 0.00011441099923104048
0.60477006435394287 0.61111092567443848 0
0.65414720773696899 0.61964386701583862 0
0.70656496286392212 0.62701296806335449 0.0012542874319478869
0.75529807806015015 0.63223040103912354 0.0012245477410033345
0.80099451541900635 0.63989418745040894 0.0032053331378847361
0.84435075521469116 0.65205103158950806 0.0052568921819329262
0.88282525539398193 0.66196364164352417 0.035624202340841293
0.91392642259597778 0.6639714241027832 0.044264025986194611
0.94334328174591064 0.66959971189498901 0.057138778269290924
0.5522763729095459 0.68227177858352661 0.0014223584439605474
0.56692957878112793 0.68306046724319458 0.0021607792004942894
0.58256930112838745 0.68465602397918701 0.0012237698538228869
0.60417854785919189 0.68432050943374634 7.8986677181092091e-06
0.64217638969421387 0.68556118011474609 0
0.68433308601379395 0.6897931694984436 0
0.72520434856414795 0.69160670042037964 0.0010234458604827523
0.76781600713729858 0.69565308094024658 0.0035493141040205956
0.81051987409591675 0.70301228761672974 0.003953881561756134
0.85182535648345947 0.71283173561096191 0.0055909999646246433
0.88747137784957886 0.72467124462127686 0.094379976391792297
0.91588348150253296 0.73115944862365723 0.21173129975795746
0.94020593166351318 0.73465561866760254 0.24169482290744781
0.60719293355941772 0.7484855055809021 6.6809559939429164e-05
0.62156647443771362 0.74703609943389893 0.002315581077709794
0.63627403974533081 0.74802982807159424 0.0027000277768820524
0.64947807788848877 0.75096780061721802 0.0009967130608856678
0.67550647258758545 0.75151288509368896 0.00069277896545827389
0.71214437484741211 0.74904710054397583 0.0011276245350018144
0.74828124046325684 0.74748373031616211 0.0034495184663683176
0.78483766317367554 0.74986261129379272 0.0039092269726097584
0.82223749160766602 0.75597172975540161 0.0041059455834329128
0.86062705516815186 0.76560002565383911 0.0095281116664409637
0.89412808418273926 0.77229392528533936 0.12799078226089478
0.91836023330688477 0.77764385938644409 0.28459939360618591
0.93896985054016113 0.78460252285003662 0.37827974557876587
0.66319364309310913 0.80615615844726562 0.0018584157805889845
0.67720013856887817 0.80176430940628052 0.0049293669871985912
0.68919968605041504 0.79998779296875 0.0058877384290099144
0.70072776079177856 0.80083084106445312 0.0049893399700522423
0.71876281499862671 0.80173039436340332 0.0045304689556360245
0.74530243873596191 0.80181354284286499 0.0041804295033216476
0.77594822645187378 0.80089998245239258 0.0040062400512397289
0.80916744470596313 0.80067020654678345 0.0048787733539938927
0.84218257665634155 0.80515778064727783 0.0047922772355377674
0.87584453821182251 0.81156796216964722 0.054511711001396179
0.90436255931854248 0.8126225471496582 0.21079757809638977
0.92727440595626831 0.81480103731155396 0.33172726631164551
0.94641292095184326 0.81995344161987305 0.43809717893600464
0.72420221567153931 0.84700989723205566 0.0052774464711546898
0.73113149404525757 0.84431099891662598 0.0052135991863906384
0.73695844411849976 0.843231201171875 0.0050230436027050018
0.74744969606399536 0.84349590539932251 0.0043272129260003567
0.7631080150604248 0.84436416625976562 0.0043534673750400543
0.78145056962966919 0.84387224912643433 0.0044341590255498886
0.80700480937957764 0.84350436925888062 0.0032427620608359575
0.83706289529800415 0.84676730632781982 0.0062176273204386234
0.86817073822021484 0.85046881437301636 0.059786688536405563
0.89717549085617065 0.85057222843170166 0.20953181385993958
0.92156422138214111 0.8504297137260437 0.33075502514839172
0.94400560855865479 0.85048258304595947 0.4278622567653656
0.96190100908279419 0.85197609663009644 0.51198655366897583
0.26397770643234253 0.082351148128509521 0.062614575028419495
0.26763385534286499 0.081973642110824585 0.061961665749549866
0.27328580617904663 0.08229934424161911 0.059644944965839386
0.29802423715591431 0.078348435461521149 0.060642063617706299
0.34206688404083252 0.07164987176656723 0.067311637103557587
0.39788496494293213 0.060509417206048965 0.073176093399524689
0.47329580783843994 0.036623638123273849 0.076709434390068054
0.56349146366119385 0.0082623502239584923 0.073733203113079071
0.65558052062988281 0.0047774072736501694 0.072414487600326538
0.74561613798141479 0.0075937011279165745 0.072557710111141205
0.82607924938201904 0.0071245529688894749 0.072867058217525482
0.89446890354156494 0.0056467992253601551 0.074327491223812103
0.95503699779510498 0.045806299895048141 0.082824259996414185
0.26471427083015442 0.090935848653316498 0.058990851044654846
0.27287811040878296 0.098896071314811707 0.059149108827114105
0.28471171855926514 0.10089932382106781 0.059134852141141891
0.30995869636535645 0.097897790372371674 0.061065148562192917
0.35408303141593933 0.096637800335884094 0.066264450550079346
0.41450360417366028 0.089394934475421906 0.068443909287452698
0.48736914992332458 0.069848738610744476 0.070207022130489349
0.57320940494537354 0.032326314598321915 0.067070856690406799
0.66256463527679443 0.012413129210472107 0.065932236611843109
0.75037533044815063 0.008334440179169178 0.064646191895008087
0.83157539367675781 0.0078088049776852131 0.063544303178787231
0.89976781606674194 0.020943690091371536 0.065385736525058746
0.95466798543930054 0.10375336557626724 0.078014805912971497
0.27004921436309814 0.12239369750022888 0.053649213165044785
0.27957174181938171 0.12596002221107483 0.054256979376077652
0.29675719141960144 0.12957680225372314 0.055315520614385605
0.32621043920516968 0.13165253400802612 0.057000674307346344
0.37381657958030701 0.13496604561805725 0.058075308799743652
0.43645462393760681 0.12769144773483276 0.058951329439878464
0.50761508941650391 0.11668581515550613 0.057755369693040848
0.59075075387954712 0.10122735798358917 0.054607406258583069
0.67714411020278931 0.076896414160728455 0.050880149006843567
0.7612687349319458 0.060945354402065277 0.048713713884353638
0.83606863021850586 0.071669243276119232 0.047273404896259308
0.89961510896682739 0.11560320109128952 0.050570439547300339
0.95444017648696899 0.18244466185569763 0.066084198653697968
0.2830604612827301 0.17682750523090363 0.042038831859827042
0.29613873362541199 0.18114842474460602 0.042126927524805069
0.3179638683795929 0.18303647637367249 0.041812311857938766
0.35097309947013855 0.18529078364372253 0.042508009821176529
0.39942151308059692 0.18703308701515198 0.044080533087253571
0.46336689591407776 0.18818847835063934 0.041547574102878571
0.53405141830444336 0.18970093131065369 0.034348625689744949
0.61255919933319092 0.18443164229393005 0.029420711100101471
0.69330132007598877 0.17839048802852631 0.028170626610517502
0.77307784557342529 0.17813302576541901 0.023543713614344597
0.84213781356811523 0.19173170626163483 0.023107072338461876
0.90124255418777466 0.22410234808921814 0.028360210359096527
0.95578914880752563 0.26684427261352539 0.045124698430299759
0.30587923526763916 0.25068923830986023 0.021704310551285744
0.32042434811592102 0.25441440939903259 0.020768573507666588
0.34769120812416077 0.25823435187339783 0.016755212098360062
0.38830408453941345 0.26248180866241455 0.014010529965162277
0.44214591383934021 0.26329147815704346 0.018450822681188583
0.50471591949462891 0.26651987433433533 0.019171187654137611
