luts/instant_consumer/polaroid_px-70_cold.cube
# Created by: G'MIC (https://gmic.eu)
TITLE "polaroid_px-70_cold"
# LUT size
LUT_3D_SIZE 5
# Data domain
DOMAIN_MIN 0.0 0.0 0.0
DOMAIN_MAX 1.0 1.0 1.0
# LUT data points
0 0.17254902422428131 0.25429460406303406
0.0044288933277130127 0.17339341342449188 0.25251224637031555
0.25878080725669861 0.19190226495265961 0.25873962044715881
0.73535710573196411 0.28545457124710083 0.26429173350334167
0.99605274200439453 0.53064817190170288 0.28784006834030151
0 0.22460797429084778 0.25806400179862976
0.0051354803144931793 0.23640288412570953 0.25826430320739746
0.34012120962142944 0.27203097939491272 0.25819507241249084
0.7614322304725647 0.39155983924865723 0.25677868723869324
0.99031966924667358 0.5873904824256897 0.28521829843521118
0 0.47923871874809265 0.28019794821739197
0.0067756953649222851 0.49329507350921631 0.28203520178794861
0.44411933422088623 0.534088134765625 0.27108177542686462
0.78747260570526123 0.60743159055709839 0.25369861721992493
0.97152316570281982 0.68460571765899658 0.27814587950706482
0.20885014533996582 0.79529017210006714 0.33314836025238037
0.34007120132446289 0.78589659929275513 0.33862751722335815
0.58040755987167358 0.78922218084335327 0.35293936729431152
0.7996363639831543 0.81290048360824585 0.3476148247718811
0.94579601287841797 0.83059978485107422 0.38126370310783386
0.75455468893051147 0.93195688724517822 0.51170617341995239
0.76795458793640137 0.93125301599502563 0.51284462213516235
0.8172910213470459 0.92727243900299072 0.52154004573822021
0.88238930702209473 0.93597394227981567 0.53376483917236328
0.94174283742904663 0.93883055448532104 0.55233466625213623
0 0.17549626529216766 0.27907058596611023
0.0044969744049012661 0.18286125361919403 0.27858752012252808
0.28273272514343262 0.19240443408489227 0.2919328510761261
0.78190964460372925 0.307932049036026 0.3311493992805481
0.98890244960784912 0.56684976816177368 0.38525086641311646
0 0.23495657742023468 0.28731396794319153
0.011243035085499287 0.25139424204826355 0.29592722654342651
0.39531561732292175 0.29788142442703247 0.30961769819259644
0.79930657148361206 0.44275608658790588 0.33848360180854797
0.99042540788650513 0.61500734090805054 0.37712851166725159
0.0034710154868662357 0.51001137495040894 0.32951313257217407
0.068754769861698151 0.51465332508087158 0.328277587890625
0.48611396551132202 0.5478971004486084 0.32744258642196655
0.80974805355072021 0.62046355009078979 0.32301157712936401
0.97500687837600708 0.70925253629684448 0.36820137500762939
0.32785063982009888 0.80462753772735596 0.38310143351554871
0.42018038034439087 0.79186397790908813 0.39061135053634644
0.61425900459289551 0.80324548482894897 0.40046840906143188
0.81409758329391479 0.81821262836456299 0.4045981764793396
0.94975572824478149 0.83601856231689453 0.43257331848144531
0.77015590667724609 0.93148672580718994 0.52448028326034546
0.77900904417037964 0.92774033546447754 0.52436220645904541
0.83580034971237183 0.92908346652984619 0.53645652532577515
0.89179885387420654 0.9333120584487915 0.54497271776199341
0.94359147548675537 0.93699741363525391 0.55871868133544922
0.0002509622136130929 0.19706682860851288 0.36492416262626648
0.075461402535438538 0.21840418875217438 0.36614379286766052
0.37910616397857666 0.2935250997543335 0.38599362969398499
0.76992058753967285 0.30711030960083008 0.44430172443389893
0.99302071332931519 0.52159851789474487 0.48435810208320618
0.0012364855501800776 0.2958071231842041 0.39560580253601074
0.14706988632678986 0.31019282341003418 0.40124720335006714
0.47284314036369324 0.40428119897842407 0.41629943251609802
0.81091105937957764 0.44768014550209045 0.46074911952018738
0.99256592988967896 0.6358715295791626 0.49710538983345032
0.0089121051132678986 0.54496127367019653 0.42865636944770813
0.23995918035507202 0.54744535684585571 0.43238291144371033
0.57122325897216797 0.58535492420196533 0.44817054271697998
0.83851248025894165 0.67590582370758057 0.47336474061012268
0.96921831369400024 0.77291977405548096 0.50312620401382446
0.50807058811187744 0.81228923797607422 0.48017427325248718
0.56500041484832764 0.80715465545654297 0.4799865186214447
0.67811095714569092 0.81326806545257568 0.4818253219127655
0.83711248636245728 0.8287854790687561 0.49247172474861145
0.95543777942657471 0.84080499410629272 0.5041966438293457
0.8071708083152771 0.92912536859512329 0.55285787582397461
0.80777496099472046 0.92800247669219971 0.5489698052406311
0.85465556383132935 0.93112176656723022 0.55746304988861084
0.90413063764572144 0.93609249591827393 0.56954860687255859
0.94401264190673828 0.93802011013031006 0.58417016267776489
0.2643258273601532 0.28146147727966309 0.5588340163230896
0.46062052249908447 0.31820839643478394 0.56028693914413452
0.720650315284729 0.47881937026977539 0.56434887647628784
0.86285680532455444 0.63899970054626465 0.56253379583358765
0.97246438264846802 0.65918654203414917 0.57014799118041992
0.24542100727558136 0.40342119336128235 0.56907230615615845
0.47092375159263611 0.4377085268497467 0.56938266754150391
0.7406429648399353 0.5761871337890625 0.5688740611076355
0.87022781372070312 0.71331918239593506 0.56602132320404053
0.97148621082305908 0.72884988784790039 0.5735817551612854
0.080594249069690704 0.63327246904373169 0.55705326795578003
0.36372992396354675 0.62971276044845581 0.55763721466064453
0.71296936273574829 0.69181978702545166 0.56574106216430664
0.87028348445892334 0.78751844167709351 0.56624877452850342
0.96087932586669922 0.80644208192825317 0.57371354103088379
0.51703321933746338 0.81917506456375122 0.55270296335220337
0.58262056112289429 0.81623345613479614 0.55306476354598999
0.72857367992401123 0.82240527868270874 0.55937463045120239
0.86816489696502686 0.85046374797821045 0.57062077522277832
0.95447832345962524 0.88464581966400146 0.57713484764099121
0.81474965810775757 0.93228405714035034 0.58305680751800537
0.83335661888122559 0.93283575773239136 0.58311343193054199
0.8775363564491272 0.93330961465835571 0.59260392189025879
0.92150360345840454 0.93542653322219849 0.6029665470123291
0.95418483018875122 0.94584572315216064 0.61970746517181396
0.7311166524887085 0.63434785604476929 0.663169264793396
0.78274846076965332 0.66401791572570801 0.6574212908744812
0.87369406223297119 0.75830298662185669 0.64292538166046143
0.93186932802200317 0.85374313592910767 0.62689656019210815
0.96016472578048706 0.8823397159576416 0.62687808275222778
0.73217219114303589 0.69814884662628174 0.65797317028045654
0.78329890966415405 0.7194250226020813 0.65217256546020508
0.8718332052230835 0.79477787017822266 0.64055901765823364
0.93127584457397461 0.86654204130172729 0.62771487236022949
0.95886677503585815 0.89339637756347656 0.62880802154541016
0.6915745735168457 0.7767103910446167 0.64690512418746948
0.74722713232040405 0.78303521871566772 0.64405661821365356
0.85503780841827393 0.83017760515213013 0.63714814186096191
0.92932641506195068 0.88841348886489868 0.63103806972503662
0.95333510637283325 0.89521509408950806 0.62294065952301025
0.6646578311920166 0.85723698139190674 0.63343745470046997
0.69104087352752686 0.85421162843704224 0.63230109214782715
0.78591245412826538 0.85980701446533203 0.63313847780227661
0.91138648986816406 0.90005815029144287 0.63528680801391602
0.95110088586807251 0.92790031433105469 0.63828355073928833
0.85601449012756348 0.94173365831375122 0.63807922601699829
0.86494338512420654 0.93950873613357544 0.63718503713607788
0.89182668924331665 0.93961507081985474 0.64011609554290771
0.92298537492752075 0.94183683395385742 0.64367812871932983
0.95647692680358887 0.95169222354888916 0.65570944547653198
