luts/instant_consumer/polaroid_px-680_warm_++.cube
# Created by: G'MIC (https://gmic.eu)
TITLE "polaroid_px-680_warm_++"
# LUT size
LUT_3D_SIZE 13
# Data domain
DOMAIN_MIN 0.0 0.0 0.0
DOMAIN_MAX 1.0 1.0 1.0
# LUT data points
0.36008948087692261 0.27410176396369934 0.13167446851730347
0.3661198616027832 0.27524510025978088 0.13243621587753296
0.37083333730697632 0.27474513649940491 0.13333334028720856
0.37741094827651978 0.27450981736183167 0.13306534290313721
0.39200830459594727 0.27480852603912354 0.13036513328552246
0.43572372198104858 0.27533194422721863 0.12882065773010254
0.51071923971176147 0.27874055504798889 0.12426802515983582
0.62166059017181396 0.28880026936531067 0.11592929065227509
0.73880040645599365 0.29958376288414001 0.10324843227863312
0.82642668485641479 0.32102075219154358 0.095557257533073425
0.89181321859359741 0.35240164399147034 0.095305390655994415
0.93777495622634888 0.3923509418964386 0.11581598967313766
0.97442203760147095 0.43738898634910583 0.14704045653343201
0.36079809069633484 0.28044122457504272 0.13174019753932953
0.36588650941848755 0.28072342276573181 0.13208480179309845
0.37105542421340942 0.28013837337493896 0.13333334028720856
0.37959545850753784 0.27921721339225769 0.13309101760387421
0.39996522665023804 0.27888679504394531 0.13038244843482971
0.44092035293579102 0.280678391456604 0.12791343033313751
0.51977431774139404 0.28773844242095947 0.12082350254058838
0.63400095701217651 0.30288010835647583 0.11022542417049408
0.74494612216949463 0.31512701511383057 0.098247185349464417
0.8315996527671814 0.33590853214263916 0.089090339839458466
0.89142131805419922 0.36759808659553528 0.092606499791145325
0.9348101019859314 0.40438529849052429 0.11351677030324936
0.97336918115615845 0.4475770890712738 0.14666356146335602
0.36073321104049683 0.28678259253501892 0.13174019753932953
0.36494043469429016 0.28859522938728333 0.13114723563194275
0.3712199330329895 0.28799641132354736 0.1315896064043045
0.38548967242240906 0.28683316707611084 0.13036239147186279
0.40722978115081787 0.28748476505279541 0.12910324335098267
0.45762366056442261 0.29302129149436951 0.12416380643844604
0.53620141744613647 0.30283921957015991 0.11466427892446518
0.64578652381896973 0.31973838806152344 0.10203298181295395
0.75413340330123901 0.33657234907150269 0.089065372943878174
0.83584129810333252 0.36025509238243103 0.079465828835964203
0.89107388257980347 0.38909375667572021 0.084607578814029694
0.93318670988082886 0.42174491286277771 0.10801129788160324
0.96944552659988403 0.46253356337547302 0.14594385027885437
0.35963419079780579 0.29493829607963562 0.13123300671577454
0.3623175323009491 0.30015796422958374 0.13008572161197662
0.36921697854995728 0.3016413152217865 0.12909293174743652
0.38674291968345642 0.30106234550476074 0.12811349332332611
0.41933965682983398 0.3074072003364563 0.12474916875362396
0.47647038102149963 0.31830385327339172 0.11751118302345276
0.55759346485137939 0.32957422733306885 0.10580234974622726
0.65614080429077148 0.34504112601280212 0.091100595891475677
0.75770306587219238 0.36626353859901428 0.074496127665042877
0.83501046895980835 0.39102399349212646 0.065249018371105194
0.88673341274261475 0.41694474220275879 0.071200229227542877
0.92741560935974121 0.44863447546958923 0.10291809588670731
0.96471375226974487 0.48342016339302063 0.14056490361690521
0.35379931330680847 0.32563936710357666 0.12714412808418274
0.35754820704460144 0.32700783014297485 0.12639859318733215
0.36665934324264526 0.32737898826599121 0.12555500864982605
0.38947594165802002 0.33489656448364258 0.12273218482732773
0.4286920428276062 0.34610360860824585 0.11726003885269165
0.49377009272575378 0.36584490537643433 0.10401931405067444
0.57875341176986694 0.38331252336502075 0.085747979581356049
0.66888892650604248 0.39783790707588196 0.064111627638339996
0.75365203619003296 0.40768605470657349 0.050313614308834076
0.82763940095901489 0.42517581582069397 0.039953164756298065
0.87990766763687134 0.44719445705413818 0.050629589706659317
0.92139005661010742 0.47441017627716064 0.087360963225364685
0.95901340246200562 0.50919502973556519 0.13396333158016205
0.34380269050598145 0.37495487928390503 0.11811745166778564
0.34916901588439941 0.37532767653465271 0.11768221110105515
0.36170631647109985 0.37694031000137329 0.11764973402023315
0.38653045892715454 0.38401764631271362 0.11542723327875137
0.42896357178688049 0.39856371283531189 0.10730655491352081
0.49151709675788879 0.41826772689819336 0.093267910182476044
0.58772331476211548 0.44886335730552673 0.062575787305831909
0.68301773071289062 0.46944063901901245 0.030733115971088409
0.7574271559715271 0.47341734170913696 0.016400085762143135
0.82142466306686401 0.47607326507568359 0.011406438425183296
0.87242615222930908 0.48522427678108215 0.022675098851323128
0.91361826658248901 0.50793361663818359 0.064852789044380188
0.95251744985580444 0.54071313142776489 0.1239410862326622
0.32939472794532776 0.43470543622970581 0.10492096096277237
0.3376649022102356 0.43327444791793823 0.10554853081703186
0.35305804014205933 0.43925732374191284 0.1056256890296936
0.37898564338684082 0.44337660074234009 0.10551706701517105
0.41971412301063538 0.45661735534667969 0.098059728741645813
0.48570993542671204 0.47693094611167908 0.085242070257663727
0.57120215892791748 0.50074011087417603 0.058428235352039337
0.67292940616607666 0.53233820199966431 0.019709791988134384
0.7548484206199646 0.54705822467803955 0.005832417868077755
0.81458503007888794 0.54822033643722534 0.0081648286432027817
0.86293131113052368 0.54662168025970459 0.019884685054421425
0.90478497743606567 0.55158424377441406 0.049810074269771576
0.9437517523765564 0.57429426908493042 0.10933438688516617
0.30923229455947876 0.51014441251754761 0.088637381792068481
0.32130402326583862 0.5061957836151123 0.090669639408588409
0.34019950032234192 0.50505632162094116 0.093097180128097534
0.36620920896530151 0.50423568487167358 0.095816850662231445
0.41054987907409668 0.52249419689178467 0.090866968035697937
0.47255003452301025 0.53621631860733032 0.080894246697425842
0.54885607957839966 0.55121076107025146 0.06710314005613327
0.64144569635391235 0.5771031379699707 0.050673332065343857
0.73798775672912598 0.60638999938964844 0.036339703947305679
0.80340182781219482 0.6162150502204895 0.049635540693998337
0.8519052267074585 0.61691290140151978 0.074288539588451385
0.89389461278915405 0.6203000545501709 0.10472773760557175
0.92837470769882202 0.62315839529037476 0.13041888177394867
0.29909998178482056 0.56998860836029053 0.082746393978595734
0.31104528903961182 0.57017391920089722 0.084419652819633484
0.32996839284896851 0.56861549615859985 0.088165923953056335
0.35700395703315735 0.56754928827285767 0.092471644282341003
0.40080451965332031 0.57800865173339844 0.094934917986392975
0.46241122484207153 0.59195172786712646 0.094732366502285004
0.53629565238952637 0.60625863075256348 0.093594253063201904
0.62120038270950317 0.62414127588272095 0.097545400261878967
0.70729249715805054 0.64649444818496704 0.10655573010444641
0.78030109405517578 0.66599225997924805 0.12872450053691864
0.84089541435241699 0.68276345729827881 0.15980367362499237
0.88020497560501099 0.68533390760421753 0.1801154613494873
0.91820448637008667 0.69482225179672241 0.21010084450244904
0.30358293652534485 0.62809813022613525 0.09390384703874588
0.31621050834655762 0.62730318307876587 0.097551502287387848
0.33657914400100708 0.62767946720123291 0.10247372090816498
0.36621773242950439 0.62874865531921387 0.10874253511428833
0.40991348028182983 0.63499194383621216 0.11935022473335266
0.46692356467247009 0.64587146043777466 0.12987586855888367
0.53743916749954224 0.65793108940124512 0.14099740982055664
0.61369901895523071 0.67217487096786499 0.1561959981918335
0.68698209524154663 0.68773865699768066 0.17643351852893829
0.75585871934890747 0.70235729217529297 0.20016433298587799
0.81790661811828613 0.72178786993026733 0.23066724836826324
0.87087905406951904 0.74773508310317993 0.27341997623443604
0.90701931715011597 0.75921499729156494 0.30194824934005737
0.3514801561832428 0.69249516725540161 0.15093067288398743
0.35688266158103943 0.68783378601074219 0.1472366601228714
0.37424048781394958 0.68773263692855835 0.15141348540782928
0.40383359789848328 0.68946689367294312 0.16013620793819427
0.44526568055152893 0.69297528266906738 0.17495594918727875
0.49707788228988647 0.69956028461456299 0.19237732887268066
0.56001931428909302 0.71061414480209351 0.21026630699634552
0.62402963638305664 0.72281420230865479 0.23180337250232697
0.68626236915588379 0.73469787836074829 0.25460085272789001
0.74946296215057373 0.74855422973632812 0.28094443678855896
0.80511516332626343 0.76202261447906494 0.30697464942932129
0.85402101278305054 0.78356587886810303 0.34234941005706787
0.89490944147109985 0.80652368068695068 0.38251486420631409
0.43907111883163452 0.75531202554702759 0.24241535365581512
0.4419606626033783 0.75264811515808105 0.23804676532745361
0.4555237889289856 0.75245553255081177 0.24111154675483704
0.47824347019195557 0.75257676839828491 0.24755255877971649
0.51431405544281006 0.75545388460159302 0.26369753479957581
0.55585509538650513 0.76071131229400635 0.28399381041526794
0.60450422763824463 0.76844829320907593 0.30448213219642639
0.65832740068435669 0.77941799163818359 0.32851848006248474
0.71150666475296021 0.7896769642829895 0.35056152939796448
0.75907576084136963 0.79969048500061035 0.37101772427558899
0.80446398258209229 0.8102881908416748 0.39711776375770569
0.84668827056884766 0.82341134548187256 0.42303186655044556
0.88109809160232544 0.83899456262588501 0.44739577174186707
0.55460816621780396 0.82495170831680298 0.36303165555000305
0.55777668952941895 0.82290679216384888 0.36237314343452454
0.56774348020553589 0.8225867748260498 0.36549502611160278
0.58232313394546509 0.82225334644317627 0.36936712265014648
0.60662657022476196 0.82439416646957397 0.38212624192237854
0.63877034187316895 0.82940274477005005 0.40088450908660889
0.67112439870834351 0.83349007368087769 0.4190523624420166
0.71075868606567383 0.84190833568572998 0.43839552998542786
0.74908226728439331 0.84815967082977295 0.45473667979240417
0.78538358211517334 0.85424017906188965 0.47299864888191223
0.822074294090271 0.86242884397506714 0.49803358316421509
0.85483968257904053 0.86920773983001709 0.52385097742080688
0.88361334800720215 0.87657147645950317 0.54668182134628296
0.36181148886680603 0.27514708042144775 0.1359369307756424
0.36663642525672913 0.27524510025978088 0.13629898428916931
0.37145563960075378 0.27473115921020508 0.13573843240737915
0.37708529829978943 0.27450981736183167 0.13503339886665344
0.3989139199256897 0.27429917454719543 0.13451816141605377
0.44340312480926514 0.27382573485374451 0.13235887885093689
0.52503949403762817 0.2762608528137207 0.13046583533287048
0.63725811243057251 0.28802743554115295 0.12914189696311951
0.74920493364334106 0.3018612265586853 0.12408739328384399
0.83582067489624023 0.32410779595375061 0.11902178823947906
0.8963857889175415 0.36117827892303467 0.12744444608688354
0.93876498937606812 0.40503731369972229 0.15198744833469391
0.9735608696937561 0.45345500111579895 0.18730762600898743
0.36181113123893738 0.28011646866798401 0.13686840236186981
0.36644464731216431 0.27998268604278564 0.13681478798389435
0.37126877903938293 0.27970373630523682 0.13561533391475677
0.37867528200149536 0.27831581234931946 0.13483329117298126
0.4027731716632843 0.27763545513153076 0.13373181223869324
0.44954594969749451 0.27913200855255127 0.13151045143604279
0.53507703542709351 0.28615406155586243 0.12831887602806091
0.65090745687484741 0.30073663592338562 0.12529292702674866
0.75497525930404663 0.31750276684761047 0.11942068487405777
0.83844131231307983 0.34154221415519714 0.11519715189933777
0.89560812711715698 0.37658730149269104 0.12838079035282135
0.93753606081008911 0.41767016053199768 0.15317440032958984
0.97213411331176758 0.4659712016582489 0.19079013168811798
0.36176091432571411 0.28661534190177917 0.13660851120948792
0.36606031656265259 0.28681379556655884 0.13565227389335632
0.37038841843605042 0.28547435998916626 0.13450554013252258
0.38390222191810608 0.28508144617080688 0.13375581800937653
0.41305774450302124 0.28736531734466553 0.13212333619594574
0.46617388725280762 0.29294541478157043 0.12936975061893463
0.55080580711364746 0.30297333002090454 0.12278521806001663
0.66180276870727539 0.31936731934547424 0.11669957637786865
0.76245176792144775 0.33940809965133667 0.1107158437371254
0.84018492698669434 0.3653905987739563 0.10900218039751053
0.89521372318267822 0.39622288942337036 0.12186898291110992
0.93622726202011108 0.43393582105636597 0.14903560280799866
0.97102087736129761 0.47803956270217896 0.18736934661865234
0.36083534359931946 0.29797801375389099 0.13586711883544922
0.36556628346443176 0.30101042985916138 0.13506770133972168
0.37069383263587952 0.30160588026046753 0.13341271877288818
0.39067697525024414 0.30443492531776428 0.13165698945522308
0.42652988433837891 0.30995723605155945 0.1290706992149353
0.48978626728057861 0.31948623061180115 0.12368886917829514
0.57183486223220825 0.33088210225105286 0.11478075385093689
0.67085021734237671 0.34884104132652283 0.10605540871620178
0.76476496458053589 0.37042659521102905 0.098486863076686859
0.83823555707931519 0.3957240879535675 0.099021211266517639
0.89105963706970215 0.42404216527938843 0.1117844358086586
0.92986029386520386 0.45782375335693359 0.14405283331871033
0.96646463871002197 0.49750000238418579 0.18366871774196625
0.35517948865890503 0.33213329315185547 0.13277612626552582
0.36171793937683105 0.33123603463172913 0.13245439529418945
0.37021186947822571 0.33067899942398071 0.13101950287818909
0.39597514271736145 0.33934569358825684 0.12878182530403137
0.43358319997787476 0.35064637660980225 0.12469210475683212
0.50357651710510254 0.36689722537994385 0.11459898203611374
0.59062796831130981 0.38563627004623413 0.098051451146602631
0.67782843112945557 0.39597484469413757 0.085515312850475311
0.76206254959106445 0.41202470660209656 0.076986260712146759
0.83207041025161743 0.43152830004692078 0.077115066349506378
0.88443601131439209 0.45686861872673035 0.095875099301338196
0.922882080078125 0.48614287376403809 0.13331162929534912
0.96045762300491333 0.523365318775177 0.17797653377056122
0.34423869848251343 0.38109806180000305 0.12572543323040009
0.35300353169441223 0.37992390990257263 0.1260908842086792
0.36569502949714661 0.38392525911331177 0.12661673128604889
0.39190492033958435 0.39284467697143555 0.12583218514919281
0.4342786967754364 0.40559273958206177 0.11908953636884689
0.50233215093612671 0.42480230331420898 0.10578731447458267
0.59944462776184082 0.45426103472709656 0.080850593745708466
0.68648874759674072 0.46811002492904663 0.062507286667823792
0.76000297069549561 0.47540205717086792 0.052361045032739639
0.82338893413543701 0.47823682427406311 0.049477804452180862
0.8759157657623291 0.49222570657730103 0.067850939929485321
0.91588693857192993 0.51830708980560303 0.11298877745866776
0.95360010862350464 0.55062007904052734 0.16487258672714233
0.33026206493377686 0.43940082192420959 0.11534158885478973
0.34118849039077759 0.44178912043571472 0.11654707789421082
0.3572697639465332 0.44747012853622437 0.11874622851610184
0.38475891947746277 0.45267865061759949 0.11998061835765839
0.42813941836357117 0.46611979603767395 0.11319080740213394
0.49492970108985901 0.48363324999809265 0.10137718170881271
0.57736706733703613 0.5064394474029541 0.081978008151054382
0.67935764789581299 0.53599244356155396 0.05713488906621933
0.75798696279525757 0.5503307580947876 0.044695205986499786
0.81620186567306519 0.54894739389419556 0.05122438445687294
0.86600387096405029 0.54743969440460205 0.068268269300460815
0.9068901538848877 0.55590248107910156 0.10180316865444183
0.94491398334503174 0.58060240745544434 0.15025365352630615
0.31603634357452393 0.511566162109375 0.10591879487037659
0.32757872343063354 0.51071906089782715 0.10659209638834
0.34418174624443054 0.51073163747787476 0.10829723626375198
0.37297859787940979 0.51354646682739258 0.11272627860307693
0.41520252823829651 0.52626651525497437 0.10992570966482162
0.47890341281890869 0.54068684577941895 0.10375382751226425
0.5575110912322998 0.55839723348617554 0.095285259187221527
0.64881289005279541 0.58142304420471191 0.089931145310401917
0.74101001024246216 0.60999387502670288 0.08871663361787796
0.80644875764846802 0.6202852725982666 0.10224072635173798
0.85340005159378052 0.6184380054473877 0.11964786052703857
0.89519399404525757 0.62112867832183838 0.14362141489982605
0.93121302127838135 0.62825536727905273 0.16989870369434357
0.30599308013916016 0.57589495182037354 0.10170438885688782
0.31870117783546448 0.5746767520904541 0.10424135625362396
0.33577904105186462 0.57383817434310913 0.10557066649198532
0.36487939953804016 0.57596379518508911 0.11123618483543396
0.40813356637954712 0.58419579267501831 0.11703594774007797
0.47096019983291626 0.59701228141784668 0.12077865749597549
0.54508256912231445 0.61165356636047363 0.12323569506406784
0.63075608015060425 0.62866008281707764 0.13249903917312622
0.70927035808563232 0.64726704359054565 0.14738383889198303
0.78411054611206055 0.67074096202850342 0.17016123235225677
0.84109461307525635 0.68431413173675537 0.19336889684200287
0.8820914626121521 0.68876063823699951 0.21225979924201965
0.91848772764205933 0.69804477691650391 0.23752780258655548
0.31353172659873962 0.63330411911010742 0.11513739079236984
0.32713431119918823 0.63158625364303589 0.11957457661628723
0.34484559297561646 0.63276368379592896 0.12245839089155197
0.37660354375839233 0.635509192943573 0.13049815595149994
0.41929930448532104 0.64053601026535034 0.14225167036056519
0.47758400440216064 0.6500931978225708 0.15560166537761688
0.54537713527679443 0.66335916519165039 0.16776081919670105
0.62176108360290527 0.67538577318191528 0.18516702950000763
0.69267392158508301 0.68993771076202393 0.20688995718955994
0.7597382664680481 0.70677930116653442 0.2333827018737793
0.82062029838562012 0.72595101594924927 0.25920474529266357
0.87190943956375122 0.74870175123214722 0.29358458518981934
0.90556061267852783 0.75842016935348511 0.31738626956939697
0.36120155453681946 0.6918025016784668 0.16701881587505341
0.3697698712348938 0.69001668691635132 0.16802065074443817
0.38846299052238464 0.69184011220932007 0.17354173958301544
0.41600936651229858 0.69402921199798584 0.1805727481842041
0.45693349838256836 0.69638854265213013 0.19530943036079407
0.50841760635375977 0.7022554874420166 0.21379697322845459
0.56893807649612427 0.71495145559310913 0.23305006325244904
0.63358902931213379 0.7260286808013916 0.25436833500862122
0.69404852390289307 0.73778671026229858 0.27757596969604492
0.75248140096664429 0.75150424242019653 0.30270040035247803
0.8069872260093689 0.76574087142944336 0.32658016681671143
0.85581248998641968 0.78591257333755493 0.35911548137664795
0.89491373300552368 0.80757260322570801 0.39474695920944214
0.44759765267372131 0.75451195240020752 0.25350454449653625
0.45299029350280762 0.75451242923736572 0.25285664200782776
0.46735775470733643 0.75516027212142944 0.25810199975967407
0.48980173468589783 0.75523096323013306 0.26396358013153076
0.52429986000061035 0.75634926557540894 0.27899941802024841
0.56557160615921021 0.76166486740112305 0.30009663105010986
0.61302536725997925 0.77177280187606812 0.31923940777778625
0.66434502601623535 0.7822040319442749 0.34333944320678711
0.71635758876800537 0.79173010587692261 0.36772885918617249
0.76339465379714966 0.80181103944778442 0.38723030686378479
0.8081289529800415 0.81373113393783569 0.41121381521224976
0.84784960746765137 0.82479465007781982 0.43189811706542969
0.88300812244415283 0.84094655513763428 0.45747950673103333
0.55827087163925171 0.82553267478942871 0.37023362517356873
0.56239950656890869 0.82317769527435303 0.36946433782577515
0.57330942153930664 0.82378131151199341 0.37536787986755371
0.58837628364562988 0.82414811849594116 0.37880441546440125
0.61297434568405151 0.82572633028030396 0.39179325103759766
0.64184463024139404 0.82875186204910278 0.40848591923713684
0.67517834901809692 0.83455032110214233 0.42562243342399597
0.71045660972595215 0.84086781740188599 0.44381287693977356
0.75065141916275024 0.84785723686218262 0.46373564004898071
0.78887701034545898 0.85523420572280884 0.4838259220123291
0.82534271478652954 0.86389344930648804 0.50722163915634155
0.85654699802398682 0.87114995718002319 0.52759724855422974
0.88423299789428711 0.87643063068389893 0.54811626672744751
0.36250382661819458 0.27592068910598755 0.13934250175952911
0.36726942658424377 0.27549341320991516 0.14181618392467499
0.37174424529075623 0.27519404888153076 0.14142963290214539
0.37804043292999268 0.27455252408981323 0.13911339640617371
0.40212827920913696 0.27295714616775513 0.14060913026332855
0.44650602340698242 0.26958349347114563 0.1424901932477951
0.53579157590866089 0.26563772559165955 0.14269138872623444
0.65496242046356201 0.27440127730369568 0.14926424622535706
0.76470661163330078 0.30039966106414795 0.15392588078975677
0.84213662147521973 0.33595389127731323 0.16607198119163513
0.89837151765823364 0.37713974714279175 0.18192136287689209
0.93809443712234497 0.42575103044509888 0.21101245284080505
0.97059327363967896 0.47624710202217102 0.24710997939109802
0.36285525560379028 0.28043755888938904 0.14278389513492584
0.36757320165634155 0.27990740537643433 0.14531949162483215
0.37300512194633484 0.27989095449447632 0.14326928555965424
0.38153812289237976 0.27954533696174622 0.14070802927017212
0.40780216455459595 0.27759882807731628 0.14158102869987488
0.45740681886672974 0.27602678537368774 0.14384174346923828
0.5505865216255188 0.27844226360321045 0.14454643428325653
0.66762298345565796 0.29236909747123718 0.14850573241710663
0.76879739761352539 0.3179742693901062 0.15304166078567505
0.84203672409057617 0.3511677086353302 0.16248920559883118
0.89795053005218506 0.39135894179344177 0.18115484714508057
0.93562299013137817 0.43837448954582214 0.21425710618495941
0.96950477361679077 0.48813903331756592 0.25076234340667725
0.36280974745750427 0.28585806488990784 0.14328400790691376
0.36769405007362366 0.28637042641639709 0.14502935111522675
0.37339800596237183 0.28649088740348816 0.14463682472705841
0.38847017288208008 0.28717076778411865 0.14363615214824677
0.41823583841323853 0.28862801194190979 0.14376504719257355
0.47810089588165283 0.29403072595596313 0.14654983580112457
0.57064378261566162 0.30189242959022522 0.14706897735595703
0.6776464581489563 0.31708869338035583 0.1457635909318924
0.77262610197067261 0.3435019850730896 0.14895336329936981
0.84286391735076904 0.37339794635772705 0.15745951235294342
0.89354509115219116 0.41231954097747803 0.18029586970806122
0.93359589576721191 0.45391750335693359 0.21065537631511688
0.96829032897949219 0.49952840805053711 0.24711667001247406
0.36197379231452942 0.29917821288108826 0.14210943877696991
0.36816248297691345 0.30206748843193054 0.14439792931079865
0.37545624375343323 0.30369934439659119 0.14496253430843353
0.39843550324440002 0.30789774656295776 0.14510716497898102
0.43481999635696411 0.31308680772781372 0.14395833015441895
0.50315570831298828 0.3237605094909668 0.14311873912811279
0.58847653865814209 0.33454909920692444 0.14142706990242004
0.68430978059768677 0.35239169001579285 0.13915969431400299
0.77419495582580566 0.37726837396621704 0.1404501348733902
0.84086209535598755 0.40363147854804993 0.14983552694320679
0.88960814476013184 0.43611696362495422 0.17084142565727234
0.93010842800140381 0.4725099503993988 0.19993577897548676
0.96525371074676514 0.51889514923095703 0.24385054409503937
0.35755449533462524 0.33560514450073242 0.14250345528125763
0.36641755700111389 0.33543410897254944 0.14532403647899628
0.37626466155052185 0.33733612298965454 0.1455015242099762
0.40154597163200378 0.34725764393806458 0.14522144198417664
0.44173097610473633 0.36043938994407654 0.14210982620716095
0.51403939723968506 0.37417465448379517 0.13723966479301453
0.60355627536773682 0.38658052682876587 0.12991486489772797
