luts/instant_consumer/polaroid_time_zero_expired_cold_---.cube
# Created by: G'MIC (https://gmic.eu)
TITLE "polaroid_time_zero_expired_cold_---"
# LUT size
LUT_3D_SIZE 5
# Data domain
DOMAIN_MIN 0.0 0.0 0.0
DOMAIN_MAX 1.0 1.0 1.0
# LUT data points
0.12733322381973267 0.022905148565769196 0.033384568989276886
0.20475210249423981 0.013784805312752724 0.031894505023956299
0.44900479912757874 0.0021843255963176489 0.028832679614424706
0.69744706153869629 0.00093190808547660708 0.046544019132852554
0.90505462884902954 0.063279427587985992 0.11784135550260544
0.15988489985466003 0.16958548128604889 0.005468031857162714
0.27078863978385925 0.17952781915664673 0.01302019041031599
0.49267286062240601 0.18207132816314697 0.0043165618553757668
0.71356672048568726 0.18250115215778351 0.0098131513223052025
0.91007649898529053 0.2888031005859375 0.099372491240501404
0.20961669087409973 0.47993695735931396 0
0.35385322570800781 0.48633226752281189 0.0012178907636553049
0.56482350826263428 0.49764007329940796 0.0053916480392217636
0.74370437860488892 0.49604126811027527 0.0057137580588459969
0.90852075815200806 0.51920336484909058 0.023834707215428352
0.38401538133621216 0.70087218284606934 0
0.46229949593544006 0.70148241519927979 0
0.63060784339904785 0.706168532371521 0.0020308699458837509
0.79744511842727661 0.71725666522979736 0.071987614035606384
0.93410861492156982 0.73318737745285034 0.30534368753433228
0.60048770904541016 0.89375096559524536 0
0.64135342836380005 0.89547711610794067 0
0.73691457509994507 0.8925706148147583 0
0.87867748737335205 0.89800882339477539 0.080114670097827911
0.9798770546913147 0.90098309516906738 0.44990628957748413
0.17502330243587494 0.011050579138100147 0.15074139833450317
0.22705912590026855 0.0043471092358231544 0.15450122952461243
0.47276675701141357 0.0011523975990712643 0.20477388799190521
0.70505994558334351 0.033252745866775513 0.22078609466552734
0.90532886981964111 0.1903395801782608 0.262216717004776
0.1910720020532608 0.16291789710521698 0.14745026826858521
0.30700856447219849 0.1981530636548996 0.16221338510513306
0.51722455024719238 0.20714427530765533 0.18012480437755585
0.72165441513061523 0.24049933254718781 0.20075784623622894
0.90588730573654175 0.32320335507392883 0.25756561756134033
0.24749581515789032 0.48308834433555603 0.11636125296354294
0.36308032274246216 0.49636265635490417 0.079823844134807587
0.5749661922454834 0.50489944219589233 0.16371166706085205
0.74199265241622925 0.50330889225006104 0.19272874295711517
0.90847837924957275 0.52893543243408203 0.23299580812454224
0.40145239233970642 0.69908344745635986 0.051411062479019165
0.47082221508026123 0.7022554874420166 0.028291231021285057
0.62686187028884888 0.70879238843917847 0.024355705827474594
0.7966378927230835 0.71910792589187622 0.2693297266960144
0.93095123767852783 0.73428356647491455 0.39368730783462524
0.60434269905090332 0.89299076795578003 0.12583857774734497
0.64112865924835205 0.89406216144561768 0.069248080253601074
0.73744755983352661 0.89722251892089844 0.0028856315184384584
0.87434846162796021 0.8980332612991333 0.24066787958145142
0.9771609902381897 0.90106856822967529 0.50921833515167236
0.3449288010597229 0.047853492200374603 0.46003779768943787
0.39562329649925232 0.083401292562484741 0.47187229990959167
0.51457852125167847 0.11609775573015213 0.46391609311103821
0.70925605297088623 0.087141193449497223 0.48418581485748291
0.88173896074295044 0.27871584892272949 0.52072471380233765
0.42965862154960632 0.28646957874298096 0.45889902114868164
0.47634062170982361 0.31960222125053406 0.46212169528007507
0.55532503128051758 0.32657039165496826 0.46534997224807739
0.72458374500274658 0.30163133144378662 0.47772666811943054
0.89414268732070923 0.39650106430053711 0.50183486938476562
0.3861134946346283 0.48540365695953369 0.4134967029094696
0.46581289172172546 0.49994435906410217 0.42281067371368408
0.59542369842529297 0.52178657054901123 0.43513020873069763
0.74601894617080688 0.51962697505950928 0.44372409582138062
0.90753293037414551 0.54873645305633545 0.46656918525695801
0.44644656777381897 0.69327622652053833 0.40061792731285095
0.5089910626411438 0.70134216547012329 0.4151705801486969
0.63305866718292236 0.70961987972259521 0.39185389876365662
0.79200083017349243 0.72436857223510742 0.48359537124633789
0.92922604084014893 0.73278141021728516 0.51457673311233521
0.61786341667175293 0.88775849342346191 0.4777601957321167
0.64797109365463257 0.8884093165397644 0.4523695707321167
0.72891169786453247 0.8943292498588562 0.40499264001846313
0.85818803310394287 0.89922326803207397 0.43210244178771973
0.97586911916732788 0.90725195407867432 0.61999064683914185
0.5694890022277832 0.30875962972640991 0.72214597463607788
0.59538161754608154 0.33290871977806091 0.72432297468185425
0.65246039628982544 0.37593322992324829 0.73016315698623657
0.7373538613319397 0.40302985906600952 0.71261465549468994
0.88267606496810913 0.39453157782554626 0.72696006298065186
0.62492620944976807 0.46683570742607117 0.70959681272506714
0.64394301176071167 0.47746014595031738 0.72034263610839844
0.68734925985336304 0.49940299987792969 0.72315478324890137
0.75464779138565063 0.50023537874221802 0.71168762445449829
0.88467919826507568 0.47210273146629333 0.72757291793823242
0.64169025421142578 0.57913792133331299 0.70148462057113647
0.68075102567672729 0.60034114122390747 0.702228844165802
0.72688770294189453 0.62745457887649536 0.70543128252029419
0.78004294633865356 0.63257008790969849 0.71116906404495239
0.89533883333206177 0.59119755029678345 0.71781742572784424
0.59644001722335815 0.70839387178421021 0.65884131193161011
0.63423949480056763 0.70884770154953003 0.66039460897445679
0.70304781198501587 0.7236628532409668 0.6716759204864502
0.80037945508956909 0.73700904846191406 0.68573087453842163
0.92486798763275146 0.73464053869247437 0.69103455543518066
0.65442377328872681 0.87243223190307617 0.67746609449386597
0.67082947492599487 0.87840098142623901 0.68135982751846313
0.72087502479553223 0.88673752546310425 0.68158316612243652
0.83526432514190674 0.89551937580108643 0.66338223218917847
0.96649372577667236 0.91053181886672974 0.75452816486358643
0.75226974487304688 0.56891053915023804 0.89352220296859741
0.76429998874664307 0.57719355821609497 0.89749950170516968
0.79065275192260742 0.59580206871032715 0.89866602420806885
0.82994872331619263 0.61850100755691528 0.90260356664657593
0.88974279165267944 0.62887942790985107 0.89786010980606079
0.78092712163925171 0.6406828761100769 0.89064908027648926
0.78881436586380005 0.64363265037536621 0.89604943990707397
0.81105238199234009 0.65363979339599609 0.89676511287689209
0.84404498338699341 0.66832011938095093 0.89995670318603516
0.894767165184021 0.67068815231323242 0.9017607569694519
0.81824779510498047 0.72110897302627563 0.89242780208587646
0.82441800832748413 0.72841417789459229 0.89414459466934204
0.84178656339645386 0.73427993059158325 0.89431667327880859
0.8706895112991333 0.74526125192642212 0.90194153785705566
0.91009819507598877 0.74577194452285767 0.90412431955337524
0.79044634103775024 0.77371823787689209 0.89490354061126709
0.81542187929153442 0.78597414493560791 0.89187264442443848
0.8577883243560791 0.80213874578475952 0.89698851108551025
0.90097945928573608 0.82404333353042603 0.90217000246047974
0.93473708629608154 0.82875442504882812 0.90815931558609009
0.77137470245361328 0.89102363586425781 0.88918459415435791
0.7846178412437439 0.89242947101593018 0.88408362865447998
0.82549262046813965 0.89634078741073608 0.89360195398330688
0.88577580451965332 0.9071839451789856 0.90000826120376587
0.96572071313858032 0.92541247606277466 0.91146367788314819
