luts/instant_consumer/polaroid_px-70_+.cube
# Created by: G'MIC (https://gmic.eu)
TITLE "polaroid_px-70_+"
# LUT size
LUT_3D_SIZE 13
# Data domain
DOMAIN_MIN 0.0 0.0 0.0
DOMAIN_MAX 1.0 1.0 1.0
# LUT data points
0.12554541230201721 0.25009804964065552 0.24011258780956268
0.13340233266353607 0.2509753406047821 0.23922483623027802
0.14100156724452972 0.25098040699958801 0.23921568691730499
0.15468087792396545 0.25107374787330627 0.23921568691730499
0.18406599760055542 0.25244489312171936 0.23921568691730499
0.23885607719421387 0.25538438558578491 0.23971879482269287
0.33285954594612122 0.2591998279094696 0.2394733726978302
0.47445419430732727 0.26780909299850464 0.23585501313209534
0.63591939210891724 0.28633022308349609 0.22856323421001434
0.789348304271698 0.33186584711074829 0.21528486907482147
0.90300309658050537 0.40554499626159668 0.19940051436424255
0.96513980627059937 0.4779418408870697 0.19189839065074921
0.99664050340652466 0.54243886470794678 0.19914957880973816
0.12528209388256073 0.25401997566223145 0.24229614436626434
0.13394375145435333 0.25450947880744934 0.24018937349319458
0.1431463360786438 0.25410875678062439 0.23921963572502136
0.15852446854114532 0.25497591495513916 0.23921568691730499
0.19457007944583893 0.25638934969902039 0.23921568691730499
0.25288280844688416 0.26017731428146362 0.23921568691730499
0.34779542684555054 0.26699507236480713 0.23814395070075989
0.48425179719924927 0.28075417876243591 0.23296009004116058
0.64566266536712646 0.30450600385665894 0.22408957779407501
0.79639589786529541 0.35011693835258484 0.21090123057365417
0.90487962961196899 0.42284935712814331 0.19666355848312378
0.9660685658454895 0.49520844221115112 0.19130796194076538
0.99617117643356323 0.55655276775360107 0.20017659664154053
0.1234414353966713 0.25934851169586182 0.24311570823192596
0.13343340158462524 0.26129600405693054 0.2416100949048996
0.14478184282779694 0.26108592748641968 0.2393595427274704
0.16614139080047607 0.26250258088111877 0.23921568691730499
0.20755179226398468 0.26602077484130859 0.23920013010501862
0.27190893888473511 0.2723945677280426 0.23849134147167206
0.37205272912979126 0.28467777371406555 0.23518826067447662
0.51024883985519409 0.30472549796104431 0.22927112877368927
0.66126710176467896 0.3311772346496582 0.21952743828296661
0.80492979288101196 0.38379642367362976 0.20400485396385193
0.90788573026657104 0.45363858342170715 0.19012166559696198
0.96795105934143066 0.52059090137481689 0.18478332459926605
0.99544507265090942 0.57240837812423706 0.19531764090061188
0.11834239214658737 0.27692967653274536 0.24052819609642029
0.13041195273399353 0.27966755628585815 0.23928627371788025
0.14676760137081146 0.28069806098937988 0.2392226904630661
0.17579297721385956 0.28373149037361145 0.23885497450828552
0.22718814015388489 0.2912013828754425 0.23631632328033447
0.30105060338973999 0.30086871981620789 0.23474428057670593
0.40632498264312744 0.31387493014335632 0.23204363882541656
0.53951400518417358 0.33613798022270203 0.22494068741798401
0.68520045280456543 0.37209397554397583 0.21154479682445526
0.8131028413772583 0.42538183927536011 0.19469176232814789
0.90665805339813232 0.48991319537162781 0.18086090683937073
0.9640730619430542 0.54952406883239746 0.17777833342552185
0.99343019723892212 0.59460538625717163 0.19136422872543335
0.09668237715959549 0.32122623920440674 0.23847714066505432
0.11151476204395294 0.32730492949485779 0.2380782812833786
0.13991403579711914 0.32749086618423462 0.23766560852527618
0.18464078009128571 0.33113223314285278 0.23580345511436462
0.24892702698707581 0.3399043083190918 0.23304383456707001
0.33941805362701416 0.35590448975563049 0.22875279188156128
0.44883301854133606 0.37209782004356384 0.22244375944137573
0.57717645168304443 0.39607083797454834 0.21334308385848999
0.70230954885482788 0.42674735188484192 0.20065081119537354
0.8186112642288208 0.47689622640609741 0.1826237291097641
0.90346354246139526 0.5345538854598999 0.16857850551605225
0.95718473196029663 0.58478838205337524 0.17094933986663818
0.98715710639953613 0.62594664096832275 0.19220827519893646
0.042576193809509277 0.39599823951721191 0.23221440613269806
0.067312233150005341 0.39675161242485046 0.23270894587039948
0.11975541710853577 0.39820042252540588 0.23231221735477448
0.18833500146865845 0.40487807989120483 0.23031844198703766
0.26921644806861877 0.4167778491973877 0.22648864984512329
0.36981669068336487 0.43049740791320801 0.22083324193954468
0.49208745360374451 0.45423737168312073 0.21039365231990814
0.61885112524032593 0.48204898834228516 0.19744624197483063
0.72609072923660278 0.50743371248245239 0.18376137316226959
0.8250003457069397 0.54337984323501587 0.16596820950508118
0.89523357152938843 0.57975327968597412 0.15389987826347351
0.94619852304458618 0.62136697769165039 0.15861904621124268
0.98211872577667236 0.65664565563201904 0.18240588903427124
0.0049092909321188927 0.50516813993453979 0.21961143612861633
0.011571981012821198 0.50158846378326416 0.2201855331659317
0.087201394140720367 0.50163900852203369 0.22017422318458557
0.19299817085266113 0.5031057596206665 0.2196677029132843
0.29959440231323242 0.51436656713485718 0.2153521329164505
0.40653753280639648 0.52439683675765991 0.20820511877536774
0.52747273445129395 0.54453414678573608 0.19748501479625702
0.6491166353225708 0.57169830799102783 0.18194930255413055
0.75433999300003052 0.59946352243423462 0.16593499481678009
0.83412641286849976 0.62358212471008301 0.15224100649356842
0.89365392923355103 0.64489579200744629 0.14532856643199921
0.93862104415893555 0.6638798713684082 0.14904794096946716
0.97433704137802124 0.68868535757064819 0.17634934186935425
0.019302668049931526 0.6183808445930481 0.20684218406677246
0.048620499670505524 0.61198753118515015 0.2073347419500351
0.14554104208946228 0.6124991774559021 0.20860520005226135
0.24398376047611237 0.61139965057373047 0.21008820831775665
0.35206696391105652 0.61898344755172729 0.20738130807876587
0.46172139048576355 0.62887674570083618 0.20060276985168457
0.57154697179794312 0.64312082529067993 0.19196859002113342
0.67541623115539551 0.65908944606781006 0.1800466775894165
0.77018070220947266 0.68111693859100342 0.16593572497367859
0.8379594087600708 0.69657605886459351 0.15929104387760162
0.88666081428527832 0.70699375867843628 0.16170418262481689
0.92776745557785034 0.7169836163520813 0.16971641778945923
0.96392917633056641 0.72839826345443726 0.18876530230045319
0.21081307530403137 0.71892565488815308 0.20994725823402405
0.23924753069877625 0.714702308177948 0.21133947372436523
0.29112842679023743 0.71052408218383789 0.21329414844512939
0.35632935166358948 0.71013802289962769 0.21673798561096191
0.43436428904533386 0.71233075857162476 0.21804524958133698
0.52385532855987549 0.71737539768218994 0.21585699915885925
0.61506712436676025 0.72663670778274536 0.21016807854175568
0.6988338828086853 0.73701000213623047 0.2057974636554718
0.77166932821273804 0.74589866399765015 0.19815698266029358
0.83341240882873535 0.75404953956604004 0.19454273581504822
0.88089233636856079 0.76386088132858276 0.20218269526958466
0.91948723793029785 0.7709764838218689 0.21543113887310028
0.95486867427825928 0.77932661771774292 0.24087932705879211
0.4017670750617981 0.79309701919555664 0.24817878007888794
0.41410589218139648 0.78941607475280762 0.24781440198421478
0.43428894877433777 0.78452455997467041 0.24733944237232208
0.47336819767951965 0.78319555521011353 0.25143581628799438
0.52574068307876587 0.78290653228759766 0.25802642107009888
0.59043216705322266 0.78506433963775635 0.26023021340370178
0.65621906518936157 0.78929394483566284 0.259328693151474
0.71862244606018066 0.7937045693397522 0.25903499126434326
0.77696150541305542 0.79863256216049194 0.26106962561607361
0.83183026313781738 0.80714786052703857 0.2638031542301178
0.87833720445632935 0.81477409601211548 0.26592561602592468
0.91432243585586548 0.82123547792434692 0.28558835387229919
0.94575071334838867 0.82565951347351074 0.31197276711463928
0.55230027437210083 0.84522044658660889 0.31823983788490295
0.55888015031814575 0.84424346685409546 0.31736564636230469
0.56815725564956665 0.84034174680709839 0.31645828485488892
0.59101575613021851 0.83934581279754639 0.31935757398605347
0.6242520809173584 0.83857071399688721 0.32880967855453491
0.6632118821144104 0.83614438772201538 0.33418136835098267
0.70581322908401489 0.8373749852180481 0.33495110273361206
0.74906861782073975 0.84176814556121826 0.33940404653549194
0.7971537709236145 0.84824943542480469 0.34846028685569763
0.84097260236740112 0.85261887311935425 0.35373497009277344
0.87853324413299561 0.85698091983795166 0.3579954206943512
0.91125202178955078 0.86375153064727783 0.36867234110832214
0.9395148754119873 0.86897224187850952 0.3966948390007019
0.68210858106613159 0.88829904794692993 0.41352418065071106
0.68437659740447998 0.88686025142669678 0.41064077615737915
0.68831384181976318 0.88362580537796021 0.40909987688064575
0.70057320594787598 0.88359653949737549 0.41176441311836243
0.717498779296875 0.88068670034408569 0.41622492671012878
0.74311959743499756 0.88310623168945312 0.42781075835227966
0.76807248592376709 0.88301181793212891 0.43010532855987549
0.79439479112625122 0.88716524839401245 0.43676060438156128
0.82409632205963135 0.89246082305908203 0.44433963298797607
0.8526080846786499 0.89450180530548096 0.44944220781326294
0.88113558292388916 0.89772874116897583 0.45507586002349854
0.90775728225708008 0.90107285976409912 0.46381399035453796
0.9339028000831604 0.90288043022155762 0.47760257124900818
0.78363043069839478 0.91955876350402832 0.50068420171737671
0.78311336040496826 0.91664928197860718 0.49707558751106262
0.7857552170753479 0.91629582643508911 0.49673265218734741
0.79339450597763062 0.91647815704345703 0.50000977516174316
0.80152827501296997 0.91476422548294067 0.50121849775314331
0.81599229574203491 0.91624540090560913 0.50842106342315674
0.82957267761230469 0.91762745380401611 0.51186615228652954
0.84639495611190796 0.91993480920791626 0.5173524022102356
0.86209636926651001 0.9213097095489502 0.52106767892837524
0.87991845607757568 0.92415106296539307 0.52632999420166016
0.89800113439559937 0.92584282159805298 0.53147834539413452
0.91630589962005615 0.9275437593460083 0.53637737035751343
0.9346088171005249 0.9288371205329895 0.5429534912109375
0.12640790641307831 0.25145915150642395 0.24338306486606598
0.13286888599395752 0.25164255499839783 0.24277803301811218
0.13947269320487976 0.25121772289276123 0.24115262925624847
0.15121415257453918 0.25098040699958801 0.23989729583263397
0.18717430531978607 0.25310632586479187 0.23995894193649292
0.24536725878715515 0.25523442029953003 0.2405952662229538
0.34397092461585999 0.26104635000228882 0.24007309973239899
0.48859396576881409 0.26960211992263794 0.23766589164733887
0.64950889348983765 0.29141578078269958 0.23195599019527435
0.80043041706085205 0.3360995352268219 0.22282476723194122
0.90955722332000732 0.41198337078094482 0.21055889129638672
0.96766823530197144 0.48535513877868652 0.21001476049423218
0.99585127830505371 0.54970872402191162 0.22024032473564148
0.12679511308670044 0.25588056445121765 0.24335332214832306
0.13335390388965607 0.25599315762519836 0.24305230379104614
0.14124855399131775 0.25567403435707092 0.241487056016922
0.15870471298694611 0.25627559423446655 0.240174800157547
0.19713006913661957 0.25712934136390686 0.2411864697933197
0.2601419985294342 0.26204121112823486 0.24087141454219818
0.36209216713905334 0.26954808831214905 0.24034653604030609
0.50068634748458862 0.28333985805511475 0.23703037202358246
0.66281896829605103 0.30815568566322327 0.22922655940055847
0.8071020245552063 0.35687890648841858 0.21921691298484802
0.91052138805389404 0.42989453673362732 0.20901964604854584
0.96899455785751343 0.50148063898086548 0.20835885405540466
0.99580240249633789 0.56311875581741333 0.22209133207798004
0.12501201033592224 0.26376339793205261 0.24320410192012787
0.13246683776378632 0.26223030686378479 0.24304483830928802
0.14487318694591522 0.26200619339942932 0.242433100938797
0.17143592238426208 0.26678299903869629 0.24025259912014008
0.21489092707633972 0.27005717158317566 0.24083699285984039
0.28049731254577637 0.27528196573257446 0.24050256609916687
0.3856690526008606 0.28757843375205994 0.23778578639030457
0.529133141040802 0.30961555242538452 0.23321835696697235
0.67924791574478149 0.33807039260864258 0.22505082190036774
0.81530213356018066 0.39087891578674316 0.21310395002365112
0.90908098220825195 0.46002116799354553 0.20585232973098755
0.96998327970504761 0.52920687198638916 0.20479977130889893
0.99440968036651611 0.58387672901153564 0.22193117439746857
0.12213394790887833 0.27968302369117737 0.24129420518875122
0.12994168698787689 0.28112608194351196 0.2408163845539093
0.14945979416370392 0.28482049703598022 0.24102330207824707
0.18041539192199707 0.28641393780708313 0.23954242467880249
0.23515875637531281 0.29465195536613464 0.23903407156467438
0.31185591220855713 0.30331277847290039 0.23777046799659729
0.42238152027130127 0.31722438335418701 0.23448528349399567
0.55552536249160767 0.34119358658790588 0.22939209640026093
0.69483554363250732 0.37628111243247986 0.21904419362545013
0.82130646705627441 0.4320128858089447 0.20489811897277832
0.90983641147613525 0.4989035427570343 0.19687597453594208
0.96671277284622192 0.55891543626785278 0.19893340766429901
0.99440884590148926 0.60235702991485596 0.21445666253566742
0.10436287522315979 0.32498344779014587 0.24024508893489838
0.11889733374118805 0.32816120982170105 0.23958601057529449
0.14704126119613647 0.33094441890716553 0.23981587588787079
0.19031527638435364 0.33457174897193909 0.23882050812244415
0.2574213445186615 0.3447844386100769 0.23671723902225494
0.34825116395950317 0.35772329568862915 0.23325610160827637
0.4621012806892395 0.3759479820728302 0.22712866961956024
0.58971869945526123 0.39883679151535034 0.21890054643154144
0.71246802806854248 0.4317086935043335 0.20736727118492126
0.82445991039276123 0.48350796103477478 0.19325645267963409
0.90678590536117554 0.53934395313262939 0.1845690906047821
0.95926618576049805 0.59021073579788208 0.19072720408439636
0.98810446262359619 0.62915909290313721 0.2124524861574173
0.04562561959028244 0.40445908904075623 0.23590338230133057
0.078001968562602997 0.40435725450515747 0.23547899723052979
0.1301102489233017 0.40517944097518921 0.23549151420593262
0.19612005352973938 0.41115376353263855 0.23441892862319946
0.27917611598968506 0.42396867275238037 0.23051522672176361
0.38388082385063171 0.44084429740905762 0.22514991462230682
0.50569891929626465 0.46445795893669128 0.21542125940322876
0.62856090068817139 0.48734447360038757 0.20323030650615692
0.73784118890762329 0.51407867670059204 0.19211256504058838
0.82932198047637939 0.54586398601531982 0.17890778183937073
0.9005427360534668 0.58503657579421997 0.17035628855228424
0.95013755559921265 0.62713617086410522 0.17941993474960327
0.98356658220291138 0.66022598743438721 0.20394635200500488
0.0039399689994752407 0.51503908634185791 0.22521321475505829
0.020769620314240456 0.51163655519485474 0.22441744804382324
0.11146542429924011 0.50837248563766479 0.22526216506958008
0.20699840784072876 0.51043844223022461 0.22514280676841736
0.30552414059638977 0.5185055136680603 0.22156532108783722
0.42127421498298645 0.53482204675674438 0.21517403423786163
0.5414922833442688 0.55347168445587158 0.20530813932418823
0.66030526161193848 0.57809615135192871 0.19148853421211243
0.75994235277175903 0.60485446453094482 0.18044836819171906
0.8371279239654541 0.62824654579162598 0.17077244818210602
0.89615786075592041 0.64666509628295898 0.16630560159683228
0.94107592105865479 0.66799843311309814 0.17219823598861694
0.97559726238250732 0.69236326217651367 0.19948777556419373
0.037268351763486862 0.62326705455780029 0.2152925580739975
0.084040381014347076 0.61938571929931641 0.21540327370166779
0.17779204249382019 0.61474990844726562 0.21739834547042847
0.26374247670173645 0.61370468139648438 0.21953475475311279
0.36269417405128479 0.61893433332443237 0.21950046718120575
0.47388795018196106 0.63125598430633545 0.21421879529953003
0.58387434482574463 0.64808511734008789 0.20593184232711792
0.68435895442962646 0.66420787572860718 0.19663761556148529
0.77547347545623779 0.68548417091369629 0.18384803831577301
0.8413512110710144 0.70029187202453613 0.17930635809898376
0.88978326320648193 0.70939111709594727 0.18291570246219635
0.93056899309158325 0.71901077032089233 0.190495565533638
0.96413087844848633 0.7296677827835083 0.20792107284069061
0.24180306494235992 0.72293549776077271 0.22261561453342438
0.26809382438659668 0.7195548415184021 0.22306804358959198
0.31209799647331238 0.71347320079803467 0.22552543878555298
0.37107610702514648 0.7118714451789856 0.2284657210111618
0.44571194052696228 0.71418935060501099 0.23116818070411682
0.53530091047286987 0.72039252519607544 0.23189036548137665
0.62456554174423218 0.73050212860107422 0.22830058634281158
0.70600515604019165 0.74083501100540161 0.22440171241760254
0.77534663677215576 0.7491074800491333 0.21679708361625671
0.836556077003479 0.75931465625762939 0.21361091732978821
0.88451755046844482 0.76628565788269043 0.22198674082756042
0.92218565940856934 0.7718198299407959 0.23765875399112701
0.9555666446685791 0.78016906976699829 0.25835117697715759
0.41823342442512512 0.79529660940170288 0.26045712828636169
0.43036079406738281 0.79143249988555908 0.26201140880584717
0.45177826285362244 0.78893011808395386 0.26147964596748352
0.49069094657897949 0.78763735294342041 0.26685738563537598
0.53996843099594116 0.78456443548202515 0.27559742331504822
0.60161805152893066 0.78803497552871704 0.27736020088195801
0.66472989320755005 0.79213285446166992 0.27695906162261963
0.72689837217330933 0.79691082239151001 0.27841648459434509
0.78378719091415405 0.80387485027313232 0.27688479423522949
0.83308869600296021 0.81132179498672485 0.27963605523109436
0.87844908237457275 0.8154788613319397 0.28704172372817993
0.91536605358123779 0.82133448123931885 0.30376631021499634
0.94623291492462158 0.82709318399429321 0.32802531123161316
0.566417396068573 0.84732967615127563 0.33116701245307922
0.56902247667312622 0.84512710571289062 0.32889097929000854
0.57846403121948242 0.84240871667861938 0.3277595043182373
0.60195988416671753 0.84064608812332153 0.33426052331924438
0.6354987621307373 0.83837896585464478 0.3436281681060791
0.67543798685073853 0.83847975730895996 0.34736764430999756
0.71130281686782837 0.84013766050338745 0.35050851106643677
0.75823616981506348 0.84440255165100098 0.35570743680000305
0.80351865291595459 0.85077399015426636 0.35986712574958801
0.83898800611495972 0.85504293441772461 0.36248767375946045
0.87652939558029175 0.8579787015914917 0.36943599581718445
0.91145604848861694 0.8631700873374939 0.38332173228263855
0.93950074911117554 0.86937272548675537 0.40772911906242371
0.69050174951553345 0.88903254270553589 0.4204050600528717
0.68947356939315796 0.88705837726593018 0.41846320033073425
0.69432634115219116 0.88495224714279175 0.41609781980514526
0.70645684003829956 0.88377410173416138 0.41848790645599365
0.7243809700012207 0.88184881210327148 0.42497509717941284
0.74616724252700806 0.88254821300506592 0.43338564038276672
0.76992130279541016 0.88482332229614258 0.43927431106567383
0.79769444465637207 0.88741904497146606 0.44508326053619385
0.82707196474075317 0.89063400030136108 0.45085343718528748
0.85358422994613647 0.89339017868041992 0.45430341362953186
0.88117760419845581 0.89658373594284058 0.4601554274559021
0.90892642736434937 0.90112829208374023 0.47128033638000488
0.93516004085540771 0.90195959806442261 0.48205491900444031
0.78575688600540161 0.91866886615753174 0.50223290920257568
0.78701388835906982 0.91735380887985229 0.50191396474838257
0.78804653882980347 0.91634058952331543 0.49955117702484131
0.79572796821594238 0.91582185029983521 0.50213247537612915
0.80595844984054565 0.91526228189468384 0.50626933574676514
0.81748044490814209 0.91694259643554688 0.51083213090896606
0.8312346339225769 0.91861379146575928 0.51580458879470825
0.84795242547988892 0.91949450969696045 0.52110671997070312
0.86540025472640991 0.92055082321166992 0.52496236562728882
0.8811299204826355 0.9233173131942749 0.52777379751205444
0.89863520860671997 0.9253118634223938 0.53267842531204224
0.91723024845123291 0.92787176370620728 0.54032593965530396
0.93551540374755859 0.92889797687530518 0.54550063610076904
0.12547190487384796 0.25306904315948486 0.24698139727115631
0.13196535408496857 0.25270068645477295 0.24585343897342682
0.14022201299667358 0.25243225693702698 0.24465741217136383
0.15435865521430969 0.25328272581100464 0.24376457929611206
0.19069299101829529 0.25301840901374817 0.24413369596004486
0.25259280204772949 0.25340870022773743 0.24499541521072388
0.35856682062149048 0.25610190629959106 0.24534107744693756
0.50967884063720703 0.2604185938835144 0.24559411406517029
0.67253720760345459 0.29020300507545471 0.24474877119064331
0.81868427991867065 0.3431372344493866 0.24044457077980042
0.91819590330123901 0.4198492169380188 0.23580886423587799
0.97013169527053833 0.49543029069900513 0.24229893088340759
0.99612200260162354 0.56114542484283447 0.25787687301635742
0.12681086361408234 0.25648689270019531 0.24694988131523132
0.13313104212284088 0.25718078017234802 0.24582348763942719
0.14259664714336395 0.25687476992607117 0.24489253759384155
0.1594756692647934 0.2567841112613678 0.24421615898609161
0.20056204497814178 0.25823119282722473 0.24525964260101318
0.27183347940444946 0.26331660151481628 0.24658146500587463
0.37944081425666809 0.27001601457595825 0.24608078598976135
0.5241667628288269 0.28056055307388306 0.24543328583240509
0.68586927652359009 0.31197571754455566 0.24402855336666107
0.82392388582229614 0.36557865142822266 0.23858937621116638
0.91715830564498901 0.43965238332748413 0.23486070334911346
0.96978467702865601 0.51128959655761719 0.24105480313301086
0.99557071924209595 0.5746045708656311 0.26112791895866394
0.12691597640514374 0.26511076092720032 0.24640108644962311
0.13359527289867401 0.26350367069244385 0.245467409491539
0.14696608483791351 0.2636980414390564 0.24512182176113129
0.17413310706615448 0.26897001266479492 0.24477721750736237
0.2215036004781723 0.27342551946640015 0.24589502811431885
0.29467403888702393 0.27883777022361755 0.24662861227989197
0.40446323156356812 0.28965616226196289 0.24543073773384094
0.54815906286239624 0.31026649475097656 0.24323637783527374
0.70207947492599487 0.34533184766769409 0.24000605940818787
0.82962131500244141 0.40131321549415588 0.23314492404460907
0.91535699367523193 0.47009778022766113 0.23246361315250397
0.9694632887840271 0.53487694263458252 0.23757225275039673
0.99436825513839722 0.59180140495300293 0.25806447863578796
0.12712615728378296 0.28564736247062683 0.24554286897182465
0.13399358093738556 0.28556829690933228 0.24538245797157288
0.15572746098041534 0.28934761881828308 0.24563349783420563
0.18874204158782959 0.29259529709815979 0.24545274674892426
0.24640446901321411 0.30030804872512817 0.24565155804157257
0.32722571492195129 0.30584290623664856 0.24518118798732758
0.44207566976547241 0.3220001757144928 0.24388791620731354
0.57727766036987305 0.34571802616119385 0.23972263932228088
0.71590960025787354 0.38405957818031311 0.23288817703723907
0.83339846134185791 0.44189676642417908 0.22468645870685577
0.91774195432662964 0.50975865125656128 0.22363662719726562
0.96666079759597778 0.56615579128265381 0.2335270494222641
0.99341887235641479 0.6116262674331665 0.25357362627983093
0.12345653027296066 0.33078572154045105 0.24678654968738556
0.13295194506645203 0.33426681160926819 0.24618189036846161
0.1590583324432373 0.33676978945732117 0.2458098828792572
0.20166860520839691 0.34000453352928162 0.2455810010433197
0.26731818914413452 0.34883838891983032 0.2439751923084259
0.36347883939743042 0.36344617605209351 0.24187915027141571
0.48097801208496094 0.3823448121547699 0.23840931057929993
0.60763299465179443 0.40411776304244995 0.23078629374504089
0.73013490438461304 0.44087621569633484 0.22154775261878967
