luts/instant_consumer/polaroid_px-680_+.cube
# Created by: G'MIC (https://gmic.eu)
TITLE "polaroid_px-680_+"
# LUT size
LUT_3D_SIZE 7
# Data domain
DOMAIN_MIN 0.0 0.0 0.0
DOMAIN_MAX 1.0 1.0 1.0
# LUT data points
0.12585267424583435 0.22501343488693237 0.22206015884876251
0.15697771310806274 0.2252098023891449 0.22175230085849762
0.25183314085006714 0.23099356889724731 0.22273238003253937
0.48752158880233765 0.24317903816699982 0.22254934906959534
0.78064620494842529 0.29762625694274902 0.21495950222015381
0.91237366199493408 0.42069336771965027 0.21856926381587982
0.97679561376571655 0.54473090171813965 0.27697962522506714
0.1332436203956604 0.25106343626976013 0.22496558725833893
0.16896036267280579 0.25069767236709595 0.22423823177814484
0.28263285756111145 0.25895929336547852 0.22349333763122559
0.53095334768295288 0.28513941168785095 0.21987751126289368
0.79403007030487061 0.36032426357269287 0.2094683051109314
0.90839886665344238 0.46582728624343872 0.21634276211261749
0.97095423936843872 0.56475341320037842 0.27183309197425842
0.10425689071416855 0.32276588678359985 0.22871465981006622
0.16405482590198517 0.3319532573223114 0.22884224355220795
0.318330317735672 0.35775458812713623 0.22476653754711151
0.58683019876480103 0.41391146183013916 0.20955158770084381
0.78174722194671631 0.45646452903747559 0.19401432573795319
0.88999104499816895 0.53487312793731689 0.20729872584342957
0.95863479375839233 0.6068798303604126 0.26903572678565979
0.0053011723794043064 0.48371803760528564 0.22260138392448425
0.070112027227878571 0.48715695738792419 0.22301226854324341
0.31390529870986938 0.51157701015472412 0.22154161334037781
0.57337105274200439 0.55745917558670044 0.2159469872713089
0.77350157499313354 0.61061328649520874 0.2109973132610321
0.86811143159866333 0.62079638242721558 0.21392254531383514
0.94367742538452148 0.6595425009727478 0.26034384965896606
0.0031086790841072798 0.63456755876541138 0.22853030264377594
0.092417351901531219 0.63485097885131836 0.22885638475418091
0.33093202114105225 0.64181524515151978 0.23998731374740601
0.5554080605506897 0.66563254594802856 0.25524526834487915
0.72935765981674194 0.69653177261352539 0.28502687811851501
0.84622663259506226 0.73256152868270874 0.32967862486839294
0.92157769203186035 0.74182254076004028 0.36001250147819519
0.31726732850074768 0.74909979104995728 0.29330900311470032
0.35676467418670654 0.74372285604476929 0.29618898034095764
0.45716923475265503 0.74339038133621216 0.31120064854621887
0.60788750648498535 0.75534504652023315 0.34679213166236877
0.72640275955200195 0.77444595098495483 0.38264286518096924
0.8206372857093811 0.79337799549102783 0.42477843165397644
0.90583914518356323 0.82147485017776489 0.4796288013458252
0.60819321870803833 0.84210330247879028 0.45164251327514648
0.62044745683670044 0.84166908264160156 0.45266088843345642
0.65405517816543579 0.83996140956878662 0.46419700980186462
0.71022194623947144 0.84470963478088379 0.48643678426742554
0.78097540140151978 0.85210913419723511 0.51333314180374146
0.84664267301559448 0.85971367359161377 0.54322898387908936
0.89825242757797241 0.87050729990005493 0.57405555248260498
0.13558408617973328 0.23139409720897675 0.23498035967350006
0.16393016278743744 0.22941197454929352 0.23439362645149231
0.26188555359840393 0.23114745318889618 0.2392166405916214
0.53324490785598755 0.22942464053630829 0.25111642479896545
0.80525362491607666 0.31592553853988647 0.26926779747009277
0.91348445415496826 0.45220595598220825 0.29653048515319824
0.96737182140350342 0.57140767574310303 0.35598123073577881
0.14345014095306396 0.25314036011695862 0.2396867424249649
0.18286214768886566 0.25781834125518799 0.24165627360343933
0.31422269344329834 0.27078044414520264 0.2460736483335495
0.58233213424682617 0.29688870906829834 0.25483465194702148
0.80803978443145752 0.380440354347229 0.26379120349884033
0.90738928318023682 0.49130207300186157 0.29542702436447144
0.96698987483978271 0.59161931276321411 0.35526594519615173
0.15382188558578491 0.34016916155815125 0.25269830226898193
0.19767084717750549 0.34977748990058899 0.25246599316596985
0.35421764850616455 0.37518644332885742 0.25320413708686829
0.61621260643005371 0.41918474435806274 0.24365769326686859
0.79790699481964111 0.47200837731361389 0.24475948512554169
0.89273357391357422 0.55189734697341919 0.27923762798309326
0.95681858062744141 0.62642979621887207 0.34614101052284241
0.032680079340934753 0.50705069303512573 0.25118431448936462
0.14587937295436859 0.50743275880813599 0.25170367956161499
0.34625303745269775 0.52339726686477661 0.25767189264297485
0.59752929210662842 0.57169175148010254 0.26495158672332764
0.77615988254547119 0.60947424173355103 0.26601734757423401
0.87181013822555542 0.62681365013122559 0.27366906404495239
0.93951952457427979 0.66758298873901367 0.32567071914672852
0.071133635938167572 0.6495668888092041 0.26044228672981262
0.20183098316192627 0.64331698417663574 0.26467141509056091
0.37350282073020935 0.64986354112625122 0.27873241901397705
0.57665020227432251 0.67141598463058472 0.30211538076400757
0.74070602655410767 0.70493453741073608 0.33564338088035583
0.84517526626586914 0.73305189609527588 0.3674464225769043
0.92119294404983521 0.7460210919380188 0.39906483888626099
0.36055177450180054 0.75126051902770996 0.32467353343963623
0.39881798624992371 0.74645382165908813 0.3277895450592041
0.49282926321029663 0.74801146984100342 0.34537395834922791
0.61317193508148193 0.7605060338973999 0.37731954455375671
0.73229992389678955 0.77884399890899658 0.41468909382820129
0.828052818775177 0.79759526252746582 0.4523392915725708
0.90395408868789673 0.81833022832870483 0.49128773808479309
0.61319655179977417 0.84335219860076904 0.46297770738601685
0.62415987253189087 0.8411298394203186 0.46413043141365051
0.66014164686203003 0.84150010347366333 0.47617983818054199
0.71748703718185425 0.84565722942352295 0.49654084444046021
0.78457808494567871 0.85382318496704102 0.52614426612854004
0.84744095802307129 0.8599013090133667 0.54948288202285767
0.89889979362487793 0.8706774115562439 0.57754993438720703
0.15383461117744446 0.23535478115081787 0.26520559191703796
0.20693027973175049 0.24139189720153809 0.27079322934150696
0.30182048678398132 0.25728651881217957 0.28238058090209961
0.53131556510925293 0.23869176208972931 0.31388577818870544
0.81330752372741699 0.25129106640815735 0.34959807991981506
0.91877985000610352 0.44393125176429749 0.39656969904899597
0.95846796035766602 0.61692720651626587 0.46844580769538879
0.15610219538211823 0.26722151041030884 0.28299224376678467
0.22618205845355988 0.2742820680141449 0.29085302352905273
0.35721644759178162 0.29886737465858459 0.30540075898170471
0.5990939736366272 0.2959846556186676 0.33288252353668213
0.82328337430953979 0.36757999658584595 0.36554133892059326
0.90421766042709351 0.53758388757705688 0.42564672231674194
0.95442241430282593 0.64756840467453003 0.47730642557144165
0.16535566747188568 0.3563573956489563 0.30363112688064575
0.2439509779214859 0.37001070380210876 0.31196749210357666
0.43325620889663696 0.40678849816322327 0.33632919192314148
0.65900903940200806 0.44924134016036987 0.35404801368713379
0.80915641784667969 0.52716106176376343 0.38342723250389099
0.88545680046081543 0.60988622903823853 0.42407146096229553
0.94659179449081421 0.67050564289093018 0.46291133761405945
0.22675879299640656 0.51462626457214355 0.32689526677131653
0.32002437114715576 0.53215885162353516 0.33681365847587585
0.44767153263092041 0.55011618137359619 0.34436494112014771
0.64534544944763184 0.58973193168640137 0.36464184522628784
0.78659778833389282 0.61314398050308228 0.37566199898719788
0.87024796009063721 0.64919620752334595 0.38747423887252808
0.93783056735992432 0.69916456937789917 0.44430437684059143
0.36330500245094299 0.66005575656890869 0.35994794964790344
0.38082221150398254 0.6592862606048584 0.35178306698799133
0.47102522850036621 0.66226541996002197 0.35890555381774902
0.61731314659118652 0.68307042121887207 0.38595807552337646
0.76021718978881836 0.71174180507659912 0.41773059964179993
0.85407167673110962 0.73505079746246338 0.44128546118736267
0.92408323287963867 0.74885159730911255 0.45023545622825623
0.45171380043029785 0.75367432832717896 0.38825696706771851
0.46447315812110901 0.74960607290267944 0.38453084230422974
0.53976309299468994 0.75207585096359253 0.39720776677131653
0.63521671295166016 0.76351839303970337 0.42995491623878479
0.74563705921173096 0.78068870306015015 0.45999270677566528
0.83573704957962036 0.80428743362426758 0.49400842189788818
0.90885484218597412 0.82408046722412109 0.52358591556549072
0.62465208768844604 0.8416818380355835 0.48358547687530518
0.63628941774368286 0.84164685010910034 0.48358404636383057
0.67202067375183105 0.84391987323760986 0.49734076857566833
0.71879869699478149 0.8452264666557312 0.5140690803527832
0.7814907431602478 0.85218989849090576 0.5389745831489563
0.85326558351516724 0.86046570539474487 0.56661123037338257
0.90590232610702515 0.87438654899597168 0.59750032424926758
0.21097148954868317 0.2525867223739624 0.3706214427947998
0.29587554931640625 0.25972163677215576 0.37976175546646118
0.47030991315841675 0.3028235137462616 0.40662816166877747
0.6452140212059021 0.37817591428756714 0.43896698951721191
0.78942984342575073 0.36174958944320679 0.46182891726493835
0.90029990673065186 0.45497173070907593 0.49046885967254639
0.95935547351837158 0.58989280462265015 0.51961463689804077
0.21049739420413971 0.2933923602104187 0.39810118079185486
0.31292334198951721 0.30733931064605713 0.40867164731025696
0.51295840740203857 0.36242139339447021 0.43147695064544678
0.67340672016143799 0.44667321443557739 0.45518451929092407
0.79728245735168457 0.43835493922233582 0.47385320067405701
0.89460915327072144 0.52519208192825317 0.50090491771697998
0.95402723550796509 0.62632197141647339 0.52794009447097778
0.16990780830383301 0.39751118421554565 0.40600886940956116
0.28309798240661621 0.40921157598495483 0.42097270488739014
0.52214497327804565 0.45680972933769226 0.44965839385986328
0.6969483494758606 0.53968185186386108 0.47374215722084045
0.80116492509841919 0.54943609237670898 0.48893272876739502
0.88049888610839844 0.62513428926467896 0.51844841241836548
0.94073683023452759 0.69583499431610107 0.54801732301712036
0.25027573108673096 0.53391039371490479 0.41715961694717407
0.33513978123664856 0.53688615560531616 0.41904789209365845
0.5144658088684082 0.56595891714096069 0.44454854726791382
0.69831758737564087 0.62100881338119507 0.48062354326248169
0.79637563228607178 0.65535432100296021 0.49748706817626953
0.87075948715209961 0.69900888204574585 0.51877671480178833
0.93268507719039917 0.73869258165359497 0.54555618762969971
0.38624975085258484 0.65127032995223999 0.42756116390228271
0.44691526889801025 0.65491378307342529 0.43225625157356262
0.57102280855178833 0.67158567905426025 0.45402419567108154
0.67891824245452881 0.69560068845748901 0.47495439648628235
0.77574843168258667 0.72433316707611084 0.49783548712730408
0.85889512300491333 0.74158018827438354 0.51158803701400757
0.92626529932022095 0.76131951808929443 0.52285230159759521
0.54060894250869751 0.74943643808364868 0.46662047505378723
0.57086998224258423 0.74973911046981812 0.46722894906997681
0.61771553754806519 0.75667768716812134 0.47262126207351685
0.6786268949508667 0.76856476068496704 0.48718392848968506
0.76118403673171997 0.78688782453536987 0.51536273956298828
0.8486132025718689 0.80784952640533447 0.5434148907661438
0.91501373052597046 0.82689118385314941 0.56235629320144653
0.65782064199447632 0.84003806114196777 0.52285903692245483
0.6606253981590271 0.83830636739730835 0.51933920383453369
0.67903858423233032 0.84272444248199463 0.52040189504623413
0.72933423519134521 0.84823417663574219 0.53861755132675171
0.79083633422851562 0.8528447151184082 0.56495004892349243
0.85590726137161255 0.86470526456832886 0.58842676877975464
0.90850186347961426 0.87475419044494629 0.61363977193832397
0.36294287443161011 0.29323029518127441 0.52109140157699585
0.45642885565757751 0.30651712417602539 0.52978217601776123
0.62230515480041504 0.36992314457893372 0.54160022735595703
0.75269562005996704 0.52342468500137329 0.5529705286026001
0.81866520643234253 0.59755450487136841 0.56456530094146729
0.87107318639755249 0.58692890405654907 0.56907439231872559
0.94034546613693237 0.63180983066558838 0.58444350957870483
0.37118944525718689 0.35569670796394348 0.53474372625350952
0.46816521883010864 0.36954712867736816 0.53747224807739258
0.63317185640335083 0.43664631247520447 0.54598963260650635
0.75543093681335449 0.57076197862625122 0.5584455132484436
0.81804460287094116 0.63064932823181152 0.56726080179214478
0.86762136220932007 0.62006694078445435 0.57169163227081299
0.93695294857025146 0.65586161613464355 0.58714419603347778
0.34579282999038696 0.46355020999908447 0.53234958648681641
0.44134607911109924 0.46723777055740356 0.53576982021331787
0.61496472358703613 0.51706773042678833 0.5471530556678772
0.74803435802459717 0.61970454454421997 0.5616341233253479
0.81456053256988525 0.67445480823516846 0.57113909721374512
0.86677592992782593 0.66890019178390503 0.575298011302948
0.9334678053855896 0.69377905130386353 0.59045791625976562
0.29009824991226196 0.56323736906051636 0.51069343090057373
0.37389257550239563 0.56279349327087402 0.51247119903564453
0.54007124900817871 0.5883750319480896 0.52970391511917114
0.72670358419418335 0.65189635753631592 0.5548863410949707
0.81038427352905273 0.71379905939102173 0.57507658004760742
0.86657136678695679 0.71684491634368896 0.58283442258834839
0.92818629741668701 0.74914491176605225 0.60110306739807129
0.41787528991699219 0.66114592552185059 0.50578027963638306
0.46726545691490173 0.66294896602630615 0.50720536708831787
0.57396334409713745 0.67721980810165405 0.51894086599349976
0.69682300090789795 0.70208156108856201 0.54237449169158936
0.80209451913833618 0.75386643409729004 0.57375741004943848
0.86865842342376709 0.77131837606430054 0.58827018737792969
0.92354065179824829 0.79406833648681641 0.60366034507751465
0.47523605823516846 0.7378048300743103 0.50073814392089844
0.51132881641387939 0.73732876777648926 0.50611430406570435
0.59970706701278687 0.74835050106048584 0.5188286304473877
0.70531070232391357 0.76878166198730469 0.54349446296691895
0.78536438941955566 0.79460114240646362 0.56911051273345947
0.85864549875259399 0.81275111436843872 0.58693516254425049
0.91943466663360596 0.82437634468078613 0.59876769781112671
0.63743752241134644 0.83855879306793213 0.5547453761100769
0.65212935209274292 0.83841425180435181 0.55622696876525879
0.69488620758056641 0.84141892194747925 0.56284844875335693
0.74408233165740967 0.84957081079483032 0.57284051179885864
0.79879575967788696 0.85535579919815063 0.5915457010269165
0.86440926790237427 0.86456429958343506 0.61735868453979492
0.92156404256820679 0.88168883323669434 0.64107614755630493
0.59527254104614258 0.43018153309822083 0.62886828184127808
0.648151695728302 0.45251283049583435 0.62792479991912842
0.73627328872680664 0.51880133152008057 0.62871718406677246
0.80729180574417114 0.62765800952911377 0.63008540868759155
0.85371845960617065 0.72105115652084351 0.63092648983001709
0.88975727558135986 0.73623847961425781 0.63340598344802856
0.91870510578155518 0.72161746025085449 0.63465899229049683
0.6009630560874939 0.48635637760162354 0.62868952751159668
0.64412206411361694 0.4965951144695282 0.62594139575958252
0.72763782739639282 0.55782514810562134 0.62483972311019897
0.79882681369781494 0.64469683170318604 0.62581497430801392
0.85539597272872925 0.73449379205703735 0.63245987892150879
0.89109510183334351 0.75173759460449219 0.63479828834533691
0.9258798360824585 0.74448639154434204 0.63949024677276611
0.57266730070114136 0.54999411106109619 0.61915946006774902
0.62160825729370117 0.5658990740776062 0.61952298879623413
0.71616250276565552 0.6092456579208374 0.6202273964881897
0.78889685869216919 0.67382991313934326 0.62363094091415405
0.854808509349823 0.753315269947052 0.63291120529174805
0.88821631669998169 0.76631182432174683 0.63530260324478149
0.92464470863342285 0.7620885968208313 0.63954228162765503
0.44920676946640015 0.61482465267181396 0.59829634428024292
0.52282655239105225 0.61942756175994873 0.6001548171043396
0.65592902898788452 0.64732497930526733 0.60988050699234009
0.76087009906768799 0.6984100341796875 0.61673849821090698
0.84213244915008545 0.76147735118865967 0.63140428066253662
0.88793104887008667 0.78956371545791626 0.63809436559677124
0.92476457357406616 0.78378939628601074 0.64062982797622681
0.44383722543716431 0.68470746278762817 0.57949399948120117
0.48465663194656372 0.68416720628738403 0.58091360330581665
0.57830250263214111 0.69094598293304443 0.58879607915878296
0.69490855932235718 0.70975679159164429 0.59883224964141846
0.81551748514175415 0.76441013813018799 0.62478840351104736
0.88765239715576172 0.81069713830947876 0.6428648829460144
0.92076265811920166 0.80911403894424438 0.64737099409103394
0.52192026376724243 0.75383168458938599 0.57312601804733276
0.55001187324523926 0.75410240888595581 0.57502907514572144
0.61625051498413086 0.75863063335418701 0.58047813177108765
0.6953589916229248 0.77100104093551636 0.59049952030181885
0.78006064891815186 0.79231280088424683 0.61035060882568359
0.87527275085449219 0.83036214113235474 0.63980686664581299
0.9230959415435791 0.84433788061141968 0.65140563249588013
0.55722534656524658 0.8340151309967041 0.58094751834869385
0.57685285806655884 0.83406490087509155 0.5827864408493042
0.62844550609588623 0.83590835332870483 0.58720970153808594
0.70034968852996826 0.84029227495193481 0.59749418497085571
0.796031653881073 0.8518671989440918 0.62081170082092285
0.873313307762146 0.86522156000137329 0.64368152618408203
0.93023097515106201 0.88372117280960083 0.66463756561279297
0.76372605562210083 0.65490466356277466 0.68664735555648804
0.77733677625656128 0.66138541698455811 0.68570184707641602
0.81160199642181396 0.68923765420913696 0.68273687362670898
0.85295778512954712 0.73576623201370239 0.68138021230697632
0.88662570714950562 0.77778303623199463 0.67781645059585571
0.91272497177124023 0.81403541564941406 0.6777573823928833
0.92529630661010742 0.82298880815505981 0.67788881063461304
0.76414108276367188 0.6751282811164856 0.68700546026229858
0.77765309810638428 0.67979979515075684 0.68547892570495605
0.8109205961227417 0.70841902494430542 0.68105566501617432
0.84899634122848511 0.74231123924255371 0.67837834358215332
0.8888314962387085 0.78804421424865723 0.67801874876022339
0.91244441270828247 0.8230472207069397 0.67793035507202148
0.92454683780670166 0.82589536905288696 0.6777346134185791
0.74827808141708374 0.69504934549331665 0.68460112810134888
0.76327168941497803 0.70027375221252441 0.6822320818901062
0.79883074760437012 0.72311621904373169 0.6790282130241394
0.8445509672164917 0.75653773546218872 0.67755138874053955
0.88818591833114624 0.79967677593231201 0.67794907093048096
0.91247624158859253 0.82942801713943481 0.67822277545928955
0.92611235380172729 0.83527207374572754 0.68158870935440063
0.70586353540420532 0.72132730484008789 0.67834615707397461
0.72624266147613525 0.72234326601028442 0.67778646945953369
0.76770311594009399 0.73557138442993164 0.67764294147491455
0.83033633232116699 0.76951730251312256 0.67705488204956055
0.88235300779342651 0.80486571788787842 0.67837280035018921
0.9129326343536377 0.83827143907546997 0.68069267272949219
0.92850977182388306 0.84519487619400024 0.68488490581512451
0.59911596775054932 0.74809032678604126 0.66673952341079712
0.61988538503646851 0.74838083982467651 0.66741561889648438
0.67904889583587646 0.75206446647644043 0.66842961311340332
0.7716679573059082 0.77044165134429932 0.67245173454284668
0.86179029941558838 0.80589187145233154 0.67814725637435913
0.9074099063873291 0.84275376796722412 0.68225812911987305
0.93252938985824585 0.85621809959411621 0.69038790464401245
0.6195715069770813 0.80270165205001831 0.66292279958724976
0.63174521923065186 0.79950439929962158 0.66042792797088623
0.66525083780288696 0.80019491910934448 0.66257363557815552
0.71816027164459229 0.80110353231430054 0.66538834571838379
0.79605549573898315 0.81115984916687012 0.67319178581237793
0.89240038394927979 0.84517931938171387 0.68469232320785522
0.93587887287139893 0.87030106782913208 0.69480007886886597
0.65624654293060303 0.86070513725280762 0.66492503881454468
0.66911357641220093 0.86046922206878662 0.66463953256607056
0.69428932666778564 0.86148518323898315 0.66646939516067505
0.73538029193878174 0.86219793558120728 0.66842740774154663
0.79894405603408813 0.86514478921890259 0.67436504364013672
0.86650460958480835 0.87309169769287109 0.68351978063583374
0.9440460205078125 0.89435034990310669 0.70857608318328857
