luts/instant_consumer/polaroid_px-70_warm_--.cube
# Created by: G'MIC (https://gmic.eu)
TITLE "polaroid_px-70_warm_--"
# LUT size
LUT_3D_SIZE 7
# Data domain
DOMAIN_MIN 0.0 0.0 0.0
DOMAIN_MAX 1.0 1.0 1.0
# LUT data points
0.011867747642099857 0.021036185324192047 0.027700401842594147
0.090622201561927795 0.034696377813816071 0.037603940814733505
0.24440577626228333 0.039335813373327255 0.063009120523929596
0.5393751859664917 0.0082933614030480385 0.083489000797271729
0.81428509950637817 0.12576951086521149 0.080980993807315826
0.96898353099822998 0.35621693730354309 0.073345154523849487
0.99938589334487915 0.52171027660369873 0.15036693215370178
0.0059249727055430412 0.1124604344367981 0.069062128663063049
0.084411412477493286 0.12506024539470673 0.069570906460285187
0.27634075284004211 0.12069959193468094 0.069333456456661224
0.56136363744735718 0.14428332448005676 0.071625649929046631
0.81497800350189209 0.2516513466835022 0.049702275544404984
0.96159368753433228 0.41869688034057617 0.039996262639760971
0.99995046854019165 0.5552176833152771 0.13644878566265106
0.0023462034296244383 0.2994941771030426 0.10192452371120453
0.01977691613137722 0.29914534091949463 0.1024278998374939
0.30396726727485657 0.32720312476158142 0.074413791298866272
0.59738582372665405 0.35451456904411316 0.0189182348549366
0.81001651287078857 0.40372955799102783 0.0044663823209702969
0.9517483115196228 0.51392316818237305 0.0064062979072332382
0.9999813437461853 0.60928750038146973 0.088918335735797882
0.00011668485967675224 0.55628448724746704 0.087094448506832123
0.0035737878642976284 0.55942124128341675 0.093559339642524719
0.32458406686782837 0.57117545604705811 0.068056069314479828
0.61717504262924194 0.58807110786437988 0.0079792849719524384
0.80914628505706787 0.61112368106842041 0.003907566424459219
0.93232512474060059 0.63053488731384277 0.0038974687922745943
0.998748779296875 0.67647236585617065 0.017858976498246193
0.19200098514556885 0.75170779228210449 0.16764910519123077
0.30816769599914551 0.74861931800842285 0.1796879768371582
0.47358030080795288 0.74516654014587402 0.18778085708618164
0.64965283870697021 0.75243449211120605 0.15854728221893311
0.80198127031326294 0.76206731796264648 0.10547792166471481
0.92172920703887939 0.77068251371383667 0.079707108438014984
0.99183559417724609 0.78105902671813965 0.14004677534103394
0.54791355133056641 0.86277526617050171 0.33468160033226013
0.57862907648086548 0.86099988222122192 0.33833813667297363
0.62929123640060425 0.85908496379852295 0.3503912091255188
0.71736681461334229 0.85916578769683838 0.35181692242622375
0.8138766884803772 0.86534750461578369 0.33952504396438599
0.90803849697113037 0.86921685934066772 0.3216107189655304
0.99196320772171021 0.87990748882293701 0.33413684368133545
0.74373334646224976 0.95206910371780396 0.52609550952911377
0.75610899925231934 0.95155012607574463 0.52897816896438599
0.77949130535125732 0.95147162675857544 0.54155141115188599
0.81857597827911377 0.95207881927490234 0.54724502563476562
0.86712455749511719 0.95584911108016968 0.5476377010345459
0.92996364831924438 0.96049362421035767 0.55601459741592407
0.98971295356750488 0.9666818380355835 0.55987203121185303
0.011825112625956535 0.041985996067523956 0.11522423475980759
0.081716872751712799 0.056682974100112915 0.11713265627622604
0.24708954989910126 0.057761218398809433 0.13898630440235138
0.56196051836013794 0.034625139087438583 0.16727335751056671
0.82722491025924683 0.21653561294078827 0.193624347448349
0.96331989765167236 0.40928831696510315 0.21635366976261139
0.99772018194198608 0.55843091011047363 0.27366259694099426
0.011501147411763668 0.12021785229444504 0.14051094651222229
0.10741446912288666 0.13463495671749115 0.1468372642993927
0.29343956708908081 0.14585369825363159 0.15352450311183929
0.58831453323364258 0.18900883197784424 0.16915841400623322
0.82868039608001709 0.3051389753818512 0.17389942705631256
0.95749127864837646 0.4613192081451416 0.19961269199848175
0.99799364805221558 0.58715581893920898 0.2598649263381958
0.0045890058390796185 0.31559035181999207 0.16978192329406738
0.078987747430801392 0.31709343194961548 0.16866931319236755
0.34312787652015686 0.34563839435577393 0.15884275734424591
0.61588412523269653 0.36865180730819702 0.12952150404453278
0.82276749610900879 0.43111974000930786 0.112978495657444
0.95000332593917847 0.53544104099273682 0.14720237255096436
0.99869173765182495 0.63017421960830688 0.23281471431255341
0.0047096549533307552 0.56984996795654297 0.175606369972229
0.081210523843765259 0.57265156507492065 0.17612695693969727
0.38601994514465332 0.57609260082244873 0.17875935137271881
0.63455545902252197 0.59503531455993652 0.12407552450895309
0.81909269094467163 0.61483407020568848 0.084778741002082825
0.93543523550033569 0.63799524307250977 0.085384860634803772
0.99839949607849121 0.68840724229812622 0.17326012253761292
0.30459374189376831 0.75263708829879761 0.23971237242221832
0.38136941194534302 0.74948561191558838 0.24978713691234589
0.51840180158615112 0.74975860118865967 0.26250040531158447
0.66862112283706665 0.75150388479232788 0.24385064840316772
0.80583417415618896 0.7620963454246521 0.21607862412929535
0.92025303840637207 0.77027267217636108 0.19786831736564636
0.99296814203262329 0.77875202894210815 0.23157104849815369
0.57573616504669189 0.86149448156356812 0.37054184079170227
0.59870487451553345 0.85901743173599243 0.37391164898872375
0.65100276470184326 0.86098223924636841 0.38694760203361511
0.72769457101821899 0.86136823892593384 0.38796329498291016
0.81506538391113281 0.86415845155715942 0.37716776132583618
0.90946477651596069 0.86773669719696045 0.36419612169265747
0.99231529235839844 0.88037198781967163 0.37713557481765747
0.75178337097167969 0.95137351751327515 0.54229080677032471
0.76363652944564819 0.95111340284347534 0.54670053720474243
0.78959876298904419 0.9521145224571228 0.55736285448074341
0.82295650243759155 0.9525870680809021 0.56901639699935913
0.87037003040313721 0.95404452085494995 0.57017379999160767
0.92889773845672607 0.9607359766960144 0.57243853807449341
0.99122565984725952 0.96585142612457275 0.57828259468078613
0.031118340790271759 0.077964365482330322 0.22957095503807068
0.15143834054470062 0.10136564821004868 0.23087954521179199
0.29263851046562195 0.14166143536567688 0.23355965316295624
0.55020797252655029 0.055706579238176346 0.26657488942146301
0.82991820573806763 0.099435307085514069 0.29612487554550171
0.97187989950180054 0.39490532875061035 0.33842504024505615
0.99996340274810791 0.61022883653640747 0.41448676586151123
0.019205370917916298 0.15935815870761871 0.24874205887317657
0.16352155804634094 0.17238391935825348 0.25401514768600464
0.34536635875701904 0.2170940637588501 0.25791475176811218
0.59802967309951782 0.20007322728633881 0.28165245056152344
0.83982449769973755 0.30957275629043579 0.30984234809875488
0.95834797620773315 0.50821268558502197 0.3605099618434906
0.99952346086502075 0.65147846937179565 0.42101174592971802
0.0028384488541632891 0.33897992968559265 0.26756855845451355
0.16700565814971924 0.34920263290405273 0.27624708414077759
0.40813162922859192 0.37449374794960022 0.28471013903617859
0.65237313508987427 0.41339686512947083 0.29325047135353088
0.83314788341522217 0.50530940294265747 0.31493440270423889
0.94397252798080444 0.59973633289337158 0.34716999530792236
0.99897390604019165 0.679435133934021 0.40057373046875
0.21610525250434875 0.58255690336227417 0.30300796031951904
0.34949573874473572 0.58745217323303223 0.31327256560325623
0.49571269750595093 0.59349161386489868 0.31399688124656677
0.66527879238128662 0.60579532384872437 0.30151128768920898
0.82877779006958008 0.62079489231109619 0.28821232914924622
0.93280678987503052 0.66122066974639893 0.29985293745994568
0.99504297971725464 0.71542733907699585 0.35217490792274475
0.47882136702537537 0.75220692157745361 0.36264201998710632
0.50539720058441162 0.75608760118484497 0.3566645085811615
0.58911335468292236 0.75728052854537964 0.36614492535591125
0.69251269102096558 0.75706881284713745 0.3660895824432373
0.81695437431335449 0.76147687435150146 0.34963962435722351
0.92000210285186768 0.76993638277053833 0.33668696880340576
0.99174004793167114 0.78138941526412964 0.34828671813011169
0.62016600370407104 0.86127328872680664 0.43638598918914795
0.64659488201141357 0.86162972450256348 0.44233080744743347
0.68813633918762207 0.86029493808746338 0.44638198614120483
0.74727475643157959 0.86124461889266968 0.45340070128440857
0.82671326398849487 0.86601084470748901 0.44934064149856567
0.91321903467178345 0.87208878993988037 0.44019061326980591
0.9897005558013916 0.88063335418701172 0.44627737998962402
0.76568526029586792 0.95254135131835938 0.57430237531661987
0.77337771654129028 0.95250868797302246 0.57774567604064941
0.79616844654083252 0.95165443420410156 0.58293390274047852
0.83054405450820923 0.95538246631622314 0.59819996356964111
0.87379008531570435 0.95430970191955566 0.6032567024230957
0.93024778366088867 0.96123427152633667 0.6083255410194397
0.98958033323287964 0.96751922369003296 0.61507993936538696
0.14761996269226074 0.13378863036632538 0.38096028566360474
0.29629772901535034 0.16350638866424561 0.38346567749977112
0.49304401874542236 0.24193829298019409 0.38940870761871338
0.646820068359375 0.33036729693412781 0.3946496844291687
0.80624055862426758 0.30380788445472717 0.4193299412727356
0.95367461442947388 0.40534818172454834 0.45120719075202942
0.99865543842315674 0.57774311304092407 0.48371347784996033
0.14756421744823456 0.21934440732002258 0.39795571565628052
0.29994815587997437 0.24920299649238586 0.40045756101608276
0.51916718482971191 0.32659724354743958 0.40295499563217163
0.66566580533981323 0.41007286310195923 0.40710175037384033
0.81422406435012817 0.40136250853538513 0.43013989925384521
0.95023924112319946 0.48926618695259094 0.45935112237930298
0.99903863668441772 0.62812870740890503 0.49859341979026794
0.019010836258530617 0.39476987719535828 0.40050593018531799
0.24536114931106567 0.40515390038490295 0.40735119581222534
0.51918160915374756 0.44439789652824402 0.41859585046768188
0.69663077592849731 0.52543467283248901 0.42740538716316223
0.82825833559036255 0.53548681735992432 0.44654726982116699
0.93889600038528442 0.62581324577331543 0.48386871814727783
0.99885332584381104 0.71537542343139648 0.53134405612945557
0.25668570399284363 0.59394282102584839 0.4174807071685791
0.37895941734313965 0.59607702493667603 0.42417630553245544
0.54978233575820923 0.61006027460098267 0.43399232625961304
0.70987731218338013 0.63239890336990356 0.44389742612838745
0.83577460050582886 0.66790938377380371 0.45942658185958862
0.92896324396133423 0.71983402967453003 0.48689410090446472
0.99114507436752319 0.76728576421737671 0.52442514896392822
0.52784973382949829 0.7551770806312561 0.46062943339347839
0.57324206829071045 0.75867331027984619 0.46481814980506897
0.65898853540420532 0.76036518812179565 0.47602662444114685
0.73934090137481689 0.76244556903839111 0.47806459665298462
0.82713848352432251 0.7690359354019165 0.47535502910614014
0.91959238052368164 0.77698200941085815 0.46660569310188293
0.99491673707962036 0.79149168729782104 0.47037333250045776
0.69109064340591431 0.86136269569396973 0.52664673328399658
0.70892667770385742 0.86201292276382446 0.53024506568908691
0.73788750171661377 0.86400961875915527 0.53197836875915527
0.77807778120040894 0.8629947304725647 0.53379529714584351
0.83887183666229248 0.8663632869720459 0.54067081212997437
0.91510903835296631 0.874095618724823 0.52743291854858398
0.99229758977890015 0.88174653053283691 0.53537285327911377
0.78986787796020508 0.95358020067214966 0.6311955451965332
0.79069715738296509 0.95071083307266235 0.62411952018737793
0.80867272615432739 0.95516383647918701 0.63138175010681152
0.83988332748413086 0.95339006185531616 0.64366096258163452
0.87877362966537476 0.95672684907913208 0.65768706798553467
0.93172866106033325 0.96097785234451294 0.65867632627487183
0.98975783586502075 0.9676051139831543 0.66472417116165161
0.38132175803184509 0.23834708333015442 0.5392419695854187
0.48843863606452942 0.26643529534339905 0.54139864444732666
0.65606176853179932 0.36335551738739014 0.54419070482254028
0.77736961841583252 0.51757347583770752 0.5424988865852356
0.84852814674377441 0.58273231983184814 0.54859244823455811
0.92169433832168579 0.56369924545288086 0.55571842193603516
0.99254876375198364 0.62295681238174438 0.58371174335479736
0.38217976689338684 0.32732507586479187 0.54345899820327759
0.49511829018592834 0.36151009798049927 0.54664111137390137
0.6538967490196228 0.43815252184867859 0.54981911182403564
0.77609521150588989 0.56049513816833496 0.55061471462249756
0.84841638803482056 0.6208575963973999 0.55300664901733398
0.92236310243606567 0.60990190505981445 0.56249856948852539
0.99430149793624878 0.65761375427246094 0.59129589796066284
0.35511428117752075 0.48318973183631897 0.53840404748916626
0.46672657132148743 0.48945155739784241 0.5452762246131897
0.63673770427703857 0.54135066270828247 0.5500907301902771
0.77851265668869019 0.6255078911781311 0.55846840143203735
0.85600376129150391 0.69198566675186157 0.56923156976699829
0.91789549589157104 0.68128788471221924 0.57590216398239136
0.99114507436752319 0.71447598934173584 0.60643696784973145
0.34845340251922607 0.63027000427246094 0.53401690721511841
0.42515772581100464 0.6283537745475769 0.53663057088851929
0.58219677209854126 0.64043700695037842 0.54454934597015381
0.74762898683547974 0.69018542766571045 0.56453752517700195
0.84963321685791016 0.74181699752807617 0.58121412992477417
0.92011183500289917 0.74083948135375977 0.59089553356170654
0.9916110634803772 0.77894407510757446 0.62874674797058105
0.53060817718505859 0.76069587469100952 0.55592966079711914
0.57306808233261108 0.75906920433044434 0.55661296844482422
0.65674251317977905 0.75825011730194092 0.56503981351852417
0.7544257640838623 0.76888817548751831 0.57420146465301514
0.84182089567184448 0.78329402208328247 0.58260595798492432
0.92469722032546997 0.80505222082138062 0.60081791877746582
0.99150043725967407 0.84074324369430542 0.64461272954940796
0.67864090204238892 0.86157894134521484 0.6029428243637085
0.69884985685348511 0.85984933376312256 0.602425217628479
0.74371206760406494 0.86258280277252197 0.61173015832901001
0.79280608892440796 0.8659052848815918 0.61473184823989868
0.85441392660140991 0.87101984024047852 0.62493395805358887
0.92442268133163452 0.87492316961288452 0.62881523370742798
0.99348771572113037 0.88302743434906006 0.63138997554779053
0.79097151756286621 0.95273059606552124 0.69396984577178955
0.80324631929397583 0.95368945598602295 0.69913011789321899
0.82764846086502075 0.95542502403259277 0.71060603857040405
0.85453391075134277 0.95662522315979004 0.71159780025482178
0.88880693912506104 0.95810431241989136 0.72335797548294067
0.93826258182525635 0.96236681938171387 0.7345004677772522
0.99209415912628174 0.96925836801528931 0.73351508378982544
0.61549609899520874 0.44210970401763916 0.68280988931655884
0.67632120847702026 0.47736144065856934 0.6845710277557373
0.75860452651977539 0.54275059700012207 0.68843215703964233
0.84321039915084839 0.6460869312286377 0.685374915599823
0.89210289716720581 0.74143689870834351 0.68632656335830688
0.93291819095611572 0.75897490978240967 0.69440376758575439
0.97537755966186523 0.73810970783233643 0.69014006853103638
0.60920709371566772 0.50343078374862671 0.68227279186248779
0.66843032836914062 0.52414995431900024 0.68387728929519653
0.75389760732650757 0.58782970905303955 0.69155597686767578
0.83739852905273438 0.6680794358253479 0.68978053331375122
0.8918880820274353 0.75741279125213623 0.69691497087478638
0.93480044603347778 0.77446120977401733 0.70038175582885742
0.97573047876358032 0.75579726696014404 0.69834798574447632
0.59620803594589233 0.59254676103591919 0.67958509922027588
0.64491146802902222 0.60822224617004395 0.6811177134513855
0.74145913124084473 0.64723795652389526 0.68616795539855957
0.82904726266860962 0.71148097515106201 0.69406956434249878
0.89256066083908081 0.78513050079345703 0.70558714866638184
0.93231093883514404 0.78757780790328979 0.70618480443954468
0.97824752330780029 0.78645235300064087 0.71527063846588135
0.51601237058639526 0.68699723482131958 0.6670079231262207
0.57956939935684204 0.69112056493759155 0.67184895277023315
0.69496452808380127 0.70654141902923584 0.67876356840133667
0.80418002605438232 0.74606025218963623 0.69338369369506836
0.8832700252532959 0.80435585975646973 0.71321207284927368
0.93531990051269531 0.82950985431671143 0.72291773557662964
0.98123490810394287 0.81986129283905029 0.73154562711715698
0.54827636480331421 0.77790194749832153 0.66902130842208862
0.58710604906082153 0.77682363986968994 0.67030614614486694
0.6553579568862915 0.77652215957641602 0.67230165004730225
0.74537914991378784 0.78128695487976074 0.67847001552581787
0.8551209568977356 0.81969398260116577 0.70601427555084229
0.9359138011932373 0.85802900791168213 0.73787051439285278
0.98631864786148071 0.86008322238922119 0.75619179010391235
0.66594147682189941 0.86824101209640503 0.70345741510391235
0.68476229906082153 0.86555808782577515 0.69641625881195068
0.72559469938278198 0.86573535203933716 0.69771188497543335
0.78414547443389893 0.86680036783218384 0.70501768589019775
0.84954607486724854 0.87492829561233521 0.72577130794525146
0.92957347631454468 0.89104360342025757 0.75091725587844849
0.99409115314483643 0.91117376089096069 0.78763055801391602
0.76861917972564697 0.95351999998092651 0.76614201068878174
0.78152930736541748 0.95649319887161255 0.77606821060180664
0.80887174606323242 0.95630782842636108 0.77951204776763916
0.84889459609985352 0.95770645141601562 0.78682821989059448
0.89626199007034302 0.96059107780456543 0.80691647529602051
0.94470834732055664 0.96508657932281494 0.8205263614654541
0.99209833145141602 0.97156214714050293 0.83019423484802246
0.76985365152359009 0.67782384157180786 0.83799082040786743
0.79029899835586548 0.69019418954849243 0.83684182167053223
0.83211594820022583 0.72040128707885742 0.83652704954147339
0.88191407918930054 0.76577460765838623 0.8338051438331604
0.92504578828811646 0.81350409984588623 0.83251011371612549
0.96344155073165894 0.85786527395248413 0.83529424667358398
0.98319149017333984 0.86679565906524658 0.83412420749664307
0.76605802774429321 0.70095711946487427 0.83950871229171753
0.7863612174987793 0.71100962162017822 0.83898890018463135
0.82844066619873047 0.74166655540466309 0.83968251943588257
0.88051283359527588 0.77854353189468384 0.83743977546691895
0.92832034826278687 0.82316988706588745 0.83873313665390015
0.96368032693862915 0.86436450481414795 0.83759468793869019
0.98861944675445557 0.87316715717315674 0.84327614307403564
0.74953299760818481 0.73229527473449707 0.84009820222854614
0.77359551191329956 0.74256473779678345 0.83914583921432495
0.81864869594573975 0.76459807157516479 0.8425484299659729
0.87273478507995605 0.79781073331832886 0.84250873327255249
0.92355376482009888 0.83748525381088257 0.84061461687088013
0.96168649196624756 0.87412154674530029 0.83999037742614746
0.98896557092666626 0.88640224933624268 0.85302650928497314
0.71450251340866089 0.77513110637664795 0.83729255199432373
0.74004238843917847 0.78039014339447021 0.84157198667526245
0.78627026081085205 0.78822767734527588 0.84108996391296387
0.85205388069152832 0.81655323505401611 0.84898108243942261
0.91424101591110229 0.85114854574203491 0.84900939464569092
0.96412968635559082 0.89127427339553833 0.86036306619644165
0.98455238342285156 0.90644097328186035 0.86450469493865967
0.62417149543762207 0.8241199254989624 0.83442443609237671
0.65397763252258301 0.82462537288665771 0.83582347631454468
0.70725512504577637 0.8245348334312439 0.83667349815368652
0.79693162441253662 0.83559006452560425 0.84536617994308472
0.8943142294883728 0.86448657512664795 0.8605581521987915
0.96129816770553589 0.90597355365753174 0.87255620956420898
0.98902082443237305 0.93025833368301392 0.88471865653991699
0.68078333139419556 0.89526158571243286 0.85222160816192627
0.69850748777389526 0.89588558673858643 0.8594735860824585
0.72612988948822021 0.89490634202957153 0.85359734296798706
0.7706870436668396 0.89190340042114258 0.85873198509216309
0.83704292774200439 0.89356356859207153 0.86513233184814453
0.93787682056427002 0.92161649465560913 0.88588416576385498
0.99583768844604492 0.95601558685302734 0.91116857528686523
0.7611844539642334 0.96677708625793457 0.88791334629058838
0.77169913053512573 0.96847331523895264 0.8899538516998291
0.7967456579208374 0.97070002555847168 0.89472943544387817
0.83312368392944336 0.96992558240890503 0.89703947305679321
0.87803643941879272 0.96879571676254272 0.90351408720016479
0.93516808748245239 0.97099602222442627 0.91674661636352539
0.99123567342758179 0.98430764675140381 0.93324339389801025
