luts/instant_consumer/polaroid_px-70_warm.cube
# Created by: G'MIC (https://gmic.eu)
TITLE "polaroid_px-70_warm"
# LUT size
LUT_3D_SIZE 13
# Data domain
DOMAIN_MIN 0.0 0.0 0.0
DOMAIN_MAX 1.0 1.0 1.0
# LUT data points
0.11377934366464615 0.12563955783843994 0.14509804546833038
0.11597298830747604 0.12440755218267441 0.14453677833080292
0.13346156477928162 0.12204877287149429 0.14528216421604156
0.17325353622436523 0.12306004017591476 0.14876678586006165
0.22954255342483521 0.12408698350191116 0.15298148989677429
0.30543452501296997 0.12538643181324005 0.15769851207733154
0.41572606563568115 0.12864589691162109 0.16286459565162659
0.55459058284759521 0.13221848011016846 0.16658838093280792
0.70505404472351074 0.15919741988182068 0.16734541952610016
0.83468693494796753 0.23315282166004181 0.16145271062850952
0.93152934312820435 0.34194621443748474 0.15636877715587616
0.98551321029663086 0.43951788544654846 0.16485415399074554
0.99916321039199829 0.50454229116439819 0.19044393301010132
0.11528341472148895 0.13138271868228912 0.14632320404052734
0.12155190110206604 0.12970168888568878 0.1457720547914505
0.14256766438484192 0.12778057157993317 0.1469663679599762
0.18542617559432983 0.12989243865013123 0.1488768607378006
0.24106939136981964 0.13335716724395752 0.15335585176944733
0.32207286357879639 0.13783426582813263 0.1579289585351944
0.43684184551239014 0.14694930613040924 0.16233834624290466
0.57201951742172241 0.15638014674186707 0.16546918451786041
0.71348422765731812 0.1910957545042038 0.16412355005741119
0.83889853954315186 0.26391550898551941 0.15766696631908417
0.93083381652832031 0.36437660455703735 0.15305806696414948
0.98238933086395264 0.45705989003181458 0.16517972946166992
0.99728471040725708 0.52726298570632935 0.19403532147407532
0.11797776818275452 0.14884699881076813 0.15074008703231812
0.12919691205024719 0.1502801924943924 0.15152546763420105
0.15897177159786224 0.15574474632740021 0.15376333892345428
0.20724183320999146 0.15795324742794037 0.15279603004455566
0.26793989539146423 0.15862943232059479 0.15404427051544189
0.35038319230079651 0.16390873491764069 0.15700694918632507
0.45937135815620422 0.17720471322536469 0.16062164306640625
0.59301990270614624 0.19871492683887482 0.16143850982189178
0.72622060775756836 0.23962022364139557 0.15735261142253876
0.84483492374420166 0.30948838591575623 0.15056338906288147
0.93229740858078003 0.40160134434700012 0.14707827568054199
0.98274898529052734 0.48404672741889954 0.16062150895595551
0.99887555837631226 0.54958194494247437 0.19318117201328278
0.12963142991065979 0.19239631295204163 0.15934310853481293
0.14410457015037537 0.1941465437412262 0.15983101725578308
0.17257526516914368 0.19695106148719788 0.16192921996116638
0.22733089327812195 0.20574873685836792 0.16148367524147034
0.29621827602386475 0.21204084157943726 0.15989647805690765
0.38675567507743835 0.21713146567344666 0.15765942633152008
0.49815759062767029 0.23263120651245117 0.15808901190757751
0.61764144897460938 0.25477626919746399 0.15648142993450165
0.74327278137207031 0.30135840177536011 0.14984555542469025
0.85092025995254517 0.37091726064682007 0.14097943902015686
0.93091475963592529 0.44858810305595398 0.13898122310638428
0.97937989234924316 0.5180317759513855 0.15647368133068085
0.99833166599273682 0.57520467042922974 0.19255618751049042
0.14309348165988922 0.26100766658782959 0.16936488449573517
0.15969821810722351 0.26177322864532471 0.16925084590911865
0.19115495681762695 0.26588001847267151 0.16966560482978821
0.24597421288490295 0.27433481812477112 0.1689140647649765
0.32127425074577332 0.28528335690498352 0.16514033079147339
0.42246952652931213 0.30253985524177551 0.16042278707027435
0.53511601686477661 0.31921747326850891 0.15593619644641876
0.65159392356872559 0.34272781014442444 0.14794313907623291
0.75573849678039551 0.37559467554092407 0.13875353336334229
0.85017412900924683 0.43383121490478516 0.12833353877067566
0.92678683996200562 0.50342637300491333 0.12963095307350159
0.97204649448394775 0.55722683668136597 0.15116631984710693
0.99569517374038696 0.60296952724456787 0.18795949220657349
0.15095275640487671 0.36416944861412048 0.17537385225296021
0.1750941276550293 0.36201879382133484 0.17569862306118011
0.21343083679676056 0.36462941765785217 0.1763722151517868
0.26913896203041077 0.3710218071937561 0.17552337050437927
0.35291716456413269 0.38618165254592896 0.17033565044403076
0.4548722505569458 0.40450757741928101 0.16318853199481964
0.56918847560882568 0.42730420827865601 0.15468238294124603
0.68234366178512573 0.45385295152664185 0.14175963401794434
0.76928174495697021 0.47675856947898865 0.13048550486564636
0.852344810962677 0.51006203889846802 0.11692109704017639
0.91685205698013306 0.55406123399734497 0.11773847788572311
0.96243917942047119 0.59849482774734497 0.14404460787773132
0.99078744649887085 0.63539445400238037 0.18494947254657745
0.16765215992927551 0.48725241422653198 0.17734482884407043
0.1947527676820755 0.47828584909439087 0.1781063973903656
0.23912240564823151 0.47701442241668701 0.18122513592243195
0.30148249864578247 0.48542523384094238 0.18103247880935669
0.39153549075126648 0.4990609884262085 0.1760808527469635
0.49059376120567322 0.51392519474029541 0.16762536764144897
0.59661048650741577 0.5326077938079834 0.15737165510654449
0.7002112865447998 0.55313986539840698 0.14314611256122589
0.78949630260467529 0.5796048641204834 0.1305769681930542
0.86024194955825806 0.60499948263168335 0.12498888373374939
0.91082775592803955 0.62121391296386719 0.12686853110790253
0.95123100280761719 0.63816207647323608 0.1404702216386795
0.9835619330406189 0.6645967960357666 0.17774072289466858
0.24556770920753479 0.60554075241088867 0.18790255486965179
0.26392403244972229 0.60001116991043091 0.1867518424987793
0.30587127804756165 0.59665781259536743 0.18934920430183411
0.36162397265434265 0.59697633981704712 0.19175079464912415
0.44091141223907471 0.60490751266479492 0.1910737007856369
0.53084403276443481 0.61454105377197266 0.18430104851722717
0.62468153238296509 0.63014507293701172 0.17769598960876465
0.71187430620193481 0.64163178205490112 0.16806519031524658
0.79728204011917114 0.66531449556350708 0.15946345031261444
0.85774201154708862 0.67939519882202148 0.15914872288703918
0.90364974737167358 0.68899995088577271 0.16515688598155975
0.94106811285018921 0.69750607013702393 0.18317043781280518
0.97499549388885498 0.71315455436706543 0.20858961343765259
0.36668345332145691 0.70461410284042358 0.2151002436876297
0.37835723161697388 0.70027470588684082 0.21400465071201324
0.40635189414024353 0.6957094669342041 0.21472074091434479
0.4476470947265625 0.6930159330368042 0.21896138787269592
0.51211357116699219 0.69869434833526611 0.22524668276309967
0.58078396320343018 0.70406490564346313 0.22234217822551727
0.657340407371521 0.71194303035736084 0.22067555785179138
0.73031133413314819 0.72129899263381958 0.21789911389350891
0.79495859146118164 0.72995489835739136 0.21155698597431183
0.84853911399841309 0.73705506324768066 0.21035289764404297
0.89548718929290771 0.74635159969329834 0.22240719199180603
0.93223673105239868 0.75437694787979126 0.243316650390625
0.96551418304443359 0.76610571146011353 0.26895967125892639
0.48759382963180542 0.77559971809387207 0.26515519618988037
0.49540737271308899 0.77240800857543945 0.26436024904251099
0.51220697164535522 0.76846683025360107 0.26410523056983948
0.54270148277282715 0.76779729127883911 0.269368976354599
0.58771973848342896 0.76967638731002808 0.27813735604286194
0.6372983455657959 0.77219176292419434 0.28168988227844238
0.68991559743881226 0.77402961254119873 0.28160706162452698
0.74937033653259277 0.77945256233215332 0.28294757008552551
0.80271667242050171 0.78235667943954468 0.28463602066040039
0.84927839040756226 0.78969651460647583 0.28548717498779297
0.89098626375198364 0.79851430654525757 0.28679007291793823
0.92453473806381226 0.8063245415687561 0.30944564938545227
0.95635122060775757 0.81654012203216553 0.34299388527870178
0.60654646158218384 0.82865560054779053 0.33850160241127014
0.60796988010406494 0.82530152797698975 0.33579084277153015
0.61972123384475708 0.82429337501525879 0.33643558621406555
0.63861793279647827 0.8233148455619812 0.33982861042022705
0.66705501079559326 0.82280987501144409 0.3471677303314209
0.70081990957260132 0.8249199390411377 0.35376426577568054
0.73644876480102539 0.82654958963394165 0.35429826378822327
0.77676534652709961 0.83009457588195801 0.36138689517974854
0.82053208351135254 0.83177638053894043 0.36825269460678101
0.85552579164505005 0.83622026443481445 0.37089908123016357
0.89034187793731689 0.84202134609222412 0.37062346935272217
0.91920840740203857 0.84822708368301392 0.38337373733520508
0.94950854778289795 0.85928928852081299 0.41466403007507324
0.71502047777175903 0.87413370609283447 0.4229867160320282
0.7151598334312439 0.87230372428894043 0.42013981938362122
0.71922469139099121 0.87087559700012207 0.4185434877872467
0.7242279052734375 0.86733460426330566 0.41712749004364014
0.74348503351211548 0.86679255962371826 0.4215582013130188
0.76277953386306763 0.86752450466156006 0.42735776305198669
0.78666496276855469 0.87014663219451904 0.43465816974639893
0.81558752059936523 0.87614315748214722 0.44510376453399658
0.84484082460403442 0.87803739309310913 0.44849902391433716
0.86933201551437378 0.88111191987991333 0.45268335938453674
0.89346188306808472 0.88555032014846802 0.45743143558502197
0.91922587156295776 0.88945692777633667 0.4642479419708252
0.94358789920806885 0.89597874879837036 0.47947490215301514
0.80020487308502197 0.90967285633087158 0.49612864851951599
0.80087196826934814 0.90947902202606201 0.49431303143501282
0.8030504584312439 0.90917754173278809 0.49363455176353455
0.8054080605506897 0.90710574388504028 0.49349653720855713
0.81654256582260132 0.90623366832733154 0.49699434638023376
0.83015143871307373 0.90683662891387939 0.50138247013092041
0.84233152866363525 0.9087364673614502 0.50543415546417236
0.8594626784324646 0.91225379705429077 0.51233762502670288
0.87853139638900757 0.91361188888549805 0.51618462800979614
0.89427077770233154 0.91610711812973022 0.51821094751358032
0.91054117679595947 0.91942703723907471 0.52320778369903564
0.9283711314201355 0.92436683177947998 0.53022074699401855
0.94552457332611084 0.92853707075119019 0.53723263740539551
0.11469590663909912 0.12549020349979401 0.15106135606765747
0.11904193460941315 0.12548805773258209 0.15063409507274628
0.1358124315738678 0.12546315789222717 0.15019617974758148
0.17700573801994324 0.12527965009212494 0.15196108818054199
0.23228026926517487 0.12417247891426086 0.15471945703029633
0.31288871169090271 0.12754705548286438 0.16233590245246887
0.42690089344978333 0.13452951610088348 0.17072518169879913
0.56971031427383423 0.14562828838825226 0.17602801322937012
0.71499794721603394 0.17825804650783539 0.17941266298294067
0.84133034944534302 0.25332492589950562 0.1797374039888382
0.93418759107589722 0.35862317681312561 0.18232037127017975
0.98636424541473389 0.45416027307510376 0.19404298067092896
0.9988778829574585 0.52325433492660522 0.21984648704528809
0.11700970679521561 0.12858617305755615 0.15058428049087524
0.12159799039363861 0.12801644206047058 0.14859655499458313
0.1470581591129303 0.13168343901634216 0.15127268433570862
0.1865227222442627 0.13330386579036713 0.15367701649665833
0.24623849987983704 0.13736353814601898 0.15794344246387482
0.33156266808509827 0.14295776188373566 0.16459856927394867
0.44564884901046753 0.1513935923576355 0.17077124118804932
0.58376562595367432 0.16747181117534637 0.17558285593986511
0.72527086734771729 0.20701926946640015 0.17769753932952881
0.84574109315872192 0.28395682573318481 0.1774752289056778
0.93563038110733032 0.38092315196990967 0.18065212666988373
0.9862980842590332 0.47163477540016174 0.19432163238525391
0.99829977750778198 0.53945106267929077 0.2241719663143158
0.12382250279188156 0.15167340636253357 0.15684324502944946
0.13436523079872131 0.15177202224731445 0.15615682303905487
0.1621173769235611 0.15591779351234436 0.15801654756069183
0.20959697663784027 0.16018392145633698 0.15944023430347443
0.27319946885108948 0.16184605658054352 0.16182653605937958
0.35886144638061523 0.16916407644748688 0.16654631495475769
0.47133514285087585 0.18359231948852539 0.17200390994548798
0.60448187589645386 0.20720364153385162 0.17496804893016815
0.73755931854248047 0.25219777226448059 0.17391690611839294
0.85252571105957031 0.32578620314598083 0.17176470160484314
0.93515819311141968 0.41674751043319702 0.17589110136032104
0.98464834690093994 0.49701967835426331 0.1911206841468811
0.99930381774902344 0.55951279401779175 0.22287851572036743
0.14021947979927063 0.19368143379688263 0.16761361062526703
0.15440914034843445 0.19691826403141022 0.16744427382946014
0.18118792772293091 0.20122557878494263 0.16793195903301239
0.2317260205745697 0.20576821267604828 0.16848853230476379
0.3047974705696106 0.21449173986911774 0.16954474151134491
0.39455673098564148 0.22155283391475677 0.16882805526256561
0.50792884826660156 0.23600034415721893 0.17113381624221802
0.631419837474823 0.26667192578315735 0.17277975380420685
0.75122535228729248 0.3132900595664978 0.16927671432495117
0.8575211763381958 0.38437879085540771 0.1637803316116333
0.93428969383239746 0.46304106712341309 0.16859406232833862
0.97935938835144043 0.52618950605392456 0.18525034189224243
0.99768626689910889 0.5822519063949585 0.219345822930336
0.16187341511249542 0.26611161231994629 0.18045702576637268
0.17633101344108582 0.26880770921707153 0.18010100722312927
0.20511689782142639 0.27194279432296753 0.17948731780052185
0.25627636909484863 0.27835944294929504 0.17931470274925232
0.33537310361862183 0.29340797662734985 0.17747622728347778
0.43317154049873352 0.31177276372909546 0.17380577325820923
0.54564398527145386 0.32681095600128174 0.17033587396144867
0.6600196361541748 0.34844264388084412 0.16427257657051086
0.7614554762840271 0.38605794310569763 0.1573328822851181
0.8580818772315979 0.44780486822128296 0.1524626761674881
0.92868196964263916 0.51127505302429199 0.15934929251670837
0.97262424230575562 0.5640072226524353 0.18118554353713989
0.99475330114364624 0.60889464616775513 0.21476025879383087
0.1710023432970047 0.37261641025543213 0.1873372346162796
0.1942126601934433 0.37161663174629211 0.18711203336715698
0.23017121851444244 0.37271875143051147 0.18760262429714203
0.2834155261516571 0.37832903861999512 0.18723513185977936
0.36272716522216797 0.39172506332397461 0.18354490399360657
0.4632250964641571 0.41033124923706055 0.17725653946399689
0.57987987995147705 0.43642979860305786 0.17010612785816193
0.68816882371902466 0.45733174681663513 0.16098493337631226
0.77896338701248169 0.48470351099967957 0.15051832795143127
0.86017370223999023 0.51956087350845337 0.14196932315826416
0.91940873861312866 0.55903470516204834 0.14715419709682465
0.96356874704360962 0.60323160886764526 0.1732807457447052
0.99141216278076172 0.64017128944396973 0.21299578249454498
0.1876947432756424 0.49262726306915283 0.19001452624797821
0.21625424921512604 0.48623764514923096 0.19114792346954346
0.2590537965297699 0.48605376482009888 0.19364435970783234
0.31847545504570007 0.49035313725471497 0.19387058913707733
0.40176248550415039 0.50157517194747925 0.19105753302574158
0.49923068284988403 0.51768237352371216 0.18341247737407684
0.60832303762435913 0.54023462533950806 0.17354421317577362
0.70626026391983032 0.55953007936477661 0.16414916515350342
0.79704141616821289 0.58652502298355103 0.15512892603874207
0.86463457345962524 0.60978800058364868 0.15140765905380249
0.9139944314956665 0.62618112564086914 0.15486648678779602
0.95351642370223999 0.64376771450042725 0.16961683332920074
0.98520439863204956 0.67256534099578857 0.20696479082107544
0.2682877779006958 0.60977154970169067 0.20300531387329102
0.28611761331558228 0.60367476940155029 0.20245902240276337
0.32566773891448975 0.59960067272186279 0.20438817143440247
0.37986269593238831 0.60002917051315308 0.20690006017684937
0.45260241627693176 0.60821598768234253 0.20726799964904785
0.54446393251419067 0.62161719799041748 0.20402760803699493
0.63560193777084351 0.63598161935806274 0.19798876345157623
0.72276043891906738 0.65082466602325439 0.19112461805343628
0.80156242847442627 0.66829663515090942 0.18579936027526855
0.85836553573608398 0.68106448650360107 0.18587906658649445
0.90569460391998291 0.69235581159591675 0.18956688046455383
0.94275116920471191 0.70068496465682983 0.20269858837127686
0.97660750150680542 0.71508461236953735 0.22887441515922546
0.38207331299781799 0.70515239238739014 0.23012334108352661
0.39720010757446289 0.70405071973800659 0.22929656505584717
0.42445051670074463 0.69765704870223999 0.23219528794288635
0.46694880723953247 0.69586038589477539 0.23741245269775391
0.5203203558921814 0.6995009183883667 0.24040664732456207
0.592232346534729 0.70885258913040161 0.24218529462814331
0.66551297903060913 0.71589064598083496 0.24326194822788239
0.73441994190216064 0.72265946865081787 0.2414068728685379
0.79968094825744629 0.73276537656784058 0.23756822943687439
0.85358959436416626 0.74198395013809204 0.2323661744594574
0.8976636528968811 0.75010454654693604 0.24062477052211761
0.93404507637023926 0.75659245252609253 0.26128825545310974
0.96650248765945435 0.76814538240432739 0.28826498985290527
0.50431758165359497 0.77976012229919434 0.28085789084434509
0.51127505302429199 0.77603542804718018 0.2809169590473175
0.52547812461853027 0.77098357677459717 0.27936747670173645
0.55879747867584229 0.77101647853851318 0.28749611973762512
0.59732663631439209 0.76854026317596436 0.29482811689376831
0.6443750262260437 0.77139163017272949 0.29987123608589172
0.69855576753616333 0.77627718448638916 0.3017941415309906
0.7535400390625 0.78063160181045532 0.30306169390678406
0.80683928728103638 0.78592091798782349 0.30334621667861938
0.85506743192672729 0.79279005527496338 0.30079609155654907
0.89199364185333252 0.79905122518539429 0.30658915638923645
0.92644405364990234 0.80685830116271973 0.32877403497695923
0.9568895697593689 0.81691223382949829 0.35787796974182129
0.6169009804725647 0.83086365461349487 0.35085475444793701
0.61825692653656006 0.82630544900894165 0.34932699799537659
0.6267092227935791 0.82377946376800537 0.34595677256584167
0.64832592010498047 0.82283151149749756 0.35199451446533203
0.67580670118331909 0.82150673866271973 0.35979482531547546
0.70882409811019897 0.8235209584236145 0.3656136691570282
0.74181395769119263 0.82766187191009521 0.37013640999794006
0.77980220317840576 0.83126324415206909 0.37635314464569092
0.82282960414886475 0.83374679088592529 0.3789973258972168
0.85950857400894165 0.83779895305633545 0.38070985674858093
0.89228743314743042 0.84299969673156738 0.38493210077285767
0.92107897996902466 0.84929144382476807 0.39791187644004822
0.94907444715499878 0.85897159576416016 0.42438948154449463
0.72011721134185791 0.87503492832183838 0.43005120754241943
0.71912342309951782 0.87142354249954224 0.42680314183235168
0.72114932537078857 0.868458092212677 0.42293283343315125
0.72905820608139038 0.86641228199005127 0.4234156608581543
0.74993896484375 0.86559301614761353 0.43049615621566772
0.76960557699203491 0.8669438362121582 0.43569967150688171
0.7927173376083374 0.86934441328048706 0.44179278612136841
0.81680536270141602 0.87413942813873291 0.44922927021980286
0.84477907419204712 0.87769478559494019 0.4531194269657135
0.87060689926147461 0.88105374574661255 0.45728844404220581
0.89523106813430786 0.8842812180519104 0.46160069108009338
0.9207414984703064 0.8892785906791687 0.46997243165969849
0.94248706102371216 0.89534544944763184 0.48331257700920105
0.80365681648254395 0.91063278913497925 0.49997079372406006
0.80259346961975098 0.90929406881332397 0.49777579307556152
0.80312305688858032 0.90809661149978638 0.49579259753227234
0.80914372205734253 0.90651017427444458 0.49760353565216064
0.82138806581497192 0.90633535385131836 0.50242370367050171
0.83211904764175415 0.90583419799804688 0.5056527853012085
0.8455498218536377 0.90874463319778442 0.50878614187240601
0.86190545558929443 0.91262400150299072 0.51365131139755249
0.8787529468536377 0.91464167833328247 0.51723992824554443
0.89449024200439453 0.91578060388565063 0.51959824562072754
0.91096770763397217 0.91892015933990479 0.52381914854049683
0.92937278747558594 0.9237065315246582 0.53134530782699585
0.94599825143814087 0.92784744501113892 0.5391685962677002
0.11403060704469681 0.12744325399398804 0.16354161500930786
0.11863970011472702 0.12579236924648285 0.16152286529541016
0.13749904930591583 0.12639406323432922 0.15974675118923187
0.17396992444992065 0.12812814116477966 0.16227047145366669
0.23268920183181763 0.12788334488868713 0.16712132096290588
0.31823360919952393 0.12669995427131653 0.17630201578140259
0.44208294153213501 0.1280350387096405 0.18669688701629639
0.5895007848739624 0.15159614384174347 0.19952239096164703
0.73341304063796997 0.20038861036300659 0.20880241692066193
0.8520512580871582 0.27919787168502808 0.21570329368114471
0.93639141321182251 0.3766167163848877 0.2227608859539032
0.98674458265304565 0.46947997808456421 0.23947899043560028
0.99941623210906982 0.54047226905822754 0.2666570246219635
0.11609980463981628 0.13121047616004944 0.16334575414657593
0.1277497261762619 0.13268063962459564 0.16285969316959381
0.14936806261539459 0.13656221330165863 0.16315546631813049
0.18915782868862152 0.1398780345916748 0.16822122037410736
0.25256335735321045 0.14304643869400024 0.17487156391143799
0.34304848313331604 0.14624491333961487 0.18377865850925446
0.46066930890083313 0.15044026076793671 0.19004447758197784
0.60376310348510742 0.17698444426059723 0.20113676786422729
0.74372744560241699 0.22959521412849426 0.20873618125915527
0.85670971870422363 0.30644279718399048 0.21309821307659149
0.93720799684524536 0.40035796165466309 0.22455143928527832
0.9856458306312561 0.4893849790096283 0.2429417222738266
0.99839967489242554 0.55767190456390381 0.27160593867301941
0.12903326749801636 0.15501029789447784 0.17155267298221588
0.14445123076438904 0.15794704854488373 0.17293724417686462
0.17124171555042267 0.162711501121521 0.17496570944786072
0.21554680168628693 0.1681908518075943 0.17819394171237946
0.28451567888259888 0.17182885110378265 0.18209870159626007
0.37424758076667786 0.17898526787757874 0.18812777101993561
0.48926940560340881 0.19192689657211304 0.19451725482940674
0.62408137321472168 0.22364497184753418 0.20194029808044434
0.75350284576416016 0.27197703719139099 0.20507897436618805
0.86178362369537354 0.34641501307487488 0.20863358676433563
0.93801420927047729 0.43350082635879517 0.22037474811077118
0.9846077561378479 0.51269650459289551 0.23920652270317078
0.99849164485931396 0.57150673866271973 0.26717665791511536
0.15305763483047485 0.19968412816524506 0.18360224366188049
0.17117783427238464 0.205044224858284 0.18579092621803284
0.19741518795490265 0.20860990881919861 0.18670997023582458
0.24494345486164093 0.21179112792015076 0.18769411742687225
0.3166462779045105 0.21813514828681946 0.18825864791870117
0.40743017196655273 0.22982040047645569 0.18982529640197754
0.52349138259887695 0.24795961380004883 0.19465155899524689
0.64709621667861938 0.28105351328849792 0.19808724522590637
0.76389497518539429 0.32922974228858948 0.20038147270679474
0.86548250913619995 0.40085354447364807 0.20268577337265015
0.93617886304855347 0.47717806696891785 0.21324929594993591
0.97946381568908691 0.53853785991668701 0.23196668922901154
0.99722754955291748 0.58944243192672729 0.26129388809204102
0.1889740377664566 0.27549219131469727 0.19883313775062561
0.20077909529209137 0.27810430526733398 0.19859710335731506
0.22518740594387054 0.28005227446556091 0.1981288343667984
0.27317595481872559 0.28512346744537354 0.19866374135017395
0.34771078824996948 0.29845890402793884 0.19796772301197052
0.44493401050567627 0.31676459312438965 0.19568456709384918
0.55726569890975952 0.33050987124443054 0.19211994111537933
0.67106115818023682 0.35551068186759949 0.18971382081508636
0.77442574501037598 0.40014415979385376 0.18972091376781464
