luts/instant_consumer/polaroid_px-100uv+_cold_--.cube
# Created by: G'MIC (https://gmic.eu)
TITLE "polaroid_px-100uv+_cold_--"
# LUT size
LUT_3D_SIZE 7
# Data domain
DOMAIN_MIN 0.0 0.0 0.0
DOMAIN_MAX 1.0 1.0 1.0
# LUT data points
0.012445876374840736 0.016518730670213699 0.016060354188084602
0.070269718766212463 0.083556905388832092 0.083772964775562286
0.20740441977977753 0.22843295335769653 0.23061217367649078
0.33550205826759338 0.35619387030601501 0.3568534255027771
0.43521440029144287 0.45503857731819153 0.44982665777206421
0.52304410934448242 0.54364609718322754 0.52895760536193848
0.6151268482208252 0.63542270660400391 0.61007517576217651
0.090279459953308105 0.10667221993207932 0.10773324221372604
0.1181805357336998 0.13500349223613739 0.1353897899389267
0.23095197975635529 0.25074779987335205 0.25346040725708008
0.34958046674728394 0.36973029375076294 0.37161943316459656
0.43899598717689514 0.45883592963218689 0.45470893383026123
0.52460670471191406 0.54512482881546021 0.53166818618774414
0.61597555875778198 0.63653802871704102 0.61157882213592529
0.26632681488990784 0.28753507137298584 0.29074516892433167
0.26548886299133301 0.28523164987564087 0.28885352611541748
0.31664517521858215 0.33618474006652832 0.34095638990402222
0.39009293913841248 0.40992754697799683 0.41269561648368835
0.45324221253395081 0.47240248322486877 0.46909534931182861
0.53032428026199341 0.54992634057998657 0.53747433423995972
0.61958551406860352 0.63966965675354004 0.61518615484237671
0.39002928137779236 0.40944865345954895 0.40978813171386719
0.39255484938621521 0.41007518768310547 0.41298189759254456
0.40502408146858215 0.42326036095619202 0.42636588215827942
0.44248777627944946 0.46121832728385925 0.46125254034996033
0.49090015888214111 0.50841951370239258 0.50334852933883667
0.55261117219924927 0.57031035423278809 0.55669206380844116
0.62939411401748657 0.64882498979568481 0.62313318252563477
0.48008003830909729 0.49915739893913269 0.49163991212844849
0.49076160788536072 0.50738382339477539 0.50177645683288574
0.48755952715873718 0.50592261552810669 0.49954444169998169
0.50189065933227539 0.5214809775352478 0.51257705688476562
0.54352670907974243 0.56096547842025757 0.54842579364776611
0.5980457067489624 0.61494225263595581 0.59507888555526733
0.67784637212753296 0.6959267258644104 0.66272073984146118
0.58326554298400879 0.60429376363754272 0.58244144916534424
0.59369617700576782 0.61305886507034302 0.5915067195892334
0.58718776702880859 0.60743838548660278 0.58498609066009521
0.59203428030014038 0.61351132392883301 0.58918780088424683
0.63067799806594849 0.64918297529220581 0.62307822704315186
0.66789728403091431 0.68689960241317749 0.65574514865875244
0.75166869163513184 0.76719754934310913 0.72563648223876953
0.75879734754562378 0.77385956048965454 0.73175984621047974
0.75794357061386108 0.77289044857025146 0.73134607076644897
0.7531508207321167 0.76866751909255981 0.7268674373626709
0.75953853130340576 0.77589994668960571 0.73260420560836792
0.79513823986053467 0.80784416198730469 0.76379787921905518
0.82430624961853027 0.83389425277709961 0.78930884599685669
0.88050675392150879 0.88482779264450073 0.83648467063903809
0.12298765033483505 0.1396385133266449 0.14132067561149597
0.17951537668704987 0.19968384504318237 0.20352593064308167
0.28252923488616943 0.30540353059768677 0.30934086441993713
0.39745047688484192 0.41647472977638245 0.41772487759590149
0.48100587725639343 0.49989554286003113 0.49367639422416687
0.55111634731292725 0.57097154855728149 0.55467575788497925
0.62873154878616333 0.64840829372406006 0.62126165628433228
0.1898391991853714 0.2092968076467514 0.21238677203655243
0.23445916175842285 0.25427943468093872 0.25772774219512939
0.31499582529067993 0.33589014410972595 0.33964288234710693
0.4035085141658783 0.4222794771194458 0.42424097657203674
0.4765242338180542 0.49515396356582642 0.49047732353210449
0.54824316501617432 0.56807225942611694 0.55341500043869019
0.62980788946151733 0.64975565671920776 0.62302929162979126
0.33736294507980347 0.35836783051490784 0.36233082413673401
0.34711363911628723 0.36829334497451782 0.37149718403816223
0.37282457947731018 0.39326706528663635 0.39663437008857727
0.42164447903633118 0.44105163216590881 0.44242087006568909
0.47900986671447754 0.49801579117774963 0.49344897270202637
0.54955434799194336 0.56911635398864746 0.55516797304153442
0.6315733790397644 0.65109753608703613 0.62519699335098267
0.4381374716758728 0.4553796648979187 0.45520198345184326
0.4361722469329834 0.45475301146507263 0.45540142059326172
0.43745499849319458 0.45675614476203918 0.45720052719116211
0.46427488327026367 0.48362883925437927 0.48140347003936768
0.50795853137969971 0.52665001153945923 0.51919800043106079
0.56506454944610596 0.58378207683563232 0.56857478618621826
0.63792532682418823 0.65756714344024658 0.63103723526000977
0.51347178220748901 0.53119444847106934 0.52263712882995605
0.51502007246017456 0.53228843212127686 0.52452272176742554
0.50916367769241333 0.52822262048721313 0.51946401596069336
0.51847618818283081 0.53886538743972778 0.52718651294708252
0.55299228429794312 0.57215768098831177 0.55702269077301025
0.60712665319442749 0.62505114078521729 0.60332834720611572
0.68819206953048706 0.70507246255874634 0.67170214653015137
0.60757851600646973 0.62601292133331299 0.60392880439758301
0.61224210262298584 0.63123589754104614 0.60758787393569946
0.6063724160194397 0.62640810012817383 0.60121428966522217
0.60403537750244141 0.6253502368927002 0.59861010313034058
0.63726806640625 0.65654581785202026 0.62788850069046021
0.68372946977615356 0.70077657699584961 0.66825705766677856
0.76187920570373535 0.77512073516845703 0.73360151052474976
0.76460051536560059 0.77834367752075195 0.73679929971694946
0.76857322454452515 0.78260838985443115 0.74003338813781738
0.77381730079650879 0.78746002912521362 0.7437063455581665
0.76978892087936401 0.78421556949615479 0.73995023965835571
0.79950767755508423 0.81130731105804443 0.76602989435195923
0.84082382917404175 0.84871536493301392 0.80161422491073608
0.87745392322540283 0.88180273771286011 0.83310186862945557
0.31795996427536011 0.33853724598884583 0.34077253937721252
0.34803998470306396 0.36996310949325562 0.37183558940887451
0.37991434335708618 0.40066137909889221 0.4016076922416687
0.44152030348777771 0.45828792452812195 0.45689931511878967
0.51350373029708862 0.53143852949142456 0.52252888679504395
0.58407318592071533 0.6029542088508606 0.58290225267410278
0.66037595272064209 0.67847663164138794 0.64729142189025879
0.33806097507476807 0.35824620723724365 0.36193019151687622
0.36462870240211487 0.38457301259040833 0.38731694221496582
0.4079323410987854 0.42759600281715393 0.42903244495391846
0.45004931092262268 0.46823820471763611 0.46730130910873413
0.51131099462509155 0.52948957681655884 0.522297203540802
0.58441543579101562 0.60329645872116089 0.58330214023590088
0.66415059566497803 0.68240010738372803 0.65088474750518799
0.39010587334632874 0.40841713547706604 0.41182059049606323
0.41463801264762878 0.43353703618049622 0.43466562032699585
0.44403076171875 0.46326020359992981 0.46236130595207214
0.47365039587020874 0.49281507730484009 0.48968315124511719
0.52331840991973877 0.542339026927948 0.53375923633575439
0.59082132577896118 0.60979831218719482 0.59100162982940674
0.67175018787384033 0.68933963775634766 0.65858227014541626
0.47620579600334167 0.49074521660804749 0.4896792471408844
0.48017391562461853 0.49661806225776672 0.49381500482559204
0.49088740348815918 0.50942975282669067 0.50391566753387451
0.51096087694168091 0.53080987930297852 0.52218472957611084
0.54963737726211548 0.56961089372634888 0.55630934238433838
0.60539263486862183 0.62480282783508301 0.60359233617782593
0.68262040615081787 0.70022261142730713 0.66821765899658203
0.55798333883285522 0.5734134316444397 0.56179463863372803
0.55528837442398071 0.57253146171569824 0.55952596664428711
0.55477839708328247 0.57387053966522217 0.55834698677062988
0.56120401620864868 0.58201128244400024 0.56374484300613403
0.58371484279632568 0.60494434833526611 0.58354455232620239
0.63022243976593018 0.65041333436965942 0.62340867519378662
0.71430402994155884 0.73108893632888794 0.69359743595123291
0.64933919906616211 0.66586446762084961 0.64017772674560547
0.64845925569534302 0.66594737768173218 0.63766562938690186
0.64765781164169312 0.66649150848388672 0.63612133264541626
0.64268046617507935 0.66295742988586426 0.63171827793121338
0.65930044651031494 0.67916738986968994 0.64615899324417114
0.69971615076065063 0.71753942966461182 0.68168812990188599
0.78250283002853394 0.79535794258117676 0.75065857172012329
0.78818756341934204 0.79978924989700317 0.75639259815216064
0.78897136449813843 0.80151361227035522 0.75652897357940674
0.79447227716445923 0.80752146244049072 0.76087123155593872
0.79008966684341431 0.80296444892883301 0.756908118724823
0.81076169013977051 0.8217347264289856 0.77508854866027832
0.85356980562210083 0.86089444160461426 0.81257301568984985
0.89454871416091919 0.89818269014358521 0.84706360101699829
0.4493752121925354 0.468382328748703 0.46433433890342712
0.46590408682823181 0.48462030291557312 0.47996029257774353
0.49613875150680542 0.51342964172363281 0.50725424289703369
0.50291222333908081 0.52030187845230103 0.51278406381607056
0.53742831945419312 0.55783331394195557 0.54403221607208252
0.61076062917709351 0.62995558977127075 0.60574841499328613
0.70166409015655518 0.71742790937423706 0.68279874324798584
0.46279850602149963 0.48070463538169861 0.47852253913879395
0.47991412878036499 0.4973599910736084 0.49397355318069458
0.50058239698410034 0.51943707466125488 0.51238322257995605
0.50947815179824829 0.52921390533447266 0.51940405368804932
0.54215675592422485 0.56173855066299438 0.54959356784820557
0.62176954746246338 0.64084494113922119 0.61564368009567261
0.70929110050201416 0.72563463449478149 0.68884497880935669
0.4776020348072052 0.49357321858406067 0.49161562323570251
0.49155735969543457 0.50752389430999756 0.5037158727645874
0.51512008905410767 0.53343671560287476 0.52449560165405273
0.53513145446777344 0.55489456653594971 0.5425451397895813
0.56723761558532715 0.58706939220428467 0.57191318273544312
0.63515907526016235 0.6538078784942627 0.62870752811431885
0.72635436058044434 0.74146246910095215 0.70417279005050659
0.51641309261322021 0.53186488151550293 0.52507156133651733
0.52215462923049927 0.53865897655487061 0.52997297048568726
0.54451143741607666 0.56332385540008545 0.54945343732833862
0.56807571649551392 0.58859425783157349 0.57067811489105225
0.60173362493515015 0.62244433164596558 0.60095500946044922
0.66106951236724854 0.67892241477966309 0.65024113655090332
0.74260610342025757 0.75660926103591919 0.71820878982543945
0.58376061916351318 0.60073477029800415 0.58376139402389526
0.58907628059387207 0.60721170902252197 0.58801794052124023
0.60436451435089111 0.62350881099700928 0.60027152299880981
0.61756998300552368 0.63842391967773438 0.61135131120681763
0.63511699438095093 0.65648543834686279 0.62662899494171143
0.67706489562988281 0.69627940654754639 0.66245079040527344
0.7523190975189209 0.76648944616317749 0.72557634115219116
0.68115180730819702 0.69719618558883667 0.66635161638259888
0.68886089324951172 0.70615571737289429 0.67280572652816772
0.70003247261047363 0.71810102462768555 0.68133997917175293
0.70177710056304932 0.72076857089996338 0.681682288646698
0.7039186954498291 0.72284990549087524 0.68326413631439209
0.74037301540374756 0.75612938404083252 0.71511328220367432
0.81055766344070435 0.82014197111129761 0.77385169267654419
0.8237801194190979 0.83289968967437744 0.78706097602844238
0.83129560947418213 0.84055179357528687 0.79319339990615845
0.83820873498916626 0.84785836935043335 0.79857295751571655
0.83509689569473267 0.84496521949768066 0.79502338171005249
0.84063172340393066 0.84947794675827026 0.80023127794265747
0.87363111972808838 0.87949424982070923 0.82997369766235352
0.91072374582290649 0.91197007894515991 0.86059874296188354
0.55150747299194336 0.57182860374450684 0.55525016784667969
0.56283736228942871 0.58309674263000488 0.56659919023513794
0.58265215158462524 0.60215824842453003 0.58336430788040161
0.60078257322311401 0.61998361349105835 0.5981372594833374
0.61081486940383911 0.6315569281578064 0.60743558406829834
0.63498997688293457 0.65446770191192627 0.62635195255279541
0.74279165267944336 0.75655841827392578 0.71911311149597168
0.56465637683868408 0.58345890045166016 0.56842106580734253
0.57599657773971558 0.59490925073623657 0.57811963558197021
0.59190648794174194 0.61202186346054077 0.59019929170608521
0.61417692899703979 0.63443171977996826 0.60728633403778076
0.62426769733428955 0.64474594593048096 0.61811298131942749
0.6565018892288208 0.6763264536857605 0.64434009790420532
0.75235491991043091 0.76869535446166992 0.72691899538040161
0.57652181386947632 0.59358763694763184 0.57833266258239746
0.58542877435684204 0.60290569067001343 0.58538508415222168
0.60121268033981323 0.62088483572006226 0.59720873832702637
0.62256765365600586 0.6434558629989624 0.61502987146377563
0.63639330863952637 0.65734726190567017 0.62904709577560425
0.67153447866439819 0.69204163551330566 0.65859293937683105
0.77725344896316528 0.79168152809143066 0.74820435047149658
0.5873221755027771 0.6055266261100769 0.58673173189163208
0.59461444616317749 0.61307746171951294 0.59220248460769653
0.61296409368515015 0.63281798362731934 0.60673713684082031
0.64050918817520142 0.66166043281555176 0.6304391622543335
0.66288238763809204 0.68359905481338501 0.65144288539886475
0.71040856838226318 0.72684717178344727 0.69122636318206787
0.80702483654022217 0.81647944450378418 0.77277201414108276
0.61419105529785156 0.63416427373886108 0.60873162746429443
0.62573540210723877 0.6464497447013855 0.61874836683273315
0.63974916934967041 0.66072821617126465 0.62926346063613892
0.66967296600341797 0.69064748287200928 0.65423357486724854
0.70223379135131836 0.72157901525497437 0.68267542123794556
0.74625933170318604 0.76122438907623291 0.72051763534545898
0.82722854614257812 0.83432632684707642 0.78861510753631592
0.70297718048095703 0.71986997127532959 0.68394929170608521
0.71794122457504272 0.73598760366439819 0.69817489385604858
0.73230129480361938 0.75034981966018677 0.70911544561386108
0.7542119026184082 0.77065664529800415 0.725638747215271
0.76904916763305664 0.78358829021453857 0.73876625299453735
0.80205410718917847 0.8131486177444458 0.76747995615005493
0.86474496126174927 0.86857092380523682 0.81966698169708252
0.86379998922348022 0.86930298805236816 0.82089835405349731
0.87313878536224365 0.87766039371490479 0.82955843210220337
0.87768226861953735 0.88366568088531494 0.83300131559371948
0.88736099004745483 0.89155018329620361 0.83988410234451294
0.89095860719680786 0.89371228218078613 0.84329694509506226
0.90032744407653809 0.90244859457015991 0.85256242752075195
0.9293828010559082 0.92806214094161987 0.87708675861358643
0.68399918079376221 0.70146536827087402 0.66943508386611938
0.68897765874862671 0.70630943775177002 0.67449808120727539
0.7009272575378418 0.71818798780441284 0.68401032686233521
0.72803312540054321 0.7437853217124939 0.70640987157821655
0.74956810474395752 0.76465415954589844 0.72539114952087402
0.75436693429946899 0.76821774244308472 0.72795748710632324
0.78315466642379761 0.79812443256378174 0.75227177143096924
0.69327521324157715 0.71082860231399536 0.67875081300735474
0.69848686456680298 0.71614021062850952 0.6826552152633667
0.70827662944793701 0.72662186622619629 0.68889337778091431
0.72845077514648438 0.74718618392944336 0.70439118146896362
0.75809705257415771 0.7745252251625061 0.7306981086730957
0.76118236780166626 0.77580565214157104 0.73171150684356689
0.79213494062423706 0.8057858943939209 0.75850552320480347
0.70511800050735474 0.72104257345199585 0.68900394439697266
0.70909291505813599 0.72522211074829102 0.69073909521102905
0.71901971101760864 0.73605132102966309 0.69686836004257202
0.74138110876083374 0.75860321521759033 0.71452844142913818
0.77274852991104126 0.78819447755813599 0.74211901426315308
0.77782618999481201 0.79350048303604126 0.74716389179229736
0.81427091360092163 0.8260689377784729 0.77791821956634521
0.71019178628921509 0.72580277919769287 0.69227677583694458
0.71398133039474487 0.72968977689743042 0.6939082145690918
0.72567266225814819 0.74123769998550415 0.70192015171051025
0.75584089756011963 0.77044057846069336 0.72660231590270996
0.78725320100784302 0.80089962482452393 0.75452619791030884
0.7988707423210144 0.81181508302688599 0.766429603099823
0.84776425361633301 0.85482656955718994 0.80731344223022461
0.71852493286132812 0.73401612043380737 0.69709712266921997
0.72376233339309692 0.73980093002319336 0.70128166675567627
0.72921657562255859 0.74490547180175781 0.70416939258575439
0.75981849431991577 0.7737310528755188 0.72933858633041382
0.79990160465240479 0.8117140531539917 0.7645801305770874
0.8313523530960083 0.84062725305557251 0.79319566488265991
0.87902945280075073 0.88257700204849243 0.83414554595947266
0.75906813144683838 0.77191627025604248 0.72963106632232666
0.76013296842575073 0.77533328533172607 0.73249298334121704
0.77983075380325317 0.79329115152359009 0.7487221360206604
0.80336290597915649 0.81369078159332275 0.7671014666557312
0.83122807741165161 0.83910524845123291 0.79161858558654785
0.87738984823226929 0.88156867027282715 0.83247095346450806
0.91936767101287842 0.91890054941177368 0.86834383010864258
0.89625531435012817 0.89812672138214111 0.84764713048934937
0.89610183238983154 0.89601308107376099 0.84803605079650879
0.89348393678665161 0.89668148756027222 0.84700781106948853
0.90837776660919189 0.90876775979995728 0.85841482877731323
0.92632943391799927 0.92389512062072754 0.87477177381515503
0.93652653694152832 0.93468284606933594 0.88577729463577271
0.95459127426147461 0.95214152336120605 0.9025844931602478
0.86471003293991089 0.87193626165390015 0.82401961088180542
0.86614036560058594 0.87229233980178833 0.82401961088180542
0.87614554166793823 0.88006311655044556 0.83115500211715698
0.88899332284927368 0.8918452262878418 0.84237468242645264
0.90966039896011353 0.91057413816452026 0.86090546846389771
0.93372988700866699 0.93261122703552246 0.88176542520523071
0.93541944026947021 0.93596231937408447 0.88402843475341797
0.86353325843811035 0.87212306261062622 0.82404112815856934
0.86601930856704712 0.87363624572753906 0.82423794269561768
0.87179481983184814 0.87819278240203857 0.82772332429885864
0.88521558046340942 0.88985353708267212 0.8380618691444397
0.90667045116424561 0.90812510251998901 0.85690474510192871
0.92901700735092163 0.92906862497329712 0.87669509649276733
0.93459546566009521 0.93601351976394653 0.8817441463470459
0.86986815929412842 0.87758392095565796 0.82975441217422485
0.87146025896072388 0.87840229272842407 0.82913553714752197
0.87655162811279297 0.88192939758300781 0.83109962940216064
0.89253914356231689 0.89554286003112793 0.84333795309066772
0.91544908285140991 0.91481184959411621 0.86300474405288696
0.93602931499481201 0.93403679132461548 0.88223600387573242
0.93507051467895508 0.93503546714782715 0.88176441192626953
0.87873715162277222 0.88502925634384155 0.83620244264602661
0.87905973196029663 0.88333588838577271 0.83473294973373413
0.88406252861022949 0.88691884279251099 0.83679461479187012
0.90359866619110107 0.90373104810714722 0.85259884595870972
0.92378050088882446 0.92061811685562134 0.86936032772064209
0.94030934572219849 0.93647205829620361 0.88540196418762207
0.93701398372650146 0.93552535772323608 0.88300210237503052
0.88551419973373413 0.88879621028900146 0.84012597799301147
0.88883507251739502 0.89030104875564575 0.84124255180358887
0.88978707790374756 0.89053630828857422 0.84098273515701294
0.90348798036575317 0.90265959501266479 0.85242199897766113
0.92691642045974731 0.92365467548370361 0.87209159135818481
0.95231932401657104 0.94773167371749878 0.89542865753173828
0.95758676528930664 0.95378082990646362 0.90212750434875488
0.90185654163360596 0.90187978744506836 0.85237908363342285
0.9014052152633667 0.90127944946289062 0.85165482759475708
0.90710324048995972 0.90693360567092896 0.85697788000106812
0.9181024432182312 0.91663461923599243 0.86655491590499878
0.93129724264144897 0.9278026819229126 0.87755423784255981
0.96036159992218018 0.95470225811004639 0.9038999080657959
0.97241437435150146 0.96746248006820679 0.91723161935806274
0.93871051073074341 0.93416851758956909 0.88348722457885742
0.93356019258499146 0.93251299858093262 0.88201296329498291
0.94021439552307129 0.93958908319473267 0.88857531547546387
0.94832628965377808 0.94551724195480347 0.89476245641708374
0.96329724788665771 0.95779412984848022 0.90820825099945068
0.97583693265914917 0.97040992975234985 0.92212647199630737
0.98167902231216431 0.97825586795806885 0.93073147535324097
