luts/instant_consumer/polaroid_px-100uv+_warm_-.cube
# Created by: G'MIC (https://gmic.eu)
TITLE "polaroid_px-100uv+_warm_-"
# LUT size
LUT_3D_SIZE 7
# Data domain
DOMAIN_MIN 0.0 0.0 0.0
DOMAIN_MAX 1.0 1.0 1.0
# LUT data points
0.12873341143131256 0.10289227217435837 0.10974086821079254
0.15362350642681122 0.13002443313598633 0.1353384405374527
0.23427979648113251 0.21621659398078918 0.21793417632579803
0.33987510204315186 0.32592481374740601 0.32563504576683044
0.43838080763816833 0.42509102821350098 0.42308536171913147
0.53067135810852051 0.51646620035171509 0.50998067855834961
0.62559980154037476 0.6102527379989624 0.59895163774490356
0.16772580146789551 0.1455143541097641 0.14919500052928925
0.18619959056377411 0.16576114296913147 0.16998259723186493
0.24484778940677643 0.22790592908859253 0.22986605763435364
0.34352827072143555 0.3301713764667511 0.32820159196853638
0.43779852986335754 0.42563924193382263 0.42165172100067139
0.52779817581176758 0.51499110460281372 0.507743239402771
0.62110066413879395 0.60705029964447021 0.59515416622161865
0.27876767516136169 0.26112508773803711 0.26159417629241943
0.27663823962211609 0.26084226369857788 0.26231229305267334
0.31389793753623962 0.29986676573753357 0.30093306303024292
0.38618791103363037 0.37409746646881104 0.37241581082344055
0.45656174421310425 0.44516319036483765 0.44154161214828491
0.53286921977996826 0.52108097076416016 0.51456588506698608
0.6231377124786377 0.61034250259399414 0.59799456596374512
0.40069571137428284 0.38623267412185669 0.38583791255950928
0.38561004400253296 0.37292680144309998 0.37292096018791199
0.40096384286880493 0.38895431160926819 0.38997527956962585
0.44919785857200623 0.43776202201843262 0.43873617053031921
0.50034958124160767 0.48910361528396606 0.48760291934013367
0.56157165765762329 0.55016887187957764 0.54340112209320068
0.64548629522323608 0.63353192806243896 0.61896103620529175
0.49131590127944946 0.47821572422981262 0.47559785842895508
0.48454847931861877 0.47213283181190491 0.46972852945327759
0.48866128921508789 0.47561651468276978 0.47465366125106812
0.51485103368759155 0.50124692916870117 0.50041842460632324
0.55906027555465698 0.5467531681060791 0.5421597957611084
0.61444681882858276 0.60277062654495239 0.59111440181732178
0.69544458389282227 0.68373626470565796 0.66365087032318115
0.61214148998260498 0.59871011972427368 0.58914119005203247
0.60465109348297119 0.59141647815704346 0.58239966630935669
0.60321998596191406 0.58807200193405151 0.58079886436462402
0.61678433418273926 0.602142333984375 0.59370702505111694
0.65127456188201904 0.63831502199172974 0.62513893842697144
0.69149190187454224 0.67967903614044189 0.66172605752944946
0.76645249128341675 0.75458675622940063 0.73304450511932373
0.77101629972457886 0.75610458850860596 0.73783612251281738
0.76768243312835693 0.75247377157211304 0.7342262864112854
0.7678646445274353 0.7523224949836731 0.73483306169509888
0.77367955446243286 0.75949889421463013 0.74028521776199341
0.79770714044570923 0.78581452369689941 0.76393187046051025
0.82110941410064697 0.80986827611923218 0.78947204351425171
0.86286312341690063 0.85121774673461914 0.83388823270797729
0.18066413700580597 0.15973421931266785 0.16425499320030212
0.21257385611534119 0.19234369695186615 0.19456744194030762
0.28629544377326965 0.27036237716674805 0.27030345797538757
0.39309883117675781 0.38098511099815369 0.38109910488128662
0.48126572370529175 0.46956613659858704 0.4685690701007843
0.56144958734512329 0.54596555233001709 0.53975373506546021
0.64230680465698242 0.62688678503036499 0.61452347040176392
0.22004735469818115 0.20047135651111603 0.20426774024963379
0.25427216291427612 0.23678503930568695 0.23884502053260803
0.31726312637329102 0.3035893440246582 0.303529292345047
0.40022066235542297 0.38861170411109924 0.38687834143638611
0.47941842675209045 0.46793189644813538 0.46444845199584961
0.5593189001083374 0.54586470127105713 0.53803032636642456
0.6453249454498291 0.63089132308959961 0.61778533458709717
0.33706268668174744 0.32026514410972595 0.32180720567703247
0.34024146199226379 0.32618281245231628 0.32659173011779785
0.3705279529094696 0.35874748229980469 0.35823756456375122
0.42302894592285156 0.41181856393814087 0.40987038612365723
0.48761758208274841 0.47663471102714539 0.47281250357627869
0.56085324287414551 0.54872602224349976 0.54108434915542603
0.64803433418273926 0.63437682390213013 0.62097501754760742
0.44681936502456665 0.43396133184432983 0.43156042695045471
0.44122800230979919 0.4302138090133667 0.42878508567810059
0.44276770949363708 0.43172562122344971 0.43169620633125305
0.47093823552131653 0.45952805876731873 0.46035340428352356
0.51766973733901978 0.50634455680847168 0.50462973117828369
0.57917875051498413 0.56694835424423218 0.55913698673248291
0.66420477628707886 0.65090811252593994 0.63571286201477051
0.52543735504150391 0.51437836885452271 0.50940430164337158
0.52299195528030396 0.51185232400894165 0.50693356990814209
0.52082091569900513 0.50800436735153198 0.50455838441848755
0.53340786695480347 0.52018237113952637 0.51795035600662231
0.57040196657180786 0.55741649866104126 0.55206829309463501
0.62653619050979614 0.61336404085159302 0.60130971670150757
0.70574688911437988 0.69229048490524292 0.6727491021156311
0.6319383978843689 0.62046271562576294 0.60910880565643311
0.62591922283172607 0.61382913589477539 0.60184097290039062
0.62589091062545776 0.61109882593154907 0.6011996865272522
0.63172608613967896 0.61698681116104126 0.6065673828125
0.66121524572372437 0.64721423387527466 0.63380759954452515
0.70542937517166138 0.69213235378265381 0.67429101467132568
0.77194571495056152 0.75886958837509155 0.7373887300491333
0.77853977680206299 0.76561588048934937 0.74711591005325317
0.77480721473693848 0.76142996549606323 0.74213844537734985
0.77413696050643921 0.75971084833145142 0.74065709114074707
0.7788621187210083 0.76476359367370605 0.74534720182418823
0.80087125301361084 0.78853398561477661 0.76800978183746338
0.83087706565856934 0.81930994987487793 0.79906445741653442
0.8700556755065918 0.85792666673660278 0.83897614479064941
0.31000214815139771 0.29438373446464539 0.29524117708206177
0.34296160936355591 0.32892248034477234 0.32888257503509521
0.36939230561256409 0.35703259706497192 0.35703513026237488
0.43270885944366455 0.42088696360588074 0.41977065801620483
0.51356405019760132 0.50223559141159058 0.49746140837669373
0.59949696063995361 0.5868569016456604 0.57618647813796997
0.6807626485824585 0.66608917713165283 0.65097969770431519
0.34451097249984741 0.32948541641235352 0.32958385348320007
0.36699068546295166 0.353497713804245 0.35196012258529663
0.40909332036972046 0.39697912335395813 0.39438566565513611
0.45607313513755798 0.4448336660861969 0.44408440589904785
0.5212821364402771 0.51000845432281494 0.50620800256729126
0.60253596305847168 0.58920919895172119 0.58006823062896729
0.68679183721542358 0.67201894521713257 0.65675228834152222
0.38733100891113281 0.37290671467781067 0.37279701232910156
0.41844841837882996 0.4060942530632019 0.40583321452140808
0.4514985978603363 0.4400678277015686 0.43797659873962402
0.48385804891586304 0.47301420569419861 0.47057375311851501
0.54121512174606323 0.53001081943511963 0.52404141426086426
0.6126549243927002 0.59976977109909058 0.5885501503944397
0.6945158839225769 0.67951047420501709 0.66335380077362061
0.48360931873321533 0.47175782918930054 0.46801483631134033
0.49672114849090576 0.48561152815818787 0.48312419652938843
0.50518250465393066 0.49329560995101929 0.49062696099281311
0.52116143703460693 0.50936621427536011 0.50610518455505371
0.56414330005645752 0.55190783739089966 0.54519569873809814
0.62772226333618164 0.6139037013053894 0.60176736116409302
0.70795035362243652 0.69262760877609253 0.67549622058868408
0.57667374610900879 0.56525224447250366 0.55637437105178833
0.57734894752502441 0.56521493196487427 0.55723071098327637
0.57461762428283691 0.56096172332763672 0.55300211906433105
0.5758056640625 0.56156718730926514 0.55399399995803833
0.60385388135910034 0.5896262526512146 0.57940661907196045
0.65704792737960815 0.64192098379135132 0.62701630592346191
0.73305207490921021 0.71768903732299805 0.69846856594085693
0.67888635396957397 0.66717243194580078 0.6522710919380188
0.67562049627304077 0.66263896226882935 0.64764970541000366
0.66962146759033203 0.65494829416275024 0.64026492834091187
0.66153186559677124 0.6459234356880188 0.63156580924987793
0.68516069650650024 0.66976213455200195 0.65403836965560913
0.7235373854637146 0.70815867185592651 0.68941158056259155
0.78513228893280029 0.76996099948883057 0.74955987930297852
0.80449622869491577 0.79223906993865967 0.77281957864761353
0.8019072413444519 0.78896689414978027 0.76861786842346191
0.79787462949752808 0.78403455018997192 0.76346868276596069
0.79682689905166626 0.78293335437774658 0.76247173547744751
0.8142094612121582 0.80096346139907837 0.78084635734558105
0.84319126605987549 0.83037674427032471 0.81083911657333374
0.87762957811355591 0.86462920904159546 0.84537726640701294
0.44310152530670166 0.43048554658889771 0.42849400639533997
0.46060937643051147 0.44878736138343811 0.44732564687728882
0.49247437715530396 0.48079073429107666 0.47966614365577698
0.50962930917739868 0.49789747595787048 0.49416017532348633
0.55114090442657471 0.53980660438537598 0.53239899873733521
0.63114333152770996 0.61895859241485596 0.60570693016052246
0.7176508903503418 0.70354229211807251 0.6866876482963562
0.47202035784721375 0.46033188700675964 0.45934879779815674
0.48308071494102478 0.4715600311756134 0.46860241889953613
0.50485461950302124 0.49304187297821045 0.48890897631645203
0.51484113931655884 0.50278538465499878 0.50120508670806885
0.55777674913406372 0.54493767023086548 0.54070615768432617
0.63451874256134033 0.62066429853439331 0.60896974802017212
0.72735059261322021 0.71322095394134521 0.694987952709198
0.48089110851287842 0.46914705634117126 0.46879133582115173
0.49808788299560547 0.48639553785324097 0.48425862193107605
0.52503490447998047 0.5128244161605835 0.50795572996139526
0.54421156644821167 0.53241491317749023 0.52696448564529419
0.58768284320831299 0.57583987712860107 0.56647109985351562
0.65558916330337524 0.64168822765350342 0.62730276584625244
0.74396395683288574 0.72866040468215942 0.70967310667037964
0.51837003231048584 0.50658315420150757 0.50385242700576782
0.5369688868522644 0.52464336156845093 0.52023464441299438
0.56088012456893921 0.54764777421951294 0.54026484489440918
0.57868045568466187 0.56607049703598022 0.55622828006744385
0.61417406797409058 0.60203671455383301 0.58873361349105835
0.67897951602935791 0.66430574655532837 0.64815723896026611
0.76195609569549561 0.74580991268157959 0.72710508108139038
0.59976792335510254 0.58769339323043823 0.57821643352508545
0.61394375562667847 0.60007011890411377 0.58891695737838745
0.6273769736289978 0.61204898357391357 0.59933626651763916
0.63246911764144897 0.61794638633728027 0.60345757007598877
0.65516918897628784 0.64070206880569458 0.62449091672897339
0.70543664693832397 0.68965548276901245 0.67190349102020264
0.77919745445251465 0.7634274959564209 0.74407488107681274
0.70785123109817505 0.69555556774139404 0.67870253324508667
0.7143319845199585 0.70041906833648682 0.6824188232421875
0.72081023454666138 0.70614409446716309 0.68679302930831909
0.72144544124603271 0.70721065998077393 0.68735229969024658
0.7315559983253479 0.71662658452987671 0.69717323780059814
0.76109760999679565 0.74515962600708008 0.72583812475204468
0.81569522619247437 0.80029910802841187 0.78072124719619751
0.83180367946624756 0.81984156370162964 0.79999339580535889
0.83121132850646973 0.81850135326385498 0.79718285799026489
0.83235418796539307 0.81944543123245239 0.79740709066390991
0.83598226308822632 0.82326221466064453 0.80127984285354614
0.84256857633590698 0.82904243469238281 0.8082318902015686
0.85720431804656982 0.84299594163894653 0.82383984327316284
0.88791722059249878 0.87408280372619629 0.856029212474823
0.56549668312072754 0.55379539728164673 0.54554301500320435
0.56968116760253906 0.55801242589950562 0.54947715997695923
0.59242236614227295 0.57992649078369141 0.57130521535873413
0.62052732706069946 0.60749959945678711 0.59604030847549438
0.63155317306518555 0.61845630407333374 0.60535407066345215
0.66408401727676392 0.65015071630477905 0.6341240406036377
0.75202775001525879 0.73677724599838257 0.71799594163894653
0.58228236436843872 0.57111215591430664 0.56381022930145264
0.58657985925674438 0.57509887218475342 0.56599152088165283
0.60077553987503052 0.58776354789733887 0.57773387432098389
0.61820083856582642 0.60376381874084473 0.59318298101425171
0.63941121101379395 0.62356376647949219 0.61280649900436401
0.67441189289093018 0.65844327211380005 0.64364862442016602
0.75920683145523071 0.74527043104171753 0.72464722394943237
0.5861392617225647 0.5759965181350708 0.56962466239929199
0.59562963247299194 0.58360457420349121 0.57538610696792603
0.61275315284729004 0.59953391551971436 0.5886913537979126
0.63151735067367554 0.61793959140777588 0.60548734664916992
0.65499228239059448 0.64151185750961304 0.62685894966125488
0.6923409104347229 0.67746740579605103 0.6598055362701416
0.78431755304336548 0.77123540639877319 0.74901688098907471
0.594573974609375 0.58298462629318237 0.57592523097991943
0.60979503393173218 0.59657704830169678 0.58697605133056641
0.63070559501647949 0.61629301309585571 0.60338562726974487
0.65100777149200439 0.63761001825332642 0.62156319618225098
0.67478644847869873 0.66262918710708618 0.64393472671508789
0.72585564851760864 0.71147316694259644 0.69194614887237549
0.80798494815826416 0.79285693168640137 0.77286386489868164
0.63520389795303345 0.62314993143081665 0.61006474494934082
0.65244650840759277 0.63803517818450928 0.62342989444732666
0.66779273748397827 0.65170854330062866 0.63527309894561768
0.68773782253265381 0.67319715023040771 0.65362310409545898
0.71420377492904663 0.70064073801040649 0.67935329675674438
0.75715327262878418 0.74264067411422729 0.72199666500091553
0.82590138912200928 0.81248456239700317 0.7929033637046814
0.7260776162147522 0.71375775337219238 0.69340455532073975
0.736336350440979 0.72236645221710205 0.7024376392364502
0.74651646614074707 0.73214489221572876 0.71143275499343872
0.76627504825592041 0.7535974383354187 0.73049783706665039
0.77955895662307739 0.7656930685043335 0.7436598539352417
0.80187404155731201 0.78633177280426025 0.76661449670791626
0.84921371936798096 0.83529943227767944 0.81702536344528198
0.8530879020690918 0.84124135971069336 0.82077592611312866
0.84806495904922485 0.83597469329833984 0.81503152847290039
0.85197740793228149 0.84034401178359985 0.818431556224823
0.86679887771606445 0.85574299097061157 0.83330243825912476
0.87442302703857422 0.8615344762802124 0.84129840135574341
0.8775826096534729 0.86353188753128052 0.84526771306991577
0.90030395984649658 0.88707339763641357 0.87017297744750977
0.70215874910354614 0.69037920236587524 0.67437088489532471
0.70360130071640015 0.69153410196304321 0.67433542013168335
0.71697020530700684 0.70350778102874756 0.68629950284957886
0.736480712890625 0.72185373306274414 0.70226681232452393
0.76391088962554932 0.74961632490158081 0.72836720943450928
0.77382105588912964 0.75977909564971924 0.73675048351287842
0.79428136348724365 0.77884858846664429 0.7569161057472229
0.70924246311187744 0.69850289821624756 0.68304973840713501
0.71154177188873291 0.69970709085464478 0.6826435923576355
0.72242480516433716 0.70880550146102905 0.69075495004653931
0.74296456575393677 0.72781664133071899 0.70815825462341309
0.77408629655838013 0.758403480052948 0.7380063533782959
0.77980655431747437 0.76466578245162964 0.74388962984085083
0.79838353395462036 0.78312844038009644 0.76262062788009644
0.7117806077003479 0.70147913694381714 0.68777859210968018
0.71735548973083496 0.70550966262817383 0.6898730993270874
0.73079365491867065 0.71752595901489258 0.69971942901611328
0.75397676229476929 0.74002283811569214 0.72052264213562012
0.78215873241424561 0.76811093091964722 0.74743986129760742
0.78855282068252563 0.77409476041793823 0.75286036729812622
0.81418317556381226 0.80027657747268677 0.77903681993484497
0.71367800235748291 0.70311945676803589 0.68831229209899902
0.72133761644363403 0.70907872915267944 0.69272971153259277
0.73689258098602295 0.72322279214859009 0.70453798770904541
0.7618679404258728 0.74834984540939331 0.72687888145446777
0.78824782371520996 0.77560830116271973 0.75253057479858398
0.80236351490020752 0.79048293828964233 0.7668418288230896
0.83329576253890991 0.82126778364181519 0.79960334300994873
0.72705447673797607 0.71585297584533691 0.69684094190597534
0.73663622140884399 0.72369879484176636 0.70467120409011841
0.74738985300064087 0.73299753665924072 0.7131345272064209
0.76918107271194458 0.75563102960586548 0.73266243934631348
0.79784303903579712 0.78539824485778809 0.76143544912338257
0.82387769222259521 0.81230950355529785 0.78985965251922607
0.86090046167373657 0.85035622119903564 0.83035576343536377
0.77145230770111084 0.75974875688552856 0.73694652318954468
0.78309202194213867 0.77052611112594604 0.74963486194610596
0.78957360982894897 0.77651786804199219 0.75580900907516479
0.80301922559738159 0.79090070724487305 0.76789122819900513
0.82680952548980713 0.8146899938583374 0.79197186231613159
0.85193771123886108 0.8397642970085144 0.81992858648300171
0.88169568777084351 0.87080150842666626 0.85301321744918823
0.8689989447593689 0.85732686519622803 0.83834600448608398
0.86132681369781494 0.85052490234375 0.83139955997467041
0.86365598440170288 0.85311973094940186 0.83363527059555054
0.87738335132598877 0.86679220199584961 0.84665346145629883
0.89337682723999023 0.88214987516403198 0.86335629224777222
0.89863818883895874 0.88678795099258423 0.8698190450668335
0.91304397583007812 0.90185689926147461 0.88641977310180664
0.85068023204803467 0.83913570642471313 0.81924468278884888
0.85206454992294312 0.84047132730484009 0.81987553834915161
0.85723781585693359 0.84540116786956787 0.82539218664169312
0.86508041620254517 0.85277175903320312 0.83307504653930664
0.88166618347167969 0.87014222145080566 0.85125410556793213
0.89932167530059814 0.88905131816864014 0.86929643154144287
0.89663457870483398 0.88468515872955322 0.86681908369064331
0.85216051340103149 0.84178906679153442 0.82207798957824707
0.8537718653678894 0.84284651279449463 0.82214140892028809
0.85854858160018921 0.84682077169418335 0.82593685388565063
0.86898034811019897 0.85710108280181885 0.83687037229537964
0.88604533672332764 0.87512189149856567 0.8564031720161438
0.89939671754837036 0.88937234878540039 0.87105458974838257
0.89847302436828613 0.88764864206314087 0.87084108591079712
0.8533473014831543 0.84405761957168579 0.82519501447677612
0.85567992925643921 0.84562623500823975 0.82538908720016479
0.86196863651275635 0.85098075866699219 0.83012521266937256
0.87452155351638794 0.86364459991455078 0.84331977367401123
0.88602691888809204 0.87650609016418457 0.85853606462478638
0.90041261911392212 0.89069151878356934 0.87315124273300171
0.89587336778640747 0.88505709171295166 0.86829721927642822
0.8571326732635498 0.84843927621841431 0.82959556579589844
0.85793352127075195 0.84800779819488525 0.82802379131317139
0.86474114656448364 0.85403633117675781 0.83289182186126709
0.88085615634918213 0.87042200565338135 0.84822231531143188
0.89640325307846069 0.8867374062538147 0.86578917503356934
0.90373116731643677 0.89428818225860596 0.87512427568435669
0.89980918169021606 0.88985568284988403 0.87222403287887573
0.86024433374404907 0.85170954465866089 0.83095145225524902
0.86208951473236084 0.85285472869873047 0.83210843801498413
0.86772704124450684 0.85768109560012817 0.83627194166183472
0.87781685590744019 0.86777514219284058 0.84531980752944946
0.89412879943847656 0.88465315103530884 0.86297100782394409
0.90709108114242554 0.89843499660491943 0.87901657819747925
0.91466474533081055 0.90616613626480103 0.88934212923049927
0.87560242414474487 0.86704784631729126 0.84625339508056641
0.87530922889709473 0.86666536331176758 0.84665602445602417
0.88107407093048096 0.87222123146057129 0.85237950086593628
0.88093864917755127 0.87187314033508301 0.85135519504547119
0.89515292644500732 0.88595157861709595 0.86636883020401001
0.9135507345199585 0.90486609935760498 0.88804501295089722
0.92407649755477905 0.91580486297607422 0.90092355012893677
0.89951753616333008 0.89114558696746826 0.87394297122955322
0.89872777462005615 0.89094561338424683 0.87488836050033569
0.90281385183334351 0.89505386352539062 0.87864893674850464
0.90644156932830811 0.89839804172515869 0.88157254457473755
0.91972190141677856 0.91120064258575439 0.8950951099395752
0.92833578586578369 0.91947829723358154 0.90550053119659424
0.93410766124725342 0.9257429838180542 0.91258144378662109
