luts/instant_consumer/polaroid_px-70_warm_++.cube
# Created by: G'MIC (https://gmic.eu)
TITLE "polaroid_px-70_warm_++"
# LUT size
LUT_3D_SIZE 5
# Data domain
DOMAIN_MIN 0.0 0.0 0.0
DOMAIN_MAX 1.0 1.0 1.0
# LUT data points
0.42512699961662292 0.26533430814743042 0.16556505858898163
0.44356516003608704 0.2666211724281311 0.16533777117729187
0.50853925943374634 0.26797178387641907 0.16194853186607361
0.78795492649078369 0.32485124468803406 0.13676553964614868
1 0.50561153888702393 0.11058822274208069
0.4244970977306366 0.28447994589805603 0.16488558053970337
0.44274261593818665 0.28911307454109192 0.16462886333465576
0.54138362407684326 0.30544385313987732 0.15392285585403442
0.81275427341461182 0.39802205562591553 0.11172924935817719
0.99874246120452881 0.56227076053619385 0.10095629096031189
0.42141801118850708 0.44886216521263123 0.15503779053688049
0.45919355750083923 0.45162424445152283 0.15602642297744751
0.60044819116592407 0.49380362033843994 0.12989982962608337
0.84893625974655151 0.58827787637710571 0.027421450242400169
0.9979320764541626 0.65895766019821167 0.056000024080276489
0.47183001041412354 0.76211780309677124 0.20723722875118256
0.52247440814971924 0.75020235776901245 0.21012017130851746
0.67625671625137329 0.76421248912811279 0.22883264720439911
0.86354035139083862 0.7847251296043396 0.23080776631832123
0.9910588264465332 0.80893462896347046 0.30562126636505127
0.81921845674514771 0.90792107582092285 0.49095499515533447
0.83088123798370361 0.90576732158660889 0.49013006687164307
0.87365061044692993 0.9080129861831665 0.50638824701309204
0.92722690105438232 0.91129261255264282 0.51499646902084351
0.9747927188873291 0.9181818962097168 0.53802859783172607
0.42549630999565125 0.26743230223655701 0.1750323474407196
0.43616369366645813 0.26784458756446838 0.17651267349720001
0.52342307567596436 0.26256638765335083 0.18452297151088715
0.83228498697280884 0.3127228319644928 0.20888969302177429
1 0.5303921103477478 0.27702972292900085
0.42822608351707458 0.29218852519989014 0.18242225050926208
0.45236235857009888 0.29650047421455383 0.18678508698940277
0.5694582462310791 0.31831270456314087 0.19324702024459839
0.85155326128005981 0.41876682639122009 0.20941804349422455
0.99980401992797852 0.58677142858505249 0.27729383111000061
0.44473421573638916 0.47493395209312439 0.21129225194454193
0.47826209664344788 0.47247704863548279 0.20755621790885925
0.62090778350830078 0.50936305522918701 0.2005007416009903
0.864368736743927 0.58923572301864624 0.17609973251819611
0.99771749973297119 0.67147469520568848 0.24784354865550995
0.50344181060791016 0.77158921957015991 0.29357880353927612
0.55491429567337036 0.76169174909591675 0.29684585332870483
0.70522266626358032 0.7704322338104248 0.32296290993690491
0.8729097843170166 0.78877770900726318 0.3255138099193573
0.98981672525405884 0.81201410293579102 0.38155248761177063
0.83463144302368164 0.90765959024429321 0.50493383407592773
0.84495949745178223 0.90538257360458374 0.50549197196960449
0.8824571967124939 0.90501987934112549 0.51601070165634155
0.93046122789382935 0.91151708364486694 0.52925306558609009
0.97386515140533447 0.91890239715576172 0.54680484533309937
0.43580710887908936 0.26834312081336975 0.24451480805873871
0.47033771872520447 0.27399617433547974 0.24944449961185455
0.56327223777770996 0.30839204788208008 0.27566468715667725
0.82782793045043945 0.30091959238052368 0.37272453308105469
0.99895024299621582 0.48753997683525085 0.44698721170425415
0.4357287585735321 0.31644141674041748 0.28219315409660339
0.4840664267539978 0.32094073295593262 0.29259812831878662
0.61121827363967896 0.38228869438171387 0.32214418053627014
0.86706018447875977 0.40606895089149475 0.39976364374160767
0.99981296062469482 0.60871309041976929 0.46931371092796326
0.44878062605857849 0.49737399816513062 0.3408227264881134
0.50575101375579834 0.5051267147064209 0.34994363784790039
0.66868102550506592 0.54807990789413452 0.38301002979278564
0.89119547605514526 0.64375871419906616 0.43203815817832947
0.99649947881698608 0.74524909257888794 0.48033595085144043
0.6099926233291626 0.78216981887817383 0.44863319396972656
0.65885680913925171 0.77861720323562622 0.44789057970046997
0.75377368927001953 0.78653550148010254 0.45538002252578735
0.88941901922225952 0.80084675550460815 0.46283909678459167
0.98918431997299194 0.81600171327590942 0.47669693827629089
0.86593747138977051 0.90679198503494263 0.53614908456802368
0.86874806880950928 0.90669649839401245 0.53406995534896851
0.90181899070739746 0.90689396858215332 0.54500395059585571
0.94253814220428467 0.91279208660125732 0.55666184425354004
0.97971510887145996 0.92225688695907593 0.56723690032958984
0.53202307224273682 0.29525595903396606 0.5217430591583252
0.61727243661880493 0.31243741512298584 0.52910864353179932
0.79385149478912354 0.43625816702842712 0.54208433628082275
0.91604495048522949 0.6091839075088501 0.54520899057388306
0.99634581804275513 0.62396794557571411 0.55309176445007324
0.50061267614364624 0.38104644417762756 0.54299676418304443
0.60555422306060791 0.39920979738235474 0.54136890172958374
0.80384922027587891 0.53750962018966675 0.54799497127532959
0.92128080129623413 0.68374818563461304 0.54885685443878174
0.99295580387115479 0.68553668260574341 0.55369663238525391
0.42842298746109009 0.60045856237411499 0.53295868635177612
0.52435219287872314 0.59395182132720947 0.53294163942337036
0.77864032983779907 0.65584182739257812 0.54754024744033813
0.91779047250747681 0.76062291860580444 0.54927301406860352
0.99463081359863281 0.77381438016891479 0.55817520618438721
0.61763304471969604 0.78893691301345825 0.53498440980911255
0.66660779714584351 0.78820532560348511 0.53555387258529663
0.78814089298248291 0.79500049352645874 0.54545885324478149
0.92438369989395142 0.82838988304138184 0.55435824394226074
0.99070519208908081 0.85107564926147461 0.56219875812530518
0.87529242038726807 0.91102194786071777 0.57177990674972534
0.88583964109420776 0.9079710841178894 0.57462704181671143
0.91911095380783081 0.91070854663848877 0.58342164754867554
0.95329135656356812 0.91373628377914429 0.59393465518951416
0.98335921764373779 0.91964477300643921 0.60207134485244751
0.79446929693222046 0.59500479698181152 0.65821158885955811
0.84102869033813477 0.6309669017791748 0.65071612596511841
0.92459803819656372 0.72899419069290161 0.63964450359344482
0.97442102432250977 0.82717216014862061 0.62513500452041626
0.98926323652267456 0.85800427198410034 0.62177294492721558
0.79379081726074219 0.66236662864685059 0.65193420648574829
0.83971267938613892 0.68754374980926514 0.64589756727218628
0.92398732900619507 0.76334106922149658 0.6361929178237915
0.97186827659606934 0.84069472551345825 0.62595176696777344
0.98941481113433838 0.86714714765548706 0.623757004737854
0.76484465599060059 0.74781113862991333 0.6420099139213562
0.809032142162323 0.75192975997924805 0.63940596580505371
0.9065205454826355 0.7992103099822998 0.63348233699798584
0.96951568126678467 0.86199349164962769 0.62860172986984253
0.9843137264251709 0.88652104139328003 0.62937283515930176
0.73426425457000732 0.8292381763458252 0.62837725877761841
0.75493055582046509 0.8256489634513855 0.62680649757385254
0.8420414924621582 0.83216899633407593 0.62764358520507812
0.95581775903701782 0.87702655792236328 0.6335681676864624
0.98417776823043823 0.91326612234115601 0.63703513145446777
0.89692461490631104 0.9186398983001709 0.63554507493972778
0.90447998046875 0.91796427965164185 0.63528579473495483
0.92820829153060913 0.92206454277038574 0.6370471715927124
0.95818459987640381 0.92567425966262817 0.64515018463134766
0.98141336441040039 0.93526178598403931 0.65426397323608398
