luts/instant_consumer/polaroid_time_zero_expired_--.cube
# Created by: G'MIC (https://gmic.eu)
TITLE "polaroid_time_zero_expired_--"
# LUT size
LUT_3D_SIZE 7
# Data domain
DOMAIN_MIN 0.0 0.0 0.0
DOMAIN_MAX 1.0 1.0 1.0
# LUT data points
0.25188040733337402 0.080359362065792084 0.037865255028009415
0.26622894406318665 0.081535547971725464 0.037311390042304993
0.3314659595489502 0.068419918417930603 0.035564050078392029
0.4539908766746521 0.023923268541693687 0.031092012301087379
0.63853961229324341 0.0077435662969946861 0.014407258480787277
0.81359541416168213 0.0060617486014962196 0.0046550827100872993
0.9513586163520813 0.03152548149228096 0.0041811922565102577
0.26039943099021912 0.12231285125017166 0.026941994205117226
0.28639963269233704 0.12609128654003143 0.026366304606199265
0.36261829733848572 0.12753528356552124 0.020610122010111809
0.48335504531860352 0.11281340569257736 0.017317559570074081
0.65690851211547852 0.070327788591384888 0.0040449402295053005
0.82588076591491699 0.072801999747753143 0.0010041181230917573
0.95024228096008301 0.1792413592338562 0.0012385648442432284
0.29943385720252991 0.2477123886346817 0.0013956107432022691
0.34485357999801636 0.25255551934242249 0.0048898286186158657
0.42859971523284912 0.25219714641571045 0.0042105731554329395
0.55444014072418213 0.26706567406654358 0.00079299329081550241
0.69835251569747925 0.27112436294555664 0.00017843807290773839
0.83792811632156372 0.29021883010864258 0.0001910041319206357
0.9485621452331543 0.34612458944320679 0
0.38361051678657532 0.42869260907173157 0
0.42842897772789001 0.42855477333068848 0.00020428825519047678
0.52147883176803589 0.4367733895778656 1.8310547602595761e-05
0.65004557371139526 0.4583551287651062 0.00036764706601388752
0.76428812742233276 0.47165012359619141 0.0017601761501282454
0.85498654842376709 0.47779223322868347 0.003259381977841258
0.94360244274139404 0.51157563924789429 0.0023454553447663784
0.49114528298377991 0.61038416624069214 0
0.53061008453369141 0.61624813079833984 0
0.6060599684715271 0.61329680681228638 0
0.70404475927352905 0.6274293065071106 0
0.79961192607879639 0.63539367914199829 0.0029174804221838713
0.88088881969451904 0.65817153453826904 0.01398830022662878
0.94342875480651855 0.66952306032180786 0.037348892539739609
0.60775226354598999 0.74982690811157227 0
0.6367308497428894 0.74712097644805908 0.0001898372865980491
0.67609548568725586 0.75083655118942261 0
0.74863791465759277 0.74730390310287476 0.0034983018413186073
0.82075041532516479 0.75385755300521851 0.0039266250096261501
0.89398634433746338 0.77175390720367432 0.090305328369140625
0.93880748748779297 0.78383392095565796 0.36302348971366882
0.72471004724502563 0.84628313779830933 0.0011571098584681749
0.73522478342056274 0.84046149253845215 0.0039215688593685627
0.76260983943939209 0.84661155939102173 0.0014711866388097405
0.80793923139572144 0.84621322154998779 0.0027670618146657944
0.86844199895858765 0.85023975372314453 0.041580889374017715
0.92240536212921143 0.85047441720962524 0.31772077083587646
0.96198487281799316 0.85145491361618042 0.50199621915817261
0.26397770643234253 0.082351148128509521 0.062614575028419495
0.27328580617904663 0.08229934424161911 0.059644944965839386
0.34206688404083252 0.07164987176656723 0.067311637103557587
0.47329580783843994 0.036623638123273849 0.076709434390068054
0.65558052062988281 0.0047774072736501694 0.072414487600326538
0.82607924938201904 0.0071245529688894749 0.072867058217525482
0.95503699779510498 0.045806299895048141 0.082824259996414185
0.27004921436309814 0.12239369750022888 0.053649213165044785
0.29675719141960144 0.12957680225372314 0.055315520614385605
0.37381657958030701 0.13496604561805725 0.058075308799743652
0.50761508941650391 0.11668581515550613 0.057755369693040848
0.67714411020278931 0.076896414160728455 0.050880149006843567
0.83606863021850586 0.071669243276119232 0.047273404896259308
0.95444017648696899 0.18244466185569763 0.066084198653697968
0.30587923526763916 0.25068923830986023 0.021704310551285744
0.34769120812416077 0.25823435187339783 0.016755212098360062
0.44214591383934021 0.26329147815704346 0.018450822681188583
0.56889075040817261 0.26895096898078918 0.013508306816220284
0.71240711212158203 0.27543878555297852 0.0089982422068715096
0.84856265783309937 0.29174289107322693 0.0079827699810266495
0.95485985279083252 0.34881937503814697 0.022219773381948471
0.38830068707466125 0.43345379829406738 0.0038128572050482035
0.43303227424621582 0.43579697608947754 0.0041325739584863186
0.5281493067741394 0.44400912523269653 0.0053096846677362919
0.65400546789169312 0.45541167259216309 0.0046526738442480564
0.76704353094100952 0.47459232807159424 0.0044412799179553986
0.86289721727371216 0.48424366116523743 0.0076350793242454529
0.94560593366622925 0.51111847162246704 0.0040593314915895462
0.49705401062965393 0.60530036687850952 0.0039083445444703102
0.5315062403678894 0.61137533187866211 0.003869030624628067
0.60359793901443481 0.61239326000213623 0.00036884381552226841
0.70932930707931519 0.62796199321746826 0.0035815818700939417
0.80486005544662476 0.64546650648117065 0.0042153601534664631
0.88253331184387207 0.66364818811416626 0.090559251606464386
0.94357693195343018 0.67017698287963867 0.10449995100498199
0.61001265048980713 0.74719643592834473 0.0027884240262210369
0.63451802730560303 0.74704205989837646 0.003840472549200058
0.67822015285491943 0.75170475244522095 0.00014287911471910775
0.74817627668380737 0.75024259090423584 0.0016830444801598787
0.82399314641952515 0.75943672657012939 0.0040476182475686073
0.89326030015945435 0.77138924598693848 0.18886294960975647
0.93958467245101929 0.78531527519226074 0.40358570218086243
0.72803789377212524 0.84994173049926758 0.019565507769584656
0.73959875106811523 0.84799289703369141 0.014129488728940487
0.7649654746055603 0.84701144695281982 0.0074620116502046585
0.80823719501495361 0.84516888856887817 0.0049043241888284683
0.86780351400375366 0.85097551345825195 0.098489470779895782
0.9225306510925293 0.85045593976974487 0.35851070284843445
0.95977026224136353 0.85216128826141357 0.52581781148910522
0.30788490176200867 0.081246860325336456 0.13649509847164154
0.3257390558719635 0.083655007183551788 0.1431477814912796
0.37377330660820007 0.084105834364891052 0.14571522176265717
0.49682515859603882 0.04212087020277977 0.16645826399326324
0.67784237861633301 0.0051339543424546719 0.19092454016208649
0.83700865507125854 0.0080921100452542305 0.20554336905479431
0.95579254627227783 0.16535849869251251 0.22319871187210083
0.33211645483970642 0.13763576745986938 0.1393643319606781
0.35813912749290466 0.14698097109794617 0.144319087266922
0.41078382730484009 0.15147240459918976 0.14792178571224213
0.53359359502792358 0.13022328913211823 0.16801460087299347
0.70395356416702271 0.10920733213424683 0.18219232559204102
0.85054570436477661 0.1385892927646637 0.18903647363185883
0.95836913585662842 0.23242975771427155 0.20600371062755585
0.3548443615436554 0.24586410820484161 0.12810410559177399
0.39181441068649292 0.25909632444381714 0.13275428116321564
0.47208839654922485 0.27508711814880371 0.1388828456401825
0.59468215703964233 0.27483481168746948 0.14595447480678558
0.73832345008850098 0.27900305390357971 0.14377789199352264
0.86427420377731323 0.30221882462501526 0.15418204665184021
0.95787101984024048 0.36760944128036499 0.19069452583789825
0.3974669873714447 0.43307554721832275 0.071983262896537781
0.44120907783508301 0.44207319617271423 0.080975040793418884
0.53821450471878052 0.45375487208366394 0.06508229672908783
0.66944253444671631 0.46813905239105225 0.1030205637216568
0.77355831861495972 0.47659069299697876 0.12487797439098358
0.86820918321609497 0.48742765188217163 0.10412883013486862
0.9485509991645813 0.51956021785736084 0.16308943927288055
0.50942021608352661 0.62093073129653931 0.03079458512365818
0.54083758592605591 0.62271678447723389 0.024792404845356941
0.60654127597808838 0.62632292509078979 0.010468995198607445
0.71110844612121582 0.63591450452804565 0.010840696282684803
0.80987495183944702 0.65383106470108032 0.1382562667131424
0.88028287887573242 0.66225427389144897 0.24849140644073486
0.93732815980911255 0.66647619009017944 0.24246746301651001
0.61789840459823608 0.75326389074325562 0.026604162529110909
0.6353575587272644 0.75394278764724731 0.016817819327116013
0.67820924520492554 0.75574028491973877 0.0068639419041574001
0.74475443363189697 0.75775253772735596 0.004573822021484375
0.82663476467132568 0.76592093706130981 0.10453899949789047
0.89153403043746948 0.77460068464279175 0.33109447360038757
0.93583416938781738 0.78809267282485962 0.47098082304000854
0.73479676246643066 0.84802556037902832 0.22052815556526184
0.74427014589309692 0.8490670919418335 0.20374144613742828
0.76742446422576904 0.85022068023681641 0.17083822190761566
0.80611032247543335 0.85113775730133057 0.10849910229444504
0.86477154493331909 0.85032409429550171 0.23426634073257446
0.91883516311645508 0.84976047277450562 0.42546156048774719
0.95840764045715332 0.85274571180343628 0.57391870021820068
0.43189883232116699 0.084805384278297424 0.31367012858390808
0.45358723402023315 0.091681338846683502 0.32228770852088928
0.50137102603912354 0.10106348991394043 0.33585414290428162
0.57670146226882935 0.10317672789096832 0.3337090015411377
0.70209211111068726 0.028342632576823235 0.32976257801055908
0.84385281801223755 0.013457578606903553 0.38773134350776672
0.94702827930450439 0.19735826551914215 0.41461512446403503
0.47442987561225891 0.17666897177696228 0.32210522890090942
0.50246691703796387 0.18921606242656708 0.33122503757476807
0.54526364803314209 0.19526998698711395 0.34093621373176575
0.60967397689819336 0.19831006228923798 0.33690363168716431
0.72351992130279541 0.15128614008426666 0.34366551041603088
0.85515093803405762 0.16447822749614716 0.37836065888404846
0.95010948181152344 0.288474440574646 0.40671724081039429
0.50043588876724243 0.28294119238853455 0.32259023189544678
0.54129135608673096 0.30179598927497864 0.32324197888374329
0.5968133807182312 0.33354443311691284 0.33072620630264282
0.65385937690734863 0.33909419178962708 0.33310657739639282
0.75494730472564697 0.30999568104743958 0.34112611413002014
0.86604577302932739 0.33960291743278503 0.35709398984909058
0.94994592666625977 0.41732659935951233 0.38056576251983643
0.50001698732376099 0.43950513005256653 0.28572800755500793
0.53501391410827637 0.44392955303192139 0.28926673531532288
0.60429829359054565 0.46414643526077271 0.29941627383232117
0.69279104471206665 0.48433321714401245 0.31052407622337341
0.78323829174041748 0.48731684684753418 0.32002910971641541
0.86853772401809692 0.50445163249969482 0.33589577674865723
0.94382083415985107 0.54689186811447144 0.36343181133270264
0.55655491352081299 0.6098671555519104 0.26228079199790955
0.5782320499420166 0.61825990676879883 0.26958024501800537
0.63837522268295288 0.62937551736831665 0.28376767039299011
0.71721982955932617 0.63842993974685669 0.27535131573677063
0.80935370922088623 0.65794199705123901 0.35004076361656189
0.87517857551574707 0.65982180833816528 0.37701946496963501
0.93354970216751099 0.67211222648620605 0.37499678134918213
0.64016711711883545 0.75006604194641113 0.31046649813652039
0.65966570377349854 0.75166922807693481 0.31200265884399414
0.70050108432769775 0.75387591123580933 0.30754229426383972
0.75185126066207886 0.75719976425170898 0.27504768967628479
0.82349348068237305 0.76533210277557373 0.3238183856010437
0.88753467798233032 0.77713441848754883 0.46871879696846008
0.93321794271469116 0.7864534854888916 0.53568440675735474
0.74717992544174194 0.84293192625045776 0.42837855219841003
0.75743395090103149 0.84288382530212402 0.42749103903770447
0.77762317657470703 0.8432619571685791 0.4135831892490387
0.81183856725692749 0.84713351726531982 0.38478899002075195
0.85746568441390991 0.84993839263916016 0.37016129493713379
0.91319900751113892 0.85006392002105713 0.50994420051574707
0.95329135656356812 0.85419243574142456 0.62879425287246704
0.5914541482925415 0.13301496207714081 0.54697221517562866
0.6086927056312561 0.14717450737953186 0.55162167549133301
0.64491468667984009 0.17353224754333496 0.56084668636322021
0.69774049520492554 0.21496579051017761 0.57295477390289307
0.76148474216461182 0.23347245156764984 0.54971420764923096
0.84684967994689941 0.21012291312217712 0.53975671529769897
0.94235104322433472 0.26074793934822083 0.60015696287155151
0.63248604536056519 0.25958749651908875 0.54718178510665894
0.64964014291763306 0.27072256803512573 0.55669194459915161
0.6756443977355957 0.28558564186096191 0.56052249670028687
0.71767252683639526 0.31139802932739258 0.56798136234283447
0.77362406253814697 0.32951942086219788 0.55449628829956055
0.85307163000106812 0.29902833700180054 0.54434090852737427
0.94154036045074463 0.32668936252593994 0.60000842809677124
0.67743080854415894 0.40456905961036682 0.54336678981781006
0.69496750831604004 0.41868120431900024 0.54391443729400635
0.71748065948486328 0.43852701783180237 0.54712337255477905
0.74875551462173462 0.45496457815170288 0.55962204933166504
0.79165732860565186 0.46105998754501343 0.55099982023239136
0.86006546020507812 0.42392075061798096 0.54599100351333618
0.93628716468811035 0.44438835978507996 0.58784133195877075
0.66292667388916016 0.49902328848838806 0.52794265747070312
0.68337452411651611 0.51022219657897949 0.52880609035491943
0.727958083152771 0.54134887456893921 0.53098809719085693
0.77156847715377808 0.57252204418182373 0.53762471675872803
0.80569982528686523 0.578818678855896 0.5432809591293335
0.86492162942886353 0.54504859447479248 0.54486757516860962
0.92965143918991089 0.57021176815032959 0.56053560972213745
0.65667176246643066 0.63262170553207397 0.48990550637245178
0.67253541946411133 0.63505983352661133 0.49296775460243225
0.71711838245391846 0.64177125692367554 0.49903485178947449
0.76191514730453491 0.65593761205673218 0.50896888971328735
0.81551384925842285 0.67031270265579224 0.52690267562866211
0.86866980791091919 0.66845405101776123 0.53049349784851074
0.92519992589950562 0.68299007415771484 0.54259896278381348
0.70056557655334473 0.74133163690567017 0.49472284317016602
0.71152591705322266 0.74104303121566772 0.4946320652961731
0.73118221759796143 0.74900650978088379 0.49883979558944702
0.7718539834022522 0.75362992286682129 0.51318156719207764
0.82137417793273926 0.76645469665527344 0.51643019914627075
0.87990713119506836 0.78020495176315308 0.58219629526138306
0.92813986539840698 0.78444772958755493 0.60916006565093994
0.75574409961700439 0.83610033988952637 0.57042390108108521
0.76268601417541504 0.83847999572753906 0.57105535268783569
0.78164058923721313 0.84183734655380249 0.57539069652557373
0.8113439679145813 0.84351652860641479 0.57564860582351685
0.84978067874908447 0.84712880849838257 0.54973500967025757
0.90214496850967407 0.84959924221038818 0.59172451496124268
0.94787710905075073 0.85598832368850708 0.69538599252700806
0.71994304656982422 0.32259616255760193 0.72577345371246338
0.72649800777435303 0.32879704236984253 0.7229151725769043
0.74530184268951416 0.35139304399490356 0.72672301530838013
0.77522307634353638 0.39728876948356628 0.73143970966339111
0.80969935655593872 0.44716793298721313 0.73756700754165649
0.85275793075561523 0.46308371424674988 0.71926069259643555
0.91086667776107788 0.45784735679626465 0.70790284872055054
0.74498909711837769 0.4226362407207489 0.72162926197052002
0.74934297800064087 0.4268643856048584 0.71953147649765015
0.76476222276687622 0.44533264636993408 0.72467041015625
0.78894579410552979 0.47659048438072205 0.72683703899383545
0.81851285696029663 0.5103294849395752 0.73455560207366943
0.85782450437545776 0.52008271217346191 0.72195887565612793
0.91227471828460693 0.50463616847991943 0.71539962291717529
0.77914625406265259 0.55318689346313477 0.71609938144683838
0.78127580881118774 0.55102932453155518 0.71380329132080078
0.79107999801635742 0.56198990345001221 0.71692520380020142
0.80699735879898071 0.57763880491256714 0.72196942567825317
0.83125495910644531 0.60534322261810303 0.73057931661605835
0.86036491394042969 0.6014716625213623 0.7201920747756958
0.90611088275909424 0.57678496837615967 0.7143130898475647
0.7879709005355835 0.62215793132781982 0.7093578577041626
0.79206269979476929 0.63140583038330078 0.70668238401412964
0.80973237752914429 0.65186864137649536 0.70927590131759644
0.82374709844589233 0.66306382417678833 0.71292400360107422
0.84110027551651001 0.67747479677200317 0.72132390737533569
0.86482042074203491 0.67818784713745117 0.72169762849807739
0.90861755609512329 0.64720612764358521 0.71872067451477051
0.7671474814414978 0.69014328718185425 0.69309121370315552
0.77053940296173096 0.68756580352783203 0.69452637434005737
0.79448604583740234 0.69781273603439331 0.69824004173278809
0.82178235054016113 0.71471953392028809 0.70478588342666626
0.84981584548950195 0.73545145988464355 0.71273839473724365
0.87194430828094482 0.73907256126403809 0.71890687942504883
0.91499871015548706 0.71217983961105347 0.72354739904403687
0.76476258039474487 0.76199710369110107 0.67621397972106934
0.77170538902282715 0.75832861661911011 0.67910724878311157
0.79073524475097656 0.76591664552688599 0.67872369289398193
0.80951088666915894 0.76784598827362061 0.68467074632644653
0.84437674283981323 0.78131747245788574 0.69822221994400024
0.88081258535385132 0.78958749771118164 0.70977115631103516
0.92054587602615356 0.78922456502914429 0.71019214391708374
0.79118102788925171 0.83382105827331543 0.70407795906066895
0.79599094390869141 0.83601623773574829 0.71039724349975586
0.80490553379058838 0.83886468410491943 0.7109493613243103
0.82198029756546021 0.84184724092483521 0.71262520551681519
0.85121619701385498 0.84614521265029907 0.71642076969146729
0.89097774028778076 0.85354721546173096 0.7135322093963623
0.94132745265960693 0.85790532827377319 0.77690845727920532
0.80402684211730957 0.55270946025848389 0.83951187133789062
0.80720120668411255 0.55657172203063965 0.83806467056274414
0.81462627649307251 0.56824964284896851 0.8373907208442688
0.82830208539962769 0.59165000915527344 0.84264177083969116
0.84330743551254272 0.61583971977233887 0.84245049953460693
0.86410552263259888 0.64701277017593384 0.84757792949676514
0.89357972145080566 0.65085017681121826 0.84038674831390381
0.81642502546310425 0.60610830783843994 0.83783054351806641
0.81625223159790039 0.60386675596237183 0.83697795867919922
0.8255312442779541 0.61776590347290039 0.83839529752731323
0.83584713935852051 0.63171690702438354 0.83997297286987305
0.84980303049087524 0.65096586942672729 0.84279859066009521
0.86722797155380249 0.67029547691345215 0.84416234493255615
0.89655053615570068 0.66890096664428711 0.83831691741943359
0.82890999317169189 0.67165237665176392 0.83362901210784912
0.83185428380966187 0.67142802476882935 0.83412867784500122
0.83797883987426758 0.67753976583480835 0.83590465784072876
0.84631156921386719 0.68437612056732178 0.83701640367507935
0.85842359066009521 0.69867974519729614 0.83967477083206177
0.87458765506744385 0.71084368228912354 0.84261089563369751
0.89682596921920776 0.70989006757736206 0.84118294715881348
0.83950626850128174 0.72001355886459351 0.8305848240852356
0.84362715482711792 0.7253950834274292 0.83047574758529663
0.85023313760757446 0.72850769758224487 0.83029294013977051
0.85872477293014526 0.73748171329498291 0.83660447597503662
0.86745208501815796 0.74308651685714722 0.83660012483596802
0.88094460964202881 0.75217753648757935 0.84301853179931641
0.90423822402954102 0.74802494049072266 0.84200930595397949
0.83585542440414429 0.75594276189804077 0.82809406518936157
0.84295141696929932 0.75623095035552979 0.83022183179855347
0.85370934009552002 0.76369035243988037 0.83184230327606201
0.86694258451461792 0.77654582262039185 0.83509606122970581
0.87930202484130859 0.7844773530960083 0.83764958381652832
0.89223045110702515 0.79276025295257568 0.84664338827133179
0.91153800487518311 0.79042166471481323 0.84931051731109619
0.82405507564544678 0.79593700170516968 0.82954639196395874
0.82987582683563232 0.79764449596405029 0.82932120561599731
0.84440332651138306 0.80228042602539062 0.82937383651733398
0.86129772663116455 0.80625790357589722 0.83583199977874756
0.88328176736831665 0.81534504890441895 0.84227150678634644
0.90422368049621582 0.82569527626037598 0.84969186782836914
0.92329120635986328 0.82903265953063965 0.85374009609222412
0.82859820127487183 0.84551548957824707 0.83550137281417847
0.83541041612625122 0.84746390581130981 0.83773821592330933
0.8425171971321106 0.84803915023803711 0.83635967969894409
0.85910212993621826 0.85143792629241943 0.84068173170089722
0.87889522314071655 0.85480523109436035 0.84593510627746582
0.90660655498504639 0.86023038625717163 0.85147887468338013
0.94025254249572754 0.86294448375701904 0.86529165506362915
