luts/instant_consumer/polaroid_px-70_cold.cube
# Created by: G'MIC (https://gmic.eu)
TITLE "polaroid_px-70_cold"
# LUT size
LUT_3D_SIZE 7
# Data domain
DOMAIN_MIN 0.0 0.0 0.0
DOMAIN_MAX 1.0 1.0 1.0
# LUT data points
0 0.17254902422428131 0.25429460406303406
0.0015586703084409237 0.17279614508152008 0.25207021832466125
0.017671383917331696 0.17334043979644775 0.25263205170631409
0.25878080725669861 0.19190226495265961 0.25873962044715881
0.57475703954696655 0.23539675772190094 0.26488390564918518
0.86384046077728271 0.37214893102645874 0.26631492376327515
0.99605274200439453 0.53064817190170288 0.28784006834030151
0 0.19115020334720612 0.25474247336387634
0.00053781247697770596 0.19329386949539185 0.25394317507743835
0.047331281006336212 0.20349353551864624 0.25490197539329529
0.30693501234054565 0.23216445744037628 0.25909939408302307
0.61250007152557373 0.28861871361732483 0.26122784614562988
0.86966884136199951 0.41903921961784363 0.26042258739471436
0.99344080686569214 0.56061214208602905 0.28669941425323486
0 0.28769508004188538 0.26426145434379578
0.0036177393049001694 0.29326674342155457 0.26548781991004944
0.084481246769428253 0.3110198974609375 0.26223248243331909
0.3814598023891449 0.34568259119987488 0.25975689291954041
0.6498863697052002 0.40343976020812988 0.25428932905197144
0.87332957983016968 0.51242387294769287 0.25308507680892944
0.98548847436904907 0.61998844146728516 0.28636422753334045
0 0.47923871874809265 0.28019794821739197
0.0040571023710072041 0.4893265962600708 0.28421095013618469
0.10886963456869125 0.50290942192077637 0.27862152457237244
0.44411933422088623 0.534088134765625 0.27108177542686462
0.69541484117507935 0.58249157667160034 0.2575276792049408
0.865764319896698 0.63272649049758911 0.25232914090156555
0.97152316570281982 0.68460571765899658 0.27814587950706482
0.0097343744710087776 0.70663630962371826 0.30503177642822266
0.050221774727106094 0.69967257976531982 0.30520504713058472
0.29720067977905273 0.70548319816589355 0.31259292364120483
0.53061008453369141 0.72258114814758301 0.31023967266082764
0.71724611520767212 0.73509305715560913 0.30463904142379761
0.8621143102645874 0.7661205530166626 0.30554506182670593
0.95476013422012329 0.78232300281524658 0.33491799235343933
0.42932704091072083 0.855701744556427 0.38339579105377197
0.45793882012367249 0.85180181264877319 0.38518401980400085
0.53095090389251709 0.84757155179977417 0.39107564091682434
0.64687454700469971 0.84763032197952271 0.4013725221157074
0.75764167308807373 0.85572588443756104 0.40106800198554993
0.86173039674758911 0.86688518524169922 0.40775361657142639
0.94425290822982788 0.87752652168273926 0.43730756640434265
0.75455468893051147 0.93195688724517822 0.51170617341995239
0.76140397787094116 0.93270528316497803 0.51303744316101074
0.78059810400009155 0.92833948135375977 0.514087975025177
0.8172910213470459 0.92727243900299072 0.52154004573822021
0.86210572719573975 0.93243098258972168 0.52915775775909424
0.90230214595794678 0.93625319004058838 0.5383489727973938
0.94174283742904663 0.93883055448532104 0.55233466625213623
0 0.17606160044670105 0.2647307813167572
0.0017041374230757356 0.17882786691188812 0.26752051711082458
0.01583334244787693 0.17445406317710876 0.26391470432281494
0.28032037615776062 0.19075949490070343 0.27682837843894958
0.61327612400054932 0.25800007581710815 0.29524153470993042
0.88059395551681519 0.3932645320892334 0.30917000770568848
0.98953288793563843 0.54140388965606689 0.3382301926612854
0 0.19054809212684631 0.26467764377593994
0.0023281322792172432 0.20184637606143951 0.27128452062606812
0.062617465853691101 0.20985457301139832 0.27236101031303406
0.3409494161605835 0.24351635575294495 0.28250566124916077
0.64052772521972656 0.31232571601867676 0.29476168751716614
0.88643151521682739 0.44445016980171204 0.30900633335113525
0.98726868629455566 0.57772171497344971 0.34268656373023987
0 0.30242478847503662 0.28375729918479919
0.0029198590200394392 0.30309426784515381 0.28692340850830078
0.11518062651157379 0.3224601149559021 0.28747427463531494
0.4081786572933197 0.35532447695732117 0.28513699769973755
0.66911989450454712 0.41642600297927856 0.28842997550964355
0.87572062015533447 0.52974563837051392 0.30128055810928345
0.98212999105453491 0.63043904304504395 0.33414876461029053
7.7101765782572329e-05 0.49553567171096802 0.30408713221549988
0.0041359397582709789 0.50297456979751587 0.30863416194915771
0.16365544497966766 0.51548963785171509 0.30725771188735962
0.47178375720977783 0.54484266042709351 0.30144014954566956
0.70704424381256104 0.5932314395904541 0.29437398910522461
0.87326037883758545 0.64018195867538452 0.29444387555122375
0.97385519742965698 0.697551429271698 0.32823824882507324
0.044645108282566071 0.71680253744125366 0.33138015866279602
0.13811208307743073 0.71201986074447632 0.33317288756370544
0.34080222249031067 0.70852291584014893 0.34389775991439819
0.54701107740402222 0.72287827730178833 0.3443092405796051
0.73259609937667847 0.74552685022354126 0.34300360083580017
0.86459338665008545 0.76797676086425781 0.34191271662712097
0.95732975006103516 0.78989595174789429 0.36297768354415894
0.46676304936408997 0.85997658967971802 0.40470364689826965
0.49339315295219421 0.85396105051040649 0.40742769837379456
0.55794686079025269 0.85041642189025879 0.41243934631347656
0.66378581523895264 0.85704010725021362 0.42516160011291504
0.77437222003936768 0.86130911111831665 0.429828941822052
0.87091869115829468 0.871501624584198 0.43431976437568665
0.9448966383934021 0.88040059804916382 0.45800861716270447
0.76322656869888306 0.93183588981628418 0.51952821016311646
0.766399085521698 0.92978513240814209 0.51942801475524902
0.7873958945274353 0.92834341526031494 0.52277213335037231
0.82602459192276001 0.93059396743774414 0.53030943870544434
0.86739176511764526 0.93284726142883301 0.53748935461044312
0.90751069784164429 0.93760412931442261 0.54541075229644775
0.94242841005325317 0.93421727418899536 0.55036795139312744
0 0.17573325335979462 0.29440009593963623
0.0010822071926668286 0.18212738633155823 0.29306328296661377
0.020314130932092667 0.19878469407558441 0.2932618260383606
0.28135338425636292 0.20566512644290924 0.3146001398563385
0.62848919630050659 0.21416139602661133 0.34256753325462341
0.90632921457290649 0.34868186712265015 0.37563562393188477
0.99116408824920654 0.57434040307998657 0.42668640613555908
0 0.20963642001152039 0.30542069673538208
0.0018274943577125669 0.21876311302185059 0.30677512288093567
0.079961828887462616 0.23856367170810699 0.31276741623878479
0.35349875688552856 0.25718820095062256 0.33060285449028015
0.6728329062461853 0.30316203832626343 0.35506284236907959
0.90571099519729614 0.46492502093315125 0.39286816120147705
0.99142730236053467 0.62627661228179932 0.43634185194969177
0 0.32135573029518127 0.32880738377571106
0.003974241204559803 0.32579696178436279 0.33162537217140198
0.19258697330951691 0.34549200534820557 0.33867454528808594
0.45268377661705017 0.38094004988670349 0.34991955757141113
0.71215963363647461 0.46713539958000183 0.37046858668327332
0.89136028289794922 0.57518470287322998 0.39562162756919861
0.98264652490615845 0.67054694890975952 0.42403581738471985
0.0077192420139908791 0.52320504188537598 0.36099860072135925
0.086435161530971527 0.52287465333938599 0.36065679788589478
0.29087591171264648 0.53276270627975464 0.36363124847412109
0.51814496517181396 0.55822432041168213 0.36271566152572632
0.73351728916168213 0.60003024339675903 0.36225837469100952
0.87968903779983521 0.65211635828018188 0.36730256676673889
0.97006189823150635 0.72080087661743164 0.40741109848022461
0.28486207127571106 0.73154550790786743 0.39657479524612427
0.30374810099601746 0.7243725061416626 0.38995093107223511
0.42370659112930298 0.72464859485626221 0.39320847392082214
0.58213704824447632 0.73498183488845825 0.39899832010269165
0.74938511848449707 0.75779187679290771 0.39572533965110779
0.87188625335693359 0.7771533727645874 0.40390199422836304
0.9575994610786438 0.78722268342971802 0.41773667931556702
0.52904868125915527 0.8598288893699646 0.44563528895378113
0.53928136825561523 0.8542829155921936 0.44388660788536072
0.61002641916275024 0.85148710012435913 0.4531608521938324
0.68532782793045044 0.85399472713470459 0.45964452624320984
0.79280096292495728 0.86400359869003296 0.468211829662323
0.87861484289169312 0.87325781583786011 0.48151370882987976
0.94383084774017334 0.87298202514648438 0.5006827712059021
0.78174686431884766 0.9306265115737915 0.5332222580909729
0.78463542461395264 0.93035364151000977 0.53222125768661499
0.80416494607925415 0.92905527353286743 0.53655743598937988
0.83977913856506348 0.92815232276916504 0.539783775806427
0.87467372417449951 0.93104106187820435 0.54873555898666382
0.90685188770294189 0.93266421556472778 0.5531190037727356
0.94510990381240845 0.93872910737991333 0.57131648063659668
0.0002509622136130929 0.19706682860851288 0.36492416262626648
0.0077206632122397423 0.20402967929840088 0.36199265718460083
0.19101262092590332 0.23967902362346649 0.37259966135025024
0.37910616397857666 0.2935250997543335 0.38599362969398499
0.62162965536117554 0.29424867033958435 0.41852673888206482
0.88658612966537476 0.35805681347846985 0.46481481194496155
0.99302071332931519 0.52159851789474487 0.48435810208320618
0.0015435162931680679 0.24062938988208771 0.38330671191215515
0.020605094730854034 0.24903824925422668 0.38421577215194702
0.25343680381774902 0.29655435681343079 0.39469712972640991
0.4406445324420929 0.35608643293380737 0.40484833717346191
0.65715247392654419 0.36003690958023071 0.43306121230125427
0.90076559782028198 0.43865996599197388 0.47235563397407532
0.99444639682769775 0.59468048810958862 0.49474626779556274
0.0020960639230906963 0.36217093467712402 0.40448105335235596
0.013855518773198128 0.36521080136299133 0.40885883569717407
0.29776579141616821 0.39590311050415039 0.41865214705467224
0.5112500786781311 0.46066805720329285 0.42915868759155273
0.71910417079925537 0.48358941078186035 0.45225927233695984
0.90326148271560669 0.57898080348968506 0.47810009121894836
0.98220455646514893 0.69781637191772461 0.50647205114364624
0.0089121051132678986 0.54496127367019653 0.42865636944770813
0.11887267231941223 0.54208159446716309 0.42896127700805664
0.3543986976146698 0.55563461780548096 0.43711745738983154
0.57122325897216797 0.58535492420196533 0.44817054271697998
0.76423412561416626 0.64101541042327881 0.46497291326522827
0.89349186420440674 0.71227478981018066 0.48309022188186646
0.96921831369400024 0.77291977405548096 0.50312620401382446
0.36024442315101624 0.73914194107055664 0.46094289422035217
0.4214634895324707 0.73629474639892578 0.46216103434562683
0.52607434988021851 0.74075114727020264 0.46509134769439697
0.63942945003509521 0.75008857250213623 0.46768143773078918
0.76784735918045044 0.76753056049346924 0.47251731157302856
0.88290876150131226 0.7851446270942688 0.47286012768745422
0.96016383171081543 0.80412399768829346 0.48367297649383545
0.62629646062850952 0.86561101675033569 0.50192618370056152
0.63874524831771851 0.85912889242172241 0.49986037611961365
0.66752821207046509 0.86079764366149902 0.4972139298915863
0.73170214891433716 0.86238908767700195 0.50314837694168091
0.80727827548980713 0.86728465557098389 0.51179200410842896
0.88704764842987061 0.88008290529251099 0.51703637838363647
0.94991981983184814 0.87568193674087524 0.53235715627670288
0.8071708083152771 0.92912536859512329 0.55285787582397461
0.80550682544708252 0.92821633815765381 0.54999345541000366
0.81805884838104248 0.92827898263931274 0.55097782611846924
0.85465556383132935 0.93112176656723022 0.55746304988861084
0.88200300931930542 0.93296748399734497 0.56519454717636108
0.91700619459152222 0.9370877742767334 0.57410591840744019
0.94401264190673828 0.93802011013031006 0.58417016267776489
0.051017358899116516 0.23550672829151154 0.48489895462989807
0.20465132594108582 0.25289177894592285 0.48898693919181824
0.41778388619422913 0.2971586287021637 0.49592640995979309
0.61493837833404541 0.41841205954551697 0.50522917509078979
0.75871765613555908 0.51246100664138794 0.51961719989776611
0.87502115964889526 0.50640201568603516 0.53390240669250488
0.98342543840408325 0.58893179893493652 0.54846906661987305
0.067909285426139832 0.29494544863700867 0.50464141368865967
0.22965201735496521 0.316926509141922 0.50194656848907471
0.45831412076950073 0.36282610893249512 0.51181620359420776
0.64827889204025269 0.47804954648017883 0.51723235845565796
0.77533572912216187 0.5697777271270752 0.52359718084335327
0.87880486249923706 0.56440210342407227 0.53819429874420166
0.98512548208236694 0.63468116521835327 0.55201375484466553
0.050511904060840607 0.43773403763771057 0.51744365692138672
0.21013744175434113 0.43303540349006653 0.51777362823486328
0.45650812983512878 0.46861171722412109 0.52483320236206055
0.67274171113967896 0.57041788101196289 0.52882617712020874
0.78702020645141602 0.64812177419662476 0.53095942735671997
0.88151085376739502 0.64861488342285156 0.54049086570739746
0.97592836618423462 0.70462048053741455 0.55284875631332397
0.022959914058446884 0.59597885608673096 0.5151059627532959
0.1538253128528595 0.59387016296386719 0.51484012603759766
0.40291041135787964 0.5989687442779541 0.51972305774688721
0.65917587280273438 0.65696698427200317 0.53291839361190796
0.80557745695114136 0.73094779253005981 0.53683805465698242
0.88848096132278442 0.74052387475967407 0.54520648717880249
0.96464633941650391 0.79437816143035889 0.55732941627502441
0.38049453496932983 0.75346636772155762 0.52370387315750122
0.43299254775047302 0.74714893102645874 0.52268266677856445
0.53583836555480957 0.74920880794525146 0.5247606635093689
0.67852514982223511 0.75986158847808838 0.5328252911567688
0.7988203763961792 0.78617078065872192 0.53924816846847534
0.89830052852630615 0.81664448976516724 0.54086494445800781
0.9560474157333374 0.85105526447296143 0.55432635545730591
0.63005036115646362 0.8687320351600647 0.53819841146469116
0.63883954286575317 0.86060303449630737 0.53791368007659912
0.69861793518066406 0.86176145076751709 0.54284083843231201
0.77120256423950195 0.86854761838912964 0.54534292221069336
0.83262097835540771 0.87431478500366211 0.55193573236465454
0.9052390456199646 0.88086175918579102 0.55920958518981934
0.95324194431304932 0.88477462530136108 0.55878990888595581
0.81546908617019653 0.9315953254699707 0.57419329881668091
0.82656615972518921 0.93187600374221802 0.57450950145721436
0.84761428833007812 0.93188285827636719 0.57579553127288818
0.86975109577178955 0.93193203210830688 0.57978630065917969
0.89688479900360107 0.93293821811676025 0.58840054273605347
0.93029725551605225 0.93654227256774902 0.59750127792358398
0.9537014365196228 0.94289880990982056 0.60627979040145874
0.4556141197681427 0.35528525710105896 0.61262255907058716
0.5319598913192749 0.37242546677589417 0.61248600482940674
0.66653835773468018 0.43556603789329529 0.60953116416931152
0.79489696025848389 0.56391018629074097 0.60403001308441162
0.87338453531265259 0.71245366334915161 0.59202355146408081
0.91614091396331787 0.74529755115509033 0.5893058180809021
0.96202379465103149 0.7373693585395813 0.59026908874511719
0.4593498706817627 0.4273160994052887 0.61413663625717163
0.53204631805419922 0.44814974069595337 0.61072194576263428
0.66639101505279541 0.50286340713500977 0.60728257894515991
0.79486352205276489 0.61586099863052368 0.60159492492675781
0.87419635057449341 0.74313914775848389 0.59231460094451904
0.91584658622741699 0.77201002836227417 0.58813697099685669
0.96482104063034058 0.77373367547988892 0.59336227178573608
0.41600948572158813 0.53678900003433228 0.60872095823287964
0.49225625395774841 0.54226851463317871 0.60739964246749878
0.65120226144790649 0.58884251117706299 0.60536700487136841
0.791728675365448 0.6768304705619812 0.59938734769821167
0.87373489141464233 0.77717769145965576 0.59073710441589355
0.91472125053405762 0.80050766468048096 0.58882087469100952
0.96097320318222046 0.80427473783493042 0.59250617027282715
0.31588274240493774 0.67384952306747437 0.59455448389053345
0.41254833340644836 0.66963982582092285 0.59250545501708984
0.58639127016067505 0.67747384309768677 0.59315913915634155
0.75650531053543091 0.73041766881942749 0.59258389472961426
0.86701887845993042 0.80836814641952515 0.59053456783294678
0.92034327983856201 0.84597289562225342 0.59109586477279663
0.95663130283355713 0.83939087390899658 0.59159356355667114
0.43648913502693176 0.78160840272903442 0.58042502403259277
0.46705541014671326 0.77721500396728516 0.58000189065933228
0.55998629331588745 0.773936927318573 0.5815194845199585
0.69868600368499756 0.78446680307388306 0.58312851190567017
0.84401869773864746 0.82943981885910034 0.58814674615859985
0.91694837808609009 0.8725508451461792 0.59256851673126221
0.95493310689926147 0.87359195947647095 0.59583050012588501
0.64192485809326172 0.87335842847824097 0.57895278930664062
0.65895730257034302 0.86946064233779907 0.5794035792350769
0.70575523376464844 0.86949735879898071 0.58079427480697632
0.78156030178070068 0.87510639429092407 0.58378797769546509
0.85378527641296387 0.88546156883239746 0.5891425609588623
0.91919046640396118 0.90259844064712524 0.60228794813156128
0.95130115747451782 0.91011792421340942 0.6031154990196228
0.82377582788467407 0.93622058629989624 0.59662139415740967
0.83178329467773438 0.93692648410797119 0.59640896320343018
0.85183489322662354 0.93348222970962524 0.59983450174331665
0.88150244951248169 0.93601948022842407 0.60312658548355103
0.90934032201766968 0.93731629848480225 0.61094719171524048
0.93503814935684204 0.93949580192565918 0.62093836069107056
0.95387190580368042 0.94672888517379761 0.63150316476821899
0.7311166524887085 0.63434785604476929 0.663169264793396
0.75751149654388428 0.64590275287628174 0.66133111715316772
0.81176036596298218 0.68842554092407227 0.65249526500701904
0.87369406223297119 0.75830298662185669 0.64292538166046143
0.91837614774703979 0.82897579669952393 0.63105428218841553
0.9430813193321228 0.87421393394470215 0.62690800428390503
0.96016472578048706 0.8823397159576416 0.62687808275222778
0.733745276927948 0.67249816656112671 0.6608545184135437
0.75899434089660645 0.68309569358825684 0.65561342239379883
0.81404250860214233 0.72130167484283447 0.65017813444137573
0.87532156705856323 0.78051435947418213 0.64200478792190552
0.9195137619972229 0.83984661102294922 0.63227647542953491
0.94562399387359619 0.87926816940307617 0.62677693367004395
0.95685374736785889 0.88911932706832886 0.62670105695724487
0.72661793231964111 0.72299480438232422 0.6556016206741333
0.74828195571899414 0.73046541213989258 0.65147250890731812
0.80936163663864136 0.75762015581130981 0.64802592992782593
0.86317014694213867 0.80099213123321533 0.63799691200256348
0.91465294361114502 0.8517194390296936 0.63053286075592041
0.94378286600112915 0.893016517162323 0.62835323810577393
0.95911240577697754 0.90022879838943481 0.62967818975448608
0.6915745735168457 0.7767103910446167 0.64690512418746948
0.72104507684707642 0.77814388275146484 0.6447218656539917
0.77865308523178101 0.79163891077041626 0.64324259757995605
0.85503780841827393 0.83017760515213013 0.63714814186096191
0.91377764940261841 0.87133049964904785 0.6330641508102417
0.94399982690811157 0.90452790260314941 0.63078910112380981
0.95333510637283325 0.89521509408950806 0.62294065952301025
0.60504055023193359 0.82243424654006958 0.63700181245803833
0.63020485639572144 0.82129687070846558 0.63654041290283203
0.70164680480957031 0.82638317346572876 0.6358446478843689
0.80860745906829834 0.84693890810012817 0.63474565744400024
0.88676750659942627 0.87594890594482422 0.63392883539199829
0.93599063158035278 0.91075384616851807 0.63461941480636597
0.95222067832946777 0.9136052131652832 0.63028168678283691
0.73597627878189087 0.89161223173141479 0.63244259357452393
0.74864703416824341 0.89167851209640503 0.63095831871032715
0.77177762985229492 0.8902125358581543 0.63055962324142456
0.81331539154052734 0.88768434524536133 0.6318773627281189
0.87196409702301025 0.89813512563705444 0.63265210390090942
0.92502868175506592 0.91939020156860352 0.63734662532806396
0.95264619588851929 0.93582481145858765 0.64369797706604004
0.85601449012756348 0.94173365831375122 0.63807922601699829
0.85981780290603638 0.94158059358596802 0.63717901706695557
0.87001621723175049 0.93867981433868408 0.63695412874221802
0.89182668924331665 0.93961507081985474 0.64011609554290771
0.91313481330871582 0.94305717945098877 0.64335674047470093
0.93006026744842529 0.9405171275138855 0.64529693126678467
0.95647692680358887 0.95169222354888916 0.65570944547653198
