luts/instant_consumer/polaroid_px-680_+.cube
# Created by: G'MIC (https://gmic.eu)
TITLE "polaroid_px-680_+"
# LUT size
LUT_3D_SIZE 5
# Data domain
DOMAIN_MIN 0.0 0.0 0.0
DOMAIN_MAX 1.0 1.0 1.0
# LUT data points
0.12585267424583435 0.22501343488693237 0.22206015884876251
0.1933857798576355 0.22751572728157043 0.22223050892353058
0.48752158880233765 0.24317903816699982 0.22254934906959534
0.86190265417098999 0.3572726845741272 0.21354106068611145
0.97679561376571655 0.54473090171813965 0.27697962522506714
0.12639054656028748 0.27460357546806335 0.22651238739490509
0.22007982432842255 0.28568604588508606 0.2260696142911911
0.55892127752304077 0.33113786578178406 0.21445891261100769
0.85757160186767578 0.45344507694244385 0.20445461571216583
0.96653836965560913 0.58565336465835571 0.27536162734031677
0.0053011723794043064 0.48371803760528564 0.22260138392448425
0.18672952055931091 0.49323382973670959 0.22426529228687286
0.57337105274200439 0.55745917558670044 0.2159469872713089
0.82661134004592896 0.61623501777648926 0.20975570380687714
0.94367742538452148 0.6595425009727478 0.26034384965896606
0.1211451068520546 0.69848567247390747 0.24749289453029633
0.30045068264007568 0.69486045837402344 0.25830948352813721
0.57524484395980835 0.71072357892990112 0.29399678111076355
0.77906852960586548 0.74888426065444946 0.35226818919181824
0.91413241624832153 0.78810185194015503 0.4277786910533905
0.60819321870803833 0.84210330247879028 0.45164251327514648
0.63317883014678955 0.8406493067741394 0.45754861831665039
0.71022194623947144 0.84470963478088379 0.48643678426742554
0.81618595123291016 0.85627895593643188 0.52907657623291016
0.89825242757797241 0.87050729990005493 0.57405555248260498
0.14169539511203766 0.23224897682666779 0.24457420408725739
0.20859250426292419 0.23700591921806335 0.24804838001728058
0.53469252586364746 0.22256864607334137 0.27559944987297058
0.8803102970123291 0.38094136118888855 0.32896131277084351
0.96089547872543335 0.5989641547203064 0.41600865125656128
0.15491096675395966 0.28633978962898254 0.26125171780586243
0.27357852458953857 0.31150367856025696 0.27424889802932739
0.62713229656219482 0.35956060886383057 0.29325664043426514
0.86183184385299683 0.50177693367004395 0.33833912014961243
0.95634561777114868 0.62860828638076782 0.41082930564880371
0.1870521754026413 0.52326750755310059 0.29306045174598694
0.29057106375694275 0.52378129959106445 0.28764206171035767
0.6176268458366394 0.57728666067123413 0.30877858400344849
0.8297838568687439 0.61991715431213379 0.31652510166168213
0.93921571969985962 0.68109661340713501 0.38446396589279175
0.2901993989944458 0.70569074153900146 0.31730902194976807
0.39054659008979797 0.70173943042755127 0.32527226209640503
0.60022789239883423 0.72125470638275146 0.37127092480659485
0.79241091012954712 0.75651562213897705 0.42077037692070007
0.91401439905166626 0.79091721773147583 0.47256481647491455
0.61873161792755127 0.8446197509765625 0.4734005331993103
0.64528340101242065 0.84146678447723389 0.47704228758811951
0.7179301381111145 0.84443843364715576 0.50444591045379639
0.81815367937088013 0.85775136947631836 0.54670536518096924
0.90121495723724365 0.87115740776062012 0.5845266580581665
0.21097148954868317 0.2525867223739624 0.3706214427947998
0.37210375070571899 0.27275469899177551 0.39071166515350342
0.6452140212059021 0.37817591428756714 0.43896698951721191
0.85724866390228271 0.3963569700717926 0.47817778587341309
0.95935547351837158 0.58989280462265015 0.51961463689804077
0.19739988446235657 0.34295865893363953 0.40762242674827576
0.40400958061218262 0.36700749397277832 0.43049287796020508
0.68686741590499878 0.49479365348815918 0.46580463647842407
0.85189127922058105 0.5245746374130249 0.49495068192481995
0.94778090715408325 0.65564858913421631 0.53485631942749023
0.25027573108673096 0.53391039371490479 0.41715961694717407
0.41754165291786194 0.5483061671257019 0.42988517880439758
0.69831758737564087 0.62100881338119507 0.48062354326248169
0.83503836393356323 0.67948418855667114 0.51061195135116577
0.93268507719039917 0.73869258165359497 0.54555618762969971
0.4651964008808136 0.70259422063827515 0.4467734694480896
0.55752027034759521 0.71123683452606201 0.45658263564109802
0.67361199855804443 0.73162013292312622 0.47769501805305481
0.81000471115112305 0.7655218243598938 0.51677292585372925
0.92148542404174805 0.79032087326049805 0.53590625524520874
0.65782064199447632 0.84003806114196777 0.52285903692245483
0.66834211349487305 0.83874177932739258 0.51914519071578979
0.72933423519134521 0.84823417663574219 0.53861755132675171
0.82319015264511108 0.85755133628845215 0.57628268003463745
0.90850186347961426 0.87475419044494629 0.61363977193832397
0.47948318719863892 0.34497123956680298 0.58424264192581177
0.61721539497375488 0.38866296410560608 0.58853822946548462
0.78143823146820068 0.57357078790664673 0.59457540512084961
0.85616803169250488 0.67767083644866943 0.60379928350448608
0.92789632081985474 0.67771714925765991 0.61158984899520874
0.47226998209953308 0.44493788480758667 0.58524459600448608
0.61203896999359131 0.49316605925559998 0.58669209480285645
0.77230417728424072 0.6282496452331543 0.59486848115921021
0.85544544458389282 0.71310150623321533 0.60564583539962769
0.92638349533081055 0.71087938547134399 0.6158260703086853
0.33499372005462646 0.58080708980560303 0.55291908979415894
0.49596861004829407 0.59491795301437378 0.5616115927696228
0.74223506450653076 0.67218953371047974 0.58631676435470581
0.85351729393005371 0.7545541524887085 0.60988533496856689
0.92590165138244629 0.75430536270141602 0.61950480937957764
0.47506999969482422 0.7088921070098877 0.53882122039794922
0.54395169019699097 0.71096444129943848 0.54308634996414185
0.6936836838722229 0.73299986124038696 0.56354743242263794
0.84422928094863892 0.79608207941055298 0.61022830009460449
0.92313313484191895 0.81986463069915771 0.62913858890533447
0.59801578521728516 0.83580082654953003 0.56663036346435547
0.63888150453567505 0.83636587858200073 0.56965345144271851
0.73215377330780029 0.84263670444488525 0.58713316917419434
0.83951187133789062 0.85795724391937256 0.61959028244018555
0.92476552724838257 0.88159096240997314 0.65320336818695068
0.76372605562210083 0.65490466356277466 0.68664735555648804
0.79382377862930298 0.67513489723205566 0.68546807765960693
0.85295778512954712 0.73576623201370239 0.68138021230697632
0.90301311016082764 0.79998457431793213 0.67795455455780029
0.92529630661010742 0.82298880815505981 0.67788881063461304
0.75770461559295654 0.68535906076431274 0.68566817045211792
0.78649073839187622 0.70325922966003418 0.68243587017059326
0.84555256366729736 0.7482113242149353 0.67709225416183472
0.9041246771812439 0.81232964992523193 0.67797732353210449
0.92589235305786133 0.83111423254013062 0.68080669641494751
0.70586353540420532 0.72132730484008789 0.67834615707397461
0.74349546432495117 0.72409892082214355 0.67681175470352173
0.83033633232116699 0.76951730251312256 0.67705488204956055
0.90076231956481934 0.82241737842559814 0.67830544710159302
0.92850977182388306 0.84519487619400024 0.68488490581512451
0.59731626510620117 0.77320069074630737 0.66272413730621338
0.63079679012298584 0.7706037163734436 0.66212218999862671
0.7252008318901062 0.77720373868942261 0.66793668270111084
0.87738668918609619 0.8274950385093689 0.68033850193023682
0.93309497833251953 0.86323392391204834 0.69193398952484131
0.65624654293060303 0.86070513725280762 0.66492503881454468
0.67806458473205566 0.86050564050674438 0.66627973318099976
0.73538029193878174 0.86219793558120728 0.66842740774154663
0.83386439085006714 0.868549644947052 0.67831367254257202
0.9440460205078125 0.89435034990310669 0.70857608318328857
