luts/instant_consumer/polaroid_px-680_cold_-.cube
# Created by: G'MIC (https://gmic.eu)
TITLE "polaroid_px-680_cold_-"
# LUT size
LUT_3D_SIZE 5
# Data domain
DOMAIN_MIN 0.0 0.0 0.0
DOMAIN_MAX 1.0 1.0 1.0
# LUT data points
0.013640997931361198 0.10984960943460464 0.16505318880081177
0.14559037983417511 0.11270895600318909 0.16477879881858826
0.50441461801528931 0.14038032293319702 0.1761394590139389
0.82389527559280396 0.2796880304813385 0.19917525351047516
0.96133279800415039 0.47379690408706665 0.29201442003250122
0.0014501833356916904 0.20460234582424164 0.17845404148101807
0.14424197375774384 0.22662152349948883 0.1765768975019455
0.53959476947784424 0.28624948859214783 0.165993332862854
0.81128525733947754 0.38767290115356445 0.19059887528419495
0.95338183641433716 0.5262148380279541 0.28886815905570984
0.0013172673061490059 0.47339200973510742 0.2039182186126709
0.0084411324933171272 0.49201008677482605 0.20468103885650635
0.48325476050376892 0.55461424589157104 0.19514328241348267
0.77588826417922974 0.58262628316879272 0.20603616535663605
0.92911392450332642 0.61744678020477295 0.26300227642059326
6.4625460254319478e-06 0.68753218650817871 0.27166110277175903
0.0054902168922126293 0.68895137310028076 0.27974638342857361
0.40915986895561218 0.7118956446647644 0.308847576379776
0.70418834686279297 0.752299964427948 0.34183362126350403
0.88902771472930908 0.79089826345443726 0.39104202389717102
0.41142255067825317 0.87319391965866089 0.45878183841705322
0.46534731984138489 0.87206846475601196 0.46774101257324219
0.58251148462295532 0.87499821186065674 0.49149030447006226
0.73785656690597534 0.89458203315734863 0.52447247505187988
0.86330097913742065 0.91574108600616455 0.56350725889205933
0.0027160793542861938 0.11915968358516693 0.2324669361114502
0.15120339393615723 0.14267778396606445 0.23709553480148315
0.5279354453086853 0.10838361084461212 0.28226485848426819
0.82786101102828979 0.3476773202419281 0.35982707142829895
0.94228518009185791 0.55603170394897461 0.44038760662078857
0.0037918391171842813 0.2322876900434494 0.26469650864601135
0.21662266552448273 0.26135793328285217 0.28277748823165894
0.5807344913482666 0.3340047299861908 0.31622648239135742
0.81107985973358154 0.46283850073814392 0.36596041917800903
0.93532127141952515 0.59654009342193604 0.43300661444664001
0.0067385653965175152 0.50519263744354248 0.31387719511985779
0.12348221242427826 0.52129125595092773 0.31092560291290283
0.53232181072235107 0.57122743129730225 0.3288116455078125
0.78059530258178711 0.58497506380081177 0.33796679973602295
0.92165958881378174 0.65034598112106323 0.39818838238716125
0.0086350981146097183 0.69396698474884033 0.34927612543106079
0.16621257364749908 0.6982492208480835 0.35481908917427063
0.46554571390151978 0.71550911664962769 0.38720294833183289
0.72161072492599487 0.75828617811203003 0.42116820812225342
0.88679426908493042 0.79195821285247803 0.45576569437980652
0.4321160614490509 0.87187677621841431 0.48203349113464355
0.48483365774154663 0.87135893106460571 0.48971760272979736
0.60045731067657471 0.87891429662704468 0.51650893688201904
0.74437600374221802 0.89711743593215942 0.54877489805221558
0.86787134408950806 0.91747462749481201 0.58477616310119629
0.068269394338130951 0.17036424577236176 0.44367018342018127
0.33924192190170288 0.22223076224327087 0.45933631062507629
0.58786207437515259 0.36504250764846802 0.47845929861068726
0.79927998781204224 0.37406784296035767 0.50624829530715942
0.93472582101821899 0.55953884124755859 0.54857683181762695
0.030456079170107841 0.3152422308921814 0.47309845685958862
0.34862691164016724 0.35775473713874817 0.48836064338684082
0.6090627908706665 0.48202189803123474 0.50089371204376221
0.79527860879898071 0.50443005561828613 0.52086025476455688
0.92565333843231201 0.62602007389068604 0.56075763702392578
0.010729501955211163 0.52001476287841797 0.45664593577384949
0.30346083641052246 0.53883892297744751 0.46903380751609802
0.61350113153457642 0.60937035083770752 0.50839328765869141
0.78230255842208862 0.64831185340881348 0.52922326326370239
0.90817093849182129 0.72411668300628662 0.56893503665924072
0.29551169276237488 0.6874697208404541 0.47040966153144836
0.41812151670455933 0.69950240850448608 0.48376950621604919
0.56844258308410645 0.72611552476882935 0.5009647011756897
0.75001132488250732 0.76800614595413208 0.53435373306274414
0.89182931184768677 0.79007095098495483 0.54625183343887329
0.49865895509719849 0.86755585670471191 0.54124397039413452
0.52072262763977051 0.86867702007293701 0.54028064012527466
0.61329561471939087 0.88226372003555298 0.55638700723648071
0.75006484985351562 0.9001806378364563 0.59704697132110596
0.87151235342025757 0.91919785737991333 0.6302914023399353
0.39239144325256348 0.34023857116699219 0.6274828314781189
0.53297632932662964 0.39982721209526062 0.63172656297683716
0.70929324626922607 0.56026679277420044 0.64054399728775024
0.80265480279922485 0.65074008703231812 0.64309448003768921
0.89863252639770508 0.64986801147460938 0.65423649549484253
0.38805156946182251 0.44976949691772461 0.6306876540184021
0.53563344478607178 0.49672546982765198 0.63155227899551392
0.70490366220474243 0.61497008800506592 0.639079749584198
0.80659210681915283 0.69535320997238159 0.64887154102325439
0.89592307806015015 0.6876634955406189 0.66064292192459106
0.2123614102602005 0.57432681322097778 0.60180389881134033
0.40467438101768494 0.59033060073852539 0.60833477973937988
0.67205661535263062 0.66120582818984985 0.63472104072570801
0.80469661951065063 0.74891519546508789 0.65899378061294556
0.89669084548950195 0.74464136362075806 0.67004513740539551
0.29871031641960144 0.69977760314941406 0.5741889476776123
0.4038347601890564 0.70500564575195312 0.58006000518798828
0.58458846807479858 0.72747457027435303 0.5989488959312439
0.7811388373374939 0.798473060131073 0.6539762020111084
0.89807695150375366 0.83297193050384521 0.68309557437896729
0.39795196056365967 0.8581123948097229 0.60186171531677246
0.46883180737495422 0.85891664028167725 0.60275238752365112
0.61470526456832886 0.87423604726791382 0.62537378072738647
0.75020259618759155 0.89681720733642578 0.65696448087692261
0.87768197059631348 0.91993886232376099 0.70801335573196411
0.6800808310508728 0.63698321580886841 0.78226232528686523
0.72403800487518311 0.66088622808456421 0.78170168399810791
0.80232399702072144 0.72201526165008545 0.77576589584350586
0.86321055889129639 0.79998433589935303 0.77848577499389648
0.89342868328094482 0.82684218883514404 0.77467018365859985
0.66513293981552124 0.66968607902526855 0.78388255834579468
0.71127092838287354 0.68945121765136719 0.7827988862991333
0.79442310333251953 0.74060899019241333 0.78034067153930664
0.86361229419708252 0.81213217973709106 0.78317028284072876
0.89454472064971924 0.84612846374511719 0.783272385597229
0.59638470411300659 0.71691858768463135 0.7766910195350647
0.64987385272979736 0.7236519455909729 0.7765803337097168
0.75672221183776855 0.76278817653656006 0.77857387065887451
0.85355883836746216 0.83167016506195068 0.7890324592590332
0.89648634195327759 0.87039083242416382 0.7964596152305603
0.43783065676689148 0.79340654611587524 0.76015663146972656
0.48728924989700317 0.78867006301879883 0.76003158092498779
0.61914348602294922 0.79376316070556641 0.76948398351669312
0.81745696067810059 0.84497982263565063 0.79501253366470337
0.89518362283706665 0.90177059173583984 0.81358516216278076
0.45087781548500061 0.90125805139541626 0.76526612043380737
0.4881870448589325 0.89993780851364136 0.76350623369216919
0.58644527196884155 0.9033743143081665 0.77320641279220581
0.72569900751113892 0.91302990913391113 0.78618282079696655
0.89229059219360352 0.93790805339813232 0.83378046751022339
