luts/instant_consumer/polaroid_px-680_warm_-.cube
# Created by: G'MIC (https://gmic.eu)
TITLE "polaroid_px-680_warm_-"
# LUT size
LUT_3D_SIZE 7
# Data domain
DOMAIN_MIN 0.0 0.0 0.0
DOMAIN_MAX 1.0 1.0 1.0
# LUT data points
0.17047008872032166 0.1490476131439209 0.0088561410084366798
0.20344120264053345 0.14924591779708862 0.01064568292349577
0.31999149918556213 0.14865098893642426 0.0047185113653540611
0.54276782274246216 0.14909277856349945 0.0026481479872018099
0.77505826950073242 0.20033995807170868 0.00074890733230859041
0.92015135288238525 0.31766393780708313 0.0043335561640560627
0.99430584907531738 0.43859943747520447 0.070888906717300415
0.16795353591442108 0.18417000770568848 0.0084008611738681793
0.2143036276102066 0.19165529310703278 0.0066358679905533791
0.34601345658302307 0.19900986552238464 0.0016580618685111403
0.56745642423629761 0.2107740193605423 0.00028928869869560003
0.77860021591186523 0.26664149761199951 0.0017280877800658345
0.91636079549789429 0.36290797591209412 0.0011065913131460547
0.99288564920425415 0.47448107600212097 0.069080442190170288
0.15063165128231049 0.29168125987052917 0.003668422345072031
0.20104150474071503 0.30272012948989868 0.00039267446845769882
0.35567411780357361 0.32779565453529358 6.4625462982803583e-05
0.59611499309539795 0.35788977146148682 0
0.77232736349105835 0.37556049227714539 4.4100892409915105e-05
0.90403813123703003 0.44251185655593872 0.0018450717907398939
0.9884493350982666 0.5291440486907959 0.035199228674173355
0.092434093356132507 0.43882489204406738 6.8933826696593314e-05
0.18008016049861908 0.44363963603973389 0.0013248518807813525
0.3382190465927124 0.46404454112052917 0.00070363958366215229
0.56668663024902344 0.50771749019622803 0.0011599372373893857
0.75970226526260376 0.55736219882965088 0.00020000981749035418
0.88349509239196777 0.56154024600982666 0.0025940090417861938
0.97012960910797119 0.60080385208129883 0.007679404690861702
0.048581846058368683 0.58821719884872437 0.001333767781034112
0.17946811020374298 0.58977460861206055 0.0018523571779951453
0.33048871159553528 0.60062098503112793 0.0051706503145396709
0.52519035339355469 0.63296133279800415 0.0079217944294214249
0.70751708745956421 0.67314797639846802 0.017018979415297508
0.86042028665542603 0.71242457628250122 0.048299122601747513
0.94538760185241699 0.7224959135055542 0.12183231860399246
0.23447181284427643 0.72857075929641724 0.095067255198955536
0.29183334112167358 0.72664910554885864 0.10221919417381287
0.39746883511543274 0.73121774196624756 0.14473488926887512
0.53837233781814575 0.74680280685424805 0.18273688852787018
0.68693935871124268 0.76504671573638916 0.22119665145874023
0.82272988557815552 0.78511613607406616 0.27223393321037292
0.92339837551116943 0.80678391456604004 0.34936660528182983
0.53601205348968506 0.84211534261703491 0.37330669164657593
0.55565178394317627 0.84167218208312988 0.37750339508056641
0.60740697383880615 0.84055209159851074 0.39747276902198792
0.68184375762939453 0.84442460536956787 0.43153777718544006
0.76883286237716675 0.84719884395599365 0.45905235409736633
0.85004281997680664 0.85532015562057495 0.49566623568534851
0.91581887006759644 0.86156684160232544 0.53147685527801514
0.1749659925699234 0.15183919668197632 0.047010593116283417
0.20924800634384155 0.15488775074481964 0.045641716569662094
0.32864460349082947 0.15459851920604706 0.059208080172538757
0.56468683481216431 0.15705990791320801 0.079433873295783997
0.79038983583450317 0.24811927974224091 0.11302416771650314
0.92044234275817871 0.37064105272293091 0.15684574842453003
0.99140280485153198 0.48305106163024902 0.23049968481063843
0.18379548192024231 0.19394716620445251 0.058648575097322464
0.23081326484680176 0.20487414300441742 0.065941080451011658
0.37122231721878052 0.21476136147975922 0.071083381772041321
0.59624743461608887 0.24004817008972168 0.082254298031330109
0.79027819633483887 0.30629771947860718 0.095602907240390778
0.91614377498626709 0.40668725967407227 0.13940395414829254
0.99001681804656982 0.50956457853317261 0.2293989360332489
0.20729261636734009 0.30932727456092834 0.076830826699733734
0.24731431901454926 0.3171694278717041 0.076147548854351044
0.39357703924179077 0.33990582823753357 0.06838824599981308
0.61838728189468384 0.3625471293926239 0.041524011641740799
0.78477627038955688 0.39488443732261658 0.040960676968097687
0.90695345401763916 0.46648052334785461 0.092267848551273346
0.98240202665328979 0.55688369274139404 0.20555923879146576
0.18285465240478516 0.45492821931838989 0.066601395606994629
0.2394012063741684 0.4589361846446991 0.070349223911762238
0.37710821628570557 0.47735866904258728 0.075686298310756683
0.58534795045852661 0.51881355047225952 0.05100269615650177
0.77039062976837158 0.56057643890380859 0.0304552111774683
0.88710111379623413 0.56727504730224609 0.040264923125505447
0.97040575742721558 0.61581850051879883 0.14917920529842377
0.1673995703458786 0.59782129526138306 0.069699682295322418
0.24413931369781494 0.59937024116516113 0.081759676337242126
0.37168532609939575 0.61110395193099976 0.10977093875408173
0.54687833786010742 0.63908272981643677 0.11892339587211609
0.7189795970916748 0.67627573013305664 0.14471469819545746
0.86216998100280762 0.71260553598403931 0.18216654658317566
0.94309759140014648 0.72075915336608887 0.22812972962856293
0.28113934397697449 0.73124969005584717 0.16682790219783783
0.33389735221862793 0.73182618618011475 0.17859268188476562
0.42835244536399841 0.73733508586883545 0.20951080322265625
0.55515444278717041 0.74910205602645874 0.24738460779190063
0.70114684104919434 0.76835387945175171 0.28427848219871521
0.82603251934051514 0.78740555047988892 0.33051833510398865
0.92548990249633789 0.80947870016098022 0.39330917596817017
0.54391986131668091 0.84240686893463135 0.39239358901977539
0.56512582302093506 0.84205406904220581 0.3976198136806488
0.61575055122375488 0.84259647130966187 0.41834196448326111
0.68480569124221802 0.84311139583587646 0.44715619087219238
0.77295541763305664 0.84889298677444458 0.47956162691116333
0.84837234020233154 0.85471385717391968 0.51203125715255737
0.91567033529281616 0.86259812116622925 0.54765695333480835
0.20219659805297852 0.16374675929546356 0.15577103197574615
0.26449459791183472 0.18125633895397186 0.15789332985877991
0.36281433701515198 0.20930889248847961 0.16529744863510132
0.55720484256744385 0.18414844572544098 0.20532713830471039
0.790549635887146 0.19858056306838989 0.24489898979663849
0.92658060789108276 0.35775262117385864 0.30647468566894531
0.98112177848815918 0.54735440015792847 0.4077722430229187
0.206621915102005 0.21969684958457947 0.17841961979866028
0.27898147702217102 0.23243026435375214 0.18829254806041718
0.40657156705856323 0.26327815651893616 0.20116952061653137
0.60561716556549072 0.25659719109535217 0.23245595395565033
0.80446529388427734 0.30949050188064575 0.27095341682434082
0.91642272472381592 0.45614486932754517 0.34440594911575317
0.9743659496307373 0.58617883920669556 0.41847574710845947
0.22588995099067688 0.32364621758460999 0.18867067992687225
0.29744470119476318 0.3361852765083313 0.20717644691467285
0.46422621607780457 0.36681196093559265 0.23624785244464874
0.64880847930908203 0.3959815502166748 0.25938847661018372
0.79931735992431641 0.46116793155670166 0.29513692855834961
0.90002459287643433 0.53785663843154907 0.33493861556053162
0.96705645322799683 0.61706924438476562 0.39807912707328796
0.29474291205406189 0.46485236287117004 0.22135606408119202
0.35960656404495239 0.47961950302124023 0.23183818161487579
0.46417862176895142 0.50169020891189575 0.24583737552165985
0.62853676080703735 0.53935796022415161 0.26080864667892456
0.77919447422027588 0.56050580739974976 0.26493176817893982
0.8862152099609375 0.59104955196380615 0.28649610280990601
0.95864784717559814 0.65480244159698486 0.35661107301712036
0.35934120416641235 0.61201035976409912 0.25510334968566895
0.38006377220153809 0.61641222238540649 0.24740912020206451
0.45256206393241882 0.62650203704833984 0.25500589609146118
0.58449804782867432 0.64764779806137085 0.27905586361885071
0.74236035346984863 0.68795788288116455 0.30942770838737488
0.86366194486618042 0.71399539709091187 0.33296975493431091
0.94247037172317505 0.72442954778671265 0.35632884502410889
0.37511274218559265 0.73448771238327026 0.28107550740242004
0.40038186311721802 0.73473268747329712 0.28210610151290894
0.47673165798187256 0.73991972208023071 0.30233916640281677
0.58545124530792236 0.75271773338317871 0.34048736095428467
0.71249151229858398 0.77148663997650146 0.37486305832862854
0.83288007974624634 0.79245012998580933 0.41568195819854736
0.9252130389213562 0.80943560600280762 0.45934447646141052
0.55649948120117188 0.84159404039382935 0.42800730466842651
0.57548266649246216 0.84165316820144653 0.43137621879577637
0.62426787614822388 0.84083855152130127 0.4494178295135498
0.68922215700149536 0.84151285886764526 0.47423902153968811
0.7727847695350647 0.84708523750305176 0.50713813304901123
0.85248404741287231 0.85387009382247925 0.54477947950363159
0.91744506359100342 0.86162173748016357 0.5723114013671875
0.25759643316268921 0.20065659284591675 0.32581445574760437
0.34606227278709412 0.2163969874382019 0.33497565984725952
0.50662076473236084 0.27293923497200012 0.35341638326644897
0.64035087823867798 0.33411058783531189 0.37890902161598206
0.7707977294921875 0.30728045105934143 0.40560147166252136
0.90503305196762085 0.37051275372505188 0.44102382659912109
0.97936934232711792 0.51617813110351562 0.4839610755443573
0.26716354489326477 0.2581171989440918 0.3517659604549408
0.36066973209381104 0.2745881974697113 0.35979720950126648
0.53663802146911621 0.32981276512145996 0.38422849774360657
0.65937709808349609 0.39927446842193604 0.40015465021133423
0.78157311677932739 0.37719723582267761 0.42076131701469421
0.9017035961151123 0.44144213199615479 0.45592424273490906
0.9735378623008728 0.56604063510894775 0.49862149357795715
0.24684940278530121 0.36732834577560425 0.35640391707420349
0.33737567067146301 0.3754194974899292 0.37341037392616272
0.53146922588348389 0.41462549567222595 0.40160441398620605
0.67614877223968506 0.48540976643562317 0.42544394731521606
0.78971713781356812 0.48664450645446777 0.44210213422775269
0.89576846361160278 0.55922138690948486 0.478992760181427
0.95743286609649658 0.65410763025283813 0.52665728330612183
0.30174612998962402 0.47889864444732666 0.34575572609901428
0.3735688328742981 0.49022415280342102 0.35778713226318359
0.51232320070266724 0.5161094069480896 0.38909438252449036
0.67396676540374756 0.57240098714828491 0.43441727757453918
0.79004752635955811 0.60661786794662476 0.45716550946235657
0.88111031055450439 0.65745514631271362 0.48719325661659241
0.94398528337478638 0.70993995666503906 0.52133405208587646
0.37623065710067749 0.59993749856948853 0.35394343733787537
0.4308362603187561 0.60986834764480591 0.36775365471839905
0.53478527069091797 0.63399046659469604 0.394452303647995
0.64416778087615967 0.66330468654632568 0.42639470100402832
0.76294279098510742 0.69830679893493652 0.45151245594024658
0.86869633197784424 0.71547782421112061 0.4639984667301178
0.94112318754196167 0.73832213878631592 0.4826633632183075
0.46936503052711487 0.72771751880645752 0.40549242496490479
0.49972552061080933 0.73306727409362793 0.41099074482917786
0.55291223526000977 0.74300020933151245 0.41634705662727356
0.62500184774398804 0.75557023286819458 0.43209534883499146
0.73033004999160767 0.7743675708770752 0.46690478920936584
0.84762001037597656 0.7975354790687561 0.5016634464263916
0.92792868614196777 0.80912119150161743 0.52947014570236206
0.60212665796279907 0.83788418769836426 0.49696913361549377
0.60879051685333252 0.83724027872085571 0.49150857329368591
0.6359628438949585 0.83931022882461548 0.49290236830711365
0.6996646523475647 0.84277051687240601 0.51598578691482544
0.77296477556228638 0.84539538621902466 0.54699248075485229
0.85350930690765381 0.85403656959533691 0.58262747526168823
0.91862517595291138 0.8619234561920166 0.6151537299156189
0.39202553033828735 0.26479238271713257 0.51398694515228271
0.47566205263137817 0.28446772694587708 0.51666820049285889
0.6160852313041687 0.34323245286941528 0.52905791997909546
0.73704135417938232 0.47195208072662354 0.54246050119400024
0.80762070417404175 0.53392606973648071 0.54863989353179932
0.87472629547119141 0.51701867580413818 0.55479061603546143
0.95617038011550903 0.56967753171920776 0.58115291595458984
0.40037128329277039 0.3230767548084259 0.52293860912322998
0.48055365681648254 0.34110856056213379 0.52592915296554565
0.62218165397644043 0.39870110154151917 0.53533679246902466
0.74151867628097534 0.51704955101013184 0.54928421974182129
0.81109261512756348 0.5766339898109436 0.55658859014511108
0.87485355138778687 0.55964761972427368 0.56240403652191162
0.95096325874328613 0.59916591644287109 0.58602231740951538
0.38798648118972778 0.4257255494594574 0.5208936333656311
0.46416515111923218 0.43022328615188599 0.52840709686279297
0.60315144062042236 0.471017986536026 0.53741294145584106
0.7367863655090332 0.56976145505905151 0.55532091856002808
0.8096773624420166 0.63110297918319702 0.56569963693618774
0.87229716777801514 0.61895453929901123 0.57214683294296265
0.94351494312286377 0.65834558010101318 0.59773933887481689
0.33211663365364075 0.51881593465805054 0.48982551693916321
0.4016745388507843 0.52577781677246094 0.4983724057674408
0.53372514247894287 0.54754495620727539 0.51714283227920532
0.70224297046661377 0.61231738328933716 0.54838114976882935
0.80866789817810059 0.68386936187744141 0.5745965838432312
0.87209391593933105 0.68359851837158203 0.58556628227233887
0.93884950876235962 0.72586202621459961 0.61422133445739746
0.39169976115226746 0.61755275726318359 0.47122544050216675
0.43496087193489075 0.62560611963272095 0.47849747538566589
0.53016310930252075 0.63801407814025879 0.49326208233833313
0.66111701726913452 0.67044365406036377 0.52630925178527832
0.78975540399551392 0.7208397388458252 0.5655636191368103
0.87324392795562744 0.74757426977157593 0.59199005365371704
0.93457895517349243 0.77737140655517578 0.61875349283218384
0.39244407415390015 0.7091793417930603 0.45822861790657043
0.4395088255405426 0.71310710906982422 0.46629631519317627
0.53359383344650269 0.72697025537490845 0.48709544539451599
0.65905648469924927 0.75164002180099487 0.52170276641845703
0.76683837175369263 0.77854067087173462 0.55993020534515381
0.86223429441452026 0.80105215311050415 0.58846241235733032
0.93417376279830933 0.80802810192108154 0.60452038049697876
0.57063508033752441 0.83445209264755249 0.5449710488319397
0.59512144327163696 0.83470284938812256 0.54950577020645142
0.65228742361068726 0.83585423231124878 0.5602107048034668
0.7206718921661377 0.83908718824386597 0.57584297657012939
0.78271257877349854 0.84667807817459106 0.59671264886856079
0.86139315366744995 0.85563111305236816 0.63367104530334473
0.92914026975631714 0.86318361759185791 0.66029423475265503
0.57222074270248413 0.39412540197372437 0.64947104454040527
0.62224888801574707 0.41640260815620422 0.65138429403305054
0.70705485343933105 0.47600114345550537 0.6528313159942627
0.79496145248413086 0.57730251550674438 0.65524828433990479
0.8513941764831543 0.68780338764190674 0.65824544429779053
0.88683205842971802 0.70925062894821167 0.66391050815582275
0.92773985862731934 0.68940633535385132 0.66801172494888306
0.57066255807876587 0.43630468845367432 0.64851999282836914
0.62094497680664062 0.46128934621810913 0.64969867467880249
0.7091173529624939 0.51761245727539062 0.65353512763977051
0.79689335823059082 0.61178237199783325 0.65733599662780762
0.85191261768341064 0.69856947660446167 0.66350549459457397
0.88649022579193115 0.72228080034255981 0.66829121112823486
0.91874486207962036 0.69979524612426758 0.66548615694046021
0.55222034454345703 0.50879132747650146 0.64566171169281006
0.5963209867477417 0.52011013031005859 0.64754664897918701
0.68629783391952515 0.56823265552520752 0.64831733703613281
0.78557693958282471 0.64828932285308838 0.65600001811981201
0.84651118516921997 0.72138494253158569 0.66538339853286743
0.88529783487319946 0.74640214443206787 0.67132556438446045
0.9257887601852417 0.73609858751296997 0.67847168445587158
0.45317953824996948 0.58245229721069336 0.62083035707473755
0.50777542591094971 0.59067893028259277 0.62262850999832153
0.62863433361053467 0.61550533771514893 0.63605201244354248
0.75225293636322021 0.66581195592880249 0.65134286880493164
0.83875536918640137 0.74018710851669312 0.6683846116065979
0.88640230894088745 0.77131611108779907 0.67927241325378418
0.92686682939529419 0.76718437671661377 0.68756222724914551
0.40969803929328918 0.66163450479507446 0.59775042533874512
0.44956663250923157 0.66364890336990356 0.60057419538497925
0.53766971826553345 0.67089962959289551 0.60771244764328003
0.66538131237030029 0.69342494010925293 0.62559568881988525
0.80791682004928589 0.7483450174331665 0.66077500581741333
0.8893933892250061 0.79516208171844482 0.68808823823928833
0.93091118335723877 0.79472333192825317 0.69665932655334473
0.42272388935089111 0.73919987678527832 0.57550269365310669
0.45896899700164795 0.740653395652771 0.57855069637298584
0.53481191396713257 0.74678599834442139 0.58739006519317627
0.63807886838912964 0.75666981935501099 0.60096824169158936
0.76094311475753784 0.77804195880889893 0.63388508558273315
0.87583696842193604 0.81603848934173584 0.68066823482513428
0.94127398729324341 0.83044236898422241 0.71230518817901611
0.4451330304145813 0.83350843191146851 0.59435522556304932
0.47136032581329346 0.83237481117248535 0.59419006109237671
0.54469019174575806 0.83248841762542725 0.60204648971557617
0.65583497285842896 0.8363950252532959 0.61938416957855225
0.77447116374969482 0.84377706050872803 0.65360492467880249
0.8646894097328186 0.85390818119049072 0.68692964315414429
0.93797296285629272 0.86822843551635742 0.72508668899536133
0.74105328321456909 0.6138424277305603 0.75131040811538696
0.76062101125717163 0.62659221887588501 0.75099247694015503
0.79861754179000854 0.65545213222503662 0.74643713235855103
0.84355854988098145 0.70487910509109497 0.74512255191802979
0.8835412859916687 0.75914204120635986 0.74584448337554932
0.91399163007736206 0.79782259464263916 0.74463129043579102
0.93435865640640259 0.7981148362159729 0.74716281890869141
0.7339361310005188 0.63469511270523071 0.74928569793701172
0.75754326581954956 0.64605867862701416 0.74924367666244507
0.79915183782577515 0.677326500415802 0.74743825197219849
0.84438514709472656 0.71997618675231934 0.74511849880218506
0.88252025842666626 0.76376670598983765 0.74308818578720093
0.91289550065994263 0.79911726713180542 0.74563020467758179
0.93433213233947754 0.80112183094024658 0.74813675880432129
0.71688663959503174 0.66387808322906494 0.74986189603805542
0.73936706781387329 0.67459207773208618 0.74954813718795776
0.78621643781661987 0.69465082883834839 0.747852623462677
0.8389056921005249 0.73809480667114258 0.74714070558547974
0.88233911991119385 0.77717256546020508 0.74716973304748535
0.91436421871185303 0.80500000715255737 0.75013649463653564
0.93861842155456543 0.81186008453369141 0.75381028652191162
0.6690133810043335 0.70097774267196655 0.74632835388183594
0.69564950466156006 0.70440280437469482 0.74473059177398682
0.74531656503677368 0.71848404407501221 0.74551331996917725
0.81671178340911865 0.74653917551040649 0.74893856048583984
0.87510883808135986 0.78618407249450684 0.75161075592041016
0.91475343704223633 0.81679314374923706 0.75726544857025146
0.93946355581283569 0.82527798414230347 0.75615870952606201
0.53470480442047119 0.74480229616165161 0.73601377010345459
0.56693392992019653 0.74448913335800171 0.73757690191268921
0.64132070541381836 0.74605673551559448 0.73875731229782104
0.75415325164794922 0.76164376735687256 0.74534910917282104
0.85179758071899414 0.78975796699523926 0.75391232967376709
0.91436678171157837 0.82600826025009155 0.76214140653610229
0.94446581602096558 0.84186857938766479 0.76702678203582764
0.54711002111434937 0.80460959672927856 0.73100775480270386
0.56366300582885742 0.80420506000518799 0.73059821128845215
0.61191606521606445 0.80302286148071289 0.73245394229888916
0.68282216787338257 0.80178290605545044 0.73693358898162842
0.78097504377365112 0.80680632591247559 0.74804604053497314
0.89352929592132568 0.83173638582229614 0.76577675342559814
0.95133525133132935 0.85801964998245239 0.77989518642425537
0.58495771884918213 0.85920590162277222 0.73634278774261475
0.59844434261322021 0.85863709449768066 0.73650318384170532
0.63407379388809204 0.85823553800582886 0.73749357461929321
0.6957554817199707 0.85750436782836914 0.74382483959197998
0.7715834379196167 0.85955893993377686 0.74978214502334595
0.85746866464614868 0.86029267311096191 0.76024359464645386
0.9472954273223877 0.87681013345718384 0.78590285778045654
