luts/instant_consumer/polaroid_px-100uv+_warm_--.cube
# Created by: G'MIC (https://gmic.eu)
TITLE "polaroid_px-100uv+_warm_--"
# LUT size
LUT_3D_SIZE 5
# Data domain
DOMAIN_MIN 0.0 0.0 0.0
DOMAIN_MAX 1.0 1.0 1.0
# LUT data points
0.011527356691658497 0.013325275853276253 0.024474095553159714
0.16376875340938568 0.14928355813026428 0.15388938784599304
0.36430016160011292 0.34247326850891113 0.34255415201187134
0.50774884223937988 0.48617488145828247 0.48155966401100159
0.64640313386917114 0.62933939695358276 0.61538451910018921
0.20980526506900787 0.19476781785488129 0.19746191799640656
0.25738894939422607 0.2392694503068924 0.24053961038589478
0.39430814981460571 0.37423533201217651 0.37424841523170471
0.51143640279769897 0.49149486422538757 0.48765355348587036
0.63843882083892822 0.62161147594451904 0.60814720392227173
0.43108555674552917 0.4115203320980072 0.41058516502380371
0.42189231514930725 0.40226930379867554 0.4016362726688385
0.48213854432106018 0.46207994222640991 0.462108314037323
0.55240082740783691 0.53277719020843506 0.52891474962234497
0.65367650985717773 0.63788378238677979 0.62352877855300903
0.56285029649734497 0.54487520456314087 0.53218162059783936
0.56675320863723755 0.54729652404785156 0.53755944967269897
0.58906340599060059 0.56908291578292847 0.56298363208770752
0.63505327701568604 0.61589080095291138 0.60553270578384399
0.74008506536483765 0.72381049394607544 0.70594203472137451
0.78443092107772827 0.77059042453765869 0.75073230266571045
0.78698748350143433 0.77324056625366211 0.75391513109207153
0.78383982181549072 0.77007371187210083 0.74914759397506714
0.83307123184204102 0.82153481245040894 0.8057861328125
0.89377790689468384 0.88452208042144775 0.87337291240692139
0.25719460844993591 0.23865436017513275 0.24042853713035583
0.32027900218963623 0.29945901036262512 0.30070692300796509
0.45600730180740356 0.43243598937988281 0.43234726786613464
0.56263095140457153 0.53990381956100464 0.53499984741210938
0.67691701650619507 0.65805894136428833 0.64392703771591187
0.32459279894828796 0.30184981226921082 0.30236774682998657
0.38328361511230469 0.36229628324508667 0.36254796385765076
0.47155234217643738 0.45161545276641846 0.45155459642410278
0.56215924024581909 0.54341030120849609 0.53680837154388428
0.67975831031799316 0.66335320472717285 0.64526075124740601
0.498046875 0.47866660356521606 0.47704103589057922
0.50117754936218262 0.48182204365730286 0.48074716329574585
0.52657800912857056 0.50768721103668213 0.50483673810958862
0.58492767810821533 0.56785875558853149 0.55724859237670898
0.69446760416030884 0.67980623245239258 0.65934038162231445
0.61150693893432617 0.59353941679000854 0.5815436840057373
0.61047655344009399 0.59126871824264526 0.57940387725830078
0.61724972724914551 0.59865999221801758 0.58533221483230591
0.64896970987319946 0.63332760334014893 0.61420083045959473
0.75785374641418457 0.74390214681625366 0.72157132625579834
0.79639166593551636 0.78325867652893066 0.76586037874221802
0.7996673583984375 0.78594797849655151 0.76628142595291138
0.80748111009597778 0.79512917995452881 0.77460575103759766
0.84206646680831909 0.83250933885574341 0.8139151930809021
0.8932916522026062 0.8867383599281311 0.87009865045547485
0.48104292154312134 0.46077990531921387 0.45758187770843506
0.50642699003219604 0.48693680763244629 0.48484840989112854
0.5406261682510376 0.52094811201095581 0.51773840188980103
0.60814458131790161 0.58828222751617432 0.57748055458068848
0.73671424388885498 0.72175395488739014 0.69948309659957886
0.5017663836479187 0.47978457808494568 0.4767221212387085
0.53016698360443115 0.50912714004516602 0.50748360157012939
0.56229269504547119 0.54283267259597778 0.5384257435798645
0.62418121099472046 0.60737425088882446 0.59455388784408569
0.7480475902557373 0.73387390375137329 0.71097153425216675
0.54616361856460571 0.52555876970291138 0.52048361301422119
0.56302618980407715 0.54374545812606812 0.53990632295608521
0.59960013628005981 0.58098596334457397 0.57117670774459839
0.65581518411636353 0.63945478200912476 0.62284004688262939
0.77104538679122925 0.75806283950805664 0.73534917831420898
0.66155636310577393 0.64327007532119751 0.62802523374557495
0.67356133460998535 0.65527194738388062 0.63831955194473267
0.69069153070449829 0.67370152473449707 0.65241539478302002
0.70386701822280884 0.68925660848617554 0.66551262140274048
0.79704910516738892 0.78422343730926514 0.76298415660858154
0.84768450260162354 0.83658653497695923 0.82104372978210449
0.8575710654258728 0.84583568572998047 0.8281627893447876
0.85461831092834473 0.84392309188842773 0.82464802265167236
0.86205947399139404 0.85500639677047729 0.8362431526184082
0.92330265045166016 0.91893994808197021 0.90670740604400635
0.64535391330718994 0.62500685453414917 0.6114383339881897
0.66133081912994385 0.64407050609588623 0.6307748556137085
0.68370199203491211 0.66696584224700928 0.65149158239364624
0.70431876182556152 0.68805772066116333 0.66913080215454102
0.78792816400527954 0.77239710092544556 0.75280022621154785
0.65761882066726685 0.63707280158996582 0.62440109252929688
0.67419302463531494 0.65652036666870117 0.64341795444488525
0.70387154817581177 0.68789607286453247 0.67044109106063843
0.72139620780944824 0.70758771896362305 0.68403631448745728
0.79888850450515747 0.78688216209411621 0.76541531085968018
0.66571056842803955 0.64780241250991821 0.6334947943687439
0.67808473110198975 0.66131550073623657 0.64525359869003296
0.71194809675216675 0.69661194086074829 0.67789804935455322
0.74906212091445923 0.73411887884140015 0.71308064460754395
0.84296786785125732 0.8317115306854248 0.81326192617416382
0.70769619941711426 0.69286543130874634 0.6718299388885498
0.72144895792007446 0.70518785715103149 0.68226861953735352
0.74619036912918091 0.7307315468788147 0.71045726537704468
0.80453425645828247 0.7920185923576355 0.77080315351486206
0.88780462741851807 0.8819425106048584 0.86481732130050659
0.89196866750717163 0.88366007804870605 0.87048482894897461
0.89940661191940308 0.89166975021362305 0.87657642364501953
0.90649306774139404 0.89892542362213135 0.88517159223556519
0.93016767501831055 0.92599153518676758 0.9135819673538208
0.95606094598770142 0.95396965742111206 0.94520974159240723
0.87741267681121826 0.86729127168655396 0.85403841733932495
0.88273924589157104 0.87587589025497437 0.86240172386169434
0.88986068964004517 0.88329976797103882 0.87145179510116577
0.92372000217437744 0.91710841655731201 0.90551334619522095
0.93205374479293823 0.92753654718399048 0.91045665740966797
0.87857651710510254 0.86719220876693726 0.85342168807983398
0.88393640518188477 0.87596917152404785 0.86206310987472534
0.89632999897003174 0.8899722695350647 0.8770870566368103
0.92356735467910767 0.91879582405090332 0.9071686863899231
0.93850916624069214 0.9314766526222229 0.92181861400604248
0.88966852426528931 0.88017505407333374 0.8669472336769104
0.88744807243347168 0.88057029247283936 0.86588752269744873
0.90382719039916992 0.89815282821655273 0.88407039642333984
0.932880699634552 0.92840415239334106 0.91762876510620117
0.9465949535369873 0.94218260049819946 0.93356984853744507
0.90055185556411743 0.89378613233566284 0.88122540712356567
0.90144354104995728 0.89576822519302368 0.881369948387146
0.9143785834312439 0.90917092561721802 0.89626872539520264
0.94431155920028687 0.9423256516456604 0.93126052618026733
0.95498800277709961 0.95344477891921997 0.94589650630950928
0.93445813655853271 0.93174654245376587 0.9216078519821167
0.93706482648849487 0.92981594800949097 0.92146849632263184
0.94617378711700439 0.94446587562561035 0.93580895662307739
0.96922659873962402 0.96978825330734253 0.96391421556472778
0.97869133949279785 0.97825360298156738 0.97563326358795166
