luts/instant_consumer/polaroid_px-680_--.cube
# Created by: G'MIC (https://gmic.eu)
TITLE "polaroid_px-680_--"
# LUT size
LUT_3D_SIZE 5
# Data domain
DOMAIN_MIN 0.0 0.0 0.0
DOMAIN_MAX 1.0 1.0 1.0
# LUT data points
0.00014253503468353301 0.095292247831821442 0.11159829795360565
0.17740678787231445 0.077669493854045868 0.12376546114683151
0.61240231990814209 0.052553243935108185 0.15273681282997131
0.901084303855896 0.34554469585418701 0.17941035330295563
0.99155360460281372 0.54294580221176147 0.24064390361309052
0.00077269313624128699 0.25298663973808289 0.1401563286781311
0.1248307004570961 0.28227514028549194 0.13666851818561554
0.63984984159469604 0.29768168926239014 0.13693766295909882
0.87909120321273804 0.45376119017601013 0.15503174066543579
0.98644721508026123 0.58927464485168457 0.23186522722244263
0 0.50232762098312378 0.18968185782432556
0.035463668406009674 0.52721500396728516 0.19152767956256866
0.59177887439727783 0.59239232540130615 0.15959306061267853
0.84690064191818237 0.62810713052749634 0.13424597680568695
0.96658319234848022 0.66477352380752563 0.17767125368118286
0.0020313188433647156 0.72181141376495361 0.216126948595047
0.18036113679409027 0.72538548707962036 0.21945753693580627
0.56416153907775879 0.73937338590621948 0.24737191200256348
0.78976321220397949 0.76845359802246094 0.26576808094978333
0.93489444255828857 0.80685591697692871 0.32469218969345093
0.56061917543411255 0.90016263723373413 0.4249005913734436
0.60232686996459961 0.9017636775970459 0.43709239363670349
0.67706000804901123 0.91146272420883179 0.46126019954681396
0.7830548882484436 0.92693185806274414 0.48448833823204041
0.88093525171279907 0.94953817129135132 0.51516878604888916
0.0014921899419277906 0.10482034087181091 0.24565763771533966
0.19805783033370972 0.15982244908809662 0.24976333975791931
0.6136203408241272 0.16074685752391815 0.28264597058296204
0.90186613798141479 0.3816756010055542 0.32971692085266113
0.97876781225204468 0.59806877374649048 0.40212857723236084
0.0036484661977738142 0.27793112397193909 0.26526471972465515
0.28949826955795288 0.3172614574432373 0.28486454486846924
0.6809152364730835 0.37279888987541199 0.3032938539981842
0.88213086128234863 0.50142842531204224 0.32571291923522949
0.9787670373916626 0.62646967172622681 0.38600769639015198
0.072909742593765259 0.53529942035675049 0.28757882118225098
0.24728327989578247 0.55400466918945312 0.28635552525520325
0.63600403070449829 0.60267770290374756 0.28534239530563354
0.84822064638137817 0.62672340869903564 0.28462487459182739
0.9645116925239563 0.68308424949645996 0.3383585512638092
0.075759157538414001 0.72611868381500244 0.28597345948219299
0.31284761428833008 0.72910714149475098 0.30231201648712158
0.58512955904006958 0.74251335859298706 0.33358177542686462
0.7969825267791748 0.77543425559997559 0.36367782950401306
0.93463402986526489 0.80734121799468994 0.40334933996200562
0.5749250054359436 0.898978590965271 0.44942936301231384
0.60516083240509033 0.90227735042572021 0.45884320139884949
0.68326759338378906 0.90938979387283325 0.48511633276939392
0.78827971220016479 0.92733889818191528 0.51007401943206787
0.88597506284713745 0.94823980331420898 0.5424463152885437
0.16248145699501038 0.2139018177986145 0.43772602081298828
0.44258835911750793 0.27228221297264099 0.44560852646827698
0.69530457258224487 0.404805988073349 0.46189761161804199
0.87680578231811523 0.37918820977210999 0.48283150792121887
0.97676378488540649 0.58306080102920532 0.51712721586227417
0.15217052400112152 0.36305209994316101 0.45287525653839111
0.45786681771278381 0.39987894892692566 0.47112610936164856
0.71972739696502686 0.51592177152633667 0.48084604740142822
0.8692023754119873 0.51667225360870361 0.49376994371414185
0.96138399839401245 0.6642652153968811 0.53838139772415161
0.15234103798866272 0.5457645058631897 0.42110216617584229
0.40665167570114136 0.57097882032394409 0.44070789217948914
0.71157622337341309 0.63766348361968994 0.48486220836639404
0.85078686475753784 0.6819770336151123 0.50602889060974121
0.94613444805145264 0.74228441715240479 0.54165828227996826
0.39780700206756592 0.71593987941741943 0.43173429369926453
0.52209281921386719 0.72574031352996826 0.45019632577896118
0.66731280088424683 0.74629312753677368 0.46988874673843384
0.81754833459854126 0.78521215915679932 0.49948528409004211
0.93337172269821167 0.80764460563659668 0.51773703098297119
0.61582440137863159 0.89577001333236694 0.51574766635894775
0.63424444198608398 0.89841091632843018 0.51411747932434082
0.69701272249221802 0.90998375415802002 0.53209948539733887
0.79503458738327026 0.92761409282684326 0.56153446435928345
0.89151901006698608 0.95048767328262329 0.59161031246185303
0.531777024269104 0.36711993813514709 0.61269533634185791
0.65895736217498779 0.4275459349155426 0.61286717653274536
0.78982031345367432 0.57937991619110107 0.60940158367156982
0.8625529408454895 0.679107666015625 0.60988038778305054
0.94046497344970703 0.67231214046478271 0.62049382925033569
0.49946445226669312 0.46880277991294861 0.60962104797363281
0.64561569690704346 0.51813375949859619 0.61195909976959229
0.78739553689956665 0.64178317785263062 0.61384803056716919
0.86195534467697144 0.71319293975830078 0.61735033988952637
0.93536567687988281 0.70732599496841431 0.62471061944961548
0.30452457070350647 0.61166894435882568 0.57563596963882446
0.50549989938735962 0.62501972913742065 0.58408850431442261
0.75282317399978638 0.68599092960357666 0.60601091384887695
0.86193490028381348 0.76427578926086426 0.62580770254135132
0.92849791049957275 0.77173835039138794 0.64022725820541382
0.3967292308807373 0.7236061692237854 0.5445215106010437
0.50665265321731567 0.72818803787231445 0.55099904537200928
0.68968665599822998 0.7468031644821167 0.57302254438400269
0.84346586465835571 0.80989456176757812 0.62141698598861694
0.92900711297988892 0.8487282395362854 0.64724814891815186
0.54151558876037598 0.88285535573959351 0.57035171985626221
0.59098821878433228 0.88725376129150391 0.57618504762649536
0.69619381427764893 0.90142029523849487 0.59568578004837036
0.80204123258590698 0.9287601113319397 0.62565499544143677
0.90090543031692505 0.95133006572723389 0.66407352685928345
0.76151072978973389 0.65791290998458862 0.73654919862747192
0.79260820150375366 0.68160629272460938 0.73424553871154785
0.85302358865737915 0.73638319969177246 0.7300029993057251
0.89996814727783203 0.80816537141799927 0.72489917278289795
0.92359483242034912 0.84306538105010986 0.72807925939559937
0.75136619806289673 0.68668514490127563 0.73492830991744995
0.78398644924163818 0.70583909749984741 0.7328827977180481
0.84898656606674194 0.7571222186088562 0.73186290264129639
0.8969496488571167 0.82025784254074097 0.72993582487106323
0.92057240009307861 0.85721504688262939 0.73007512092590332
0.69833368062973022 0.73026204109191895 0.73076140880584717
0.74376904964447021 0.73997539281845093 0.7315022349357605
0.82288724184036255 0.77487677335739136 0.73463141918182373
0.88740617036819458 0.84178370237350464 0.73533028364181519
0.91177821159362793 0.89101117849349976 0.73846805095672607
0.58779036998748779 0.79948711395263672 0.72352045774459839
0.63126474618911743 0.79941123723983765 0.7247806191444397
0.72313731908798218 0.80086451768875122 0.72901302576065063
0.86016446352005005 0.85819345712661743 0.74393165111541748
0.91646432876586914 0.92805087566375732 0.75612831115722656
0.5753706693649292 0.92715084552764893 0.72395342588424683
0.60225802659988403 0.93005728721618652 0.72775101661682129
0.67312049865722656 0.93017828464508057 0.72940820455551147
0.77380353212356567 0.94036984443664551 0.73776984214782715
0.91946196556091309 0.96503335237503052 0.77191627025604248
