luts/instant_consumer/polaroid_px-70_cold_++.cube
# Created by: G'MIC (https://gmic.eu)
TITLE "polaroid_px-70_cold_++"
# LUT size
LUT_3D_SIZE 13
# Data domain
DOMAIN_MIN 0.0 0.0 0.0
DOMAIN_MAX 1.0 1.0 1.0
# LUT data points
0.00014020134403835982 0.39505746960639954 0.44705882668495178
0.0036747802514582872 0.39215686917304993 0.44705882668495178
0.0039215688593685627 0.38854005932807922 0.44359895586967468
0.0061398823745548725 0.38657626509666443 0.44313725829124451
0.038293428719043732 0.38560047745704651 0.44313725829124451
0.12845766544342041 0.38866421580314636 0.44515931606292725
0.23379305005073547 0.39332106709480286 0.44705882668495178
0.34790828824043274 0.39887538552284241 0.44840717315673828
0.46320727467536926 0.40842974185943604 0.45098039507865906
0.58323365449905396 0.43299156427383423 0.45137035846710205
0.70608937740325928 0.46552643179893494 0.45487865805625916
0.80934739112854004 0.51206707954406738 0.45999372005462646
0.87615042924880981 0.55918234586715698 0.4697214663028717
0.00034323299769312143 0.39597827196121216 0.44705882668495178
0.0038888968992978334 0.39267829060554504 0.44700321555137634
0.0039215688593685627 0.39027631282806396 0.44373804330825806
0.0049391202628612518 0.38661304116249084 0.44313725829124451
0.039245352149009705 0.38573738932609558 0.44313725829124451
0.13313610851764679 0.38899910449981689 0.44561728835105896
0.23787152767181396 0.39357286691665649 0.44705882668495178
0.35371771454811096 0.40349277853965759 0.44910284876823425
0.47301843762397766 0.4188823401927948 0.45098039507865906
0.59083259105682373 0.44472992420196533 0.45113584399223328
0.70677512884140015 0.47814929485321045 0.45384126901626587
0.80995708703994751 0.52458065748214722 0.45963647961616516
0.87624561786651611 0.56861615180969238 0.46941691637039185
0.00021900850697420537 0.39612704515457153 0.44705882668495178
0.0029610130004584789 0.39562544226646423 0.44705882668495178
0.0031012741383165121 0.393474280834198 0.44423860311508179
0.0044002160429954529 0.39029008150100708 0.44313725829124451
0.054598670452833176 0.39061841368675232 0.44317027926445007
0.15249909460544586 0.39596283435821533 0.44603019952774048
0.25305911898612976 0.40362173318862915 0.44705882668495178
0.3654542863368988 0.41652315855026245 0.44854897260665894
0.48194515705108643 0.43347558379173279 0.45104923844337463
0.59835082292556763 0.46184179186820984 0.4515959620475769
0.7113112211227417 0.49536749720573425 0.45306029915809631
0.80991232395172119 0.54355329275131226 0.45847919583320618
0.87394225597381592 0.5865710973739624 0.46790006756782532
6.1394188378471881e-05 0.4007207453250885 0.44705882668495178
0.0024393268395215273 0.40253159403800964 0.44705882668495178
0.0029824499506503344 0.40304931998252869 0.44606375694274902
0.0065454519353806973 0.40105152130126953 0.44410273432731628
0.084262579679489136 0.40366989374160767 0.44429609179496765
0.18269039690494537 0.41479581594467163 0.44648844003677368
0.28134575486183167 0.42583242058753967 0.44659250974655151
0.3897167444229126 0.43767639994621277 0.44624274969100952
0.496938556432724 0.45949470996856689 0.44743576645851135
0.60690891742706299 0.48850929737091064 0.44821351766586304
0.71452939510345459 0.52434366941452026 0.45051926374435425
0.80501466989517212 0.56184905767440796 0.45567965507507324
0.86968624591827393 0.60436886548995972 0.46544989943504333
0.0013749216450378299 0.42693570256233215 0.44705882668495178
0.0038770339451730251 0.42948058247566223 0.44705882668495178
0.0038682825397700071 0.43030127882957458 0.44705882668495178
0.0082172015681862831 0.42932075262069702 0.44705882668495178
0.095362640917301178 0.43349069356918335 0.44705882668495178
0.20922249555587769 0.44411292672157288 0.44705882668495178
0.31154432892799377 0.45649740099906921 0.44522640109062195
0.41103240847587585 0.46875536441802979 0.44319918751716614
0.50931203365325928 0.48868733644485474 0.44318884611129761
0.61233651638031006 0.51518678665161133 0.44351440668106079
0.71207481622695923 0.55303376913070679 0.44576552510261536
0.79868650436401367 0.59013956785202026 0.45099326968193054
0.8599933385848999 0.62498795986175537 0.46022477746009827
0.001782151754014194 0.47417405247688293 0.44730260968208313
0.0039215688593685627 0.47532355785369873 0.44798269867897034
0.0039215688593685627 0.47657755017280579 0.44829654693603516
0.0061923605389893055 0.47708243131637573 0.44768825173377991
0.092317365109920502 0.48145407438278198 0.44730320572853088
0.21885798871517181 0.49268355965614319 0.44706511497497559
0.32719013094902039 0.50519615411758423 0.44517403841018677
0.4250640869140625 0.52055740356445312 0.44321140646934509
0.52338659763336182 0.53768777847290039 0.4416746199131012
0.6182790994644165 0.55835950374603271 0.4411257803440094
0.71328312158584595 0.58934301137924194 0.44148406386375427
0.79660570621490479 0.62401819229125977 0.44737774133682251
0.85022240877151489 0.65128713846206665 0.45753812789916992
0.00056873395806178451 0.53096354007720947 0.44987392425537109
0.0037859149742871523 0.53268349170684814 0.45149040222167969
0.0043696383945643902 0.534309983253479 0.45217534899711609
0.0070174871943891048 0.53646260499954224 0.45177373290061951
0.080215930938720703 0.54329615831375122 0.45118468999862671
0.22194679081439972 0.55516535043716431 0.45003345608711243
0.33414223790168762 0.56359875202178955 0.44807416200637817
0.43945091962814331 0.57856374979019165 0.44607993960380554
0.54460948705673218 0.60073316097259521 0.4434637725353241
0.63708853721618652 0.62243658304214478 0.4443243145942688
0.72009259462356567 0.6442839503288269 0.44768837094306946
0.78560465574264526 0.66393202543258667 0.45489898324012756
0.83986693620681763 0.68293344974517822 0.46270182728767395
0 0.61276495456695557 0.45827361941337585
0.0031041761394590139 0.61145031452178955 0.45952075719833374
0.0039215688593685627 0.60775959491729736 0.45998188853263855
0.0047349520027637482 0.6073000431060791 0.45962655544281006
0.08986365795135498 0.61439210176467896 0.45889163017272949
0.2386569082736969 0.62588590383529663 0.45760869979858398
0.34689253568649292 0.63210380077362061 0.45615577697753906
0.45176157355308533 0.64464277029037476 0.45467010140419006
0.55549508333206177 0.66473382711410522 0.45267057418823242
0.64419537782669067 0.68475848436355591 0.45536831021308899
0.71586155891418457 0.69932883977890015 0.45993006229400635
0.77973783016204834 0.71205490827560425 0.46634158492088318
0.83582949638366699 0.72514241933822632 0.47204917669296265
0.000535059894900769 0.69725275039672852 0.46937936544418335
0.0036771586164832115 0.69314330816268921 0.47057285904884338
0.0044928006827831268 0.68932735919952393 0.470878005027771
0.012685753405094147 0.68526911735534668 0.4699159562587738
0.13339461386203766 0.69262212514877319 0.47193917632102966
0.26554542779922485 0.70215511322021484 0.47133877873420715
0.37327420711517334 0.70863085985183716 0.46983978152275085
0.46735855937004089 0.71342700719833374 0.46917468309402466
0.55777180194854736 0.72228127717971802 0.4680364727973938
0.64196556806564331 0.7389337420463562 0.46848359704017639
0.71403390169143677 0.75321388244628906 0.47197163105010986
0.78010010719299316 0.7640116810798645 0.48005068302154541
0.83542823791503906 0.77458292245864868 0.48478895425796509
0.0077633126638829708 0.76812642812728882 0.48375764489173889
0.011711868457496166 0.76426064968109131 0.48345851898193359
0.029610218480229378 0.76400315761566162 0.48381707072257996
0.10564416646957397 0.76293528079986572 0.48533192276954651
0.2154117226600647 0.76411348581314087 0.48839738965034485
0.30881676077842712 0.76667171716690063 0.4887910783290863
0.40287372469902039 0.77185869216918945 0.48792526125907898
0.48913902044296265 0.77844494581222534 0.48723313212394714
0.57063794136047363 0.78506147861480713 0.48789027333259583
0.64725035429000854 0.79404127597808838 0.48756396770477295
0.71997815370559692 0.80344295501708984 0.48968473076820374
0.78760063648223877 0.81381458044052124 0.4977976381778717
0.83442723751068115 0.81759440898895264 0.50596147775650024
0.17636200785636902 0.83214747905731201 0.5050961971282959
0.18170832097530365 0.82767164707183838 0.50476610660552979
0.21595272421836853 0.82504022121429443 0.50559741258621216
0.27388432621955872 0.82360255718231201 0.50803279876708984
0.32841166853904724 0.82007795572280884 0.51091843843460083
0.391152024269104 0.8243679404258728 0.51103168725967407
0.46332570910453796 0.82657945156097412 0.51109778881072998
0.53624880313873291 0.83101993799209595 0.51217138767242432
0.60689032077789307 0.83486831188201904 0.51530516147613525
0.67183977365493774 0.83955645561218262 0.5175553560256958
0.7340778112411499 0.84528803825378418 0.5202711820602417
0.79281097650527954 0.84834671020507812 0.52524882555007935
0.83807605504989624 0.85006099939346313 0.53240269422531128
0.41924533247947693 0.87332791090011597 0.5359729528427124
0.41950353980064392 0.87188482284545898 0.53583019971847534
0.42622685432434082 0.86971819400787354 0.53523308038711548
0.44923323392868042 0.86763423681259155 0.53607702255249023
0.48484483361244202 0.86915397644042969 0.53958958387374878
0.52066999673843384 0.86689102649688721 0.53899544477462769
0.56601852178573608 0.86704915761947632 0.53883105516433716
0.61217153072357178 0.87042331695556641 0.54178321361541748
0.66373676061630249 0.87414544820785522 0.54575967788696289
0.7146490216255188 0.87581652402877808 0.5474853515625
0.75844097137451172 0.87770146131515503 0.5495491623878479
0.80648976564407349 0.87525826692581177 0.55370211601257324
0.84734171628952026 0.87428569793701172 0.55803793668746948
0.62022459506988525 0.89862185716629028 0.56532394886016846
0.61683458089828491 0.89827263355255127 0.56539356708526611
0.61740481853485107 0.89703649282455444 0.56412547826766968
0.63160866498947144 0.89764279127120972 0.56494098901748657
0.64378905296325684 0.89460444450378418 0.56651836633682251
0.66843122243881226 0.89337193965911865 0.56735348701477051
0.69310188293457031 0.89106345176696777 0.56797176599502563
0.71729934215545654 0.89172011613845825 0.57010555267333984
0.74933600425720215 0.89412134885787964 0.57252579927444458
0.7810828685760498 0.89484018087387085 0.57395023107528687
0.80743533372879028 0.89718544483184814 0.57612878084182739
0.83793520927429199 0.89592719078063965 0.57950186729431152
0.86060082912445068 0.895668625831604 0.5828481912612915
0.00083719886606559157 0.39261114597320557 0.44705882668495178
0.0039186514914035797 0.39096787571907043 0.44705882668495178
0.0039215688593685627 0.38827881217002869 0.44617879390716553
0.0044483407400548458 0.38647046685218811 0.44343394041061401
0.033626660704612732 0.38518118858337402 0.44317871332168579
0.13072288036346436 0.38834682106971741 0.44582727551460266
0.23707480728626251 0.392295241355896 0.44705882668495178
0.35106885433197021 0.39988270401954651 0.44908764958381653
0.46774125099182129 0.41363626718521118 0.45098039507865906
0.58690446615219116 0.43515384197235107 0.45164084434509277
0.70359712839126587 0.47106844186782837 0.45515012741088867
0.80796122550964355 0.51679319143295288 0.46047717332839966
0.8742300271987915 0.56167328357696533 0.46990427374839783
0.00088659545872360468 0.39484703540802002 0.44705882668495178
0.0039215688593685627 0.39239656925201416 0.44705882668495178
0.0039215688593685627 0.38958290219306946 0.44662997126579285
0.005184846930205822 0.38717913627624512 0.44430980086326599
0.041205104440450668 0.38634219765663147 0.44423943758010864
0.13843545317649841 0.38987633585929871 0.44654080271720886
0.24097153544425964 0.39468091726303101 0.44705882668495178
0.35671478509902954 0.40720862150192261 0.44969937205314636
0.4785563051700592 0.42545759677886963 0.45250406861305237
0.59826749563217163 0.44828718900680542 0.45438656210899353
0.71216034889221191 0.48335734009742737 0.455445796251297
0.81066662073135376 0.52908873558044434 0.46116092801094055
0.87390685081481934 0.57184052467346191 0.47221517562866211
0.00056206196313723922 0.39620283246040344 0.44705882668495178
0.0038857404142618179 0.39564359188079834 0.44705882668495178
0.0039215688593685627 0.39369150996208191 0.44667568802833557
0.0065806522034108639 0.39047649502754211 0.44457456469535828
0.060525529086589813 0.39300066232681274 0.4454653263092041
0.16192381083965302 0.40074983239173889 0.44703379273414612
0.26229217648506165 0.41038057208061218 0.44705882668495178
0.37217786908149719 0.42459174990653992 0.44979220628738403
0.48968103528022766 0.44283077120780945 0.45416295528411865
0.60533004999160767 0.46890324354171753 0.45513516664505005
0.7204168438911438 0.5060189962387085 0.45716583728790283
0.81360089778900146 0.54985964298248291 0.46351653337478638
0.87356925010681152 0.58960556983947754 0.47461649775505066
0.00010340073640691116 0.40134835243225098 0.44705882668495178
0.0037108028773218393 0.40366071462631226 0.44705882668495178
0.0039215688593685627 0.40341964364051819 0.44680964946746826
0.010360882617533207 0.4011194109916687 0.44495230913162231
0.090052194893360138 0.40600627660751343 0.44650772213935852
0.19071759283542633 0.41911119222640991 0.44705882668495178
0.28800338506698608 0.4318939745426178 0.44704750180244446
0.3932565450668335 0.4448665976524353 0.44788083434104919
0.502125084400177 0.46566092967987061 0.45124137401580811
0.61230891942977905 0.49337795376777649 0.45341759920120239
0.72249144315719604 0.53097027540206909 0.45645835995674133
0.81203025579452515 0.57061231136322021 0.46332123875617981
0.86997026205062866 0.60860586166381836 0.47381478548049927
0.0013935911701992154 0.42583853006362915 0.44800481200218201
0.0039215688593685627 0.42914369702339172 0.44843596220016479
0.0048025394789874554 0.4298260509967804 0.44798499345779419
0.010860712267458439 0.42941266298294067 0.44742977619171143
0.10487588495016098 0.43551748991012573 0.44714537262916565
0.21790513396263123 0.45081201195716858 0.44705882668495178
0.31762802600860596 0.46189618110656738 0.44641715288162231
0.41465562582015991 0.4713229238986969 0.44426232576370239
0.51417165994644165 0.49443778395652771 0.44657289981842041
0.6183897852897644 0.5224909782409668 0.44889944791793823
0.71985691785812378 0.55942392349243164 0.45190015435218811
0.80293041467666626 0.59537184238433838 0.4590294361114502
0.86073535680770874 0.62958860397338867 0.47004649043083191
0.0014171076472848654 0.47037330269813538 0.45106139779090881
0.0039204168133437634 0.47320094704627991 0.45146819949150085
0.0039847730658948421 0.47585657238960266 0.45149952173233032
0.011633286252617836 0.47820302844047546 0.45064228773117065
0.10636263340711594 0.48466739058494568 0.4493204653263092
0.230150505900383 0.49781471490859985 0.44918033480644226
0.33774355053901672 0.51018691062927246 0.44872000813484192
0.43216928839683533 0.52481192350387573 0.44735574722290039
0.52977031469345093 0.54337960481643677 0.44600039720535278
0.62613582611083984 0.56403249502182007 0.44588431715965271
0.72216081619262695 0.59735965728759766 0.44842907786369324
0.79511618614196777 0.62623745203018188 0.4558616578578949
0.85092902183532715 0.65521270036697388 0.46752956509590149
0.00030815275385975838 0.53542280197143555 0.45474627614021301
0.0037730648182332516 0.5363965630531311 0.45563593506813049
0.0039235134609043598 0.53728592395782471 0.455873042345047
0.0058104721829295158 0.5388178825378418 0.455455482006073
0.09807121753692627 0.54806721210479736 0.45527422428131104
0.2329656183719635 0.56133413314819336 0.45556005835533142
0.34461891651153564 0.57309979200363159 0.45558685064315796
0.4482882022857666 0.58729094266891479 0.45455795526504517
0.55107122659683228 0.6075204610824585 0.45218691229820251
0.64258599281311035 0.62600529193878174 0.45112898945808411
0.72392386198043823 0.64766395092010498 0.453778475522995
0.78632968664169312 0.66494464874267578 0.45922362804412842
0.84286320209503174 0.68442505598068237 0.46741390228271484
0 0.61386507749557495 0.46170040965080261
0.0013061523204669356 0.61515837907791138 0.46399593353271484
0.003197643905878067 0.61318671703338623 0.46493333578109741
0.006228084210306406 0.61111098527908325 0.46420946717262268
0.10625939816236496 0.61983734369277954 0.46530264616012573
0.24601487815380096 0.63239389657974243 0.46600911021232605
0.35727742314338684 0.64310562610626221 0.46555706858634949
0.46282815933227539 0.65541678667068481 0.46405616402626038
0.56577384471893311 0.67146593332290649 0.46205279231071472
0.65109992027282715 0.6875460147857666 0.46246480941772461
0.72333222627639771 0.7021557092666626 0.46552002429962158
0.78346812725067139 0.71373975276947021 0.46996128559112549
0.84003454446792603 0.72478711605072021 0.47418969869613647
7.6368742156773806e-05 0.69746500253677368 0.47419056296348572
0.0021396263036876917 0.69528853893280029 0.47537681460380554
0.0054629757069051266 0.69164520502090454 0.47512704133987427
0.027408884838223457 0.68902313709259033 0.47495102882385254
0.15400615334510803 0.69659727811813354 0.47679436206817627
0.2741081714630127 0.7045934796333313 0.47887545824050903
0.38138702511787415 0.71255427598953247 0.47949394583702087
0.47486361861228943 0.71967881917953491 0.47857257723808289
0.57054883241653442 0.72939246892929077 0.4771207869052887
0.65183061361312866 0.74323201179504395 0.47629514336585999
0.72279995679855347 0.75661259889602661 0.47875043749809265
0.78526765108108521 0.76588624715805054 0.48539677262306213
0.83588528633117676 0.77255058288574219 0.49094441533088684
0.0089462725445628166 0.76967889070510864 0.48815613985061646
0.017393194139003754 0.76864039897918701 0.48817944526672363
0.047742251306772232 0.76791459321975708 0.48786649107933044
0.13385976850986481 0.76594126224517822 0.49035626649856567
0.23152999579906464 0.76445436477661133 0.49359250068664551
0.32385444641113281 0.76635074615478516 0.49568614363670349
0.41870805621147156 0.77274030447006226 0.49580588936805725
0.49644136428833008 0.78002190589904785 0.4955843985080719
0.57727092504501343 0.78786742687225342 0.49504628777503967
0.65089136362075806 0.79589676856994629 0.49440702795982361
0.7229609489440918 0.80494886636734009 0.49622887372970581
0.78548002243041992 0.81303220987319946 0.5038636326789856
0.83285313844680786 0.8171696662902832 0.51256614923477173
0.19998550415039062 0.83384424448013306 0.50965267419815063
0.20716580748558044 0.82969266176223755 0.50972855091094971
0.23670980334281921 0.82715213298797607 0.5091017484664917
0.28925889730453491 0.82449525594711304 0.51166045665740967
0.3478754460811615 0.82040882110595703 0.51589590311050415
0.40454190969467163 0.82357329130172729 0.51738113164901733
0.47829851508140564 0.82739788293838501 0.51790297031402588
0.54570221900939941 0.83254069089889526 0.51875704526901245
0.60991519689559937 0.83704543113708496 0.52065587043762207
0.6729055643081665 0.84045869112014771 0.52190393209457397
0.73638421297073364 0.84528183937072754 0.52416360378265381
0.79057985544204712 0.8464539647102356 0.52861189842224121
0.83610242605209351 0.8488813042640686 0.53590661287307739
0.43211579322814941 0.87479954957962036 0.53949457406997681
0.4292561411857605 0.87207359075546265 0.53837621212005615
0.43864750862121582 0.8705294132232666 0.53798985481262207
0.45770561695098877 0.86860764026641846 0.53835505247116089
0.49194163084030151 0.86719298362731934 0.54097509384155273
0.53054386377334595 0.86747807264328003 0.54273450374603271
0.57259249687194824 0.86848956346511841 0.54377341270446777
0.6218453049659729 0.87240791320800781 0.54628473520278931
0.6690293550491333 0.87537544965744019 0.54908460378646851
0.71780717372894287 0.87668341398239136 0.55103403329849243
0.75915759801864624 0.87690067291259766 0.55334329605102539
0.80412477254867554 0.8742523193359375 0.55644029378890991
0.84639859199523926 0.87357664108276367 0.55975449085235596
0.62243539094924927 0.89799779653549194 0.56699937582015991
0.61983186006546021 0.89743834733963013 0.56668472290039062
0.62198847532272339 0.89659929275512695 0.56614094972610474
0.63186132907867432 0.89567655324935913 0.56630700826644897
0.65020442008972168 0.89455795288085938 0.56766426563262939
0.67125338315963745 0.89331191778182983 0.56934899091720581
0.69773656129837036 0.89231258630752563 0.57158780097961426
0.72323149442672729 0.89338964223861694 0.57317256927490234
0.75159269571304321 0.89537084102630615 0.57481163740158081
0.78001987934112549 0.89616841077804565 0.57585769891738892
0.8002159595489502 0.89406090974807739 0.57586216926574707
0.83011537790298462 0.89371180534362793 0.5788690447807312
0.86046296358108521 0.89473319053649902 0.58298921585083008
0.0016077079344540834 0.38896477222442627 0.44846814870834351
0.0039215688593685627 0.38826406002044678 0.44804555177688599
0.0039215688593685627 0.38818472623825073 0.44737747311592102
0.0051414491608738899 0.38558933138847351 0.44671875238418579
0.034840870648622513 0.38518548011779785 0.44618284702301025
0.13226699829101562 0.38824784755706787 0.447752445936203
0.23807205259799957 0.39185330271720886 0.44974437355995178
0.35450750589370728 0.39772146940231323 0.45280379056930542
0.47559010982513428 0.41364270448684692 0.45457905530929565
0.59781950712203979 0.43834477663040161 0.45667022466659546
0.71160304546356201 0.47895044088363647 0.46224549412727356
0.81066727638244629 0.52511978149414062 0.4696677029132843
0.87391465902328491 0.56972223520278931 0.47991153597831726
0.0012331495527178049 0.39034536480903625 0.44774973392486572
0.0039215688593685627 0.38958248496055603 0.44767174124717712
0.0043405867181718349 0.38876453042030334 0.44760200381278992
0.0078963339328765869 0.38813799619674683 0.44711756706237793
0.044573750346899033 0.38767841458320618 0.44710686802864075
0.14275777339935303 0.39074057340621948 0.44791975617408752
0.24771733582019806 0.39570963382720947 0.45013284683227539
0.36597499251365662 0.40774869918823242 0.45394197106361389
0.48948824405670166 0.42904889583587646 0.45745673775672913
0.60842722654342651 0.45135757327079773 0.45778888463973999
0.71847689151763916 0.48772114515304565 0.46228110790252686
0.81198382377624512 0.53542900085449219 0.47153839468955994
0.87496232986450195 0.57900416851043701 0.48237490653991699
0.00027268353733234107 0.39421564340591431 0.4476715624332428
0.0037122690118849277 0.39363259077072144 0.44779407978057861
0.0039478973485529423 0.39286947250366211 0.44767546653747559
0.0092334076762199402 0.39077210426330566 0.44718673825263977
0.071542821824550629 0.39375486969947815 0.44826081395149231
0.17532515525817871 0.40214917063713074 0.44963166117668152
0.27697649598121643 0.41299524903297424 0.45180100202560425
0.38536536693572998 0.42682290077209473 0.45519566535949707
0.49991309642791748 0.44552338123321533 0.45868882536888123
0.614582359790802 0.47235974669456482 0.4601585865020752
0.72701573371887207 0.51034688949584961 0.46448987722396851
0.8137621283531189 0.55513089895248413 0.47380742430686951
0.87540698051452637 0.59601116180419922 0.48506167531013489
4.5237822632770985e-05 0.40001446008682251 0.4483388364315033
0.0031400343868881464 0.40362921357154846 0.44936063885688782
0.0042341342195868492 0.40444526076316833 0.44922992587089539
0.019136376678943634 0.40400901436805725 0.44852986931800842
0.10624003410339355 0.40852448344230652 0.44960454106330872
0.20600327849388123 0.41983261704444885 0.4508381187915802
0.30336317420005798 0.43259778618812561 0.45161417126655579
0.40663328766822815 0.44741904735565186 0.45455798506736755
0.51296496391296387 0.46991056203842163 0.45741710066795349
0.62263959646224976 0.49654796719551086 0.45923295617103577
0.72974699735641479 0.53417843580245972 0.46400421857833862
0.81391549110412598 0.57624906301498413 0.47297143936157227
0.8708270788192749 0.61501091718673706 0.48473751544952393
0.00084129784954711795 0.42643684148788452 0.45168426632881165
0.003937440924346447 0.43153658509254456 0.45307451486587524
0.0060984441079199314 0.43369802832603455 0.45347362756729126
0.022632747888565063 0.43516236543655396 0.453144371509552
0.11592522263526917 0.44222226738929749 0.45260325074195862
0.22813121974468231 0.45169675350189209 0.45216944813728333
