luts/instant_consumer/polaroid_time_zero_expired_cold_--.cube
# Created by: G'MIC (https://gmic.eu)
TITLE "polaroid_time_zero_expired_cold_--"
# LUT size
LUT_3D_SIZE 7
# Data domain
DOMAIN_MIN 0.0 0.0 0.0
DOMAIN_MAX 1.0 1.0 1.0
# LUT data points
0.25525668263435364 0.097429148852825165 0.035721767693758011
0.26605254411697388 0.087823905050754547 0.034823637455701828
0.32944414019584656 0.078001119196414948 0.031921729445457458
0.44594407081604004 0.044115986675024033 0.028007641434669495
0.62115150690078735 0.0041489545255899429 0.021249044686555862
0.79974168539047241 0.004096596036106348 0.011464960873126984
0.9398190975189209 0.053255043923854828 0.025733962655067444
0.26224946975708008 0.13112269341945648 0.025700049474835396
0.28416091203689575 0.13161833584308624 0.023339290171861649
0.35531184077262878 0.13119257986545563 0.020412040874361992
0.4762079119682312 0.12387871742248535 0.015086214989423752
0.64719879627227783 0.091035269200801849 0.0087866690009832382
0.8110576868057251 0.096699915826320648 0.0031246261205524206
0.9415099024772644 0.19113269448280334 0.012410242110490799
0.29652643203735352 0.24985848367214203 0.001507239299826324
0.3371025025844574 0.2590179443359375 0.004235241562128067
0.4179915189743042 0.25899848341941833 0.0037282158154994249
0.5406794548034668 0.27029559016227722 0.0017576180398464203
0.68023258447647095 0.2778465747833252 0.0019054487347602844
0.82642543315887451 0.29787617921829224 0.00091422587865963578
0.93922138214111328 0.35156440734863281 0.0022597818169742823
0.36951723694801331 0.42879131436347961 0
0.41243571043014526 0.4329860508441925 0.00027097814017906785
0.51025509834289551 0.43992358446121216 0.0002820183290168643
0.63167357444763184 0.45713284611701965 0.00077857222640886903
0.74097031354904175 0.47469529509544373 0.0038184970617294312
0.84784924983978271 0.48478510975837708 0
0.93556362390518188 0.51377099752426147 0.00019369686197023839
0.47334599494934082 0.60719853639602661 0
0.5095100998878479 0.60989242792129517 0.00073529413202777505
0.59179008007049561 0.62077927589416504 0
0.69371199607849121 0.62741369009017944 0.0017562865978106856
0.78956717252731323 0.64555126428604126 0.0033481672871857882
0.87217962741851807 0.66203755140304565 0.076563693583011627
0.93482387065887451 0.66760867834091187 0.10948650538921356
0.58781963586807251 0.75294095277786255 0.0063053206540644169
0.60480803251266479 0.75154340267181396 9.406594472238794e-05
0.65245360136032104 0.7532157301902771 8.3654063928406686e-05
0.73026168346405029 0.75142645835876465 0.00048207302461378276
0.81233745813369751 0.76128751039505005 0.0025216646026819944
0.88267934322357178 0.77461105585098267 0.19082799553871155
0.93039000034332275 0.78646355867385864 0.41800606250762939
0.70199006795883179 0.85680240392684937 0.017419852316379547
0.71064168214797974 0.85673707723617554 0.0060582929290831089
0.74241191148757935 0.85280263423919678 0.00021721335360780358
0.78759187459945679 0.85250931978225708 0.00260136928409338
0.85207241773605347 0.86026489734649658 0.11734988540410995
0.90891039371490479 0.86119556427001953 0.37925392389297485
0.94643759727478027 0.86316442489624023 0.53857767581939697
0.26008588075637817 0.088067196309566498 0.058301500976085663
0.27118775248527527 0.085156761109828949 0.058066889643669128
0.34230169653892517 0.081774391233921051 0.065089613199234009
0.46864736080169678 0.060411207377910614 0.078950680792331696
0.64097422361373901 0.0053803236223757267 0.08039131760597229
0.81140732765197754 0.002492119325324893 0.088205493986606598
0.94474977254867554 0.06893099844455719 0.11209995299577713
0.27207484841346741 0.12694434821605682 0.056116528809070587
0.29577776789665222 0.13684234023094177 0.05605112761259079
0.36773920059204102 0.14008074998855591 0.059932336211204529
0.50135546922683716 0.12916642427444458 0.06482774019241333
0.66707080602645874 0.10182608664035797 0.061071403324604034
0.8224678635597229 0.10256762057542801 0.064538128674030304
0.94281065464019775 0.20236985385417938 0.10397123545408249
0.30591681599617004 0.2573055624961853 0.024106942117214203
0.33724915981292725 0.25953125953674316 0.019869515672326088
0.43076455593109131 0.26758065819740295 0.027360221371054649
0.55401420593261719 0.2728271484375 0.024732956662774086
0.69515544176101685 0.27763989567756653 0.01770864799618721
0.8358919620513916 0.29899263381958008 0.022327138110995293
0.9447091817855835 0.35404667258262634 0.069837428629398346
0.37537264823913574 0.43330574035644531 0.0029513190966099501
0.41634282469749451 0.43959325551986694 0.0039904424920678139
0.51456671953201294 0.44571822881698608 0.005746923852711916
0.63845372200012207 0.4598044753074646 0.0056259604170918465
0.75243216753005981 0.47772887349128723 0.012968579307198524
0.85132890939712524 0.48545879125595093 0.0049106525257229805
0.93936550617218018 0.51183086633682251 0.024238497018814087
0.47820180654525757 0.61236065626144409 0.0024493946693837643
0.51438838243484497 0.6163221001625061 0.0050754472613334656
0.59294062852859497 0.62071263790130615 0.0041452147997915745
0.69593346118927002 0.62616091966629028 0.0059634190984070301
0.79428356885910034 0.64697480201721191 0.014700481668114662
0.8710593581199646 0.66258764266967773 0.1778034120798111
0.93254435062408447 0.66833627223968506 0.19849459826946259
0.58929353952407837 0.75369536876678467 0.0036220774054527283
0.60915660858154297 0.75128114223480225 0.0028315375093370676
0.65601783990859985 0.75136315822601318 0.0014592339284718037
0.7324034571647644 0.75461459159851074 0.0038764504715800285
0.81343454122543335 0.76556718349456787 0.01723073236644268
0.88039058446884155 0.77353459596633911 0.27134263515472412
0.93010967969894409 0.78882575035095215 0.45098587870597839
0.7038036584854126 0.85901081562042236 0.074652381241321564
0.71510845422744751 0.85882246494293213 0.058559030294418335
0.74261045455932617 0.85937237739562988 0.032763835042715073
0.78885763883590698 0.85833430290222168 0.0093859508633613586
0.85102319717407227 0.85952699184417725 0.19127368927001953
0.90825551748275757 0.85962128639221191 0.41600468754768372
0.94692105054855347 0.8643917441368103 0.56159472465515137
0.30443200469017029 0.087725497782230377 0.14835186302661896
0.32095098495483398 0.092269331216812134 0.15487366914749146
0.3676033616065979 0.097978211939334869 0.1570039689540863
0.48863619565963745 0.063760809600353241 0.1845821738243103
0.65542292594909668 0.015054650604724884 0.21977341175079346
0.82027351856231689 0.028410699218511581 0.23495559394359589
0.94254535436630249 0.17717371881008148 0.25813126564025879
0.32664251327514648 0.14341598749160767 0.15604135394096375
0.35322880744934082 0.15542760491371155 0.16106143593788147
0.39997977018356323 0.15843358635902405 0.16019546985626221
0.52282840013504028 0.14228110015392303 0.18767721951007843
0.68493050336837769 0.12875893712043762 0.20646962523460388
0.83495938777923584 0.15769512951374054 0.21883209049701691
0.9463309645652771 0.23958638310432434 0.2442222386598587
0.35050502419471741 0.2557157576084137 0.14688247442245483
0.38482564687728882 0.26178547739982605 0.15352442860603333
0.46204280853271484 0.27902719378471375 0.1549621969461441
0.58029031753540039 0.2810671329498291 0.16790281236171722
0.72213339805603027 0.28651875257492065 0.17570282518863678
0.84914392232894897 0.30887526273727417 0.18904349207878113
0.94502025842666626 0.37337961792945862 0.23009473085403442
0.3796563446521759 0.43663263320922852 0.11142859607934952
0.43109822273254395 0.44439429044723511 0.11566685885190964
0.52331221103668213 0.45731222629547119 0.097331225872039795
0.65041089057922363 0.46919944882392883 0.1566888689994812
0.7588161826133728 0.47627300024032593 0.17789968848228455
0.85624885559082031 0.4864078164100647 0.16884501278400421
0.93710380792617798 0.5236283540725708 0.2251390814781189
0.48984998464584351 0.62241917848587036 0.087571315467357635
0.51995605230331421 0.62278670072555542 0.07428663969039917
0.58906394243240356 0.62737357616424561 0.048741824924945831
0.69260811805725098 0.63568317890167236 0.049327418208122253
0.79381740093231201 0.65285259485244751 0.21456627547740936
0.86732578277587891 0.65988719463348389 0.30863097310066223
0.92998015880584717 0.66742449998855591 0.30916449427604675
0.5952223539352417 0.75581926107406616 0.099144294857978821
0.61334502696990967 0.7556602954864502 0.081654086709022522
0.65625244379043579 0.7575872540473938 0.048177096992731094
0.72664827108383179 0.76057028770446777 0.019713323563337326
0.8133617639541626 0.76678627729415894 0.20209476351737976
0.87792289257049561 0.77616280317306519 0.39077290892601013
0.92554831504821777 0.78778797388076782 0.50692135095596313
0.71113276481628418 0.85485231876373291 0.29525014758110046
0.72163444757461548 0.85504424571990967 0.28324419260025024
0.74610739946365356 0.85712414979934692 0.25345048308372498
0.78691136837005615 0.85965877771377563 0.19949717819690704
0.8450627326965332 0.8587154746055603 0.29438561201095581
0.90316778421401978 0.85841703414916992 0.46528959274291992
0.9436652660369873 0.86392247676849365 0.59754639863967896
0.41754719614982605 0.098132982850074768 0.34909516572952271
0.43668889999389648 0.10595058649778366 0.35220438241958618
0.48252654075622559 0.1192302480340004 0.36525198817253113
0.55998188257217407 0.12159479409456253 0.36877897381782532
0.68347322940826416 0.052794929593801498 0.36976853013038635
0.82345724105834961 0.034399025142192841 0.42591610550880432
0.93368858098983765 0.21047689020633698 0.45765289664268494
0.46066895127296448 0.19020013511180878 0.35527101159095764
0.48106655478477478 0.1979096531867981 0.36002275347709656
0.52323651313781738 0.21134932339191437 0.37447190284729004
0.58907425403594971 0.20810925960540771 0.37167707085609436
0.70354783535003662 0.16939225792884827 0.38258340954780579
0.83656221628189087 0.18206989765167236 0.42260569334030151
0.93595987558364868 0.29362210631370544 0.44450590014457703
0.47999557852745056 0.28842929005622864 0.35911014676094055
0.52422022819519043 0.31126579642295837 0.36291354894638062
0.57928907871246338 0.33805009722709656 0.3665187656879425
0.63673138618469238 0.34333488345146179 0.37719631195068359
0.7357790470123291 0.31714984774589539 0.38438338041305542
0.84953534603118896 0.3430044949054718 0.40158742666244507
0.93621563911437988 0.42062130570411682 0.42647403478622437
0.47807332873344421 0.44342026114463806 0.32566314935684204
0.51168406009674072 0.45041629672050476 0.32954469323158264
0.58804541826248169 0.46946409344673157 0.34333392977714539
0.67102348804473877 0.48854506015777588 0.35731622576713562
0.76608788967132568 0.49063310027122498 0.36727717518806458
0.85575544834136963 0.50825673341751099 0.38190242648124695
0.93296164274215698 0.54277920722961426 0.40912401676177979
0.52498555183410645 0.61983174085617065 0.31515559554100037
0.55484461784362793 0.61974602937698364 0.31982091069221497
0.61512672901153564 0.62971454858779907 0.3358345627784729
0.69929784536361694 0.64001810550689697 0.33821290731430054
0.79138290882110596 0.65951919555664062 0.40424448251724243
0.85998761653900146 0.65901881456375122 0.4287949800491333
0.92401373386383057 0.66788721084594727 0.41945585608482361
0.61598926782608032 0.75240600109100342 0.36926481127738953
0.64009386301040649 0.75147658586502075 0.37401214241981506
0.6779714822769165 0.75368732213973999 0.36262819170951843
0.73411279916763306 0.75968039035797119 0.33531239628791809
0.80691295862197876 0.76738065481185913 0.37924864888191223
0.87338030338287354 0.78283405303955078 0.50737076997756958
0.91951102018356323 0.78636616468429565 0.57319098711013794
0.72393167018890381 0.85144722461700439 0.47858482599258423
0.73138689994812012 0.84980136156082153 0.47215217351913452
0.75330573320388794 0.85296261310577393 0.45669320225715637
0.78947144746780396 0.85502594709396362 0.43537417054176331
0.83938789367675781 0.85995191335678101 0.42143478989601135
0.89970618486404419 0.86176449060440063 0.5415845513343811
0.94140374660491943 0.86616593599319458 0.65213161706924438
0.56976097822189331 0.15332317352294922 0.58145016431808472
0.58243697881698608 0.16187451779842377 0.5824311375617981
0.61810785531997681 0.1854049414396286 0.59222012758255005
0.67316865921020508 0.22659926116466522 0.60553789138793945
0.74073934555053711 0.24650460481643677 0.5890880823135376
0.82776963710784912 0.22223959863185883 0.57574933767318726
0.92888224124908447 0.26552993059158325 0.6327698826789856
0.60870164632797241 0.26813468337059021 0.58450722694396973
0.62201392650604248 0.27414488792419434 0.58393669128417969
0.65256243944168091 0.29298305511474609 0.59411239624023438
0.69868212938308716 0.32231852412223816 0.60441958904266357
0.7553023099899292 0.33222806453704834 0.58616787195205688
0.83437293767929077 0.30624425411224365 0.58145594596862793
0.92756402492523193 0.33115890622138977 0.63021570444107056
0.65651148557662964 0.40688589215278625 0.57877898216247559
0.66911685466766357 0.41906031966209412 0.57704645395278931
0.69554471969604492 0.43977189064025879 0.58243680000305176
0.73002916574478149 0.45834457874298096 0.59175336360931396
0.77245259284973145 0.46707308292388916 0.58501642942428589
0.8458675742149353 0.42829906940460205 0.58741074800491333
0.92431461811065674 0.44557896256446838 0.61924046277999878
0.63742804527282715 0.50142914056777954 0.56567752361297607
0.66352277994155884 0.51376807689666748 0.56729620695114136
0.70978009700775146 0.54569214582443237 0.56836622953414917
0.75276213884353638 0.57386088371276855 0.57217133045196533
0.79051178693771362 0.58231049776077271 0.58233398199081421
0.85059833526611328 0.54541528224945068 0.5839884877204895
0.91990059614181519 0.56851249933242798 0.59979099035263062
0.63822859525680542 0.63243675231933594 0.53509247303009033
0.65243411064147949 0.63742846250534058 0.53114515542984009
0.69100207090377808 0.64510941505432129 0.53458857536315918
0.74156296253204346 0.6553727388381958 0.54678750038146973
0.79710841178894043 0.67123526334762573 0.55999058485031128
0.85465407371520996 0.66779845952987671 0.56717377901077271
0.91736841201782227 0.67977762222290039 0.57850909233093262
0.67734706401824951 0.74446064233779907 0.53019005060195923
0.68203115463256836 0.74975162744522095 0.5393945574760437
0.70781040191650391 0.75390720367431641 0.5445435643196106
0.75420534610748291 0.75864100456237793 0.55699008703231812
0.80685311555862427 0.76512789726257324 0.5495641827583313
0.86839133501052856 0.78312176465988159 0.61835658550262451
0.91659778356552124 0.7851790189743042 0.63586688041687012
0.73067444562911987 0.84869033098220825 0.59931313991546631
0.74155253171920776 0.84860473871231079 0.60169589519500732
0.7562212347984314 0.85088509321212769 0.60357576608657837
0.79307669401168823 0.85341024398803711 0.60393011569976807
0.83390134572982788 0.85619074106216431 0.58320367336273193
0.88951671123504639 0.86141949892044067 0.62536013126373291
0.93500947952270508 0.86634629964828491 0.71404826641082764
0.6953389048576355 0.324491947889328 0.74112570285797119
0.7012641429901123 0.33736976981163025 0.73781776428222656
0.72584092617034912 0.36771151423454285 0.74443894624710083
0.75528091192245483 0.39683061838150024 0.74933618307113647
0.79142731428146362 0.44477984309196472 0.75381219387054443
0.83946853876113892 0.46717503666877747 0.74452048540115356
0.90009105205535889 0.45982441306114197 0.7304985523223877
0.72127664089202881 0.4282357394695282 0.73603928089141846
0.72868084907531738 0.42960095405578613 0.73863333463668823
0.74638122320175171 0.45084494352340698 0.74471777677536011
0.77104538679122925 0.47445160150527954 0.74648714065551758
0.80211520195007324 0.51340258121490479 0.75336068868637085
0.84207165241241455 0.52206230163574219 0.74287205934524536
0.90228569507598877 0.50887405872344971 0.74126291275024414
0.75709837675094604 0.55012285709381104 0.73250138759613037
0.76409399509429932 0.55435746908187866 0.73303520679473877
0.77400422096252441 0.56029832363128662 0.73628395795822144
0.79539471864700317 0.58441519737243652 0.74370986223220825
0.81629812717437744 0.60111373662948608 0.75002133846282959
0.84792542457580566 0.59633278846740723 0.73869889974594116
0.89655846357345581 0.57288050651550293 0.73264616727828979
0.77290761470794678 0.62090152502059937 0.72753167152404785
0.77976059913635254 0.63180851936340332 0.72704875469207764
0.79387122392654419 0.65077698230743408 0.72887003421783447
0.81073743104934692 0.66582673788070679 0.73329949378967285
0.83014911413192749 0.68051242828369141 0.74213451147079468
0.85360640287399292 0.67669355869293213 0.73887628316879272
0.895061194896698 0.64568048715591431 0.73515766859054565
0.74939614534378052 0.68850278854370117 0.71314805746078491
0.75757396221160889 0.69036543369293213 0.71633023023605347
0.78255784511566162 0.70450150966644287 0.71916645765304565
0.8129846453666687 0.71988320350646973 0.72407406568527222
0.83658349514007568 0.73416697978973389 0.72896510362625122
0.86227476596832275 0.73870432376861572 0.73618745803833008
0.90516036748886108 0.71128219366073608 0.73703354597091675
0.74450671672821045 0.76529192924499512 0.69747984409332275
0.74737274646759033 0.76360416412353516 0.69727557897567749
0.7678229808807373 0.76888996362686157 0.70299524068832397
0.79974639415740967 0.77442950010299683 0.70525234937667847
0.8294447660446167 0.7820509672164917 0.7142220139503479
0.87036937475204468 0.79272031784057617 0.72761160135269165
0.91315537691116333 0.79003429412841797 0.73088270425796509
0.77208071947097778 0.84314197301864624 0.72183549404144287
0.77865874767303467 0.84592640399932861 0.72169023752212524
0.7880670428276062 0.84964358806610107 0.72649466991424561
0.80847364664077759 0.85337299108505249 0.73025655746459961
0.83884537220001221 0.85721701383590698 0.73475569486618042
0.87798929214477539 0.86219507455825806 0.73032510280609131
0.93074965476989746 0.86989676952362061 0.78151553869247437
0.78872191905975342 0.5555608868598938 0.83900338411331177
0.79437720775604248 0.56136411428451538 0.84275346994400024
0.80249971151351929 0.57312899827957153 0.84295511245727539
0.81786078214645386 0.5899701714515686 0.84572654962539673
0.83519983291625977 0.6157798171043396 0.8496430516242981
0.85773366689682007 0.64244621992111206 0.85052675008773804
0.88217538595199585 0.64961236715316772 0.84593135118484497
0.80429238080978394 0.60685902833938599 0.84332627058029175
0.80690532922744751 0.60828351974487305 0.8433300256729126
0.81439745426177979 0.6174081563949585 0.84513372182846069
0.82529109716415405 0.63422280550003052 0.84477537870407104
0.83989298343658447 0.64964723587036133 0.84756559133529663
0.85997492074966431 0.66860014200210571 0.85107803344726562
0.88770437240600586 0.67223161458969116 0.84600377082824707
0.82031846046447754 0.67268353700637817 0.83967751264572144
0.82291042804718018 0.67258733510971069 0.84030371904373169
0.82890576124191284 0.67635482549667358 0.83916640281677246
0.83684659004211426 0.68666654825210571 0.84088397026062012
0.85042726993560791 0.69797015190124512 0.84534472227096558
0.86624407768249512 0.7097545862197876 0.84994399547576904
0.890735924243927 0.70942819118499756 0.84390723705291748
0.83298695087432861 0.72234785556793213 0.83799260854721069
0.83544206619262695 0.72840988636016846 0.83850938081741333
0.8417809009552002 0.73138761520385742 0.83843827247619629
0.84913867712020874 0.73543453216552734 0.83914303779602051
0.86169171333312988 0.74523615837097168 0.8429449200630188
0.87437242269515991 0.7541007399559021 0.84918969869613647
0.89273107051849365 0.75299632549285889 0.84958702325820923
0.83401787281036377 0.75545293092727661 0.83623814582824707
0.83789229393005371 0.75990265607833862 0.83736473321914673
0.84571188688278198 0.7670513391494751 0.83731281757354736
0.85997182130813599 0.77870708703994751 0.83983302116394043
0.8732183575630188 0.78911882638931274 0.84297007322311401
0.88510984182357788 0.79633951187133789 0.85022830963134766
0.90129971504211426 0.79374033212661743 0.84987336397171021
0.81618726253509521 0.8039436936378479 0.83324247598648071
0.81909984350204468 0.80233412981033325 0.83397990465164185
0.8327174186706543 0.80808103084564209 0.83665710687637329
0.85152179002761841 0.81394290924072266 0.83741670846939087
0.87654542922973633 0.82364141941070557 0.84364748001098633
0.89796167612075806 0.8346361517906189 0.85448700189590454
0.91738671064376831 0.83792930841445923 0.85733163356781006
0.81721955537796021 0.85923922061920166 0.83789026737213135
0.82460033893585205 0.85907441377639771 0.84095263481140137
0.83297479152679443 0.86084830760955811 0.84174233675003052
0.84790277481079102 0.86156433820724487 0.84191077947616577
0.87113022804260254 0.86567938327789307 0.84890800714492798
0.89706587791442871 0.86712533235549927 0.85120874643325806
0.93301600217819214 0.87949162721633911 0.86551392078399658
