luts/instant_consumer/polaroid_px-70_warm_++.cube
# Created by: G'MIC (https://gmic.eu)
TITLE "polaroid_px-70_warm_++"
# LUT size
LUT_3D_SIZE 13
# Data domain
DOMAIN_MIN 0.0 0.0 0.0
DOMAIN_MAX 1.0 1.0 1.0
# LUT data points
0.42512699961662292 0.26533430814743042 0.16556505858898163
0.43061640858650208 0.26645681262016296 0.16544117033481598
0.43708318471908569 0.26666668057441711 0.16544117033481598
0.44356516003608704 0.2666211724281311 0.16533777117729187
0.45076724886894226 0.26547649502754211 0.16470588743686676
0.46681642532348633 0.26506203413009644 0.16470588743686676
0.50853925943374634 0.26797178387641907 0.16194853186607361
0.57351624965667725 0.27378222346305847 0.15926907956600189
0.6672942042350769 0.28955826163291931 0.15296821296215057
0.78795492649078369 0.32485124468803406 0.13676553964614868
0.90546667575836182 0.38487476110458374 0.11274342238903046
0.98481476306915283 0.44942256808280945 0.09634978324174881
1 0.50561153888702393 0.11058822274208069
0.42506128549575806 0.26763689517974854 0.1659645140171051
0.42989432811737061 0.26888871192932129 0.16544117033481598
0.43575599789619446 0.27013558149337769 0.16544117033481598
0.44158914685249329 0.26970130205154419 0.16537044942378998
0.44966718554496765 0.26858669519424438 0.16474321484565735
0.47431257367134094 0.2699507474899292 0.16467593610286713
0.51717299222946167 0.27362975478172302 0.16151329874992371
0.58303892612457275 0.28168615698814392 0.15784266591072083
0.67449873685836792 0.30083820223808289 0.14954851567745209
0.7958226203918457 0.34263277053833008 0.13072478771209717
0.91233396530151367 0.40128743648529053 0.10584812611341476
0.98478180170059204 0.46506574749946594 0.093481458723545074
0.99978262186050415 0.52088445425033569 0.11128269135951996
0.42451459169387817 0.27101156115531921 0.16546747088432312
0.42914369702339172 0.27303361892700195 0.1649738997220993
0.43342733383178711 0.27510976791381836 0.16487821936607361
0.44031748175621033 0.27542603015899658 0.16475363075733185
0.45173141360282898 0.27575936913490295 0.16456355154514313
0.48288434743881226 0.27931973338127136 0.1622253954410553
0.52606070041656494 0.28406158089637756 0.160016268491745
0.59416317939758301 0.29708683490753174 0.15457598865032196
0.685280442237854 0.31897929310798645 0.14564307034015656
0.80192500352859497 0.36412534117698669 0.1243506520986557
0.91359758377075195 0.42472186684608459 0.096455670893192291
0.98408675193786621 0.48637735843658447 0.084032319486141205
0.99910187721252441 0.54050910472869873 0.10889307409524918
0.4244970977306366 0.28447994589805603 0.16488558053970337
0.42892158031463623 0.28755554556846619 0.16470588743686676
0.43320289254188538 0.28849685192108154 0.16470588743686676
0.44274261593818665 0.28911307454109192 0.16462886333465576
0.46320691704750061 0.29403942823410034 0.16220287978649139
0.49547681212425232 0.2995142936706543 0.15838406980037689
0.54138362407684326 0.30544385313987732 0.15392285585403442
0.60922616720199585 0.32162356376647949 0.1479538232088089
0.6997789740562439 0.34890994429588318 0.13731127977371216
0.81275427341461182 0.39802205562591553 0.11172924935817719
0.91731041669845581 0.46108460426330566 0.081097006797790527
0.98441743850708008 0.5170331597328186 0.070873811841011047
0.99874246120452881 0.56227076053619385 0.10095629096031189
0.42540138959884644 0.31465712189674377 0.16365882754325867
0.42904892563819885 0.31623193621635437 0.16347679495811462
0.43553474545478821 0.31760647892951965 0.16327454149723053
0.45122221112251282 0.32451215386390686 0.16254206001758575
0.47202631831169128 0.32602846622467041 0.16030780971050262
0.5087815523147583 0.33413618803024292 0.15524569153785706
0.5600210428237915 0.35001495480537415 0.14745363593101501
0.63020837306976318 0.36838668584823608 0.13788886368274689
0.71547114849090576 0.39315292239189148 0.12337113916873932
0.82010918855667114 0.44422900676727295 0.091226138174533844
0.91991549730300903 0.50440686941146851 0.055811218917369843
0.98230278491973877 0.55363732576370239 0.05001995712518692
0.99870580434799194 0.59062653779983521 0.088376931846141815
0.42508867383003235 0.36655643582344055 0.16165836155414581
0.42950326204299927 0.36905655264854431 0.16117022931575775
0.43885108828544617 0.37212792038917542 0.16075637936592102
0.45734089612960815 0.37916630506515503 0.15958729386329651
0.48063927888870239 0.38421201705932617 0.15698711574077606
0.52129119634628296 0.39289137721061707 0.15068067610263824
0.57954055070877075 0.40998780727386475 0.1394561231136322
0.6530463695526123 0.43455469608306885 0.12469162046909332
0.73706912994384766 0.46571099758148193 0.098716467618942261
0.83105367422103882 0.5067935585975647 0.055931508541107178
0.91511404514312744 0.54853171110153198 0.023338841274380684
0.9770960807800293 0.59147655963897705 0.021558035165071487
0.99859058856964111 0.62532472610473633 0.073566064238548279
0.42141801118850708 0.44886216521263123 0.15503779053688049
0.42778661847114563 0.4466613233089447 0.15576142072677612
0.43958279490470886 0.44630825519561768 0.15653534233570099
0.45919355750083923 0.45162424445152283 0.15602642297744751
0.49011522531509399 0.45933175086975098 0.15191376209259033
0.53557848930358887 0.47176548838615417 0.14380449056625366
0.60044819116592407 0.49380362033843994 0.12989982962608337
0.67958289384841919 0.52030843496322632 0.10669626295566559
0.76425105333328247 0.55315542221069336 0.072330445051193237
0.84893625974655151 0.58827787637710571 0.027421450242400169
0.91571342945098877 0.61139339208602905 0.0070258197374641895
0.96715247631072998 0.63252341747283936 0.0091831432655453682
0.9979320764541626 0.65895766019821167 0.056000024080276489
0.41524526476860046 0.56053519248962402 0.14540119469165802
0.42534580826759338 0.55559563636779785 0.14794902503490448
0.44087022542953491 0.55407869815826416 0.15047261118888855
0.46643221378326416 0.55764180421829224 0.15108422935009003
0.50396859645843506 0.56506860256195068 0.14816470444202423
0.55805337429046631 0.57805997133255005 0.13913546502590179
0.62506359815597534 0.5947909951210022 0.12485548853874207
0.70079183578491211 0.61487334966659546 0.10582178086042404
0.78608608245849609 0.64101356267929077 0.074635043740272522
0.8572765588760376 0.66139239072799683 0.044691331684589386
0.91650980710983276 0.67760258913040161 0.037700038403272629
0.96504920721054077 0.69022089242935181 0.055549412965774536
0.99571263790130615 0.70337426662445068 0.094147473573684692
0.42329990863800049 0.67399704456329346 0.15233930945396423
0.4336332380771637 0.66879600286483765 0.15340736508369446
0.45175009965896606 0.66403305530548096 0.15507808327674866
0.48414996266365051 0.66852772235870361 0.1626182496547699
0.52440798282623291 0.67133241891860962 0.16578130424022675
0.58067089319229126 0.67996120452880859 0.16056725382804871
0.64803361892700195 0.69094431400299072 0.153525710105896
0.71820926666259766 0.70113855600357056 0.14424450695514679
0.78929829597473145 0.71283423900604248 0.13059571385383606
0.86039584875106812 0.72734856605529785 0.12218639999628067
0.91758006811141968 0.73810666799545288 0.12829300761222839
0.96304953098297119 0.74866974353790283 0.15839031338691711
0.99473929405212402 0.75857681035995483 0.19848194718360901
0.47183001041412354 0.76211780309677124 0.20723722875118256
0.48265698552131653 0.76026934385299683 0.20857435464859009
0.49252092838287354 0.75169599056243896 0.20217761397361755
0.52247440814971924 0.75020235776901245 0.21012017130851746
0.56608802080154419 0.75643724203109741 0.22516697645187378
0.61750233173370361 0.76143014430999756 0.22970893979072571
0.67625671625137329 0.76421248912811279 0.22883264720439911
0.73961377143859863 0.77072936296463013 0.22870828211307526
0.80372267961502075 0.78058290481567383 0.23544657230377197
0.86354035139083862 0.7847251296043396 0.23080776631832123
0.91582411527633667 0.7915765643119812 0.23679164052009583
0.96122753620147705 0.80281656980514526 0.26920735836029053
0.9910588264465332 0.80893462896347046 0.30562126636505127
0.56642049551010132 0.82559698820114136 0.3043462336063385
0.57161527872085571 0.82366514205932617 0.30334436893463135
0.58268004655838013 0.81950807571411133 0.30244678258895874
0.60483312606811523 0.81867903470993042 0.3073689341545105
0.63967478275299072 0.81851446628570557 0.31827583909034729
0.67930281162261963 0.82285106182098389 0.33046528697013855
0.72536993026733398 0.82497102022171021 0.33399736881256104
0.77754288911819458 0.83100074529647827 0.34159746766090393
0.82685065269470215 0.83448821306228638 0.34793826937675476
0.87502861022949219 0.83857226371765137 0.35506418347358704
0.91614741086959839 0.84262269735336304 0.35966342687606812
0.95443588495254517 0.84841746091842651 0.37458232045173645
0.98480510711669922 0.8532378077507019 0.40140044689178467
0.69591236114501953 0.87482351064682007 0.41277548670768738
0.69620698690414429 0.87199991941452026 0.41071951389312744
0.70549595355987549 0.87106037139892578 0.41226518154144287
0.71935766935348511 0.8703572154045105 0.4135303795337677
0.74036514759063721 0.87038934230804443 0.41913557052612305
0.76695626974105835 0.87142068147659302 0.42835402488708496
0.79640322923660278 0.87444263696670532 0.43556672334671021
0.83047515153884888 0.87752479314804077 0.44021421670913696
0.8640289306640625 0.87956118583679199 0.44434669613838196
0.89644432067871094 0.87916702032089233 0.44699826836585999
0.92690581083297729 0.88174116611480713 0.45073124766349792
0.955283522605896 0.88575100898742676 0.45855161547660828
0.97894918918609619 0.88866335153579712 0.47609820961952209
0.81921845674514771 0.90792107582092285 0.49095499515533447
0.81783443689346313 0.90696829557418823 0.48955753445625305
0.82223004102706909 0.90628886222839355 0.48968642950057983
0.83088123798370361 0.90576732158660889 0.49013006687164307
0.84150892496109009 0.90539699792861938 0.49254956841468811
0.85676729679107666 0.90668958425521851 0.50036895275115967
0.87365061044692993 0.9080129861831665 0.50638824701309204
0.89087653160095215 0.90896111726760864 0.50956046581268311
0.90597867965698242 0.91052311658859253 0.51082557439804077
0.92722690105438232 0.91129261255264282 0.51499646902084351
0.94613522291183472 0.91331988573074341 0.51947176456451416
0.96279704570770264 0.9159388542175293 0.52611637115478516
0.9747927188873291 0.9181818962097168 0.53802859783172607
0.42581254243850708 0.26668784022331238 0.16862745583057404
0.429159015417099 0.26699608564376831 0.16862745583057404
0.43453723192214966 0.26703807711601257 0.16862745583057404
0.44129747152328491 0.26673093438148499 0.1686188280582428
0.44938498735427856 0.26555737853050232 0.16829878091812134
0.46950504183769226 0.26512798666954041 0.16590049862861633
0.51244717836380005 0.26696577668190002 0.16400022804737091
0.58291220664978027 0.27474233508110046 0.16234055161476135
0.68215203285217285 0.29210549592971802 0.15770676732063293
0.79791915416717529 0.32738593220710754 0.14840345084667206
0.91311192512512207 0.38803628087043762 0.13312409818172455
0.98655229806900024 0.45365086197853088 0.12825649976730347
0.99994868040084839 0.51019018888473511 0.14796669781208038
0.42577111721038818 0.27029123902320862 0.16880927979946136
0.42907053232192993 0.27057495713233948 0.16862745583057404
0.43434581160545349 0.27110284566879272 0.16862745583057404
0.44121083617210388 0.27100008726119995 0.16862155497074127
0.45355889201164246 0.27028730511665344 0.16781200468540192
0.47537589073181152 0.2697695791721344 0.16546295583248138
0.5201488733291626 0.27405816316604614 0.16364216804504395
0.59078365564346313 0.28276228904724121 0.16129869222640991
0.68718183040618896 0.30171993374824524 0.15600161254405975
0.8040958046913147 0.34453082084655762 0.14453832805156708
0.91996878385543823 0.40499499440193176 0.12848015129566193
0.98707616329193115 0.46912872791290283 0.12668707966804504
0.9992985725402832 0.52662169933319092 0.15238676965236664
0.42630183696746826 0.27621862292289734 0.16927675902843475
0.42860981822013855 0.27561560273170471 0.16858850419521332
0.43324705958366394 0.27570319175720215 0.16853581368923187
0.44252121448516846 0.27664989233016968 0.16823391616344452
0.45995393395423889 0.27878111600875854 0.16615743935108185
0.48472893238067627 0.28023141622543335 0.16379848122596741
0.53291958570480347 0.28728392720222473 0.16212688386440277
0.60315179824829102 0.30053526163101196 0.15894682705402374
0.70004779100418091 0.32549798488616943 0.15295468270778656
0.81291085481643677 0.36826550960540771 0.138079434633255
0.92314320802688599 0.43070164322853088 0.12080842256546021
0.98799484968185425 0.49149349331855774 0.11968530714511871
0.99933570623397827 0.54486781358718872 0.14777116477489471
0.42725223302841187 0.29095417261123657 0.16859710216522217
0.42907345294952393 0.28988561034202576 0.16826455295085907
0.43344795703887939 0.28910750150680542 0.1679045706987381
0.44626417756080627 0.29301297664642334 0.16746020317077637
0.46755072474479675 0.29724103212356567 0.16479752957820892
0.4956393837928772 0.29951715469360352 0.16132301092147827
0.54829925298690796 0.30763897299766541 0.15834875404834747
0.62151092290878296 0.32528930902481079 0.15413695573806763
0.71249878406524658 0.3541780412197113 0.14490491151809692
0.82144010066986084 0.40254798531532288 0.12671920657157898
0.92428058385848999 0.4663006067276001 0.10948272049427032
0.98771685361862183 0.52073538303375244 0.11034455895423889
0.99987441301345825 0.56740212440490723 0.14068801701068878
0.42745020985603333 0.31762832403182983 0.16763231158256531
0.43048152327537537 0.31949079036712646 0.16735090315341949
0.43796595931053162 0.32141342759132385 0.16772137582302094
0.45149704813957214 0.326090008020401 0.16730645298957825
0.47376978397369385 0.33040857315063477 0.16528889536857605
0.5135796070098877 0.34326034784317017 0.1609770804643631
0.56895178556442261 0.35503086447715759 0.15368537604808807
0.63985490798950195 0.36998370289802551 0.14578062295913696
0.72832977771759033 0.40061214566230774 0.13083182275295258
0.82952725887298584 0.45218673348426819 0.1074085608124733
0.92337071895599365 0.50853186845779419 0.08978232741355896
0.9828178882598877 0.55493879318237305 0.093904085457324982
0.99879944324493408 0.59722745418548584 0.13429915904998779
0.42729344964027405 0.37484860420227051 0.16799996793270111
0.43200689554214478 0.37608975172042847 0.16759918630123138
0.44140750169754028 0.37794667482376099 0.16710205376148224
0.45778757333755493 0.38318422436714172 0.16598103940486908
0.48363631963729858 0.38888099789619446 0.16387757658958435
0.527629554271698 0.40024659037590027 0.15882126986980438
0.58856552839279175 0.41729691624641418 0.14734189212322235
0.66178375482559204 0.43975889682769775 0.13335154950618744
0.74779742956161499 0.47304829955101013 0.11024739593267441
0.83881282806396484 0.51137596368789673 0.081187322735786438
0.91970795392990112 0.55283766984939575 0.059649106115102768
0.97798562049865723 0.59362161159515381 0.070484757423400879
0.99832123517990112 0.62876641750335693 0.11938238888978958
0.42293587327003479 0.46225208044052124 0.16316695511341095
0.43072736263275146 0.45767959952354431 0.1648736298084259
0.44424143433570862 0.45476368069648743 0.16612115502357483
0.46244135499000549 0.4568595290184021 0.16392482817173004
0.49509677290916443 0.46553495526313782 0.16159628331661224
0.54487895965576172 0.48140072822570801 0.15528306365013123
0.60898303985595703 0.4988868236541748 0.14212672412395477
0.68816274404525757 0.5275084376335144 0.12235213816165924
0.77521926164627075 0.56195861101150513 0.094861738383769989
0.85542881488800049 0.59140920639038086 0.064726673066616058
0.92244511842727661 0.61402541399002075 0.043962486088275909
0.97364908456802368 0.63543087244033813 0.05007253959774971
0.99920785427093506 0.66164708137512207 0.1031331941485405
0.41854953765869141 0.57199966907501221 0.15782873332500458
0.42940926551818848 0.5623360276222229 0.16049323976039886
0.44627875089645386 0.55881571769714355 0.16249895095825195
0.46938368678092957 0.55930209159851074 0.16291579604148865
0.50714915990829468 0.56741750240325928 0.16353586316108704
0.56246650218963623 0.5805363655090332 0.15664702653884888
0.63199657201766968 0.59794348478317261 0.14467136561870575
0.70924031734466553 0.6216091513633728 0.12850154936313629
0.79140937328338623 0.64535415172576904 0.10499744862318039
0.86124157905578613 0.66376388072967529 0.089292936027050018
0.91876816749572754 0.67853683233261108 0.086054511368274689
0.96666789054870605 0.6899116039276123 0.099874980747699738
0.99592840671539307 0.70355594158172607 0.13041341304779053
0.42659074068069458 0.67926740646362305 0.16951458156108856
0.43979567289352417 0.67282956838607788 0.17156006395816803
0.45900812745094299 0.66882330179214478 0.17343650758266449
0.4880136251449585 0.67030322551727295 0.17937867343425751
0.52758669853210449 0.67345291376113892 0.18433564901351929
0.58533334732055664 0.68309998512268066 0.18307363986968994
0.65255260467529297 0.69396084547042847 0.17699822783470154
0.7246934175491333 0.70826888084411621 0.16889634728431702
0.79500466585159302 0.71831846237182617 0.16049881279468536
0.86270397901535034 0.72892838716506958 0.15553753077983856
0.91905134916305542 0.7391359806060791 0.16400682926177979
0.96305817365646362 0.74797844886779785 0.18872155249118805
0.99454909563064575 0.75816267728805542 0.22113797068595886
0.47847554087638855 0.76497936248779297 0.22549447417259216
0.48664814233779907 0.76017040014266968 0.22282619774341583
0.501556396484375 0.75630855560302734 0.22312617301940918
0.53026646375656128 0.75677180290222168 0.2301478236913681
0.57114523649215698 0.7583586573600769 0.24133504927158356
0.62399399280548096 0.76293498277664185 0.2496151328086853
0.68254905939102173 0.76661652326583862 0.25028187036514282
0.74683248996734619 0.77318763732910156 0.25072970986366272
0.80634957551956177 0.78122472763061523 0.25868847966194153
0.86716955900192261 0.78777420520782471 0.2581268846988678
0.91738671064376831 0.79344028234481812 0.26344627141952515
0.95930486917495728 0.80130612850189209 0.28926479816436768
0.98995798826217651 0.80993866920471191 0.32592058181762695
0.57794630527496338 0.8279150128364563 0.32066857814788818
0.58190357685089111 0.82516801357269287 0.31942430138587952
0.59240198135375977 0.81873995065689087 0.31523588299751282
0.61468333005905151 0.81851613521575928 0.32074803113937378
0.64671224355697632 0.82030302286148071 0.33173930644989014
0.68609142303466797 0.82309335470199585 0.34482985734939575
0.73114013671875 0.82554107904434204 0.35096639394760132
0.78099274635314941 0.82933229207992554 0.35645756125450134
0.82818883657455444 0.83470988273620605 0.36492621898651123
0.87492609024047852 0.83915108442306519 0.37026852369308472
0.91530460119247437 0.84237146377563477 0.37287142872810364
0.95368748903274536 0.84716123342514038 0.38807493448257446
0.98448580503463745 0.85440611839294434 0.41402727365493774
0.70345079898834229 0.87438219785690308 0.41946542263031006
0.70556747913360596 0.87240993976593018 0.41895949840545654
0.71330809593200684 0.87060487270355225 0.41921404004096985
0.7265816330909729 0.87075865268707275 0.42210164666175842
0.74694830179214478 0.87086886167526245 0.42750090360641479
0.77227509021759033 0.8706703782081604 0.43489480018615723
0.80051267147064209 0.87199491262435913 0.44152930378913879
0.83443206548690796 0.87478858232498169 0.44592064619064331
0.86581873893737793 0.8781624436378479 0.45128992199897766
0.89592963457107544 0.87915694713592529 0.45192840695381165
0.92467206716537476 0.88159084320068359 0.45548754930496216
0.95529520511627197 0.88516616821289062 0.46462884545326233
0.98010051250457764 0.88867855072021484 0.48059850931167603
0.82400017976760864 0.90815931558609009 0.49447339773178101
0.82340842485427856 0.90736526250839233 0.49306663870811462
0.82668638229370117 0.90669471025466919 0.49211606383323669
0.83425241708755493 0.90653890371322632 0.49347624182701111
0.84539186954498291 0.90610915422439575 0.49733474850654602
0.85952329635620117 0.90558409690856934 0.50195020437240601
0.87516272068023682 0.90650057792663574 0.50714951753616333
0.89186972379684448 0.90790241956710815 0.51008176803588867
0.91017740964889526 0.91084533929824829 0.51428616046905518
0.92781299352645874 0.91108381748199463 0.51769089698791504
0.94490885734558105 0.91294026374816895 0.52225798368453979
0.96232914924621582 0.91588109731674194 0.52984964847564697
0.97554880380630493 0.91842252016067505 0.5404089093208313
0.42585784196853638 0.26717093586921692 0.17242647707462311
0.42892158031463623 0.26774695515632629 0.17242647707462311
0.4323238730430603 0.26789554953575134 0.17191267013549805
0.43717008829116821 0.26735576987266541 0.17090101540088654
0.44679480791091919 0.2663663923740387 0.17037826776504517
0.47119787335395813 0.2646976113319397 0.17067186534404755
0.51762419939041138 0.26424896717071533 0.16989511251449585
0.59156852960586548 0.26864546537399292 0.17120395600795746
0.69337767362594604 0.2850080132484436 0.17221835255622864
0.81227493286132812 0.32751482725143433 0.17729516327381134
0.92360842227935791 0.39233243465423584 0.17383953928947449
0.98872232437133789 0.45699727535247803 0.17782105505466461
0.99996030330657959 0.51388591527938843 0.20230609178543091
0.42666006088256836 0.27196410298347473 0.17271265387535095
0.42904409766197205 0.2719036340713501 0.17281261086463928
0.43312394618988037 0.27213895320892334 0.17193715274333954
0.43915325403213501 0.27202686667442322 0.17132169008255005
0.45364284515380859 0.2716667652130127 0.17119982838630676
0.47895523905754089 0.2709660530090332 0.17241033911705017
0.52803218364715576 0.27367684245109558 0.17318108677864075
0.60161203145980835 0.28113904595375061 0.17214818298816681
0.70425689220428467 0.30401289463043213 0.17390488088130951
0.82239240407943726 0.34754264354705811 0.1738053560256958
0.92986232042312622 0.40892964601516724 0.1699482649564743
0.99092251062393188 0.47238105535507202 0.17726495862007141
0.99995636940002441 0.53332239389419556 0.20980195701122284
0.42745098471641541 0.28045529127120972 0.17405495047569275
0.42882978916168213 0.27770087122917175 0.17275139689445496
0.43268540501594543 0.27583122253417969 0.17103606462478638
0.4432370662689209 0.27721032500267029 0.17140646278858185
0.46225354075431824 0.28008368611335754 0.17220787703990936
0.48935985565185547 0.2823328971862793 0.17303662002086639
0.54087561368942261 0.28914138674736023 0.17241986095905304
0.613719642162323 0.30156770348548889 0.17207781970500946
0.71385025978088379 0.32717040181159973 0.17183955013751984
0.82980382442474365 0.37397456169128418 0.16674128174781799
0.93264353275299072 0.43599823117256165 0.16364447772502899
0.98959314823150635 0.49484330415725708 0.17388498783111572
0.99950796365737915 0.55155998468399048 0.20628561079502106
0.42748814821243286 0.29336565732955933 0.17401549220085144
0.43001529574394226 0.29162368178367615 0.17311273515224457
0.43371826410293579 0.28845465183258057 0.17175003886222839
0.44927924871444702 0.29432004690170288 0.17278039455413818
0.47193911671638489 0.30022183060646057 0.1737789511680603
0.50378221273422241 0.3043215274810791 0.17263823747634888
0.55874472856521606 0.31329450011253357 0.17155559360980988
0.63276207447052002 0.32904678583145142 0.17010430991649628
0.7265239953994751 0.36010974645614624 0.16517253220081329
0.83687925338745117 0.41156482696533203 0.15705238282680511
0.93304264545440674 0.47044083476066589 0.1550687700510025
0.98980361223220825 0.52473890781402588 0.16707691550254822
0.99998492002487183 0.57458889484405518 0.20131130516529083
0.42964479327201843 0.32251086831092834 0.17607761919498444
0.43316829204559326 0.32368448376655579 0.17609919607639313
0.44016918540000916 0.32253387570381165 0.17578727006912231
0.455454021692276 0.32986903190612793 0.17658266425132751
0.48098629713058472 0.3357301652431488 0.17672932147979736
0.52009636163711548 0.34485802054405212 0.17214080691337585
0.57549208402633667 0.35437741875648499 0.16763885319232941
0.64908629655838013 0.3715989887714386 0.16304256021976471
