luts/instant_consumer/polaroid_px-100uv+_warm_++.cube
# Created by: G'MIC (https://gmic.eu)
TITLE "polaroid_px-100uv+_warm_++"
# LUT size
LUT_3D_SIZE 7
# Data domain
DOMAIN_MIN 0.0 0.0 0.0
DOMAIN_MAX 1.0 1.0 1.0
# LUT data points
0.42352941632270813 0.38428571820259094 0.38823530077934265
0.4239078164100647 0.38452664017677307 0.38842019438743591
0.4266502857208252 0.38630136847496033 0.39046177268028259
0.44570595026016235 0.40629422664642334 0.41071715950965881
0.49393662810325623 0.45878073573112488 0.46186989545822144
0.56007784605026245 0.53024506568908691 0.52961301803588867
0.62982690334320068 0.60542738437652588 0.59926921129226685
0.42324739694595337 0.38393819332122803 0.38823530077934265
0.42532128095626831 0.38622042536735535 0.39001303911209106
0.43017253279685974 0.39117756485939026 0.39544311165809631
0.45075401663780212 0.4129086434841156 0.41791141033172607
0.4961087703704834 0.46139886975288391 0.46594801545143127
0.55983757972717285 0.52963632345199585 0.53068739175796509
0.63084882497787476 0.60667747259140015 0.60077321529388428
0.43416723608970642 0.39534720778465271 0.40008342266082764
0.43574684858322144 0.39715522527694702 0.40142467617988586
0.44142377376556396 0.40353286266326904 0.40783092379570007
0.46127200126647949 0.42446371912956238 0.42963489890098572
0.50150281190872192 0.46679285168647766 0.47265198826789856
0.56011641025543213 0.52950644493103027 0.53217065334320068
0.63487595319747925 0.61017036437988281 0.60455179214477539
0.46847060322761536 0.43134784698486328 0.43625599145889282
0.46998104453086853 0.43315050005912781 0.43760806322097778
0.47430881857872009 0.4383394718170166 0.44246077537536621
0.49063518643379211 0.45576366782188416 0.46050357818603516
0.52463936805725098 0.49131810665130615 0.49658757448196411
0.57547986507415771 0.54519587755203247 0.54800844192504883
0.64569282531738281 0.62111800909042358 0.61540877819061279
0.52780485153198242 0.49462595582008362 0.49746072292327881
0.52997893095016479 0.49695780873298645 0.49952828884124756
0.53304857015609741 0.50066912174224854 0.50318056344985962
0.54678523540496826 0.51530182361602783 0.51765626668930054
0.57587093114852905 0.54600018262863159 0.54733920097351074
0.61833077669143677 0.59099972248077393 0.58946973085403442
0.67217814922332764 0.64905798435211182 0.64132916927337646
0.61402243375778198 0.58696740865707397 0.58334600925445557
0.61358588933944702 0.58598977327346802 0.5827634334564209
0.61441242694854736 0.58679509162902832 0.58390742540359497
0.62582045793533325 0.59908473491668701 0.59547191858291626
0.64891272783279419 0.62372428178787231 0.61824434995651245
0.67835360765457153 0.65498536825180054 0.64700400829315186
0.71511143445968628 0.69431102275848389 0.68260413408279419
0.71397608518600464 0.69276827573776245 0.67973035573959351
0.7094842791557312 0.68774712085723877 0.67564284801483154
0.70809829235076904 0.68625980615615845 0.67441684007644653
0.7170644998550415 0.69549655914306641 0.68306553363800049
0.733268141746521 0.71266114711761475 0.69895696640014648
0.7470971941947937 0.72775965929031372 0.71277779340744019
0.76745718717575073 0.75034111738204956 0.73292559385299683
0.42205703258514404 0.38068479299545288 0.38823062181472778
0.42654678225517273 0.38637778162956238 0.39199811220169067
0.43340501189231873 0.39413034915924072 0.39932465553283691
0.46259826421737671 0.42642337083816528 0.43120607733726501
0.51934289932250977 0.48826321959495544 0.4913475513458252
0.58410227298736572 0.55754178762435913 0.55674159526824951
0.64944243431091309 0.62788647413253784 0.62131971120834351
0.42347016930580139 0.38410082459449768 0.38938796520233154
0.43071433901786804 0.39235702157020569 0.39677989482879639
0.44167721271514893 0.40434226393699646 0.40881535410881042
0.47032433748245239 0.43551412224769592 0.44036886096000671
0.52274066209793091 0.49151527881622314 0.49554169178009033
0.58543640375137329 0.55819201469421387 0.55857747793197632
0.65077263116836548 0.62824302911758423 0.62252545356750488
0.44279775023460388 0.4049886167049408 0.40964087843894958
0.44896015524864197 0.41191810369491577 0.41611364483833313
0.45835697650909424 0.42233738303184509 0.4262867271900177
0.4822782576084137 0.44784140586853027 0.45245411992073059
0.52749347686767578 0.49581173062324524 0.50027292966842651
0.58632373809814453 0.55810880661010742 0.55938541889190674
0.65213394165039062 0.62872838973999023 0.62319260835647583
0.49334016442298889 0.45821213722229004 0.46308183670043945
0.49384018778800964 0.45897194743156433 0.46320563554763794
0.49454164505004883 0.46062961220741272 0.46436873078346252
0.50983190536499023 0.47691619396209717 0.48098111152648926
0.54633349180221558 0.51509100198745728 0.51904523372650146
0.59784889221191406 0.5698016881942749 0.57051372528076172
0.65995246171951294 0.63632345199584961 0.6302221417427063
0.55391484498977661 0.52269935607910156 0.5260242223739624
0.55485278367996216 0.52370834350585938 0.52636921405792236
0.55016934871673584 0.51949179172515869 0.52225857973098755
0.5590510368347168 0.52916663885116577 0.53146910667419434
0.58785998821258545 0.55920153856277466 0.56031972169876099
0.62993812561035156 0.60365158319473267 0.60147273540496826
0.68125969171524048 0.65857917070388794 0.65057599544525146
0.62601548433303833 0.60002630949020386 0.59770506620407104
0.62846016883850098 0.60211062431335449 0.59951841831207275
0.6233900785446167 0.59698092937469482 0.59470862150192261
0.62979233264923096 0.60371166467666626 0.60095721483230591
0.65167570114135742 0.62668699026107788 0.62199229001998901
0.68109911680221558 0.65784204006195068 0.65034514665603638
0.71790540218353271 0.69730114936828613 0.6855924129486084
0.71664535999298096 0.69596284627914429 0.6840512752532959
0.71637535095214844 0.69501018524169922 0.68344485759735107
0.71320968866348267 0.69140303134918213 0.68023025989532471
0.71644443273544312 0.6950111985206604 0.68351274728775024
0.72821205854415894 0.70758730173110962 0.69487446546554565
0.74373608827590942 0.72398686408996582 0.70987343788146973
0.76589477062225342 0.74812573194503784 0.73126512765884399
0.4387359619140625 0.3988497257232666 0.4066283106803894
0.44715583324432373 0.40859320759773254 0.41472846269607544
0.45719113945960999 0.42015942931175232 0.42503291368484497
0.48481017351150513 0.45085865259170532 0.45497936010360718
0.54412424564361572 0.5155525803565979 0.51743930578231812
0.61031383275985718 0.58666735887527466 0.58432310819625854
0.67173141241073608 0.65267622470855713 0.64483118057250977
0.44347599148750305 0.40592795610427856 0.41139248013496399
0.45538491010665894 0.4193359911441803 0.42386725544929504
0.47209653258323669 0.43774724006652832 0.44171944260597229
0.50152570009231567 0.46934822201728821 0.47321590781211853
0.55445975065231323 0.52568173408508301 0.52824681997299194
0.61518239974975586 0.59032624959945679 0.58905649185180664
0.67259913682937622 0.6521570086479187 0.64516687393188477
0.46313685178756714 0.42823189496994019 0.43219566345214844
0.47891169786453247 0.44495910406112671 0.4486091136932373
0.49533337354660034 0.46240493655204773 0.46576628088951111
0.52142387628555298 0.48989704251289368 0.49312487244606018
0.56674700975418091 0.53735601902008057 0.53946232795715332
0.61996877193450928 0.59382230043411255 0.59251827001571655
0.67425310611724854 0.65237367153167725 0.64531153440475464
0.52287155389785767 0.49097475409507751 0.49529817700386047
0.52931851148605347 0.4978758692741394 0.50104689598083496
0.53421121835708618 0.50318878889083862 0.50578343868255615
0.54947566986083984 0.51918321847915649 0.52137047052383423
0.58313542604446411 0.55431520938873291 0.55506670475006104
0.62907153367996216 0.60288649797439575 0.60042476654052734
0.68131065368652344 0.65878748893737793 0.6505851149559021
0.58690154552459717 0.5586090087890625 0.56077128648757935
0.59365224838256836 0.56496834754943848 0.56603944301605225
0.587421715259552 0.55897098779678345 0.55964255332946777
0.59129065275192261 0.56332075595855713 0.56350713968276978
0.61449635028839111 0.58751696348190308 0.58617973327636719
0.651356041431427 0.62669694423675537 0.62180352210998535
0.69777661561965942 0.67581474781036377 0.66558825969696045
0.65096276998519897 0.62652093172073364 0.62263363599777222
0.65661132335662842 0.63156306743621826 0.62729901075363159
0.65083557367324829 0.62580657005310059 0.62146127223968506
0.65079420804977417 0.6259765625 0.62132221460342407
0.66526734828948975 0.64150559902191162 0.63542729616165161
0.69135385751724243 0.66889047622680664 0.65986663103103638
0.72681373357772827 0.70633828639984131 0.69319766759872437
0.72848153114318848 0.7080957293510437 0.69527250528335571
0.73206698894500732 0.71144324541091919 0.69812238216400146
0.72824907302856445 0.70680683851242065 0.69392973184585571
0.72508347034454346 0.70379811525344849 0.69141840934753418
0.7307438850402832 0.70995593070983887 0.69703215360641479
0.74499446153640747 0.72514623403549194 0.71056818962097168
0.76758038997650146 0.74954319000244141 0.73217606544494629
0.49750024080276489 0.46156319975852966 0.46701514720916748
0.50930172204971313 0.47581249475479126 0.47912195324897766
0.52752918004989624 0.49726074934005737 0.49855300784111023
0.54688519239425659 0.51905727386474609 0.51916229724884033
0.57595080137252808 0.54936355352401733 0.54858964681625366
0.63505452871322632 0.6129070520401001 0.60828810930252075
0.69229328632354736 0.67508566379547119 0.66509026288986206
0.50617152452468872 0.47377151250839233 0.47662144899368286
0.5181809663772583 0.48728081583976746 0.48922759294509888
0.53495824337005615 0.50580042600631714 0.50676882266998291
0.55035346746444702 0.52191954851150513 0.52301549911499023
0.58294212818145752 0.55555957555770874 0.55564963817596436
0.63893431425094604 0.61536699533462524 0.61171239614486694
0.69023990631103516 0.67097628116607666 0.66235059499740601
0.51963531970977783 0.49030131101608276 0.49241805076599121
0.53413188457489014 0.50519418716430664 0.50657802820205688
0.55090725421905518 0.52235275506973267 0.52293306589126587
0.5716249942779541 0.54322373867034912 0.54324173927307129
0.60742652416229248 0.58012229204177856 0.57864350080490112
0.65061527490615845 0.62598097324371338 0.62139838933944702
0.6954154372215271 0.67451512813568115 0.6650083065032959
0.54571521282196045 0.51844120025634766 0.52170521020889282
0.5648077130317688 0.53726452589035034 0.53891265392303467
0.57948654890060425 0.55180913209915161 0.55178254842758179
0.5981096625328064 0.57042032480239868 0.5690925121307373
0.62681514024734497 0.60001111030578613 0.59654706716537476
0.66394639015197754 0.63923883438110352 0.63259971141815186
0.70713776350021362 0.68541330099105835 0.67375725507736206
0.60384631156921387 0.57828253507614136 0.57890695333480835
0.6151004433631897 0.58918195962905884 0.58859020471572876
0.62080079317092896 0.59463715553283691 0.59272623062133789
0.63146615028381348 0.60538184642791748 0.60174953937530518
0.65138024091720581 0.62622636556625366 0.6204414963722229
0.68149560689926147 0.65797477960586548 0.6492200493812561
0.72160983085632324 0.7003365159034729 0.68651747703552246
0.67054200172424316 0.64754205942153931 0.64147472381591797
0.677215576171875 0.65372121334075928 0.64679515361785889
0.67730623483657837 0.65366750955581665 0.64620029926300049
0.67943906784057617 0.6558118462562561 0.64773964881896973
0.68978822231292725 0.66692101955413818 0.65746098756790161
0.71084815263748169 0.68893766403198242 0.67721080780029297
0.74220341444015503 0.72191643714904785 0.70641517639160156
0.74265784025192261 0.72290915250778198 0.70777779817581177
0.75089436769485474 0.73061364889144897 0.71414244174957275
0.74673753976821899 0.72590523958206177 0.71013480424880981
0.74059432744979858 0.71973323822021484 0.70484429597854614
0.74213296175003052 0.72160345315933228 0.7067568302154541
0.75309294462203979 0.73333871364593506 0.71732419729232788
0.77370136976242065 0.75521421432495117 0.7368425726890564
0.58785569667816162 0.5593712329864502 0.55752092599868774
0.59808117151260376 0.57140040397644043 0.56828880310058594
0.61258375644683838 0.58839070796966553 0.58352166414260864
0.62395173311233521 0.6007646918296814 0.59464353322982788
0.63447505235671997 0.61039185523986816 0.60350602865219116
0.65649551153182983 0.63364249467849731 0.62627798318862915
0.7066270112991333 0.68907338380813599 0.67725241184234619
0.60014492273330688 0.57431471347808838 0.57108664512634277
0.60704672336578369 0.58225047588348389 0.57828420400619507
0.6166955828666687 0.5928577184677124 0.58795970678329468
0.62412345409393311 0.60034102201461792 0.59478664398193359
0.6373741626739502 0.61304998397827148 0.60669845342636108
0.66541945934295654 0.64282667636871338 0.63537085056304932
0.70496547222137451 0.68610221147537231 0.67547881603240967
0.61023592948913574 0.58674228191375732 0.5831376314163208
0.6141517162322998 0.59022319316864014 0.58642745018005371
0.62353360652923584 0.5991663932800293 0.59438949823379517
0.63718438148498535 0.61228805780410767 0.60623836517333984
0.65607309341430664 0.63137435913085938 0.62439841032028198
0.68125975131988525 0.65820282697677612 0.64945363998413086
0.71587151288986206 0.69596797227859497 0.6837151050567627
0.61369282007217407 0.5901375412940979 0.58824563026428223
0.62036591768264771 0.59647780656814575 0.59383493661880493
0.63459306955337524 0.61001008749008179 0.60553920269012451
0.6557164192199707 0.63060259819030762 0.62322330474853516
0.67741125822067261 0.65257233381271362 0.6433904767036438
0.70237982273101807 0.67966824769973755 0.66775262355804443
0.73645097017288208 0.71606349945068359 0.69992256164550781
0.64032572507858276 0.61738055944442749 0.61418741941452026
0.64002138376235962 0.61645156145095825 0.61377811431884766
0.65468364953994751 0.63049119710922241 0.62514466047286987
0.67602580785751343 0.6518934965133667 0.64339709281921387
0.69602549076080322 0.67268675565719604 0.6615404486656189
0.71973896026611328 0.69768327474594116 0.68358659744262695
0.75109821557998657 0.73076021671295166 0.71257799863815308
0.69135165214538574 0.6697152853012085 0.66074556112289429
0.69319945573806763 0.67108458280563354 0.66182023286819458
0.69979226589202881 0.67728900909423828 0.66697078943252563
0.71007484197616577 0.6875872015953064 0.67581331729888916
0.72182548046112061 0.70008718967437744 0.68645799160003662
0.73844319581985474 0.71744614839553833 0.701835036277771
0.76247048377990723 0.74255245923995972 0.72410446405410767
0.75378775596618652 0.73457753658294678 0.71749567985534668
0.76086801290512085 0.74119895696640015 0.72290539741516113
0.76017540693283081 0.74013936519622803 0.72210431098937988
0.75769203901290894 0.73737770318984985 0.72003340721130371
0.75927281379699707 0.73914104700088501 0.72200530767440796
0.76707476377487183 0.74755758047103882 0.72937971353530884
0.78318774700164795 0.76477426290512085 0.74487859010696411
0.68252706527709961 0.66051250696182251 0.65050333738327026
0.68919700384140015 0.66831052303314209 0.65755575895309448
0.69669300317764282 0.67700600624084473 0.66470909118652344
0.70662403106689453 0.68765932321548462 0.6735653281211853
0.7214043140411377 0.70256751775741577 0.68597209453582764
0.72144812345504761 0.70301568508148193 0.68719398975372314
0.74128818511962891 0.72519844770431519 0.70865637063980103
0.69339448213577271 0.67263627052307129 0.66200560331344604
0.69745862483978271 0.67734897136688232 0.66613310575485229
0.70142859220504761 0.68166559934616089 0.66886770725250244
0.70821553468704224 0.68832087516784668 0.67469638586044312
0.71636581420898438 0.69656497240066528 0.68174833059310913
0.71929806470870972 0.70001709461212158 0.68585711717605591
0.73786658048629761 0.72053200006484985 0.70550644397735596
0.69893103837966919 0.67842435836791992 0.66809403896331787
0.69952911138534546 0.67922300100326538 0.66813725233078003
0.70330250263214111 0.68250209093093872 0.67056423425674438
0.71154296398162842 0.69029122591018677 0.6769755482673645
0.71950227022171021 0.69847941398620605 0.68417352437973022
0.72684454917907715 0.70688724517822266 0.69246619939804077
0.74717646837234497 0.72945195436477661 0.71291112899780273
0.69594544172286987 0.67501616477966309 0.66455686092376709
0.69560903310775757 0.67457133531570435 0.66440004110336304
0.70319777727127075 0.68162846565246582 0.67026561498641968
0.7188718318939209 0.69695591926574707 0.68331336975097656
0.73193073272705078 0.71072560548782349 0.69504189491271973
0.74507766962051392 0.72503185272216797 0.70783114433288574
0.76665395498275757 0.74831712245941162 0.7285420298576355
0.700236976146698 0.67899024486541748 0.66945046186447144
0.69870728254318237 0.67722600698471069 0.66767269372940063
0.70886331796646118 0.68716603517532349 0.67580974102020264
0.72703027725219727 0.70547652244567871 0.69134074449539185
0.74318438768386841 0.72251421213150024 0.70579993724822998
0.75853604078292847 0.73873722553253174 0.71997332572937012
0.77838695049285889 0.75982111692428589 0.73845970630645752
0.72542458772659302 0.70447880029678345 0.69205206632614136
0.72658884525299072 0.70542675256729126 0.69193655252456665
0.73383992910385132 0.71328139305114746 0.69875597953796387
0.74595266580581665 0.72563475370407104 0.70926129817962646
0.75706791877746582 0.73727929592132568 0.71943819522857666
0.76791638135910034 0.74869310855865479 0.7295648455619812
0.78293627500534058 0.76450681686401367 0.74359804391860962
0.76753836870193481 0.74928462505340576 0.73030048608779907
0.77139908075332642 0.75254166126251221 0.7331695556640625
0.77530175447463989 0.75628834962844849 0.73655915260314941
0.77806192636489868 0.75903826951980591 0.73912715911865234
0.78038054704666138 0.76164549589157104 0.74159187078475952
0.78426516056060791 0.76555675268173218 0.74540156126022339
0.79444980621337891 0.77634972333908081 0.75534850358963013
0.76777297258377075 0.75121623277664185 0.73308950662612915
0.77091377973556519 0.75488036870956421 0.73623764514923096
0.77297282218933105 0.75735515356063843 0.73829442262649536
0.77739423513412476 0.7623552680015564 0.74182826280593872
0.78456556797027588 0.76986902952194214 0.74771332740783691
0.78539955615997314 0.77149015665054321 0.74929350614547729
0.79419052600860596 0.78176462650299072 0.75891488790512085
0.7747652530670166 0.75755256414413452 0.73964369297027588
0.77671492099761963 0.7610287070274353 0.74188613891601562
0.77711588144302368 0.76102942228317261 0.74211186170578003
0.77966302633285522 0.76390945911407471 0.74363315105438232
0.78284788131713867 0.76719385385513306 0.74577361345291138
0.78187024593353271 0.76694923639297485 0.74571740627288818
0.79011243581771851 0.77637499570846558 0.75480061769485474
0.77673518657684326 0.75899112224578857 0.74113565683364868
0.77646744251251221 0.75902152061462402 0.74086785316467285
0.77587294578552246 0.75867480039596558 0.7397608757019043
0.77885711193084717 0.76163840293884277 0.7417113184928894
0.7813725471496582 0.76428616046905518 0.74359977245330811
0.78275638818740845 0.76678967475891113 0.74576544761657715
0.79305201768875122 0.77861917018890381 0.75649458169937134
0.77245092391967773 0.75305294990539551 0.73629224300384521
0.76991945505142212 0.75097060203552246 0.73397058248519897
0.77120572328567505 0.75269538164138794 0.73459434509277344
0.77795261144638062 0.75986713171005249 0.74018442630767822
0.7846570611000061 0.76731520891189575 0.74611806869506836
0.79050225019454956 0.77415400743484497 0.75192195177078247
0.80184632539749146 0.78672629594802856 0.7629886269569397
0.76437956094741821 0.74515837430953979 0.72882759571075439
0.7635340690612793 0.74408763647079468 0.72794705629348755
0.76858878135681152 0.74984091520309448 0.73183518648147583
0.77888649702072144 0.76076048612594604 0.74083876609802246
0.78920865058898926 0.77213507890701294 0.75042712688446045
0.7970471978187561 0.7807166576385498 0.75765019655227661
0.80686682462692261 0.79119449853897095 0.76713663339614868
0.76965868473052979 0.75123590230941772 0.73321861028671265
0.77097004652023315 0.75236839056015015 0.73423880338668823
0.77750551700592041 0.75903850793838501 0.73967581987380981
0.78635144233703613 0.76857751607894897 0.74781835079193115
0.79434829950332642 0.77729469537734985 0.75542259216308594
0.79953396320343018 0.78285396099090576 0.76034826040267944
0.80679261684417725 0.79023259878158569 0.76677590608596802
0.79147529602050781 0.7749333381652832 0.7529606819152832
0.79528206586837769 0.778034508228302 0.75602185726165771
0.80063849687576294 0.78342431783676147 0.76081162691116333
0.80472159385681152 0.78780174255371094 0.76487356424331665
0.80663454532623291 0.78980821371078491 0.76677548885345459
0.80654001235961914 0.78969520330429077 0.76735234260559082
0.81038415431976318 0.79393088817596436 0.77123421430587769
