luts/instant_consumer/polaroid_px-680_warm_--.cube
# Created by: G'MIC (https://gmic.eu)
TITLE "polaroid_px-680_warm_--"
# LUT size
LUT_3D_SIZE 13
# Data domain
DOMAIN_MIN 0.0 0.0 0.0
DOMAIN_MAX 1.0 1.0 1.0
# LUT data points
0.0016139161307364702 0.023060698062181473 0.0022094128653407097
0.026665212586522102 0.026522902771830559 0.00213648471981287
0.091037541627883911 0.031582087278366089 0.0025701185222715139
0.17881421744823456 0.036523513495922089 0.0027959935832768679
0.28701606392860413 0.052795335650444031 0.0015781477559357882
0.41214999556541443 0.06138857826590538 0.0012990764807909727
0.54127109050750732 0.07209479808807373 0.00023821662762202322
0.66465342044830322 0.10985406488180161 0.0013653923524543643
0.77053308486938477 0.17080341279506683 0.00083694455679506063
0.85230159759521484 0.23684029281139374 0.0012423496227711439
0.91615426540374756 0.3077448308467865 0.0035717682912945747
0.97003155946731567 0.37249410152435303 0.010461545549333096
0.99746274948120117 0.43418934941291809 0.072202779352664948
0.0024409873876720667 0.049135349690914154 0.0015723134856671095
0.038198523223400116 0.057914763689041138 0.0018912521190941334
0.10551451146602631 0.069198861718177795 0.0035500768572092056
0.1951582282781601 0.078203625977039337 0.0031671710312366486
0.30423173308372498 0.093562990427017212 0.00050487142289057374
0.42701983451843262 0.10687435418367386 0.00031020221649669111
0.55259817838668823 0.11864256113767624 0.00049007637426257133
0.67090201377868652 0.15611423552036285 0.0015487821074202657
0.77492219209671021 0.20504759252071381 0.0015068353386595845
0.85064524412155151 0.2648225724697113 0.00077743531437590718
0.91625833511352539 0.32337144017219543 0.002591555705294013
0.96988797187805176 0.38525152206420898 0.012486895546317101
0.99636000394821167 0.44650769233703613 0.076951824128627777
0.0045219720341265202 0.11012996733188629 0.00059940112987533212
0.03196919709444046 0.11752583831548691 0.0012694713659584522
0.10925910621881485 0.12562558054924011 0.0021844152361154556
0.20734183490276337 0.13936807215213776 0.00060088216559961438
0.31885957717895508 0.14932093024253845 0
0.44217845797538757 0.16031879186630249 0
0.56501108407974243 0.18103881180286407 0.00079024070873856544
0.6765822172164917 0.20978479087352753 0.0018430224154144526
0.76872134208679199 0.25249919295310974 0.0030512791126966476
0.84599518775939941 0.30151352286338806 0.0025268106255680323
0.91276454925537109 0.35080134868621826 0.0036617801524698734
0.96599721908569336 0.40786838531494141 0.011348125524818897
0.99597460031509399 0.4630398154258728 0.070794649422168732
0.0033888423349708319 0.19063325226306915 0
0.012260780669748783 0.19463755190372467 1.2925092050863896e-05
0.087926797568798065 0.20487532019615173 3.4466913348296657e-05
0.20557595789432526 0.21907684206962585 1.6156365063579869e-06
0.33509019017219543 0.2399962842464447 0.00037698185769841075
0.4622461199760437 0.24992072582244873 3.1415154808200896e-05
0.57658016681671143 0.2554900050163269 2.423454679956194e-05
0.67987936735153198 0.27499914169311523 0.00093168369494378567
0.76163786649703979 0.31235799193382263 0.0027090334333479404
0.83776718378067017 0.35163712501525879 0.0024931365624070168
0.90327215194702148 0.39004108309745789 0.0038830924313515425
0.95949739217758179 0.43832746148109436 0.009158669039607048
0.99463272094726562 0.48660135269165039 0.056814111769199371
0.0054116193205118179 0.28512170910835266 0
0.0081479242071509361 0.29084911942481995 0
0.056852318346500397 0.29737704992294312 0
0.19134117662906647 0.31244310736656189 0
0.33081609010696411 0.33311104774475098 9.2091278929729015e-05
0.47049495577812195 0.35229983925819397 1.52587890625e-05
0.58514523506164551 0.3558400571346283 0
0.68294918537139893 0.3583240807056427 0.00019728716870304197
0.76152521371841431 0.37518826127052307 0.00052591960411518812
0.83424597978591919 0.40171492099761963 0.00096876855241134763
0.89511382579803467 0.43351376056671143 0.0045394450426101685
0.95063763856887817 0.47422263026237488 0.007296842522919178
0.99280834197998047 0.51697713136672974 0.046250168234109879
0.0056094899773597717 0.38190239667892456 0
0.0082818428054451942 0.38164469599723816 0
0.038720045238733292 0.38235941529273987 0
0.17548027634620667 0.39371368288993835 0
0.30822080373764038 0.40734347701072693 0
0.44793537259101868 0.42801651358604431 1.8325506971450523e-05
0.58495908975601196 0.45280200242996216 0.00059772568056359887
0.68381881713867188 0.46140700578689575 0.00077294744551181793
0.76177048683166504 0.46194416284561157 8.4731160313822329e-05
0.82997345924377441 0.46301922202110291 0.00035535026108846068
0.88947641849517822 0.47702464461326599 0.0030250849667936563
0.94167029857635498 0.50995373725891113 0.0054943012073636055
0.98973435163497925 0.54907160997390747 0.028528399765491486
0.005272973794490099 0.46183809638023376 0
0.0048690047115087509 0.45933049917221069 0
0.039248179644346237 0.45714625716209412 6.2112245359458029e-05
0.1732994019985199 0.46386736631393433 0.0010177762014791369
0.29739588499069214 0.47372084856033325 0.0015843410510569811
0.42095619440078735 0.48868504166603088 0.0019699695985764265
0.55002743005752563 0.51081883907318115 0.0025070041883736849
0.66769683361053467 0.53410208225250244 0.0008488674066029489
0.75607585906982422 0.54331684112548828 0.00014989516057539731
0.82329845428466797 0.54350048303604126 0.0011546115856617689
0.88026225566864014 0.54608005285263062 0.0027230207342654467
0.93422472476959229 0.55761367082595825 0.0037665872368961573
0.98403030633926392 0.58446663618087769 0.012330058962106705
0.0047339643351733685 0.5254102349281311 0
0.008394293487071991 0.52441352605819702 0
0.077292919158935547 0.5244598388671875 0.0012772653717547655
0.19265222549438477 0.52795690298080444 0.0030139549635350704
0.3030281662940979 0.53500092029571533 0.001674158382229507
0.41184598207473755 0.54666769504547119 0.0038256028201431036
0.52113205194473267 0.5624241828918457 0.0022854674607515335
0.63343280553817749 0.58234667778015137 0.0026662040036171675
0.73901826143264771 0.61002570390701294 0.0031398250721395016
0.81496864557266235 0.62295234203338623 0.0030354517512023449
0.87284624576568604 0.62657862901687622 0.0049029630608856678
0.92579120397567749 0.6313549280166626 0.010211675427854061
0.97434473037719727 0.64201289415359497 0.029634168371558189
0.02159392461180687 0.58436614274978638 0.00047580493264831603
0.059064440429210663 0.58535945415496826 0.0011363159865140915
0.14287929236888885 0.58610624074935913 0.002695809118449688
0.23110190033912659 0.58879339694976807 0.0078034792095422745
0.31997624039649963 0.59613752365112305 0.012364825233817101
0.41557744145393372 0.60656774044036865 0.013258661143481731
0.51285934448242188 0.61981338262557983 0.019723031669855118
0.61033689975738525 0.63537102937698364 0.029297683387994766
0.70608717203140259 0.65505576133728027 0.040831651538610458
0.79109084606170654 0.67462456226348877 0.056150577962398529
0.86497980356216431 0.69663470983505249 0.081154391169548035
0.91942101716995239 0.70698219537734985 0.11255375295877457
0.96712332963943481 0.71616560220718384 0.14732705056667328
0.13312108814716339 0.64755475521087646 0.028827367350459099
0.17077465355396271 0.64747911691665649 0.031829580664634705
0.22042889893054962 0.64737021923065186 0.038040146231651306
0.28157037496566772 0.65026277303695679 0.051194224506616592
0.35095405578613281 0.65637761354446411 0.075116358697414398
0.43481931090354919 0.66502749919891357 0.093102142214775085
0.52126932144165039 0.67750829458236694 0.11340312659740448
0.60676664113998413 0.69078272581100464 0.13096675276756287
0.68961036205291748 0.70552760362625122 0.14932781457901001
0.77073866128921509 0.72252339124679565 0.16528412699699402
0.84810727834701538 0.74811649322509766 0.19541984796524048
0.909290611743927 0.76633310317993164 0.22466230392456055
0.95886337757110596 0.78114938735961914 0.25741487741470337
0.25055399537086487 0.71346306800842285 0.12982667982578278
0.27070397138595581 0.71328276395797729 0.13336159288883209
0.30524817109107971 0.71385729312896729 0.13999159634113312
0.35135176777839661 0.71804755926132202 0.15098746120929718
0.4053376317024231 0.72229874134063721 0.17168709635734558
0.46504151821136475 0.72582924365997314 0.19190140068531036
0.53904891014099121 0.7361944317817688 0.20703059434890747
0.61525356769561768 0.74801987409591675 0.22315455973148346
0.69025176763534546 0.76195573806762695 0.24276795983314514
0.76037877798080444 0.77593338489532471 0.26130202412605286
0.82725554704666138 0.79283779859542847 0.28251826763153076
0.89020794630050659 0.81149178743362427 0.30799639225006104
0.94880849123001099 0.83515900373458862 0.34276095032691956
0.36695447564125061 0.78881525993347168 0.24287188053131104
0.37354299426078796 0.78649795055389404 0.24073526263237
0.39816799759864807 0.78655701875686646 0.24560868740081787
0.43375140428543091 0.79092037677764893 0.25887599587440491
0.47482144832611084 0.7944188117980957 0.2745639979839325
0.52213692665100098 0.79813259840011597 0.29087546467781067
0.58297759294509888 0.80578029155731201 0.3070518970489502
0.64465469121932983 0.81502139568328857 0.32242855429649353
0.70889723300933838 0.82705694437026978 0.33955135941505432
0.76992756128311157 0.83961409330368042 0.35858035087585449
0.82872599363327026 0.8534356951713562 0.38016438484191895
0.88216054439544678 0.86558300256729126 0.3973795473575592
0.93486994504928589 0.88124555349349976 0.41743743419647217
0.49688169360160828 0.87260466814041138 0.36894598603248596
0.50286966562271118 0.87159633636474609 0.36900356411933899
0.51660287380218506 0.87087398767471313 0.37188675999641418
0.54119235277175903 0.87314480543136597 0.37943550944328308
0.57029420137405396 0.87623500823974609 0.38997495174407959
0.60832816362380981 0.87994301319122314 0.40602657198905945
0.65103477239608765 0.88456398248672485 0.42145666480064392
0.6983608603477478 0.89226973056793213 0.43700781464576721
0.74418485164642334 0.89958912134170532 0.44801923632621765
0.7931256890296936 0.91086536645889282 0.46532654762268066
0.84225636720657349 0.92121392488479614 0.48322063684463501
0.88925212621688843 0.93139767646789551 0.5014532208442688
0.93385106325149536 0.93859165906906128 0.51773667335510254
0.0064552156254649162 0.028539905324578285 0.011497991159558296
0.032810002565383911 0.029199263080954552 0.0095936944708228111
0.094616547226905823 0.033095713704824448 0.011005626060068607
0.18451042473316193 0.03168569877743721 0.012610999867320061
0.29576152563095093 0.052061013877391815 0.011248989030718803
0.42333212494850159 0.074072249233722687 0.0087813735008239746
0.55440515279769897 0.10484352707862854 0.011840416118502617
0.67423921823501587 0.14952529966831207 0.010098251514136791
0.7765040397644043 0.20766162872314453 0.0074238046072423458
0.8554268479347229 0.26755839586257935 0.012252672575414181
0.91829431056976318 0.32942891120910645 0.033230472356081009
0.96817296743392944 0.3923974335193634 0.086674541234970093
0.99364417791366577 0.4527745246887207 0.15624423325061798
0.012729854322969913 0.058454848825931549 0.0115877790376544
0.046011921018362045 0.064566187560558319 0.01213366910815239
0.1158766970038414 0.071018978953361511 0.014953972771763802
0.20630352199077606 0.079380974173545837 0.012720265425741673
0.3159601092338562 0.099242836236953735 0.008791591040790081
0.43736642599105835 0.11917038261890411 0.0063751069828867912
0.56460297107696533 0.14439767599105835 0.0084029100835323334
0.68181616067886353 0.18552741408348083 0.0088344048708677292
0.78023368120193481 0.23483565449714661 0.0067936317063868046
0.85634994506835938 0.28866201639175415 0.010193858295679092
0.91757333278656006 0.34536385536193848 0.030787672847509384
0.96831017732620239 0.40420311689376831 0.084449201822280884
0.99386179447174072 0.4638403058052063 0.15623408555984497
0.020592274144291878 0.12239089608192444 0.010640372522175312
0.055111393332481384 0.12391708791255951 0.010958608239889145
0.12797176837921143 0.13455116748809814 0.011126499623060226
0.22323144972324371 0.14532408118247986 0.0070707434788346291
0.33516642451286316 0.15562902390956879 0.0045168409124016762
0.4538719654083252 0.17223559319972992 0.0055759204551577568
0.57600045204162598 0.19997791945934296 0.004781132098287344
0.68503934144973755 0.23437498509883881 0.0074611441232264042
0.77677333354949951 0.27612468600273132 0.0087859956547617912
0.85310506820678711 0.32146617770195007 0.012048324570059776
0.91466760635375977 0.37140083312988281 0.028865335509181023
0.96713483333587646 0.42460346221923828 0.073804102838039398
0.99608308076858521 0.47871118783950806 0.14759106934070587
0.017558842897415161 0.20203414559364319 0.0037268544547259808
0.045186705887317657 0.20667782425880432 0.0037417542189359665
0.12200813740491867 0.21527606248855591 0.004589723888784647
0.23071664571762085 0.22808711230754852 0.0042035719379782677
0.35421082377433777 0.24531351029872894 0.0062264385633170605
0.47212368249893188 0.25514689087867737 0.0040275272913277149
0.58650189638137817 0.26699972152709961 0.0012833838118240237
0.68736177682876587 0.29047873616218567 0.0033036326058208942
0.77087843418121338 0.32629299163818359 0.0067895478568971157
0.84640562534332275 0.36352801322937012 0.0075693768449127674
0.90914839506149292 0.4032285213470459 0.017749741673469543
0.96100497245788574 0.4499506950378418 0.058683283627033234
0.99229615926742554 0.50001204013824463 0.1339985579252243
0.011944370344281197 0.29652118682861328 0.0012533150147646666
0.02577655203640461 0.30049639940261841 0.0010309256613254547
0.10465574264526367 0.30699241161346436 0.0027576221618801355
0.22493703663349152 0.32071864604949951 0.0016418307786807418
0.35269752144813538 0.34037682414054871 0.0025120005011558533
0.48358842730522156 0.35675209760665894 0.0025511798448860645
0.59652078151702881 0.36062568426132202 0.0019213058985769749
0.68828564882278442 0.36614125967025757 0.0032556271180510521
0.76736265420913696 0.38344451785087585 0.0047759562730789185
0.84023112058639526 0.40894967317581177 0.0046430998481810093
0.90107566118240356 0.44259577989578247 0.0097915800288319588
0.95506149530410767 0.48174208402633667 0.041961684823036194
0.99087440967559814 0.52790415287017822 0.12425214052200317
0.0066053653135895729 0.38823595643043518 0
0.016918765380978584 0.38778942823410034 0.0004411734698805958
0.088717922568321228 0.39034882187843323 0.0026019227225333452
0.20823352038860321 0.40070053935050964 0.0024021223653107882
0.33004769682884216 0.41584044694900513 0.0013826407957822084
0.46131819486618042 0.43420329689979553 0.0016631630714982748
0.59139096736907959 0.45458745956420898 0.0034400192089378834
0.68806034326553345 0.46199193596839905 0.004362951498478651
0.76597166061401367 0.46182620525360107 0.0032677594572305679
0.83475345373153687 0.46439525485038757 0.0034987954422831535
0.89267134666442871 0.48703458905220032 0.0058712679892778397
0.94655847549438477 0.51729708909988403 0.021750655025243759
0.98915517330169678 0.55726432800292969 0.09960976243019104
0.0056346072815358639 0.464681476354599 1.1848001122416463e-05
0.019530801102519035 0.46246850490570068 0.00073020783020183444
0.092960178852081299 0.46360492706298828 0.0039509045891463757
0.20545762777328491 0.46913260221481323 0.0042176637798547745
0.32209634780883789 0.48029252886772156 0.0049410802312195301
0.4381442666053772 0.49423745274543762 0.0056705251336097717
0.5618361234664917 0.51626813411712646 0.0060954224318265915
0.67234140634536743 0.53614449501037598 0.004031072836369276
0.75914466381072998 0.54396212100982666 0.0033296772744506598
0.82624274492263794 0.54502695798873901 0.0041295518167316914
0.88436079025268555 0.55006927251815796 0.0054261898621916771
0.93721705675125122 0.56385868787765503 0.0095408419147133827
0.98361915349960327 0.59093677997589111 0.062553107738494873
0.012220135889947414 0.52660602331161499 0.00083363853627815843
0.051145978271961212 0.5265500545501709 0.002654834883287549
0.13286767899990082 0.52764081954956055 0.0068211723119020462
0.22613197565078735 0.53094053268432617 0.008376043289899826
0.32492190599441528 0.54027175903320312 0.01457844115793705
0.42719835042953491 0.5521358847618103 0.015470198355615139
0.53249233961105347 0.56808710098266602 0.012387967668473721
0.63813942670822144 0.58730381727218628 0.011822435073554516
0.73947376012802124 0.60940259695053101 0.01651032455265522
0.81756740808486938 0.62362575531005859 0.020934788510203362
0.87635529041290283 0.62881803512573242 0.030167853459715843
0.92852413654327393 0.63351982831954956 0.048868380486965179
0.97669744491577148 0.64385831356048584 0.083330415189266205
0.074926622211933136 0.5870247483253479 0.0085546458140015602
0.12145666778087616 0.58764082193374634 0.011352613568305969
0.18638095259666443 0.5885654091835022 0.017490940168499947
0.25676453113555908 0.59128880500793457 0.031255774199962616
0.33719906210899353 0.59942394495010376 0.050903022289276123
0.43003007769584656 0.61035984754562378 0.059356406331062317
0.52450650930404663 0.62415188550949097 0.066460385918617249
0.6177210807800293 0.63905185461044312 0.081021174788475037
0.71194225549697876 0.65665352344512939 0.094845294952392578
0.79826241731643677 0.68077689409255981 0.11403959989547729
0.86607760190963745 0.69856154918670654 0.13496649265289307
0.91910845041275024 0.70628339052200317 0.15811565518379211
0.96730852127075195 0.71545368432998657 0.18914200365543365
0.17196820676326752 0.64709782600402832 0.063419312238693237
0.20292504131793976 0.6474611759185791 0.069098196923732758
0.24599543213844299 0.64821046590805054 0.077295981347560883
0.30424231290817261 0.65314340591430664 0.094622336328029633
0.36904722452163696 0.65919262170791626 0.11753423511981964
0.44566836953163147 0.66725027561187744 0.13595238327980042
0.53138828277587891 0.68004006147384644 0.15210802853107452
0.615852952003479 0.69316947460174561 0.16494676470756531
0.69846469163894653 0.70726883411407471 0.17940254509449005
0.77571594715118408 0.72422391176223755 0.19559374451637268
0.8489575982093811 0.74869978427886963 0.22293169796466827
0.91045266389846802 0.76822769641876221 0.25671479105949402
0.95823675394058228 0.78041696548461914 0.2817738950252533
0.26887062191963196 0.71125024557113647 0.15614522993564606
0.29113379120826721 0.71207600831985474 0.16069379448890686
0.32083123922348022 0.71396797895431519 0.1665310263633728
0.36495840549468994 0.71859622001647949 0.17928637564182281
0.41724589467048645 0.72410941123962402 0.19784221053123474
0.47584041953086853 0.72870290279388428 0.21759723126888275
0.54488736391067505 0.73763078451156616 0.23039190471172333
0.62079280614852905 0.7499203085899353 0.24439246952533722
0.69858014583587646 0.76416784524917603 0.26264852285385132
0.76530927419662476 0.77712768316268921 0.28097042441368103
0.83051276206970215 0.79369032382965088 0.30274617671966553
0.89240586757659912 0.81507116556167603 0.33209186792373657
0.95049476623535156 0.83720976114273071 0.36060866713523865
0.37062641978263855 0.78699404001235962 0.25301235914230347
0.38483965396881104 0.78738987445831299 0.25635543465614319
0.40756657719612122 0.78839075565338135 0.26170384883880615
0.44293943047523499 0.79260826110839844 0.27516773343086243
0.4830482006072998 0.79569518566131592 0.29004946351051331
0.53064924478530884 0.79978132247924805 0.3058721125125885
0.58645123243331909 0.80605930089950562 0.32114353775978088
0.6491924524307251 0.81565636396408081 0.33582928776741028
0.71388465166091919 0.82787621021270752 0.3536846935749054
0.77475130558013916 0.84041410684585571 0.37449651956558228
0.82997101545333862 0.85274004936218262 0.39353948831558228
0.88214468955993652 0.86584722995758057 0.41023609042167664
0.93259239196777344 0.88161057233810425 0.42751938104629517
0.49709382653236389 0.87126320600509644 0.37415358424186707
0.5056726336479187 0.87179499864578247 0.37576243281364441
0.52063947916030884 0.87191224098205566 0.37948364019393921
0.54665189981460571 0.87568819522857666 0.38958874344825745
0.57704675197601318 0.87765216827392578 0.40044087171554565
0.61102080345153809 0.87895190715789795 0.41229033470153809
0.64941495656967163 0.88308072090148926 0.42702791094779968
0.69773197174072266 0.89132845401763916 0.44325742125511169
0.74518096446990967 0.89995533227920532 0.4571850597858429
0.7944871187210083 0.90937870740890503 0.47360339760780334
0.84097397327423096 0.91829138994216919 0.48945379257202148
0.88684749603271484 0.92723768949508667 0.50570094585418701
0.93174225091934204 0.93904006481170654 0.52419179677963257
0.023772714659571648 0.037900723516941071 0.033960692584514618
0.063167288899421692 0.04439818486571312 0.034743558615446091
0.10748178511857986 0.04914010688662529 0.030887110158801079
0.18480168282985687 0.049336481839418411 0.035569537431001663
0.30144211649894714 0.041841335594654083 0.042590048164129257
0.43276053667068481 0.042949363589286804 0.04180430993437767
0.56847202777862549 0.09248015284538269 0.050807923078536987
0.68923026323318481 0.1783798485994339 0.072377189993858337
0.78284114599227905 0.24777476489543915 0.090238548815250397
0.85745072364807129 0.3082394003868103 0.11420832574367523
0.9156983494758606 0.36687424778938293 0.15287622809410095
0.96557116508483887 0.42163410782814026 0.19635996222496033
0.99419301748275757 0.47648578882217407 0.24322512745857239
0.028923109173774719 0.074992194771766663 0.03801790252327919
0.07413298636674881 0.079952940344810486 0.040499128401279449
0.13340581953525543 0.085872381925582886 0.04119504988193512
0.21356698870658875 0.094889968633651733 0.039994392544031143
0.32603713870048523 0.099792912602424622 0.043030429631471634
0.4518263041973114 0.11628096550703049 0.04598357155919075
0.58045637607574463 0.15937608480453491 0.055274169892072678
0.69544488191604614 0.21914409101009369 0.070949256420135498
0.78575819730758667 0.27201616764068604 0.086973212659358978
0.85898017883300781 0.32597878575325012 0.11244937777519226
0.91632401943206787 0.38184651732444763 0.15294723212718964
0.96359515190124512 0.43459215760231018 0.19548313319683075
0.99134773015975952 0.48834732174873352 0.24451826512813568
0.044430136680603027 0.13950689136981964 0.041936792433261871
0.088364727795124054 0.14041048288345337 0.045126866549253464
0.15525965392589569 0.15020307898521423 0.043532636016607285
0.24339263141155243 0.16099873185157776 0.037554960697889328
0.35539159178733826 0.17042934894561768 0.040912926197052002
0.47369274497032166 0.19242364168167114 0.04769623652100563
0.59402859210968018 0.22657985985279083 0.050938967615365982
0.69694060087203979 0.26516729593276978 0.0621657595038414
0.78482532501220703 0.30653846263885498 0.076222404837608337
0.85715645551681519 0.35163837671279907 0.10472488403320312
0.91385328769683838 0.40297403931617737 0.14299418032169342
0.96234691143035889 0.45256304740905762 0.18878845870494843
0.99437177181243896 0.50024032592773438 0.23844030499458313
0.067940115928649902 0.21506199240684509 0.03563975915312767
0.10517986863851547 0.21936239302158356 0.035607956349849701
0.16921006143093109 0.22864069044589996 0.037373322993516922
0.26725289225578308 0.24282243847846985 0.034888636320829391
0.3800700306892395 0.25964853167533875 0.031280055642127991
0.49505510926246643 0.27132627367973328 0.034046817570924759
0.60444062948226929 0.28680256009101868 0.029933614656329155
0.69852209091186523 0.31356629729270935 0.042569536715745926
0.78172528743743896 0.34653761982917786 0.056541457772254944
0.85331284999847412 0.38516753911972046 0.082018055021762848
0.91096609830856323 0.42826294898986816 0.12540563941001892
0.95864760875701904 0.47330915927886963 0.17415624856948853
0.99045133590698242 0.51960092782974243 0.22903509438037872
0.098863564431667328 0.30805793404579163 0.035993210971355438
0.12254273891448975 0.31268930435180664 0.033538416028022766
0.17973516881465912 0.31791609525680542 0.031003614887595177
0.26581463217735291 0.32946637272834778 0.03080534003674984
0.38017970323562622 0.34760871529579163 0.029294811189174652
