luts/instant_consumer/polaroid_px-680_--.cube
# Created by: G'MIC (https://gmic.eu)
TITLE "polaroid_px-680_--"
# LUT size
LUT_3D_SIZE 7
# Data domain
DOMAIN_MIN 0.0 0.0 0.0
DOMAIN_MAX 1.0 1.0 1.0
# LUT data points
0.00014253503468353301 0.095292247831821442 0.11159829795360565
0.026315083727240562 0.08539898693561554 0.11468510329723358
0.32694360613822937 0.057928752154111862 0.12987311184406281
0.61240231990814209 0.052553243935108185 0.15273681282997131
0.84475767612457275 0.2562689483165741 0.17169393599033356
0.93700742721557617 0.41897541284561157 0.19401243329048157
0.99155360460281372 0.54294580221176147 0.24064390361309052
0.0012870189966633916 0.16839638352394104 0.12924689054489136
0.02608204260468483 0.18553841114044189 0.12211140990257263
0.34792563319206238 0.17311275005340576 0.12791109085083008
0.63119643926620483 0.20232617855072021 0.14376649260520935
0.8323027491569519 0.3395075798034668 0.16064342856407166
0.92986249923706055 0.46272516250610352 0.18714767694473267
0.98946911096572876 0.56688213348388672 0.23605304956436157
0 0.3370668888092041 0.1611541360616684
0.0039268494583666325 0.35463178157806396 0.16901274025440216
0.30713379383087158 0.39021947979927063 0.15839584171772003
0.63872605562210083 0.41957157850265503 0.14028841257095337
0.81783038377761841 0.45602363348007202 0.12453411519527435
0.91225618124008179 0.54136776924133301 0.15196621417999268
0.98029667139053345 0.61271089315414429 0.22330851852893829
0 0.50232762098312378 0.18968185782432556
0.0032605489250272512 0.51892334222793579 0.19384072721004486
0.25215521454811096 0.5462220311164856 0.1863940954208374
0.59177887439727783 0.59239232540130615 0.15959306061267853
0.79338300228118896 0.62510204315185547 0.13658653199672699
0.89135122299194336 0.63416033983230591 0.137440025806427
0.96658319234848022 0.66477352380752563 0.17767125368118286
0.00014935662329662591 0.65711241960525513 0.20259681344032288
0.0024710712023079395 0.66145062446594238 0.20109520852565765
0.25796288251876831 0.67054224014282227 0.20935496687889099
0.55517101287841797 0.69240140914916992 0.21453049778938293
0.74636757373809814 0.71808552742004395 0.2116609513759613
0.86833059787750244 0.74740058183670044 0.2224871963262558
0.94474995136260986 0.75494319200515747 0.25752928853034973
0.13112509250640869 0.77709513902664185 0.24736745655536652
0.2572074830532074 0.77740544080734253 0.25901734828948975
0.4212266206741333 0.77713656425476074 0.27695313096046448
0.58930939435958862 0.78757631778717041 0.30178052186965942
0.72367274761199951 0.80006855726242065 0.31928601861000061
0.82873892784118652 0.82022970914840698 0.3396223783493042
0.91703200340270996 0.86014461517333984 0.38722127676010132
0.56061917543411255 0.90016263723373413 0.4249005913734436
0.58094573020935059 0.90081524848937988 0.43165931105613708
0.62418735027313232 0.90296870470046997 0.44457948207855225
0.67706000804901123 0.91146272420883179 0.46126019954681396
0.74704074859619141 0.92048877477645874 0.4759528636932373
0.81953310966491699 0.93322306871414185 0.49273926019668579
0.88093525171279907 0.94953817129135132 0.51516878604888916
0.00033192354021593928 0.093705855309963226 0.18650858104228973
0.021698417142033577 0.10682772099971771 0.18627849221229553
0.32096406817436218 0.10713627934455872 0.20980070531368256
0.62404149770736694 0.17126086354255676 0.24313086271286011
0.84686362743377686 0.31809604167938232 0.26838013529777527
0.93491047620773315 0.45559686422348022 0.28565678000450134
0.98573023080825806 0.56857204437255859 0.33138075470924377
0.0028132570441812277 0.18842460215091705 0.20600825548171997
0.075978957116603851 0.20681093633174896 0.21808987855911255
0.36691579222679138 0.23193095624446869 0.228716641664505
0.65829974412918091 0.28660589456558228 0.25041544437408447
0.83813202381134033 0.38412016630172729 0.26072028279304504
0.92671740055084229 0.4942166805267334 0.27599614858627319
0.98721551895141602 0.59000283479690552 0.32834973931312561
0.0037796469405293465 0.35426574945449829 0.2356337308883667
0.080060385167598724 0.36738726496696472 0.24018284678459167
0.3766319751739502 0.40246561169624329 0.23995497822761536
0.657787024974823 0.42579835653305054 0.22602391242980957
0.81999993324279785 0.47589173913002014 0.22279375791549683
0.91111069917678833 0.55558907985687256 0.24749161303043365
0.97931450605392456 0.62420713901519775 0.30758145451545715
0.0036973392125219107 0.52053028345108032 0.24287669360637665
0.013513168320059776 0.53487229347229004 0.23968267440795898
0.3154805600643158 0.55554485321044922 0.24496427178382874
0.61604195833206177 0.59544914960861206 0.23276688158512115
0.79681885242462158 0.62491035461425781 0.22408862411975861
0.89095401763916016 0.63433444499969482 0.21874764561653137
0.96468514204025269 0.67265349626541138 0.2708471417427063
0.0030164830386638641 0.66312438249588013 0.24536474049091339
0.020130487158894539 0.66971373558044434 0.23921772837638855
0.31615167856216431 0.67809522151947021 0.25561800599098206
0.57093805074691772 0.69691711664199829 0.26722630858421326
0.74828207492828369 0.72182774543762207 0.27947184443473816
0.86795836687088013 0.74902868270874023 0.29323297739028931
0.94529300928115845 0.7556915283203125 0.30896496772766113
0.20144428312778473 0.77737784385681152 0.28349760174751282
0.30726608633995056 0.7770763635635376 0.29587295651435852
0.45331859588623047 0.77982103824615479 0.31638109683990479
0.59568065404891968 0.78568631410598755 0.33611223101615906
0.72804629802703857 0.80009317398071289 0.35396701097488403
0.83152323961257935 0.82612764835357666 0.38234797120094299
0.91707271337509155 0.86090797185897827 0.42059662938117981
0.56999450922012329 0.89785730838775635 0.43758037686347961
0.58519726991653442 0.9024658203125 0.44355130195617676
0.62880945205688477 0.90371859073638916 0.45723652839660645
0.67890697717666626 0.91128349304199219 0.47356268763542175
0.74849611520767212 0.91882717609405518 0.48703944683074951
0.81867575645446777 0.93351596593856812 0.50682586431503296
0.8837394118309021 0.9496464729309082 0.53235507011413574
0.0022921394556760788 0.13127414882183075 0.30671480298042297
0.15544892847537994 0.17417556047439575 0.30724030733108521
0.36385348439216614 0.2362472265958786 0.31073090434074402
0.60373818874359131 0.20344801247119904 0.33641651272773743
0.84536862373352051 0.23573945462703705 0.3595486581325531
0.93749737739562988 0.43287473917007446 0.39089253544807434
0.9770849347114563 0.61198568344116211 0.45936554670333862
0.0078384699299931526 0.23160965740680695 0.31761336326599121
0.19646519422531128 0.2616877555847168 0.32553452253341675
0.41246935725212097 0.30715727806091309 0.33181583881378174
0.65532594919204712 0.29800841212272644 0.35405302047729492
0.85037100315093994 0.36881110072135925 0.37301132082939148
0.92220771312713623 0.53293889760971069 0.41684293746948242
0.97130709886550903 0.64270508289337158 0.46234789490699768
0.010348794981837273 0.37023741006851196 0.31932505965232849
0.21167163550853729 0.39422893524169922 0.33488968014717102
0.47166776657104492 0.43332171440124512 0.35368248820304871
0.69394946098327637 0.46627074480056763 0.36385086178779602
0.82946240901947021 0.53447633981704712 0.38289985060691833
0.90430223941802979 0.60749721527099609 0.40587723255157471
0.9663805365562439 0.66751265525817871 0.44231724739074707
0.12783610820770264 0.53080111742019653 0.32792407274246216
0.28400975465774536 0.55327528715133667 0.34064605832099915
0.44655254483222961 0.57685834169387817 0.34794467687606812
0.65946274995803833 0.60898566246032715 0.35429838299751282
0.80595797300338745 0.6250794529914856 0.35597267746925354
0.89100366830825806 0.64959794282913208 0.36300039291381836
0.95813953876495361 0.69809591770172119 0.41137927770614624
0.2696898877620697 0.67300987243652344 0.34440088272094727
0.31512033939361572 0.67895972728729248 0.34219115972518921
0.43733742833137512 0.68631792068481445 0.34728458523750305
0.61390542984008789 0.70203149318695068 0.37026301026344299
0.77067643404006958 0.73121845722198486 0.38546323776245117
0.86933213472366333 0.74960041046142578 0.39779680967330933
0.94659435749053955 0.7556425929069519 0.40623065829277039
0.35143297910690308 0.77402222156524658 0.36028921604156494
0.39614981412887573 0.77565461397171021 0.36126306653022766
0.50474387407302856 0.78115993738174438 0.37812599539756775
0.62385183572769165 0.78621155023574829 0.40209347009658813
0.74030143022537231 0.80563902854919434 0.42694136500358582
0.83726531267166138 0.82961118221282959 0.45051807165145874
0.91858470439910889 0.86160451173782349 0.47621816396713257
0.57675373554229736 0.89916706085205078 0.46413663029670715
0.59060263633728027 0.90121996402740479 0.46857184171676636
0.63315445184707642 0.90503841638565063 0.48204913735389709
0.68699413537979126 0.90933060646057129 0.49830919504165649
0.75372892618179321 0.91888672113418579 0.51572716236114502
0.82367521524429321 0.93481230735778809 0.53472989797592163
0.88785123825073242 0.94613355398178101 0.55546647310256958
0.16248145699501038 0.2139018177986145 0.43772602081298828
0.33295509219169617 0.24458563327789307 0.43947237730026245
0.55193275213241577 0.32158324122428894 0.45269381999969482
0.69530457258224487 0.404805988073349 0.46189761161804199
0.81750404834747314 0.3611869215965271 0.47432675957679749
0.91579711437225342 0.43312832713127136 0.48989775776863098
0.97676378488540649 0.58306080102920532 0.51712721586227417
0.18365462124347687 0.29406014084815979 0.44986003637313843
0.3509349524974823 0.32219383120536804 0.45806556940078735
0.58319568634033203 0.39264005422592163 0.47090783715248108
0.71372383832931519 0.46832293272018433 0.4745592474937439
0.81905430555343628 0.44180816411972046 0.48100084066390991
0.90941578149795532 0.51008659601211548 0.49640756845474243
0.96879380941390991 0.6295350193977356 0.52741670608520508
0.036707427352666855 0.42844241857528687 0.4441373348236084
0.27177271246910095 0.44203639030456543 0.45762163400650024
0.55634176731109619 0.4838651716709137 0.47617334127426147
0.72325104475021362 0.55967658758163452 0.48571768403053284
0.81819111108779907 0.55462765693664551 0.49392408132553101
0.8975292444229126 0.61958897113800049 0.51163798570632935
0.95406848192214966 0.69819402694702148 0.54939109086990356
0.15234103798866272 0.5457645058631897 0.42110216617584229
0.30749374628067017 0.56073921918869019 0.43080228567123413
0.51850563287734985 0.58811014890670776 0.45729303359985352
0.71157622337341309 0.63766348361968994 0.48486220836639404
0.81089729070663452 0.6617509126663208 0.49258965253829956
0.88548725843429565 0.70317643880844116 0.51511991024017334
0.94613444805145264 0.74228441715240479 0.54165828227996826
0.29832762479782104 0.65747284889221191 0.41781014204025269
0.39450067281723022 0.66679292917251587 0.42962616682052612
0.55504709482192993 0.68739873170852661 0.45094290375709534
0.68556487560272217 0.71010828018188477 0.47498935461044312
0.78803640604019165 0.73664647340774536 0.48927667737007141
0.87384676933288574 0.75294137001037598 0.49791201949119568
0.94206327199935913 0.76753604412078857 0.50750398635864258
0.48418137431144714 0.76675570011138916 0.45239809155464172
0.52584600448608398 0.76977163553237915 0.45746144652366638
0.59026843309402466 0.77718323469161987 0.46254420280456543
0.66242748498916626 0.78769820928573608 0.47211748361587524
0.7559015154838562 0.80826860666275024 0.49764770269393921
0.84423327445983887 0.83319771289825439 0.51897656917572021
0.91770410537719727 0.86395180225372314 0.53628075122833252
0.61582440137863159 0.89577001333236694 0.51574766635894775
0.6255260705947876 0.89685499668121338 0.51605355739593506
0.64635354280471802 0.89709353446960449 0.51389890909194946
0.69701272249221802 0.90998375415802002 0.53209948539733887
0.75982999801635742 0.91922581195831299 0.55074739456176758
0.82983112335205078 0.93480628728866577 0.57082176208496094
0.89151901006698608 0.95048767328262329 0.59161031246185303
0.41501787304878235 0.30220773816108704 0.56262379884719849
0.52588838338851929 0.33056455850601196 0.56625896692276001
0.67430657148361206 0.4067440927028656 0.56917798519134521
0.77538162469863892 0.54173558950424194 0.56809300184249878
0.83086210489273071 0.5980866551399231 0.56913518905639648
0.88311541080474854 0.57987487316131592 0.57035762071609497
0.95544672012329102 0.62423104047775269 0.58922439813613892
0.41384366154670715 0.37209016084671021 0.57000303268432617
0.52581506967544556 0.39672952890396118 0.57243800163269043
0.67758828401565552 0.469766765832901 0.57222729921340942
0.77392107248306274 0.58469486236572266 0.57358056306838989
0.82895851135253906 0.63012701272964478 0.57400774955749512
0.87899613380432129 0.61602497100830078 0.57410746812820435
0.95106011629104614 0.65518712997436523 0.59276646375656128
0.35509482026100159 0.4915429949760437 0.55885213613510132
0.47330588102340698 0.50092941522598267 0.56502985954284668
0.64408081769943237 0.53983503580093384 0.56865376234054565
0.76936227083206177 0.63235783576965332 0.57495534420013428
0.82431048154830933 0.67836833000183105 0.57801467180252075
0.87846094369888306 0.66933596134185791 0.58235764503479004
0.94387584924697876 0.69892877340316772 0.60030227899551392
0.22936636209487915 0.5884406566619873 0.52818304300308228
0.36137509346008301 0.59519541263580322 0.53432667255401611
0.55046939849853516 0.61250901222229004 0.54821693897247314
0.73528766632080078 0.664256751537323 0.56751281023025513
0.82212477922439575 0.72326713800430298 0.58530223369598389
0.87940853834152222 0.72325825691223145 0.59160643815994263
0.9352688193321228 0.76375830173492432 0.61536562442779541
0.34243398904800415 0.67285996675491333 0.5077173113822937
0.42235147953033447 0.67821037769317627 0.51159220933914185
0.55047690868377686 0.69001823663711548 0.52487224340438843
0.69592595100402832 0.71045303344726562 0.54601746797561646
0.80424028635025024 0.75519239902496338 0.57668817043304443
0.87844908237457275 0.7787468433380127 0.59189039468765259
0.93417960405349731 0.81366223096847534 0.61409920454025269
0.36704891920089722 0.75133305788040161 0.49434250593185425
0.43448540568351746 0.75273823738098145 0.500419020652771
0.55620646476745605 0.76412361860275269 0.51501023769378662
0.69123268127441406 0.78242892026901245 0.54137963056564331
0.78183436393737793 0.80999541282653809 0.56729650497436523
0.86219394207000732 0.8438681960105896 0.59309083223342896
0.9241718053817749 0.86284565925598145 0.60068196058273315
0.59438389539718628 0.88857710361480713 0.55423629283905029
0.61500716209411621 0.89010870456695557 0.55651199817657471
0.65888941287994385 0.89663463830947876 0.56409096717834473
0.71276956796646118 0.90745186805725098 0.57587379217147827
0.76552271842956543 0.92024344205856323 0.58871573209762573
0.83543366193771362 0.93813544511795044 0.61709100008010864
0.89839714765548706 0.95064949989318848 0.63677287101745605
0.6310422420501709 0.45511069893836975 0.65614771842956543
0.67867636680603027 0.48132616281509399 0.65555214881896973
0.753620445728302 0.54406726360321045 0.65183061361312866
0.80907982587814331 0.62758123874664307 0.64877098798751831
0.85837596654891968 0.72301161289215088 0.64860075712203979
0.89285606145858765 0.73739004135131836 0.64852941036224365
0.92933803796768188 0.72293967008590698 0.65156841278076172
0.62701678276062012 0.50503289699554443 0.65344858169555664
0.6804271936416626 0.53488624095916748 0.65245926380157471
0.7475123405456543 0.57736945152282715 0.65215420722961426
0.81052273511886597 0.66579556465148926 0.65250110626220703
0.85891056060791016 0.73957556486129761 0.65354853868484497
0.88845205307006836 0.74941080808639526 0.65240901708602905
0.92666733264923096 0.73201799392700195 0.65293782949447632
0.58881813287734985 0.57090693712234497 0.6440500020980835
0.6444089412689209 0.58690124750137329 0.64646321535110474
0.7272719144821167 0.62736839056015015 0.6483345627784729
0.79991042613983154 0.68733018636703491 0.65243315696716309
0.85433661937713623 0.75471234321594238 0.65656489133834839
0.88802576065063477 0.77453029155731201 0.65722131729125977
0.92245495319366455 0.75870436429977417 0.65929317474365234
0.44979426264762878 0.64154940843582153 0.62409365177154541
0.53067100048065186 0.64954870939254761 0.62718826532363892
0.66456073522567749 0.66775953769683838 0.63514375686645508
0.76749926805496216 0.71160292625427246 0.64352524280548096
0.84710842370986938 0.77200287580490112 0.65770536661148071
0.89137285947799683 0.80473500490188599 0.66525399684906006
0.92064094543457031 0.79741042852401733 0.67033255100250244
0.40591269731521606 0.70686477422714233 0.60211503505706787
0.46988043189048767 0.71060860157012939 0.60550898313522339
0.57978624105453491 0.71417850255966187 0.61280184984207153
0.7014700174331665 0.72797638177871704 0.62561237812042236
0.81947320699691772 0.7804749608039856 0.64872443675994873
0.88777238130569458 0.83607393503189087 0.67267537117004395
0.92505651712417603 0.83511805534362793 0.68061751127243042
0.44291338324546814 0.77154898643493652 0.58478718996047974
0.48886409401893616 0.77283132076263428 0.58741378784179688
0.57609361410140991 0.77568399906158447 0.59413677453994751
0.67608368396759033 0.78468793630599976 0.60553431510925293
0.7732844352722168 0.80650049448013306 0.62609362602233887
0.86703342199325562 0.86341190338134766 0.66662120819091797
0.92021441459655762 0.89374619722366333 0.68615454435348511
0.47505378723144531 0.87966001033782959 0.59501475095748901
0.50748258829116821 0.88071101903915405 0.59649980068206787
0.57620429992675781 0.88529121875762939 0.60117596387863159
0.65916639566421509 0.89401257038116455 0.61268401145935059
0.75642353296279907 0.91231930255889893 0.6345285177230835
0.83137434720993042 0.93271768093109131 0.66434144973754883
0.90553659200668335 0.95448237657546997 0.69476747512817383
0.76151072978973389 0.65791290998458862 0.73654919862747192
0.77677291631698608 0.66873717308044434 0.73553526401519775
0.81232738494873047 0.69567596912384033 0.73245996236801147
0.85302358865737915 0.73638319969177246 0.7300029993057251
0.88879925012588501 0.78431719541549683 0.7278931736946106
0.90503275394439697 0.83275938034057617 0.72314584255218506
0.92359483242034912 0.84306538105010986 0.72807925939559937
0.75964099168777466 0.67639774084091187 0.73644697666168213
0.77616661787033081 0.6875191330909729 0.73464149236679077
0.80940097570419312 0.70826238393783569 0.73278188705444336
0.85223811864852905 0.75111621618270874 0.73179620504379272
0.88584822416305542 0.79102832078933716 0.72783654928207397
0.90316003561019897 0.83909451961517334 0.72423923015594482
0.91890472173690796 0.85139352083206177 0.72418534755706787
0.74096447229385376 0.69892239570617676 0.73484343290328979
0.76029545068740845 0.70750045776367188 0.73448389768600464
0.80088788270950317 0.73173218965530396 0.73413825035095215
0.84513932466506958 0.76330232620239258 0.73337811231613159
0.8811180591583252 0.80577600002288818 0.73093730211257935
0.90179663896560669 0.8520435094833374 0.73047822713851929
0.91762417554855347 0.8680909276008606 0.73315483331680298
0.69833368062973022 0.73026204109191895 0.73076140880584717
0.72371393442153931 0.73528742790222168 0.73129254579544067
0.76645427942276001 0.74602580070495605 0.73256796598434448
0.82288724184036255 0.77487677335739136 0.73463141918182373
0.87237632274627686 0.81730484962463379 0.73511672019958496
0.89872139692306519 0.86675739288330078 0.73618620634078979
0.91177821159362793 0.89101117849349976 0.73846805095672607
0.5920289158821106 0.76842468976974487 0.72304838895797729
0.62328171730041504 0.76822936534881592 0.7237967848777771
0.68347847461700439 0.7709890604019165 0.72737854719161987
0.76983869075775146 0.78477883338928223 0.73286974430084229
0.8477778434753418 0.82694333791732788 0.7382206916809082
0.89356929063796997 0.88486987352371216 0.74500489234924316
0.91090148687362671 0.91503208875656128 0.74861103296279907
0.59191340208053589 0.83640998601913452 0.72492086887359619
0.60988050699234009 0.83649659156799316 0.72559648752212524
0.65022236108779907 0.83789914846420288 0.72763282060623169
0.70714318752288818 0.83744782209396362 0.73061978816986084
0.78269338607788086 0.84299963712692261 0.73535060882568359
0.86973506212234497 0.89613574743270874 0.74866044521331787
0.92107874155044556 0.94049155712127686 0.7630496621131897
0.5753706693649292 0.92715084552764893 0.72395342588424683
0.59157353639602661 0.92756128311157227 0.72653907537460327
0.62168407440185547 0.92892134189605713 0.72725915908813477
0.67312049865722656 0.93017828464508057 0.72940820455551147
0.73856097459793091 0.93671387434005737 0.73450404405593872
0.81588739156723022 0.94653940200805664 0.74381488561630249
0.91946196556091309 0.96503335237503052 0.77191627025604248
