luts/instant_consumer/polaroid_px-680_++.cube
# Created by: G'MIC (https://gmic.eu)
TITLE "polaroid_px-680_++"
# LUT size
LUT_3D_SIZE 7
# Data domain
DOMAIN_MIN 0.0 0.0 0.0
DOMAIN_MAX 1.0 1.0 1.0
# LUT data points
0.22858864068984985 0.28242078423500061 0.27230739593505859
0.24705228209495544 0.28436070680618286 0.27248454093933105
0.27116137742996216 0.2851308286190033 0.27182433009147644
0.40630361437797546 0.29361444711685181 0.27119001746177673
0.72481900453567505 0.33122384548187256 0.25909304618835449
0.90683948993682861 0.42701816558837891 0.2504315972328186
0.97284579277038574 0.53454864025115967 0.28341555595397949
0.23158198595046997 0.29226073622703552 0.27450981736183167
0.24744078516960144 0.29627522826194763 0.27450981736183167
0.28789439797401428 0.29824736714363098 0.27337425947189331
0.45365709066390991 0.31947410106658936 0.267955482006073
0.73999696969985962 0.37843185663223267 0.25249177217483521
0.90471404790878296 0.46928766369819641 0.24483200907707214
0.96939212083816528 0.56543338298797607 0.28750342130661011
0.22029384970664978 0.33222854137420654 0.27450981736183167
0.23795533180236816 0.33840921521186829 0.27421420812606812
0.30951938033103943 0.35611236095428467 0.27143609523773193
0.52463561296463013 0.41500774025917053 0.25609675049781799
0.75362610816955566 0.46415549516677856 0.23578962683677673
0.88897705078125 0.53173214197158813 0.23676212131977081
0.95372313261032104 0.60394394397735596 0.28461238741874695
0.085018247365951538 0.46635341644287109 0.26045233011245728
0.15448060631752014 0.47003167867660522 0.26054364442825317
0.29923364520072937 0.49506214261054993 0.25764968991279602
0.53097784519195557 0.55437666177749634 0.24937431514263153
0.75383514165878296 0.61146384477615356 0.23806500434875488
0.87319594621658325 0.62783730030059814 0.24158185720443726
0.94007068872451782 0.66253852844238281 0.28932136297225952
0.0060287625528872013 0.63844895362854004 0.25900250673294067
0.040526401251554489 0.6339840292930603 0.25254032015800476
0.28666937351226807 0.64252996444702148 0.26149669289588928
0.52194368839263916 0.67321246862411499 0.27272176742553711
0.72292685508728027 0.70190906524658203 0.30119886994361877
0.8499596118927002 0.72858107089996338 0.34007194638252258
0.91730839014053345 0.7377316951751709 0.3800811767578125
0.27937406301498413 0.75651878118515015 0.30939260125160217
0.32655441761016846 0.75212466716766357 0.31177413463592529
0.43896904587745667 0.74963366985321045 0.33030796051025391
0.59360939264297485 0.75821816921234131 0.35538995265960693
0.73756808042526245 0.76948153972625732 0.39642733335494995
0.8387870192527771 0.78055453300476074 0.43585458397865295
0.90921568870544434 0.79359185695648193 0.48853448033332825
0.65771740674972534 0.81827884912490845 0.46103054285049438
0.66774451732635498 0.81528842449188232 0.46166819334030151
0.70720648765563965 0.81317603588104248 0.47393152117729187
0.75804829597473145 0.81277096271514893 0.49227666854858398
0.8224065899848938 0.81469458341598511 0.51482295989990234
0.87373125553131104 0.81885480880737305 0.54218989610671997
0.91870307922363281 0.822581946849823 0.57041245698928833
0.23470461368560791 0.28659769892692566 0.28203722834587097
0.24010647833347321 0.28595688939094543 0.2766568660736084
0.27227398753166199 0.28509849309921265 0.27815976738929749
0.44532835483551025 0.28453525900840759 0.28226718306541443
0.75765293836593628 0.32684820890426636 0.28465095162391663
0.91437661647796631 0.44491377472877502 0.30281350016593933
0.96560442447662354 0.56880074739456177 0.35662984848022461
0.23571957647800446 0.29583019018173218 0.28072592616081238
0.24960073828697205 0.30096343159675598 0.28109705448150635
0.29882755875587463 0.30060964822769165 0.28133219480514526
0.50310635566711426 0.31863704323768616 0.28273147344589233
0.77313530445098877 0.38261538743972778 0.28222721815109253
0.90750426054000854 0.48626452684402466 0.30159151554107666
0.96193581819534302 0.59073126316070557 0.35696610808372498
0.2260054349899292 0.3427167534828186 0.28402140736579895
0.24000681936740875 0.35113397240638733 0.28230899572372437
0.33230656385421753 0.36997935175895691 0.28209593892097473
0.55297720432281494 0.41898944973945618 0.27492359280586243
0.77214449644088745 0.47137457132339478 0.26770833134651184
0.89134281873703003 0.54679745435714722 0.28897508978843689
0.95001721382141113 0.62439781427383423 0.34992417693138123
0.079082578420639038 0.49213629961013794 0.27516597509384155
0.1599881500005722 0.50043743848800659 0.27693894505500793
0.31865713000297546 0.51518422365188599 0.27729851007461548
0.56030738353729248 0.56587398052215576 0.28005370497703552
0.76776915788650513 0.6167183518409729 0.2831694483757019
0.87596297264099121 0.63202261924743652 0.28903427720069885
0.93764841556549072 0.67456090450286865 0.34533208608627319
0.0095266755670309067 0.65084564685821533 0.27849191427230835
0.13427484035491943 0.64908617734909058 0.2794128954410553
0.33019363880157471 0.65577596426010132 0.29137220978736877
0.54812484979629517 0.67993825674057007 0.31420886516571045
0.73690497875213623 0.71121704578399658 0.34384354948997498
0.86032724380493164 0.7360912561416626 0.38366138935089111
0.91582942008972168 0.73855894804000854 0.40961119532585144
0.33092111349105835 0.75786620378494263 0.33727920055389404
0.36986085772514343 0.75402140617370605 0.34002801775932312
0.47134751081466675 0.75439846515655518 0.35341945290565491
0.61458629369735718 0.76156765222549438 0.38669487833976746
0.74164706468582153 0.77060401439666748 0.41882911324501038
0.84597718715667725 0.7840149998664856 0.46174654364585876
0.90823614597320557 0.79365915060043335 0.5031886100769043
0.66324514150619507 0.81708914041519165 0.47192448377609253
0.67435652017593384 0.81430983543395996 0.47324472665786743
0.71083182096481323 0.81366646289825439 0.48111402988433838
0.76950430870056152 0.81257957220077515 0.50225424766540527
0.82668936252593994 0.8151363730430603 0.52526199817657471
0.86972987651824951 0.81531846523284912 0.53880506753921509
0.91727465391159058 0.82063239812850952 0.57114279270172119
0.24116773903369904 0.28868579864501953 0.29278230667114258
0.25615197420120239 0.29084962606430054 0.29431423544883728
0.29130497574806213 0.29240775108337402 0.29655000567436218
0.45426595211029053 0.28239536285400391 0.31888112425804138
0.76906198263168335 0.25965008139610291 0.34577769041061401
0.92313688993453979 0.42354452610015869 0.38683414459228516
0.95266330242156982 0.61591541767120361 0.45380041003227234
0.24291396141052246 0.30164563655853271 0.30222347378730774
0.26297649741172791 0.30463346838951111 0.30451729893684387
0.32213380932807922 0.31289008259773254 0.31000325083732605
0.52925354242324829 0.31011837720870972 0.33326104283332825
0.79822337627410889 0.35744139552116394 0.35978713631629944
0.91089576482772827 0.52628630399703979 0.41225898265838623
0.94544804096221924 0.65254801511764526 0.46370992064476013
0.22802196443080902 0.35160890221595764 0.30906113982200623
0.26125523447990417 0.36300539970397949 0.31638732552528381
0.38713210821151733 0.39586368203163147 0.33333033323287964
0.60861682891845703 0.44416406750679016 0.35309335589408875
0.79671812057495117 0.52125018835067749 0.37787482142448425
0.88826799392700195 0.60275411605834961 0.41093781590461731
0.93577432632446289 0.67609399557113647 0.45447725057601929
0.20871520042419434 0.50780558586120605 0.33198332786560059
0.284108966588974 0.52440112829208374 0.33990156650543213
0.39676281809806824 0.54486304521560669 0.34329977631568909
0.61219960451126099 0.59131193161010742 0.36275804042816162
0.78260153532028198 0.62143760919570923 0.37322506308555603
0.87614953517913818 0.65045017004013062 0.38962343335151672
0.92727452516555786 0.70371472835540771 0.44270503520965576
0.31105351448059082 0.66642874479293823 0.36185157299041748
0.32950523495674133 0.66469097137451172 0.35318315029144287
0.42302078008651733 0.67048734426498413 0.35696709156036377
0.59443205595016479 0.68870818614959717 0.38226738572120667
0.76195186376571655 0.71925652027130127 0.41824418306350708
0.86194247007369995 0.7372128963470459 0.44450560212135315
0.9144396185874939 0.74394947290420532 0.4579179584980011
0.43488064408302307 0.7600867748260498 0.39180266857147217
0.45027059316635132 0.75810372829437256 0.38875392079353333
0.52953904867172241 0.7572782039642334 0.40097296237945557
0.64334511756896973 0.76174753904342651 0.42815282940864563
0.76286685466766357 0.77348971366882324 0.4586755633354187
0.85092133283615112 0.78480476140975952 0.49472403526306152
0.90841341018676758 0.79272472858428955 0.51974159479141235
0.67596602439880371 0.81619912385940552 0.48451316356658936
0.68813645839691162 0.81532686948776245 0.48842969536781311
0.72574532032012939 0.8137664794921875 0.49895414710044861
0.77498096227645874 0.81495577096939087 0.51414424180984497
0.8266676664352417 0.81568616628646851 0.53662747144699097
0.87478512525558472 0.81806802749633789 0.5561288595199585
0.91919553279876709 0.82242190837860107 0.582386314868927
0.25903046131134033 0.2932572066783905 0.34242811799049377
0.29469996690750122 0.29640725255012512 0.34759527444839478
0.40151947736740112 0.31327345967292786 0.3759295642375946
0.57685548067092896 0.3627433180809021 0.41670891642570496
0.75707310438156128 0.34932714700698853 0.44615831971168518
0.90520894527435303 0.43459776043891907 0.4758584201335907
0.95171469449996948 0.59641557931900024 0.50113672018051147
0.2517610490322113 0.31305831670761108 0.36114606261253357
0.30017367005348206 0.31862998008728027 0.37349963188171387
0.44193199276924133 0.35541987419128418 0.40032491087913513
0.61776185035705566 0.43008548021316528 0.4338977038860321
0.77708286046981812 0.42246344685554504 0.45667263865470886
0.89973026514053345 0.50897514820098877 0.48168697953224182
0.9450678825378418 0.63700789213180542 0.50864535570144653
0.22472348809242249 0.38228508830070496 0.3755718469619751
0.28207442164421082 0.39244371652603149 0.39103993773460388
0.46563491225242615 0.44558760523796082 0.42330092191696167
0.65591335296630859 0.52983587980270386 0.45418119430541992
0.7899584174156189 0.54440116882324219 0.47064554691314697
0.88750541210174561 0.62158936262130737 0.49541947245597839
0.92618602514266968 0.70213598012924194 0.52603989839553833
0.22618038952350616 0.51663517951965332 0.40177437663078308
0.30591699481010437 0.5270615816116333 0.40842592716217041
0.47118580341339111 0.56122362613677979 0.43108636140823364
0.6713564395904541 0.62183040380477905 0.46444776654243469
0.79957765340805054 0.66090947389602661 0.48358941078186035
0.87616926431655884 0.7031019926071167 0.50100719928741455
0.92111420631408691 0.7383265495300293 0.52418047189712524
0.33456873893737793 0.65376502275466919 0.41734972596168518
0.40641844272613525 0.66040718555450439 0.42739194631576538
0.54587328433990479 0.68196326494216919 0.44636544585227966
0.67241162061691284 0.7056354284286499 0.46589899063110352
0.78868001699447632 0.72494244575500488 0.48802599310874939
0.86769556999206543 0.73531550168991089 0.49563315510749817
0.91538530588150024 0.75349587202072144 0.51003575325012207
0.53427505493164062 0.75685864686965942 0.45733648538589478
0.56499916315078735 0.75664228200912476 0.4610694944858551
0.62028175592422485 0.76140618324279785 0.46522200107574463
0.69157427549362183 0.76722192764282227 0.47872579097747803
0.7849503755569458 0.77556389570236206 0.50628149509429932
0.8624197244644165 0.78466928005218506 0.53284370899200439
0.90988814830780029 0.7904321551322937 0.54786908626556396
0.71390074491500854 0.8120768666267395 0.51697701215744019
0.71778422594070435 0.81326049566268921 0.51821315288543701
0.73892438411712646 0.81414794921875 0.51898288726806641
0.78217220306396484 0.81479716300964355 0.53142327070236206
0.83676362037658691 0.81550973653793335 0.55591279268264771
0.87992805242538452 0.81693261861801147 0.57707768678665161
0.92306506633758545 0.82224828004837036 0.5992811918258667
0.33207431435585022 0.3120972216129303 0.46866756677627563
0.40056151151657104 0.3204210102558136 0.48084747791290283
0.54962736368179321 0.36521294713020325 0.50221812725067139
0.71911728382110596 0.50479245185852051 0.52346187829971313
0.8167235255241394 0.58056813478469849 0.53665715456008911
0.87784063816070557 0.58356118202209473 0.54326701164245605
0.93431556224822998 0.63545328378677368 0.554912269115448
0.33351355791091919 0.35104319453239441 0.48790371417999268
0.41314211487770081 0.36652389168739319 0.4954165518283844
0.56624048948287964 0.42320296168327332 0.5089414119720459
0.73257917165756226 0.55190879106521606 0.52773237228393555
0.82049667835235596 0.6258080005645752 0.54144829511642456
0.87603402137756348 0.61893665790557861 0.54469168186187744
0.9305185079574585 0.66567373275756836 0.55814027786254883
0.31677395105361938 0.44366234540939331 0.48858970403671265
0.39546301960945129 0.45248028635978699 0.49784910678863525
0.56638890504837036 0.50500553846359253 0.51414269208908081
0.74023360013961792 0.61610519886016846 0.53241842985153198
0.8221975564956665 0.67585098743438721 0.54607301950454712
0.87656867504119873 0.67664432525634766 0.55196511745452881
0.92023682594299316 0.70749235153198242 0.56308847665786743
0.26718023419380188 0.53650397062301636 0.4746042788028717
0.3379664421081543 0.54412484169006348 0.47968849539756775
0.49904420971870422 0.57418394088745117 0.49743962287902832
0.71687465906143188 0.65394657850265503 0.52952533960342407
0.82429659366607666 0.71786230802536011 0.54888772964477539
0.8738095760345459 0.7216382622718811 0.55647891759872437
0.91528826951980591 0.74918174743652344 0.57105088233947754
0.38401857018470764 0.66076785326004028 0.4863542914390564
0.43136292695999146 0.66416984796524048 0.48752430081367493
0.54849869012832642 0.67822325229644775 0.49858340620994568
0.69732624292373657 0.70526576042175293 0.52196073532104492
0.81590580940246582 0.74562752246856689 0.54862129688262939
0.87837553024291992 0.76745039224624634 0.5644301176071167
0.91765493154525757 0.78014230728149414 0.57434004545211792
0.46382039785385132 0.74516886472702026 0.48918050527572632
0.50674474239349365 0.74608957767486572 0.49546915292739868
0.60320860147476196 0.75223052501678467 0.50620543956756592
0.72715342044830322 0.76650255918502808 0.52686548233032227
0.80985742807388306 0.78124308586120605 0.54838788509368896
0.8696897029876709 0.79154717922210693 0.56723856925964355
0.9183623194694519 0.79541140794754028 0.57723546028137207
0.69401240348815918 0.81038826704025269 0.54065877199172974
0.70306169986724854 0.81035536527633667 0.54261839389801025
0.74780696630477905 0.81081706285476685 0.54802656173706055
0.79785323143005371 0.81396043300628662 0.55808126926422119
0.83872902393341064 0.81505823135375977 0.57226687669754028
0.88280206918716431 0.81735354661941528 0.59401839971542358
0.93020915985107422 0.82363921403884888 0.61664038896560669
0.54259514808654785 0.42643168568611145 0.58397585153579712
0.59212344884872437 0.44724038243293762 0.58418816328048706
0.69640332460403442 0.50921446084976196 0.58418077230453491
0.7981264591217041 0.61867505311965942 0.58780473470687866
0.85845690965652466 0.71288764476776123 0.59166425466537476
0.88862490653991699 0.72849541902542114 0.59677696228027344
0.91774004697799683 0.72594445943832397 0.60006403923034668
0.55173879861831665 0.47659868001937866 0.58427369594573975
0.59997105598449707 0.49428433179855347 0.58390742540359497
0.70003038644790649 0.55078494548797607 0.58401554822921753
0.79884582757949829 0.65067827701568604 0.58618658781051636
0.8606758713722229 0.73102307319641113 0.59307301044464111
0.88941532373428345 0.74217742681503296 0.59893769025802612
0.91434842348098755 0.74020445346832275 0.60130780935287476
0.52936303615570068 0.54237830638885498 0.57629787921905518
0.57671988010406494 0.55142521858215332 0.57670170068740845
0.69244074821472168 0.60619062185287476 0.57892465591430664
0.79202860593795776 0.67466592788696289 0.58599674701690674
0.8570551872253418 0.74118918180465698 0.59480744600296021
0.89012634754180908 0.75804382562637329 0.60087937116622925
0.9041864275932312 0.75460588932037354 0.60073530673980713
0.41297590732574463 0.59744548797607422 0.55430704355239868
0.48781746625900269 0.60595971345901489 0.55858927965164185
0.62806880474090576 0.63742005825042725 0.56639808416366577
0.76766407489776611 0.69390833377838135 0.57987338304519653
0.85339558124542236 0.75291115045547485 0.59473109245300293
0.89136004447937012 0.77543544769287109 0.60427969694137573
0.91563951969146729 0.76857626438140869 0.6045912504196167
0.41101187467575073 0.67297500371932983 0.54367166757583618
0.45534795522689819 0.67395710945129395 0.54526114463806152
0.55241125822067261 0.68138313293457031 0.55083304643630981
0.69371294975280762 0.70720750093460083 0.56294518709182739
0.8310813307762146 0.75682729482650757 0.58680260181427002
0.89541327953338623 0.79029864072799683 0.60766291618347168
0.92452967166900635 0.79219526052474976 0.61560404300689697
0.52002233266830444 0.75380593538284302 0.5456843376159668
0.54891562461853027 0.75250637531280518 0.54571115970611572
0.62310349941253662 0.75572395324707031 0.55245214700698853
0.71835213899612427 0.76491206884384155 0.56296783685684204
0.81311213970184326 0.78194648027420044 0.5821041464805603
0.88589763641357422 0.79985195398330688 0.60819876194000244
0.92593729496002197 0.80819952487945557 0.62035524845123291
0.61734747886657715 0.81343984603881836 0.55853390693664551
0.63504165410995483 0.81287270784378052 0.55880367755889893
0.68627083301544189 0.8117402195930481 0.56416887044906616
0.76405543088912964 0.81311243772506714 0.57519686222076416
0.83851665258407593 0.81584733724594116 0.59465092420578003
0.88598132133483887 0.81717729568481445 0.61646527051925659
0.93661069869995117 0.82201778888702393 0.63475441932678223
0.77244627475738525 0.66611194610595703 0.63837617635726929
0.78704309463500977 0.67390483617782593 0.63558316230773926
0.82018208503723145 0.69803369045257568 0.63301998376846313
0.85898405313491821 0.73191434144973755 0.6322171688079834
0.8895798921585083 0.7686348557472229 0.63429170846939087
0.91264551877975464 0.78860878944396973 0.63484257459640503
0.92806214094161987 0.79193007946014404 0.63817483186721802
0.77364504337310791 0.6811637282371521 0.63581383228302002
0.78832966089248657 0.68932896852493286 0.63581943511962891
0.82295233011245728 0.71127974987030029 0.63243794441223145
0.85973763465881348 0.74072748422622681 0.63121539354324341
0.89006876945495605 0.76957446336746216 0.63182747364044189
0.91377013921737671 0.79093253612518311 0.63615453243255615
0.92285895347595215 0.79567468166351318 0.63791155815124512
0.76228666305541992 0.69911038875579834 0.63399237394332886
0.7768627405166626 0.7052619457244873 0.63155001401901245
0.81258463859558105 0.72336077690124512 0.63110154867172241
0.85670453310012817 0.7548949122428894 0.63254392147064209
0.88762277364730835 0.7775077223777771 0.63356214761734009
0.91569536924362183 0.79788386821746826 0.63843661546707153
0.92424046993255615 0.79877972602844238 0.63795667886734009
0.72127658128738403 0.71844351291656494 0.62700468301773071
0.74020957946777344 0.72099131345748901 0.62766993045806885
0.78301090002059937 0.7319343090057373 0.62775504589080811
0.84003919363021851 0.75817078351974487 0.6308063268661499
0.88478177785873413 0.78301644325256348 0.63467144966125488
0.91363668441772461 0.80067670345306396 0.63880813121795654
0.93407207727432251 0.80871641635894775 0.64256960153579712
0.61195331811904907 0.73884099721908569 0.61543363332748413
0.63426631689071655 0.73746782541275024 0.61633783578872681
0.69913232326507568 0.74173349142074585 0.61625576019287109
0.78930866718292236 0.75863480567932129 0.62353348731994629
0.86842072010040283 0.78467535972595215 0.63451755046844482
0.91405248641967773 0.80457031726837158 0.64140325784683228
0.93846410512924194 0.81377214193344116 0.6474379301071167
0.65663069486618042 0.78461253643035889 0.61458969116210938
0.66664272546768188 0.78334265947341919 0.61437588930130005
0.70099568367004395 0.78094923496246338 0.61584752798080444
0.75517618656158447 0.78237545490264893 0.61882853507995605
0.82369756698608398 0.78831934928894043 0.62362253665924072
0.89837479591369629 0.80642586946487427 0.64078801870346069
0.93827325105667114 0.82026660442352295 0.65209400653839111
0.72736787796020508 0.82130813598632812 0.62457090616226196
0.73697793483734131 0.82180899381637573 0.62470608949661255
0.75650143623352051 0.81873774528503418 0.62484562397003174
0.79789310693740845 0.82004803419113159 0.63058209419250488
0.84202969074249268 0.82036048173904419 0.6331169605255127
0.89577120542526245 0.8208807110786438 0.64646470546722412
0.95128291845321655 0.82645958662033081 0.65988385677337646
