luts/instant_consumer/polaroid_px-100uv+_cold.cube
# Created by: G'MIC (https://gmic.eu)
TITLE "polaroid_px-100uv+_cold"
# LUT size
LUT_3D_SIZE 7
# Data domain
DOMAIN_MIN 0.0 0.0 0.0
DOMAIN_MAX 1.0 1.0 1.0
# LUT data points
0.18101795017719269 0.25615745782852173 0.26779323816299438
0.19514921307563782 0.26977747678756714 0.28037673234939575
0.24858246743679047 0.314165860414505 0.32180246710777283
0.32144609093666077 0.37336695194244385 0.37851798534393311
0.40358114242553711 0.44268569350242615 0.44445884227752686
0.49323767423629761 0.52136075496673584 0.51534229516983032
0.59265261888504028 0.61284744739532471 0.59249001741409302
0.21137937903404236 0.28369787335395813 0.29353460669517517
0.22182828187942505 0.29216849803924561 0.30220493674278259
0.2575717568397522 0.32125729322433472 0.32961899042129517
0.32731404900550842 0.37787225842475891 0.38435232639312744
0.41186302900314331 0.44838079810142517 0.45108705759048462
0.50142735242843628 0.5275765061378479 0.52119779586791992
0.59845823049545288 0.61716490983963013 0.5958254337310791
0.28692051768302917 0.34528675675392151 0.35471844673156738
0.28909647464752197 0.34559166431427002 0.35585975646972656
0.31151464581489563 0.36311626434326172 0.37289831042289734
0.36559942364692688 0.40736377239227295 0.41531479358673096
0.43610438704490662 0.46692368388175964 0.47035473585128784
0.51553153991699219 0.53843581676483154 0.53174364566802979
0.60847198963165283 0.62560206651687622 0.60248869657516479
0.37820088863372803 0.41978862881660461 0.42633157968521118
0.37426784634590149 0.41397646069526672 0.42239698767662048
0.38449966907501221 0.42129397392272949 0.42995163798332214
0.42204868793487549 0.45307418704032898 0.4596458375453949
0.47417056560516357 0.49911558628082275 0.50063598155975342
0.53690582513809204 0.55742990970611572 0.54872435331344604
0.62212586402893066 0.63822090625762939 0.61316770315170288
0.46706858277320862 0.49569866061210632 0.49435046315193176
0.46077665686607361 0.48800837993621826 0.48894971609115601
0.46142911911010742 0.48715373873710632 0.48911377787590027
0.48488467931747437 0.50893473625183105 0.5080142617225647
0.52379798889160156 0.54628437757492065 0.53898680210113525
0.57534170150756836 0.59510576725006104 0.57935172319412231
0.65173053741455078 0.66736704111099243 0.63695275783538818
0.57904797792434692 0.60002565383911133 0.58130276203155518
0.57310914993286133 0.59248274564743042 0.57575160264968872
0.56787937879562378 0.58630126714706421 0.57090169191360474
0.58441513776779175 0.603016197681427 0.58382350206375122
0.61639833450317383 0.63517123460769653 0.60982310771942139
0.65663319826126099 0.67350679636001587 0.6414908766746521
0.71548360586166382 0.72762346267700195 0.68606925010681152
0.72329646348953247 0.73908638954162598 0.69448530673980713
0.72185152769088745 0.73425877094268799 0.6905403733253479
0.72131919860839844 0.73382353782653809 0.68865185976028442
0.72756868600845337 0.74076247215270996 0.69336509704589844
0.75155496597290039 0.76483750343322754 0.71222281455993652
0.77547824382781982 0.78633922338485718 0.73121744394302368
0.80981194972991943 0.81605201959609985 0.75772124528884888
0.21413002908229828 0.28539332747459412 0.29599973559379578
0.22616489231586456 0.29636165499687195 0.30807331204414368
0.28534653782844543 0.34440502524375916 0.35368606448173523
0.36752599477767944 0.4108709990978241 0.41611537337303162
0.44380822777748108 0.47515383362770081 0.47595024108886719
0.5213392972946167 0.54551416635513306 0.53753060102462769
0.61481541395187378 0.63262587785720825 0.60968476533889771
0.23791854083538055 0.30651488900184631 0.3156525194644928
0.26074239611625671 0.3239348828792572 0.3343338668346405
0.30900391936302185 0.36253169178962708 0.37186712026596069
0.37643435597419739 0.41775286197662354 0.42389312386512756
0.44865432381629944 0.47860190272331238 0.48019763827323914
0.52838289737701416 0.55064213275909424 0.54219669103622437
0.62069380283355713 0.63770407438278198 0.61310261487960815
0.32419818639755249 0.37586042284965515 0.38459870219230652
0.33348387479782104 0.38195931911468506 0.39125543832778931
0.35958787798881531 0.40258336067199707 0.41163763403892517
0.40694674849510193 0.44177567958831787 0.44853812456130981
0.4627566933631897 0.48883116245269775 0.49184665083885193
0.53469347953796387 0.55487120151519775 0.54685980081558228
0.62663286924362183 0.64263772964477539 0.61682212352752686
0.42249098420143127 0.45622137188911438 0.46170753240585327
0.42084154486656189 0.45278429985046387 0.45913806557655334
0.42429110407829285 0.45525309443473816 0.46184244751930237
0.45035040378570557 0.47745820879936218 0.48233798146247864
0.48901307582855225 0.51129060983657837 0.51252764463424683
0.5493539571762085 0.56817138195037842 0.55842775106430054
0.63619387149810791 0.65205425024032593 0.62442195415496826
0.50080412626266479 0.52395510673522949 0.52094709873199463
0.4969322681427002 0.51952379941940308 0.51767003536224365
0.49422803521156311 0.51669859886169434 0.51552170515060425
0.50721025466918945 0.52977246046066284 0.52610558271408081
0.5374985933303833 0.55905330181121826 0.54983198642730713
0.58787733316421509 0.60758846998214722 0.58851397037506104
0.66237735748291016 0.67877072095870972 0.64515793323516846
0.59687322378158569 0.61381536722183228 0.59495502710342407
0.59215974807739258 0.60919809341430664 0.59129393100738525
0.59037095308303833 0.60791337490081787 0.58957713842391968
0.59842312335968018 0.61724686622619629 0.59567582607269287
0.62398779392242432 0.64318752288818359 0.61564189195632935
0.66355615854263306 0.68131917715072632 0.64640617370605469
0.72082233428955078 0.73445749282836914 0.69005846977233887
0.72891497611999512 0.74174660444259644 0.69838112592697144
0.72566789388656616 0.73782628774642944 0.69505751132965088
0.72536498308181763 0.7377055287361145 0.69335007667541504
0.73083972930908203 0.74400752782821655 0.69706583023071289
0.75001430511474609 0.76314711570739746 0.71171039342880249
0.77654433250427246 0.78757113218307495 0.73220360279083252
0.81203567981719971 0.81938076019287109 0.75973343849182129
0.30320614576339722 0.35733947157859802 0.36632892489433289
0.31854590773582458 0.36908820271492004 0.38027709722518921
0.3563191294670105 0.39925581216812134 0.41000193357467651
0.40958073735237122 0.44534114003181458 0.45004767179489136
0.48441305756568909 0.51057863235473633 0.50724345445632935
0.56638425588607788 0.58735686540603638 0.57064002752304077
0.65153747797012329 0.66837656497955322 0.63647395372390747
0.3204943835735321 0.37075135111808777 0.37922349572181702
0.34209534525871277 0.38780134916305542 0.39789792895317078
0.37990215420722961 0.41952735185623169 0.42811024188995361
0.43010956048965454 0.46270632743835449 0.466602623462677
0.4906553328037262 0.51538574695587158 0.5124518871307373
0.5688709020614624 0.58890604972839355 0.57237499952316284
0.65608364343643188 0.67283296585083008 0.6393921971321106
0.36522224545478821 0.40654557943344116 0.4145473837852478
0.3909972608089447 0.42741382122039795 0.43577331304550171
0.4200558066368103 0.45309454202651978 0.45926329493522644
0.46296483278274536 0.49142533540725708 0.49311432242393494
0.50751745700836182 0.53057128190994263 0.52655649185180664
0.57706153392791748 0.59631973505020142 0.57924246788024902
0.66336756944656372 0.67955309152603149 0.64521700143814087
0.45497730374336243 0.4829966127872467 0.48614513874053955
0.46421581506729126 0.48982447385787964 0.49292227625846863
0.47131755948066711 0.49740397930145264 0.49900469183921814
0.4955560564994812 0.52025580406188965 0.51825356483459473
0.53161358833312988 0.55323535203933716 0.54549896717071533
0.59212970733642578 0.61117535829544067 0.59132868051528931
0.6724126935005188 0.68854087591171265 0.65264058113098145
0.54787993431091309 0.56891477108001709 0.55799883604049683
0.54259330034255981 0.56255835294723511 0.5535551905632019
0.5407334566116333 0.56255948543548584 0.55277109146118164
0.54801511764526367 0.5704953670501709 0.55834555625915527
0.5737757682800293 0.59576702117919922 0.57824349403381348
0.62217873334884644 0.64293557405471802 0.61455857753753662
0.69138723611831665 0.70844930410385132 0.66742700338363647
0.64049208164215088 0.65681463479995728 0.62924087047576904
0.63211339712142944 0.64867299795150757 0.62365221977233887
0.63077110052108765 0.64851886034011841 0.62185853719711304
0.62760776281356812 0.64764374494552612 0.61973816156387329
0.64810740947723389 0.6680837869644165 0.63478666543960571
0.68423843383789062 0.70349889993667603 0.66190177202224731
0.73898530006408691 0.75381839275360107 0.70394361019134521
0.7510259747505188 0.76243442296981812 0.71507459878921509
0.74808299541473389 0.75987786054611206 0.71260952949523926
0.74665594100952148 0.75938111543655396 0.711264967918396
0.74712634086608887 0.76065355539321899 0.71100056171417236
0.76238024234771729 0.77557587623596191 0.72226327657699585
0.79014784097671509 0.80069547891616821 0.7428392767906189
0.82299691438674927 0.83050614595413208 0.76819062232971191
0.42791479825973511 0.46132427453994751 0.4635162353515625
0.44066870212554932 0.47031614184379578 0.474896639585495
0.46658036112785339 0.49292644858360291 0.49547913670539856
0.48176705837249756 0.50936132669448853 0.50673246383666992
0.51896154880523682 0.54024273157119751 0.53387141227722168
0.60718673467636108 0.62571233510971069 0.60113692283630371
0.69093316793441772 0.70623660087585449 0.66640371084213257
0.44783157110214233 0.47520363330841064 0.47839924693107605
0.45403099060058594 0.48125877976417542 0.48494026064872742
0.47336384654045105 0.49945294857025146 0.50050657987594604
0.49461865425109863 0.51925313472747803 0.51634246110916138
0.52962768077850342 0.55063283443450928 0.54181522130966187
0.60908442735671997 0.62826848030090332 0.60309487581253052
0.69566339254379272 0.71213835477828979 0.67005503177642822
0.45514374971389771 0.4814687967300415 0.48512119054794312
0.46838921308517456 0.49396419525146484 0.49642309546470642
0.4908604621887207 0.5158994197845459 0.51434648036956787
0.51974141597747803 0.54285699129104614 0.53628551959991455
0.5546455979347229 0.57557165622711182 0.56220358610153198
0.63133412599563599 0.65115845203399658 0.62144345045089722
0.70975291728973389 0.72610890865325928 0.68168365955352783
0.48966687917709351 0.51347702741622925 0.51404273509979248
0.49989995360374451 0.5232921838760376 0.5215904712677002
0.5203627347946167 0.54404228925704956 0.53762418031692505
0.55090427398681641 0.57378226518630981 0.56123441457748413
0.59038323163986206 0.61151504516601562 0.59101533889770508
0.65502017736434937 0.6741606593132019 0.64011073112487793
0.7230646014213562 0.73892509937286377 0.6923598051071167
0.5741773247718811 0.59448009729385376 0.57870578765869141
0.57575124502182007 0.59653568267822266 0.57998156547546387
0.58964246511459351 0.61128789186477661 0.59114861488342285
0.60059535503387451 0.62287956476211548 0.59974855184555054
0.62807440757751465 0.64984846115112305 0.62051784992218018
0.67661756277084351 0.69640237092971802 0.6571812629699707
0.7357901930809021 0.75163847208023071 0.70231401920318604
0.67080479860305786 0.68708187341690063 0.65286076068878174
0.67293870449066162 0.68935960531234741 0.65459823608398438
0.68135988712310791 0.69886356592178345 0.66165077686309814
0.67745953798294067 0.69678586721420288 0.65900206565856934
0.69179093837738037 0.71118777990341187 0.66982167959213257
0.7241179347038269 0.7422022819519043 0.6938546895980835
0.77006989717483521 0.78399193286895752 0.72894805669784546
0.77757304906845093 0.78809058666229248 0.73534226417541504
0.78138583898544312 0.7912253737449646 0.73820757865905762
0.78150999546051025 0.7924191951751709 0.73862230777740479
0.78013116121292114 0.7926594614982605 0.73782539367675781
0.78956621885299683 0.80166888236999512 0.7447502613067627
0.81033456325531006 0.820334792137146 0.75967824459075928
0.8373725414276123 0.84473609924316406 0.78032547235488892
0.55126374959945679 0.5727958083152771 0.56031137704849243
0.55161166191101074 0.57209295034408569 0.56217557191848755
0.56988060474395752 0.59031349420547485 0.57630223035812378
0.59464156627655029 0.61557269096374512 0.59423291683197021
0.60231292247772217 0.61998087167739868 0.5989152193069458
0.64264625310897827 0.65956062078475952 0.62950277328491211
0.72131645679473877 0.73467332124710083 0.69066494703292847
0.56542277336120605 0.58366143703460693 0.57109743356704712
0.56840676069259644 0.58721631765365601 0.57457554340362549
0.58054226636886597 0.59964287281036377 0.58359968662261963
0.59563648700714111 0.61420661211013794 0.59403419494628906
0.60828918218612671 0.62565845251083374 0.60313540697097778
0.64678585529327393 0.66381978988647461 0.63340955972671509
0.72539734840393066 0.73917603492736816 0.69460779428482056
0.56707358360290527 0.58607703447341919 0.57300156354904175
0.57580816745758057 0.59633064270019531 0.58037406206130981
0.59015500545501709 0.61021560430526733 0.5908503532409668
0.61205869913101196 0.63016164302825928 0.60670566558837891
0.62982577085494995 0.6472923755645752 0.62065190076828003
0.66934657096862793 0.68720591068267822 0.65191948413848877
0.73961937427520752 0.75380808115005493 0.70565420389175415
0.57320833206176758 0.5937235951423645 0.57809901237487793
0.58120399713516235 0.60313177108764648 0.58456408977508545
0.59972387552261353 0.62122088670730591 0.59859746694564819
0.62763434648513794 0.64748704433441162 0.61994153261184692
0.65361076593399048 0.67245328426361084 0.64035367965698242
0.70057356357574463 0.7178642749786377 0.67633867263793945
0.76396840810775757 0.77733141183853149 0.72472518682479858
0.61209583282470703 0.63146388530731201 0.60683757066726685
0.61538302898406982 0.63626515865325928 0.61002665758132935
0.63292586803436279 0.65433710813522339 0.62435930967330933
0.6529354453086853 0.67406505346298218 0.64065706729888916
0.68446838855743408 0.70391625165939331 0.66496104001998901
0.72895795106887817 0.74579578638076782 0.6983756422996521
0.77707165479660034 0.79028940200805664 0.73509544134140015
0.6901288628578186 0.70576268434524536 0.66620725393295288
0.69519662857055664 0.71146476268768311 0.67090302705764771
0.70747220516204834 0.72456151247024536 0.68176430463790894
0.71840959787368774 0.73597145080566406 0.69160646200180054
0.73814034461975098 0.7549627423286438 0.70660859346389771
0.76743495464324951 0.78197908401489258 0.72876667976379395
0.80195140838623047 0.81346380710601807 0.75487947463989258
0.79831337928771973 0.80797082185745239 0.75079494714736938
0.80118536949157715 0.81020718812942505 0.75325912237167358
0.80470836162567139 0.81428039073944092 0.75684678554534912
0.81169980764389038 0.82215201854705811 0.76342332363128662
0.81890738010406494 0.82924735546112061 0.76911884546279907
0.82967162132263184 0.83878225088119507 0.7769123911857605
0.84964704513549805 0.85633081197738647 0.79158324003219604
0.67868542671203613 0.6935192346572876 0.65969330072402954
0.67518359422683716 0.69021588563919067 0.65817463397979736
0.68583893775939941 0.70083808898925781 0.66612845659255981
0.70766568183898926 0.72207677364349365 0.68219232559204102
0.7265627384185791 0.73989033699035645 0.69654697179794312
0.73546856641769409 0.74885118007659912 0.70256513357162476
0.7577393651008606 0.76960819959640503 0.71855401992797852
0.68924826383590698 0.70307320356369019 0.66764336824417114
0.69062811136245728 0.70498347282409668 0.6691824197769165
0.69839602708816528 0.71248990297317505 0.67444431781768799
0.71469771862030029 0.72768688201904297 0.68572783470153809
0.7320483922958374 0.74480617046356201 0.69910949468612671
0.74125081300735474 0.75452005863189697 0.70679092407226562
0.77007728815078735 0.78080540895462036 0.72876852750778198
0.69238466024398804 0.70731240510940552 0.66960364580154419
0.69910818338394165 0.71523821353912354 0.67505484819412231
0.70660489797592163 0.72177863121032715 0.68004822731018066
0.72512722015380859 0.73784291744232178 0.69281947612762451
0.74425941705703735 0.75615650415420532 0.70770269632339478
0.75152832269668579 0.7636721134185791 0.71416944265365601
0.77790647745132446 0.78808975219726562 0.73435628414154053
0.68985319137573242 0.70574522018432617 0.66688936948776245
0.69541913270950317 0.71288436651229858 0.67133247852325439
0.70512193441390991 0.72176790237426758 0.67852282524108887
0.72576165199279785 0.74003875255584717 0.69385248422622681
0.748801589012146 0.76157796382904053 0.71208816766738892
0.76725846529006958 0.77901744842529297 0.72649788856506348
0.79069787263870239 0.80041706562042236 0.74372178316116333
0.69726312160491943 0.71273142099380493 0.6713072657585144
0.701457679271698 0.71781659126281738 0.67480647563934326
0.71121984720230103 0.72768509387969971 0.68316829204559326
0.7288164496421814 0.74438703060150146 0.69787317514419556
0.7560611367225647 0.76987051963806152 0.71940857172012329
0.78593689203262329 0.79781568050384521 0.7423897385597229
0.81296175718307495 0.82217937707901001 0.76252096891403198
0.74037730693817139 0.75320452451705933 0.70447921752929688
0.74667471647262573 0.75920528173446655 0.70955431461334229
0.75359028577804565 0.76642036437988281 0.71608716249465942
0.76627111434936523 0.77905279397964478 0.72768235206604004
0.78721731901168823 0.79900598526000977 0.74460959434509277
0.81058555841445923 0.82100307941436768 0.76271092891693115
0.83244603872299194 0.84052932262420654 0.77912801504135132
0.82003003358840942 0.82838970422744751 0.76772993803024292
0.82124894857406616 0.82809460163116455 0.76833677291870117
0.82383257150650024 0.83049821853637695 0.77112770080566406
0.83191120624542236 0.83888280391693115 0.77888423204421997
0.84130215644836426 0.84828698635101318 0.78697258234024048
0.84857350587844849 0.85515481233596802 0.79279917478561401
0.86116647720336914 0.86616116762161255 0.8019835352897644
0.80818533897399902 0.81706887483596802 0.75915604829788208
0.80383980274200439 0.81275427341461182 0.75645756721496582
0.80638724565505981 0.81468778848648071 0.75815236568450928
0.81899911165237427 0.82641547918319702 0.76722800731658936
0.83662635087966919 0.8433525562286377 0.78116363286972046
0.84339576959609985 0.8501935601234436 0.78643584251403809
0.84322339296340942 0.84886878728866577 0.78513854742050171
0.81459027528762817 0.82322591543197632 0.76329559087753296
0.81331872940063477 0.82167983055114746 0.76290041208267212
0.81431818008422852 0.82216811180114746 0.76291143894195557
0.82243460416793823 0.8288038969039917 0.76775693893432617
0.83850079774856567 0.84426289796829224 0.77990710735321045
0.84927546977996826 0.85507774353027344 0.78897547721862793
0.8511124849319458 0.85594689846038818 0.79019486904144287
0.81605392694473267 0.82586300373077393 0.76434481143951416
0.81646585464477539 0.82675695419311523 0.76492732763290405
0.81823068857192993 0.82655388116836548 0.76494520902633667
0.8260648250579834 0.83225762844085693 0.76942145824432373
0.84157896041870117 0.84671920537948608 0.78083169460296631
0.85379618406295776 0.8587527871131897 0.79079359769821167
0.85511267185211182 0.85905998945236206 0.79189401865005493
0.81552720069885254 0.82441014051437378 0.76228290796279907
0.8155590295791626 0.8244626522064209 0.76170587539672852
0.81488519906997681 0.82374864816665649 0.76106363534927368
0.82343751192092896 0.83067023754119873 0.76762956380844116
0.83970397710800171 0.84521025419235229 0.78010702133178711
0.85347050428390503 0.85768961906433105 0.79070311784744263
0.85540831089019775 0.85933732986450195 0.79221105575561523
0.8127368688583374 0.82124042510986328 0.75940465927124023
0.81646215915679932 0.82428646087646484 0.76165974140167236
0.81348997354507446 0.82145607471466064 0.76092594861984253
0.81942033767700195 0.82675105333328247 0.76575708389282227
0.83682805299758911 0.84287530183792114 0.77981674671173096
0.85582965612411499 0.86080050468444824 0.7950129508972168
0.86587202548980713 0.86947393417358398 0.80243736505508423
0.82576173543930054 0.83240598440170288 0.76999592781066895
0.83388960361480713 0.83900171518325806 0.77553844451904297
0.82730644941329956 0.83259695768356323 0.77141129970550537
0.82910788059234619 0.83455926179885864 0.77444326877593994
0.84393799304962158 0.84904885292053223 0.78716009855270386
0.86150956153869629 0.86611980199813843 0.80170220136642456
0.87212264537811279 0.875590980052948 0.80948102474212646
0.85396462678909302 0.85907095670700073 0.79421967267990112
0.8610384464263916 0.86350280046463013 0.79892659187316895
0.85836213827133179 0.85972708463668823 0.79650312662124634
0.85760629177093506 0.85897636413574219 0.79713994264602661
0.8681938648223877 0.87016075849533081 0.80668187141418457
0.87500345706939697 0.87744152545928955 0.81295323371887207
0.88068944215774536 0.88251185417175293 0.81714403629302979
