luts/instant_consumer/polaroid_px-100uv+_warm.cube
# Created by: G'MIC (https://gmic.eu)
TITLE "polaroid_px-100uv+_warm"
# LUT size
LUT_3D_SIZE 7
# Data domain
DOMAIN_MIN 0.0 0.0 0.0
DOMAIN_MAX 1.0 1.0 1.0
# LUT data points
0.27096548676490784 0.24924060702323914 0.25238564610481262
0.28225263953208923 0.26287445425987244 0.26489761471748352
0.31711038947105408 0.30056998133659363 0.30195599794387817
0.3786652684211731 0.36526408791542053 0.3684745728969574
0.45073613524436951 0.43830496072769165 0.44176366925239563
0.528728187084198 0.51419216394424438 0.51577460765838623
0.62186318635940552 0.60342764854431152 0.59772080183029175
0.29138761758804321 0.2727169394493103 0.27432987093925476
0.30205264687538147 0.28509724140167236 0.28616470098495483
0.332375168800354 0.31776309013366699 0.3179684579372406
0.38941308856010437 0.3781467080116272 0.3802228569984436
0.45460477471351624 0.44408658146858215 0.44711655378341675
0.52819859981536865 0.51463598012924194 0.51556849479675293
0.618874192237854 0.60042750835418701 0.59428197145462036
0.35054650902748108 0.33562800288200378 0.3383733332157135
0.3569912314414978 0.34368756413459778 0.34647947549819946
0.37913307547569275 0.36813527345657349 0.37074702978134155
0.42164149880409241 0.41294360160827637 0.41602137684822083
0.470255047082901 0.46090513467788696 0.46394571661949158
0.53354108333587646 0.52077388763427734 0.52020829916000366
0.62297517061233521 0.60497111082077026 0.59671300649642944
0.42736443877220154 0.41608628630638123 0.42013058066368103
0.42610439658164978 0.41601520776748657 0.42068260908126831
0.43541204929351807 0.42720761895179749 0.43150603771209717
0.46486374735832214 0.4573424756526947 0.46138849854469299
0.50058287382125854 0.49120855331420898 0.49409899115562439
0.55672198534011841 0.54299247264862061 0.54058998823165894
0.645549476146698 0.62601751089096069 0.61452049016952515
0.50221234560012817 0.49146381020545959 0.4929853081703186
0.49840801954269409 0.48854592442512512 0.49107265472412109
0.4972110390663147 0.48871508240699768 0.4911591112613678
0.51726037263870239 0.50825250148773193 0.50982338190078735
0.55149716138839722 0.53991764783859253 0.53934794664382935
0.60628628730773926 0.59047514200210571 0.58391362428665161
0.69368630647659302 0.67212080955505371 0.65512007474899292
0.60970532894134521 0.59554851055145264 0.58688771724700928
0.6056639552116394 0.59096908569335938 0.58430612087249756
0.5970800518989563 0.58342885971069336 0.57735306024551392
0.6139482855796814 0.59928810596466064 0.59231364727020264
0.64743179082870483 0.63108283281326294 0.62114220857620239
0.69274497032165527 0.6740838885307312 0.65874719619750977
0.76093369722366333 0.73867791891098022 0.71444505453109741
0.75758630037307739 0.73637211322784424 0.71286249160766602
0.75718742609024048 0.73267656564712524 0.71157819032669067
0.75423026084899902 0.72970753908157349 0.70917743444442749
0.75901472568511963 0.73550224304199219 0.71450483798980713
0.78345251083374023 0.76089417934417725 0.73688554763793945
0.80698484182357788 0.78581005334854126 0.75807684659957886
0.8388437032699585 0.81855779886245728 0.78559523820877075
0.30353769659996033 0.28645861148834229 0.28911545872688293
0.31961154937744141 0.3048863410949707 0.3073652982711792
0.35290983319282532 0.34014815092086792 0.34262165427207947
0.41739374399185181 0.40819239616394043 0.41149413585662842
0.48625504970550537 0.47652336955070496 0.48062753677368164
0.55556541681289673 0.54193359613418579 0.54351788759231567
0.64422762393951416 0.62561386823654175 0.61917871236801147
0.31834140419960022 0.30285719037055969 0.30323004722595215
0.33730176091194153 0.32420724630355835 0.3256489634513855
0.37110000848770142 0.36049550771713257 0.36217105388641357
0.42656862735748291 0.41841939091682434 0.42074558138847351
0.48804965615272522 0.47914409637451172 0.48233166337013245
0.5575980544090271 0.54362338781356812 0.54379808902740479
0.64521259069442749 0.62616723775863647 0.61893391609191895
0.37904143333435059 0.36619365215301514 0.36857712268829346
0.39093491435050964 0.37950408458709717 0.38257426023483276
0.41344735026359558 0.40451115369796753 0.40712085366249084
0.45365476608276367 0.44646218419075012 0.44812306761741638
0.49846234917640686 0.48954308032989502 0.49141186475753784
0.56029307842254639 0.54645168781280518 0.54476535320281982
0.64936506748199463 0.63000363111495972 0.61999797821044922
0.4568946361541748 0.44546109437942505 0.44939163327217102
0.46319445967674255 0.45230647921562195 0.45665878057479858
0.46765232086181641 0.45896503329277039 0.46238899230957031
0.49023479223251343 0.48175549507141113 0.48411399126052856
0.52361172437667847 0.51243197917938232 0.51319676637649536
0.57934606075286865 0.5634569525718689 0.55967658758163452
0.66689145565032959 0.64579766988754272 0.6330074667930603
0.52869260311126709 0.51838672161102295 0.51900863647460938
0.53200572729110718 0.5202140212059021 0.52158826589584351
0.52952581644058228 0.51854151487350464 0.51923191547393799
0.54106134176254272 0.52946966886520386 0.52903050184249878
0.57099282741546631 0.55688363313674927 0.55433326959609985
0.62431216239929199 0.60600423812866211 0.59812259674072266
0.70560759305953979 0.68250036239624023 0.66531407833099365
0.62852269411087036 0.61380529403686523 0.60610491037368774
0.6296999454498291 0.61390072107315063 0.60651719570159912
0.62299042940139771 0.60673636198043823 0.59919136762619019
0.62846547365188599 0.61160826683044434 0.60305213928222656
0.65853387117385864 0.64017850160598755 0.62888425588607788
0.70335477590560913 0.68266743421554565 0.66633445024490356
0.76631063222885132 0.74300980567932129 0.71898609399795532
0.76648247241973877 0.74557995796203613 0.72295451164245605
0.76635825634002686 0.7431911826133728 0.72225135564804077
0.76081764698028564 0.73657679557800293 0.71618121862411499
0.76321995258331299 0.73944723606109619 0.71805453300476074
0.78535991907119751 0.7622150182723999 0.73755669593811035
0.81306499242782593 0.79070544242858887 0.76220262050628662
0.84627902507781982 0.82409477233886719 0.7913825511932373
0.37292808294296265 0.36026138067245483 0.36415010690689087
0.3894500732421875 0.37979245185852051 0.38396060466766357
0.41120490431785583 0.40196773409843445 0.40556237101554871
0.4574107825756073 0.44919618964195251 0.4532315731048584
0.52212882041931152 0.51258808374404907 0.51584100723266602
0.60109061002731323 0.58569467067718506 0.58342456817626953
0.6869005560874939 0.66657185554504395 0.65379899740219116
0.390451580286026 0.37805074453353882 0.38123714923858643
0.40182173252105713 0.39210289716720581 0.39589047431945801
0.42677369713783264 0.41881653666496277 0.42183172702789307
0.46953418850898743 0.46192240715026855 0.46473279595375061
0.5258183479309082 0.51601153612136841 0.51804244518280029
0.60202229022979736 0.5869286060333252 0.58328282833099365
0.68885701894760132 0.6681639552116394 0.65449345111846924
0.42949488759040833 0.41891157627105713 0.42279797792434692
0.43499097228050232 0.42632174491882324 0.43052425980567932
0.45845529437065125 0.45095932483673096 0.45337745547294617
0.50006085634231567 0.49231752753257751 0.49266466498374939
0.54348599910736084 0.53238636255264282 0.53178316354751587
0.6102607250213623 0.59329032897949219 0.58769935369491577
0.69499856233596802 0.67287600040435791 0.65852630138397217
0.4915139377117157 0.48147168755531311 0.484426349401474
0.49862119555473328 0.48842167854309082 0.4914320707321167
0.5082324743270874 0.49831506609916687 0.49946969747543335
0.53402549028396606 0.52326875925064087 0.52227652072906494
0.57051903009414673 0.55609101057052612 0.55346250534057617
0.62870645523071289 0.6093253493309021 0.60198545455932617
0.70781564712524414 0.68426191806793213 0.66851222515106201
0.57263106107711792 0.56035786867141724 0.55703604221343994
0.57563072443008423 0.56212657690048218 0.55929207801818848
0.57806384563446045 0.56351494789123535 0.55961006879806519
0.58742797374725342 0.57175618410110474 0.56689828634262085
0.61249393224716187 0.59435588121414185 0.58800578117370605
0.65935271978378296 0.63776659965515137 0.62717127799987793
0.73161816596984863 0.70707851648330688 0.68869459629058838
0.67465007305145264 0.65787702798843384 0.64486879110336304
0.67215132713317871 0.65404820442199707 0.64199161529541016
0.66558486223220825 0.64605355262756348 0.63413900136947632
0.66489416360855103 0.64465391635894775 0.63207101821899414
0.68704628944396973 0.66564482450485229 0.65122538805007935
0.72155517339706421 0.69854444265365601 0.68114590644836426
0.77882117033004761 0.75465255975723267 0.7307400107383728
0.79015791416168213 0.76913446187973022 0.74447792768478394
0.78902298212051392 0.76597321033477783 0.7432367205619812
0.78212463855743408 0.75813460350036621 0.73546814918518066
0.78180027008056641 0.75755929946899414 0.7338680624961853
0.79870522022247314 0.77458250522613525 0.74826616048812866
0.82344686985015869 0.79992836713790894 0.77043932676315308
0.85411167144775391 0.83076930046081543 0.79805153608322144
0.46221631765365601 0.45147997140884399 0.45590037107467651
0.47388648986816406 0.46563807129859924 0.47025531530380249
0.49635413289070129 0.48775562644004822 0.49096202850341797
0.52086955308914185 0.51011675596237183 0.51246768236160278
0.55041670799255371 0.53900277614593506 0.54039782285690308
0.63849610090255737 0.62127387523651123 0.6139911413192749
0.72763568162918091 0.70605289936065674 0.68627238273620605
0.48463344573974609 0.47294142842292786 0.47684705257415771
0.48607805371284485 0.4768027663230896 0.48081126809120178
0.50359040498733521 0.49432477355003357 0.49669921398162842
0.52607947587966919 0.51548463106155396 0.51691597700119019
0.56167221069335938 0.54911702871322632 0.54865658283233643
0.64047420024871826 0.62257671356201172 0.61444365978240967
0.73075956106185913 0.70783132314682007 0.68860185146331787
0.49778494238853455 0.48790881037712097 0.49118590354919434
0.50020682811737061 0.49097514152526855 0.49393185973167419
0.52114158868789673 0.51166588068008423 0.51190280914306641
0.55185085535049438 0.54062193632125854 0.53833246231079102
0.59047842025756836 0.57577425241470337 0.57108175754547119
0.66142809391021729 0.64118582010269165 0.63022714853286743
0.74437659978866577 0.71971660852432251 0.69974738359451294
0.52216202020645142 0.51394003629684448 0.51455068588256836
0.53382605314254761 0.52347612380981445 0.52359908819198608
0.5536995530128479 0.54210841655731201 0.54020315408706665
0.58357959985733032 0.56990700960159302 0.56521809101104736
0.6264989972114563 0.6081426739692688 0.6004328727722168
0.68642449378967285 0.66372179985046387 0.65100693702697754
0.75719243288040161 0.73210346698760986 0.71146053075790405
0.60198640823364258 0.588398277759552 0.5810893177986145
0.60815697908401489 0.5922197699546814 0.58520114421844482
0.62489324808120728 0.60728049278259277 0.59832340478897095
0.63932734727859497 0.62076503038406372 0.61072421073913574
0.66662418842315674 0.64501333236694336 0.63364958763122559
0.71235591173171997 0.68807590007781982 0.67295759916305542
0.77325785160064697 0.74829602241516113 0.72598576545715332
0.70592480897903442 0.68665391206741333 0.66942989826202393
0.70544582605361938 0.6846010684967041 0.66876262426376343
0.71105092763900757 0.68863582611083984 0.67183119058609009
0.71745812892913818 0.69444698095321655 0.67659455537796021
0.73132705688476562 0.70772349834442139 0.68885916471481323
0.75896316766738892 0.73481458425521851 0.71359622478485107
0.80541574954986572 0.78091758489608765 0.75497519969940186
0.81362473964691162 0.79140591621398926 0.76459652185440063
0.81380939483642578 0.79059624671936035 0.76540631055831909
0.81167423725128174 0.7873237133026123 0.7621111273765564
0.81463181972503662 0.78997421264648438 0.76296788454055786
0.82388728857040405 0.79931741952896118 0.77078580856323242
0.83844751119613647 0.81432253122329712 0.784595787525177
0.86434531211853027 0.84058332443237305 0.80821973085403442
0.56591403484344482 0.55386006832122803 0.55304354429244995
0.57265090942382812 0.56080681085586548 0.56061339378356934
0.59519666433334351 0.58173328638076782 0.57924610376358032
0.62957888841629028 0.61313438415527344 0.60715454816818237
0.63163816928863525 0.61609315872192383 0.60872727632522583
0.66789525747299194 0.64933228492736816 0.63742280006408691
0.75291734933853149 0.72985047101974487 0.70561897754669189
0.58530896902084351 0.5721777081489563 0.57023817300796509
0.59018421173095703 0.57680553197860718 0.57485860586166382
0.6080973744392395 0.59353518486022949 0.58912432193756104
0.6335797905921936 0.61730754375457764 0.6091124415397644
0.64077246189117432 0.6244465708732605 0.61483657360076904
0.6739799976348877 0.6555016040802002 0.64174371957778931
0.75573074817657471 0.73217332363128662 0.70890182256698608
0.59607923030853271 0.58246195316314697 0.5785338282585144
0.60470879077911377 0.58959650993347168 0.58516979217529297
0.62035262584686279 0.60477042198181152 0.59770286083221436
0.64698326587677002 0.62994158267974854 0.6186719536781311
0.66543823480606079 0.64725297689437866 0.63325440883636475
0.70191580057144165 0.68163114786148071 0.66401952505111694
0.77512246370315552 0.75045853853225708 0.72646528482437134
0.6050335168838501 0.59123146533966064 0.58461284637451172
0.61493390798568726 0.59859490394592285 0.59176850318908691
0.62772965431213379 0.61133891344070435 0.6031639575958252
0.65418952703475952 0.63671499490737915 0.62504810094833374
0.68794888257980347 0.66790789365768433 0.65182501077651978
0.72702300548553467 0.70573091506958008 0.68547224998474121
0.79243600368499756 0.76876723766326904 0.74327254295349121
0.64562267065048218 0.62734353542327881 0.61566340923309326
0.65030801296234131 0.63009464740753174 0.61863082647323608
0.66216182708740234 0.64225220680236816 0.62991094589233398
0.68456673622131348 0.66435694694519043 0.64972156286239624
0.71953082084655762 0.6968998908996582 0.67849427461624146
0.76028174161911011 0.73687607049942017 0.71465092897415161
0.81164419651031494 0.78828388452529907 0.76142960786819458
0.72592103481292725 0.70321601629257202 0.68358099460601807
0.7282370924949646 0.70454061031341553 0.68587952852249146
0.73832410573959351 0.71447271108627319 0.69470334053039551
0.75441426038742065 0.73072946071624756 0.70876234769821167
0.77393537759780884 0.75024956464767456 0.72624701261520386
0.80008155107498169 0.77630776166915894 0.75024408102035522
0.83394432067871094 0.81075698137283325 0.78216618299484253
0.83150327205657959 0.80801045894622803 0.77889472246170044
0.82888966798782349 0.80513721704483032 0.77800941467285156
0.83105283975601196 0.80690383911132812 0.77956950664520264
0.84340578317642212 0.81926792860031128 0.78952538967132568
0.85229915380477905 0.82834988832473755 0.79725158214569092
0.8575294017791748 0.83422911167144775 0.80305755138397217
0.87513333559036255 0.85215216875076294 0.8200681209564209
0.69796323776245117 0.68083858489990234 0.66748476028442383
0.70254373550415039 0.6851239800453186 0.67250937223434448
0.71804958581924438 0.6994977593421936 0.68504601716995239
0.74191737174987793 0.72161638736724854 0.70359307527542114
0.7595939040184021 0.73835724592208862 0.7172616720199585
0.7638893723487854 0.74050724506378174 0.71874141693115234
0.79244118928909302 0.76709175109863281 0.74074065685272217
0.71034258604049683 0.69283962249755859 0.67880570888519287
0.71654015779495239 0.69800359010696411 0.68407678604125977
0.72913461923599243 0.70986789464950562 0.69409400224685669
0.74724960327148438 0.72740483283996582 0.70817309617996216
0.75952255725860596 0.73910129070281982 0.71657246351242065
0.77098453044891357 0.74859482049942017 0.72338920831680298
0.80093896389007568 0.776164710521698 0.74854302406311035
0.71899205446243286 0.7010117769241333 0.68492013216018677
0.72854524850845337 0.70806771516799927 0.69209319353103638
0.73791146278381348 0.71727174520492554 0.69956278800964355
0.75406348705291748 0.73360341787338257 0.71239149570465088
0.76837801933288574 0.74776327610015869 0.72273939847946167
0.78262913227081299 0.76068615913391113 0.73324131965637207
0.80911087989807129 0.7849496603012085 0.75757813453674316
0.72093820571899414 0.70167869329452515 0.68408656120300293
0.72888028621673584 0.70723867416381836 0.68952912092208862
0.73808181285858154 0.71601384878158569 0.69726312160491943
0.7598264217376709 0.73785257339477539 0.71546697616577148
0.78027063608169556 0.75817888975143433 0.73139292001724243
0.79738765954971313 0.77553397417068481 0.74694478511810303
0.82111972570419312 0.79826849699020386 0.77083486318588257
0.73096072673797607 0.70863437652587891 0.68894815444946289
0.73644500970840454 0.71263629198074341 0.69343918561935425
0.74545705318450928 0.72190290689468384 0.70173096656799316
0.76545053720474243 0.74219083786010742 0.7189708948135376
0.79035091400146484 0.76741129159927368 0.74024504423141479
0.81499940156936646 0.79311048984527588 0.76365119218826294
0.84226930141448975 0.82046115398406982 0.79069405794143677
0.77326256036758423 0.74900752305984497 0.72488963603973389
0.77843284606933594 0.75343316793441772 0.73030513525009155
0.78444188833236694 0.76018917560577393 0.73631209135055542
0.79783624410629272 0.77443045377731323 0.74837297201156616
0.8176952600479126 0.79490536451339722 0.76615536212921143
0.83778685331344604 0.81598591804504395 0.78565531969070435
0.85870885848999023 0.83725500106811523 0.80671840906143188
0.84702461957931519 0.8238031268119812 0.79299056529998779
0.84522497653961182 0.82162648439407349 0.79284942150115967
0.84654861688613892 0.82361787557601929 0.79475551843643188
0.85810273885726929 0.83567589521408081 0.80493485927581787
0.86923444271087646 0.84734326601028442 0.81509029865264893
0.87287002801895142 0.85145527124404907 0.81956738233566284
0.88350236415863037 0.86214584112167358 0.83055371046066284
0.8348315954208374 0.8124157190322876 0.78434687852859497
0.83400249481201172 0.81205224990844727 0.7851136326789856
0.837677001953125 0.81577557325363159 0.78835803270339966
0.84792709350585938 0.82558423280715942 0.79583334922790527
0.86244601011276245 0.83867639303207397 0.80631262063980103
0.86930149793624878 0.84343248605728149 0.81116986274719238
0.87793928384780884 0.85066556930541992 0.81641489267349243
0.83926379680633545 0.81840288639068604 0.79016745090484619
0.84209084510803223 0.82004094123840332 0.79301315546035767
0.84427744150161743 0.82262575626373291 0.79529291391372681
0.84970712661743164 0.82898259162902832 0.80008554458618164
0.86050575971603394 0.83941113948822021 0.80827641487121582
0.87397056818008423 0.84985530376434326 0.81602555513381958
0.87825316190719604 0.85227948427200317 0.81834119558334351
0.84294849634170532 0.8229108452796936 0.7935524582862854
0.84726494550704956 0.82410979270935059 0.79675799608230591
0.84891015291213989 0.82654261589050293 0.79816806316375732
0.85365104675292969 0.83274006843566895 0.80342155694961548
0.86322855949401855 0.8427194356918335 0.81123173236846924
0.87741744518280029 0.85413408279418945 0.81974637508392334
0.87521421909332275 0.85080224275588989 0.81870323419570923
0.84311282634735107 0.82294797897338867 0.7923312783241272
0.84532123804092407 0.82284879684448242 0.7937512993812561
0.84791076183319092 0.82464158535003662 0.79579263925552368
0.85874491930007935 0.83578026294708252 0.80496364831924438
0.87283062934875488 0.84995913505554199 0.81676852703094482
0.88165700435638428 0.8583444356918335 0.82453715801239014
0.87528795003890991 0.85237306356430054 0.82169413566589355
0.84031033515930176 0.81831806898117065 0.78832376003265381
0.84565895795822144 0.8216748833656311 0.79269880056381226
0.84546780586242676 0.82155996561050415 0.79289251565933228
0.85444247722625732 0.83105164766311646 0.80001848936080933
0.86951279640197754 0.84687191247940063 0.81340116262435913
0.88209831714630127 0.8608214259147644 0.82612055540084839
0.88749498128890991 0.86681342124938965 0.83370637893676758
0.85099822282791138 0.82826405763626099 0.79744356870651245
0.85843276977539062 0.83471965789794922 0.80504268407821655
0.85337823629379272 0.83041608333587646 0.800728440284729
0.85668337345123291 0.83475077152252197 0.8041500449180603
0.86954748630523682 0.84862512350082397 0.81580191850662231
0.88180506229400635 0.86194968223571777 0.82828933000564575
0.89134353399276733 0.87159121036529541 0.83836573362350464
0.87520569562911987 0.85472351312637329 0.82073390483856201
0.87959522008895874 0.85848331451416016 0.82635998725891113
0.87573486566543579 0.8555484414100647 0.82425600290298462
0.8776857852935791 0.85784620046615601 0.82628327608108521
0.88875770568847656 0.86913663148880005 0.83617043495178223
0.89334142208099365 0.87394839525222778 0.84136319160461426
0.89801853895187378 0.87834978103637695 0.84701007604598999
