luts/instant_consumer/polaroid_px-70_cold_-.cube
# Created by: G'MIC (https://gmic.eu)
TITLE "polaroid_px-70_cold_-"
# LUT size
LUT_3D_SIZE 13
# Data domain
DOMAIN_MIN 0.0 0.0 0.0
DOMAIN_MAX 1.0 1.0 1.0
# LUT data points
0 0.11379973590373993 0.1851184219121933
0 0.12081924080848694 0.18842154741287231
0.0046854955144226551 0.12469083070755005 0.19034083187580109
0.069635070860385895 0.13189052045345306 0.19423817098140717
0.17915172874927521 0.14477451145648956 0.20143270492553711
0.30084443092346191 0.16268183290958405 0.21128970384597778
0.44006267189979553 0.18247802555561066 0.22052280604839325
0.57673346996307373 0.21356382966041565 0.22718381881713867
0.71081650257110596 0.26013398170471191 0.23152582347393036
0.82342320680618286 0.32629719376564026 0.23390558362007141
0.91231459379196167 0.40220221877098083 0.24177969992160797
0.97097611427307129 0.47010156512260437 0.25640472769737244
0.9969819188117981 0.5284079909324646 0.27563172578811646
0 0.14051096141338348 0.19367776811122894
0.00017827351985033602 0.14699727296829224 0.19557620584964752
0.0057240505702793598 0.15002034604549408 0.19549843668937683
0.08141886442899704 0.15393567085266113 0.19750483334064484
0.19241607189178467 0.16623789072036743 0.20406290888786316
0.31078287959098816 0.18269053101539612 0.21301703155040741
0.44732958078384399 0.20596395432949066 0.22108699381351471
0.58463114500045776 0.23839513957500458 0.22576476633548737
0.71427673101425171 0.29005986452102661 0.22985142469406128
0.82375037670135498 0.35255983471870422 0.23288209736347198
0.91002029180526733 0.42177039384841919 0.241036057472229
0.96953773498535156 0.48554250597953796 0.25497537851333618
0.99613505601882935 0.54261654615402222 0.2770276665687561
0 0.18335869908332825 0.205630823969841
0.0011160607682541013 0.18831495940685272 0.207310751080513
0.0055792117491364479 0.19066277146339417 0.20525467395782471
0.080330625176429749 0.19473361968994141 0.20443713665008545
0.20443835854530334 0.20485004782676697 0.20794549584388733
0.32675802707672119 0.21894365549087524 0.21354903280735016
0.45495119690895081 0.2416391521692276 0.21873572468757629
0.5933271050453186 0.27656093239784241 0.22246047854423523
0.71884077787399292 0.32429242134094238 0.225897416472435
0.82406550645828247 0.38312336802482605 0.22872774302959442
0.90207421779632568 0.44641518592834473 0.23758843541145325
0.96606326103210449 0.50924086570739746 0.25120818614959717
0.99496805667877197 0.5630379319190979 0.27574616670608521
0 0.25165227055549622 0.22218438982963562
0.00039669859688729048 0.25031590461730957 0.22219334542751312
0.0045107821933925152 0.25565874576568604 0.22028791904449463
0.055257461965084076 0.26071324944496155 0.21741904318332672
0.2082350105047226 0.27514192461967468 0.21895135939121246
0.34125170111656189 0.28513583540916443 0.21891430020332336
0.47104290127754211 0.29834184050559998 0.2171684205532074
0.606109619140625 0.33261102437973022 0.21831390261650085
0.7224956750869751 0.37764808535575867 0.22132469713687897
0.82272374629974365 0.42986372113227844 0.22183023393154144
0.90126490592956543 0.48448735475540161 0.22816862165927887
0.96060210466384888 0.53836727142333984 0.24514859914779663
0.99199861288070679 0.58682835102081299 0.27123284339904785
2.8004365958622657e-05 0.33335518836975098 0.23652666807174683
0.00050730985822156072 0.33597016334533691 0.23689791560173035
0.0024912366643548012 0.34085333347320557 0.23506368696689606
0.027193047106266022 0.34642863273620605 0.23203097283840179
0.19487455487251282 0.36168020963668823 0.22942787408828735
0.3520408570766449 0.37571734189987183 0.22415557503700256
0.49170020222663879 0.38853669166564941 0.21929986774921417
0.61554396152496338 0.40498614311218262 0.21593432128429413
0.71838927268981934 0.43379884958267212 0.21130551397800446
0.81660193204879761 0.47954538464546204 0.21170982718467712
0.89536583423614502 0.525645911693573 0.21713416278362274
0.95376509428024292 0.57215255498886108 0.23599931597709656
0.99022793769836426 0.61405205726623535 0.26274719834327698
0 0.43976506590843201 0.24761280417442322
0.00017891678726300597 0.44129443168640137 0.24800661206245422
0.0032846338581293821 0.44445040822029114 0.24673168361186981
0.012788839638233185 0.44763290882110596 0.24347300827503204
0.1745007187128067 0.45982751250267029 0.23832429945468903
0.35361269116401672 0.47461408376693726 0.23069897294044495
0.50442969799041748 0.48665928840637207 0.22204352915287018
0.62410002946853638 0.50224095582962036 0.21569515764713287
0.7211117148399353 0.51948612928390503 0.20960983633995056
0.80879002809524536 0.54398339986801147 0.20435972511768341
0.88338571786880493 0.57039999961853027 0.20497065782546997
0.93951040506362915 0.6066443920135498 0.22319008409976959
0.98292684555053711 0.64363741874694824 0.251059889793396
0 0.5474931001663208 0.25669771432876587
0.0014626297634094954 0.54652649164199829 0.25829684734344482
0.0028407825157046318 0.54777693748474121 0.25777754187583923
0.0095395408570766449 0.55076050758361816 0.25428053736686707
0.17936453223228455 0.55915212631225586 0.24907390773296356
0.36151877045631409 0.56948429346084595 0.24361741542816162
0.50637900829315186 0.58015573024749756 0.23398187756538391
0.63285428285598755 0.59671288728713989 0.22198307514190674
0.73094040155410767 0.61358499526977539 0.21450319886207581
0.81351429224014282 0.62878203392028809 0.208181232213974
0.87676221132278442 0.63867545127868652 0.20840632915496826
0.9313778281211853 0.65175390243530273 0.21389248967170715
0.9779389500617981 0.67584741115570068 0.23440322279930115
0.0006741243414580822 0.65012902021408081 0.26781728863716125
0.0035210105124861002 0.64589780569076538 0.27118676900863647
0.0029332030098885298 0.64680027961730957 0.27010798454284668
0.032778631895780563 0.64834880828857422 0.2675325870513916
0.2272428423166275 0.65408074855804443 0.26583436131477356
0.39064198732376099 0.66117048263549805 0.26092043519020081
0.51729404926300049 0.66578292846679688 0.25255489349365234
0.632160484790802 0.67662131786346436 0.24162150919437408
0.7340160608291626 0.69153010845184326 0.23106381297111511
0.81194186210632324 0.70256006717681885 0.22662949562072754
0.87061017751693726 0.70673459768295288 0.23008093237876892
0.92423927783966064 0.71278840303421021 0.2339501678943634
0.96861463785171509 0.71893423795700073 0.23999452590942383
0.006167946383357048 0.73874819278717041 0.28685066103935242
0.0095850173383951187 0.73709982633590698 0.28654897212982178
0.050982099026441574 0.73897618055343628 0.28650259971618652
0.17512279748916626 0.73824018239974976 0.28965440392494202
0.31249287724494934 0.73940515518188477 0.2914939820766449
0.43609115481376648 0.7436225414276123 0.2889200747013092
0.54161620140075684 0.74383056163787842 0.28183376789093018
0.63724088668823242 0.74489349126815796 0.27447390556335449
0.72772669792175293 0.75375306606292725 0.2656179666519165
0.80607432126998901 0.76323163509368896 0.25625491142272949
0.86502450704574585 0.76758956909179688 0.25857812166213989
0.91566288471221924 0.77017956972122192 0.26941853761672974
0.96085572242736816 0.77535790205001831 0.27950704097747803
0.17378218472003937 0.81204026937484741 0.31949087977409363
0.20605415105819702 0.80983662605285645 0.3206787109375
0.26155784726142883 0.80679506063461304 0.32237768173217773
0.32970520853996277 0.80381113290786743 0.32625141739845276
0.40443283319473267 0.80287998914718628 0.3302096426486969
0.48989549279212952 0.80349534749984741 0.33002409338951111
0.5730212926864624 0.80607438087463379 0.32440713047981262
0.64991432428359985 0.80735385417938232 0.31949928402900696
0.72634619474411011 0.80889177322387695 0.3151543140411377
0.8009037971496582 0.81349021196365356 0.30960941314697266
0.85861945152282715 0.81890445947647095 0.30855467915534973
0.91014963388442993 0.82194548845291138 0.31627777218818665
0.95446759462356567 0.82531845569610596 0.32799023389816284
0.39593032002449036 0.86163550615310669 0.37211742997169495
0.40401965379714966 0.85871130228042603 0.3726811408996582
0.42712235450744629 0.85500448942184448 0.37383267283439636
0.46440279483795166 0.85507702827453613 0.37671485543251038
0.50544887781143188 0.85253304243087769 0.38093051314353943
0.56034034490585327 0.85208338499069214 0.38380607962608337
0.62452173233032227 0.85637062788009644 0.38252484798431396
0.68433451652526855 0.85850101709365845 0.37963813543319702
0.74314385652542114 0.85780394077301025 0.37513583898544312
0.80099779367446899 0.86071193218231201 0.37229800224304199
0.85571330785751343 0.86410558223724365 0.37165018916130066
0.90923172235488892 0.8684159517288208 0.37210178375244141
0.95301419496536255 0.8715788722038269 0.38638487458229065
0.56333738565444946 0.90334564447402954 0.43547520041465759
0.56144386529922485 0.89995813369750977 0.43375089764595032
0.5703851580619812 0.89626318216323853 0.43475732207298279
0.58948451280593872 0.89476543664932251 0.43837651610374451
0.61687362194061279 0.89193600416183472 0.44347056746482849
0.65715575218200684 0.89282870292663574 0.44785740971565247
0.70061212778091431 0.89708912372589111 0.44807124137878418
0.73839551210403442 0.899566650390625 0.44740670919418335
0.7848656177520752 0.89889705181121826 0.44479945302009583
0.82844382524490356 0.89999955892562866 0.44347193837165833
0.87108582258224487 0.902718186378479 0.44572395086288452
0.9160805344581604 0.90581035614013672 0.44794318079948425
0.95171272754669189 0.90876507759094238 0.4579523503780365
0.70101821422576904 0.9364311695098877 0.50291186571121216
0.69808536767959595 0.93418967723846436 0.50062680244445801
0.70329380035400391 0.93369841575622559 0.50090235471725464
0.71365034580230713 0.93267333507537842 0.50331985950469971
0.73135471343994141 0.9307931661605835 0.50697618722915649
0.75535249710083008 0.93202865123748779 0.51245689392089844
0.77916240692138672 0.93299108743667603 0.51661044359207153
0.80416208505630493 0.93541127443313599 0.51604974269866943
0.83376979827880859 0.93647396564483643 0.51735955476760864
0.86248499155044556 0.93639135360717773 0.51819783449172974
0.89281892776489258 0.93794417381286621 0.5209077000617981
0.92259871959686279 0.93924230337142944 0.52238166332244873
0.95091050863265991 0.94336259365081787 0.5296822190284729
0 0.11700578778982162 0.20208887755870819
0.0011940152617171407 0.12473985552787781 0.20606125891208649
0.003877108683809638 0.12779237329959869 0.20805537700653076
0.062238670885562897 0.13557460904121399 0.21297749876976013
0.17818984389305115 0.15281087160110474 0.22284439206123352
0.30784898996353149 0.17724430561065674 0.23488281667232513
0.45005747675895691 0.2028886079788208 0.24617926776409149
0.59061866998672485 0.23649518191814423 0.2533581554889679
0.72064590454101562 0.27957138419151306 0.25640934705734253
0.83015310764312744 0.34452041983604431 0.26003029942512512
0.91171592473983765 0.41402247548103333 0.26894238591194153
0.96942895650863647 0.4816843569278717 0.2838137149810791
0.9961058497428894 0.54074007272720337 0.3028353750705719
0.00011668485967675224 0.14203038811683655 0.21060739457607269
0.0033198785968124866 0.15092937648296356 0.21462088823318481
0.0058982251212000847 0.15525755286216736 0.21600189805030823
0.071511209011077881 0.16265289485454559 0.21923846006393433
0.18929514288902283 0.17847679555416107 0.22744402289390564
0.3199012279510498 0.19716908037662506 0.23634275794029236
0.45793750882148743 0.22348020970821381 0.24540644884109497
0.59556883573532104 0.2574765682220459 0.25061357021331787
0.72232496738433838 0.30681085586547852 0.25352412462234497
0.83211183547973633 0.36771580576896667 0.25833866000175476
0.91342848539352417 0.43499785661697388 0.266640305519104
0.9680904746055603 0.49753448367118835 0.28236156702041626
0.99364972114562988 0.55310326814651489 0.30511033535003662
4.6673944780195598e-06 0.19087375700473785 0.22481644153594971
0.0029845742974430323 0.19488246738910675 0.22573365271091461
0.0056323329918086529 0.19685293734073639 0.22477024793624878
0.084674358367919922 0.20152205228805542 0.22556822001934052
0.21030879020690918 0.21841245889663696 0.23177306354045868
0.33428928256034851 0.23328518867492676 0.23700979351997375
0.46498468518257141 0.25571721792221069 0.24186651408672333
0.60129886865615845 0.29019832611083984 0.24522839486598969
0.72712510824203491 0.3394395112991333 0.24944375455379486
0.82933437824249268 0.39916536211967468 0.25393509864807129
0.91049480438232422 0.4616386890411377 0.26157161593437195
0.96704995632171631 0.51842427253723145 0.27881315350532532
0.99359560012817383 0.57110726833343506 0.3037886917591095
0 0.25913509726524353 0.23904986679553986
0.0015380709664896131 0.26233541965484619 0.24105700850486755
0.0035757177975028753 0.26367002725601196 0.23932427167892456
0.066376268863677979 0.26595434546470642 0.236127108335495
0.2163107842206955 0.28046715259552002 0.23694601655006409
0.35013589262962341 0.292318195104599 0.23747852444648743
0.48055964708328247 0.30932673811912537 0.23758222162723541
0.60912793874740601 0.34291267395019531 0.23919926583766937
0.73008090257644653 0.38706925511360168 0.24361707270145416
0.82559365034103394 0.44098582863807678 0.24777695536613464
0.90579068660736084 0.49723246693611145 0.2538626492023468
0.96102225780487061 0.54570454359054565 0.27192741632461548
0.99219685792922974 0.5930359959602356 0.29689714312553406
0.00056168797891587019 0.34255921840667725 0.25229397416114807
0.0038696289993822575 0.34912455081939697 0.25534170866012573
0.0043309079483151436 0.3512941300868988 0.25320294499397278
0.036585357040166855 0.35185208916664124 0.24862843751907349
0.20726996660232544 0.36727827787399292 0.24580401182174683
0.36521828174591064 0.38155427575111389 0.24120362102985382
0.49923786520957947 0.39317223429679871 0.23743174970149994
0.61845660209655762 0.40945059061050415 0.23442438244819641
0.72403550148010254 0.44357821345329285 0.23609703779220581
0.82042640447616577 0.48958095908164978 0.23841744661331177
0.89823168516159058 0.53483754396438599 0.24367421865463257
0.95266169309616089 0.57758826017379761 0.26242902874946594
0.99017953872680664 0.61930167675018311 0.2876679003238678
2.154182038793806e-05 0.45007434487342834 0.26228362321853638
0.002527962438762188 0.4515271782875061 0.26456668972969055
0.0036106333136558533 0.45128795504570007 0.26265332102775574
0.021088080480694771 0.451893150806427 0.25875207781791687
0.1948903352022171 0.46461468935012817 0.2552984356880188
0.36732998490333557 0.48014286160469055 0.24874173104763031
0.51055675745010376 0.49083593487739563 0.24205212295055389
0.62576198577880859 0.50394570827484131 0.23764042556285858
0.72489708662033081 0.52271866798400879 0.23239718377590179
0.81478941440582275 0.54585176706314087 0.22561855614185333
0.88428068161010742 0.5763508677482605 0.23164807260036469
0.94105815887451172 0.61300438642501831 0.2493157833814621
0.98424798250198364 0.64866667985916138 0.27572193741798401
6.6689884988591075e-05 0.55606329441070557 0.26983767747879028
0.0020295088179409504 0.55483269691467285 0.27269211411476135
0.0028036229778081179 0.55326038599014282 0.27263176441192627
0.017685923725366592 0.55480927228927612 0.26958227157592773
0.20446011424064636 0.56452631950378418 0.26638990640640259
0.37132453918457031 0.57437694072723389 0.26162707805633545
0.51267975568771362 0.58313256502151489 0.25504156947135925
0.6350826621055603 0.59693801403045654 0.24549500644207001
0.7332952618598938 0.6122860312461853 0.23718670010566711
0.81341391801834106 0.62727969884872437 0.23145407438278198
0.8776015043258667 0.63994365930557251 0.23112019896507263
0.93354213237762451 0.65424942970275879 0.23595115542411804
0.97791051864624023 0.67965561151504517 0.25837904214859009
0.0019213058985769749 0.65387570858001709 0.28271082043647766
0.0039187860675156116 0.65218102931976318 0.28417757153511047
0.0042502610012888908 0.65192633867263794 0.28250241279602051
0.062925152480602264 0.65277266502380371 0.28223001956939697
0.25012174248695374 0.65711390972137451 0.28340685367584229
0.39561742544174194 0.66132384538650513 0.27885302901268005
0.52735453844070435 0.66899794340133667 0.27182856202125549
0.64195060729980469 0.68059819936752319 0.26093357801437378
0.73911201953887939 0.69317257404327393 0.24977762997150421
0.81425982713699341 0.7042393684387207 0.24448002874851227
0.87374955415725708 0.70958232879638672 0.24554528295993805
0.92547738552093506 0.71444851160049438 0.24885345995426178
0.96823608875274658 0.72063553333282471 0.25907444953918457
0.0087749408558011055 0.74189573526382446 0.29975366592407227
0.024283375591039658 0.74173027276992798 0.29853126406669617
0.088361628353595734 0.74229806661605835 0.29973119497299194
0.21193471550941467 0.7406877875328064 0.30470141768455505
0.32635936141014099 0.73870986700057983 0.30970746278762817
0.44275206327438354 0.74184507131576538 0.30603668093681335
0.54920214414596558 0.74672287702560425 0.29837140440940857
0.64605140686035156 0.74956023693084717 0.2929835319519043
0.73488044738769531 0.75805115699768066 0.28199529647827148
0.80975008010864258 0.76579570770263672 0.27394744753837585
0.86821979284286499 0.76910233497619629 0.27577885985374451
0.9185912013053894 0.77169317007064819 0.28380882740020752
0.95834684371948242 0.77343106269836426 0.29742953181266785
0.21179595589637756 0.81282323598861694 0.33219429850578308
0.23840990662574768 0.8109244704246521 0.33258134126663208
0.28757259249687195 0.8066554069519043 0.33495995402336121
0.34811767935752869 0.80333161354064941 0.34149861335754395
0.42357495427131653 0.80290478467941284 0.34677687287330627
0.49945846199989319 0.80569887161254883 0.34460973739624023
0.58039891719818115 0.80806189775466919 0.34012126922607422
0.65616899728775024 0.81087011098861694 0.33565086126327515
0.73262596130371094 0.81173950433731079 0.33150893449783325
0.80522316694259644 0.81510418653488159 0.3268982470035553
0.86348676681518555 0.82195442914962769 0.32255092263221741
0.91299819946289062 0.82407093048095703 0.32976558804512024
0.95420181751251221 0.82481127977371216 0.34309291839599609
0.41153916716575623 0.86107510328292847 0.38205045461654663
0.41894933581352234 0.85904234647750854 0.38128992915153503
0.44059985876083374 0.85417860746383667 0.38406389951705933
0.47796624898910522 0.85384935140609741 0.38757151365280151
0.52177858352661133 0.85423362255096436 0.39158239960670471
0.5736083984375 0.85518532991409302 0.39436131715774536
0.63161009550094604 0.85767471790313721 0.39354509115219116
0.6887093186378479 0.85939663648605347 0.3907487690448761
0.74762791395187378 0.85915464162826538 0.38814786076545715
0.80646330118179321 0.86118483543395996 0.38689395785331726
0.86219179630279541 0.86519360542297363 0.3842046856880188
0.91045951843261719 0.86853468418121338 0.38259941339492798
0.95290839672088623 0.87129616737365723 0.39677271246910095
0.56884372234344482 0.90252137184143066 0.44143316149711609
0.56838250160217285 0.89879727363586426 0.44052457809448242
0.5799710750579834 0.89567083120346069 0.44230955839157104
0.59986716508865356 0.8939669132232666 0.44559791684150696
0.62875717878341675 0.89463859796524048 0.44964015483856201
0.66490679979324341 0.89501005411148071 0.45431026816368103
0.7063671350479126 0.8961600661277771 0.45477703213691711
0.7445647120475769 0.89892959594726562 0.45482584834098816
0.78619509935379028 0.8989444375038147 0.45526182651519775
0.83187782764434814 0.90162867307662964 0.45512562990188599
0.87357449531555176 0.9029424786567688 0.45345383882522583
0.9161943793296814 0.90544933080673218 0.45223149657249451
0.95187783241271973 0.90924727916717529 0.46392247080802917
0.70229071378707886 0.9370233416557312 0.50548630952835083
0.70300757884979248 0.93520462512969971 0.50492501258850098
0.70718741416931152 0.93282264471054077 0.50535356998443604
0.71881991624832153 0.93203073740005493 0.50718408823013306
0.73665237426757812 0.9322780966758728 0.51086115837097168
0.75787198543548584 0.9322664737701416 0.51610273122787476
0.78281110525131226 0.93291616439819336 0.52008330821990967
0.80761021375656128 0.93579000234603882 0.52090609073638916
0.83497631549835205 0.9358324408531189 0.52292293310165405
0.86441582441329956 0.93722414970397949 0.52349305152893066
0.89336699247360229 0.9384840726852417 0.52234327793121338
0.92284911870956421 0.93918490409851074 0.52404689788818359
0.95102214813232422 0.94334566593170166 0.53292584419250488
0 0.12647372484207153 0.22936588525772095
0.0008749120170250535 0.13474375009536743 0.2309454083442688
0.0044520511291921139 0.14044015109539032 0.23201657831668854
0.041736260056495667 0.14816470444202423 0.2351919561624527
0.1704556941986084 0.16091777384281158 0.24638983607292175
0.30697053670883179 0.17224901914596558 0.25630775094032288
0.45486104488372803 0.20065654814243317 0.26993313431739807
0.60409629344940186 0.24624906480312347 0.28254136443138123
0.73401165008544922 0.30225422978401184 0.29302427172660828
0.83705884218215942 0.36919578909873962 0.30280786752700806
0.91285544633865356 0.43705981969833374 0.31465503573417664
0.96546626091003418 0.50249660015106201 0.32801198959350586
0.99247026443481445 0.55881410837173462 0.34407156705856323
0 0.15194638073444366 0.23849271237850189
0.0026784860529005527 0.15818288922309875 0.24031411111354828
0.0069517395459115505 0.16627232730388641 0.24201618134975433
0.054303336888551712 0.17392612993717194 0.2441243976354599
0.1863134354352951 0.18861247599124908 0.25388914346694946
0.32288229465484619 0.20048366487026215 0.26184606552124023
0.468537837266922 0.2304091602563858 0.2741398811340332
0.60937124490737915 0.27466341853141785 0.28438359498977661
0.73500502109527588 0.32744500041007996 0.29262202978134155
0.83771628141403198 0.38857534527778625 0.30073824524879456
0.91441327333450317 0.45443692803382874 0.31000998616218567
0.96739935874938965 0.5159001350402832 0.32352122664451599
0.99381440877914429 0.57016962766647339 0.342180997133255
0 0.19459885358810425 0.2475903332233429
0.0029431362636387348 0.20342698693275452 0.25089815258979797
0.0075065311975777149 0.20682241022586823 0.25284454226493835
0.081737756729125977 0.21272952854633331 0.25430458784103394
0.2130531519651413 0.22982947528362274 0.26125174760818481
0.3403666615486145 0.24509373307228088 0.2677767276763916
0.4801209568977356 0.27549627423286438 0.27713397145271301
0.61394506692886353 0.31212678551673889 0.28248652815818787
0.73310798406600952 0.36337178945541382 0.2906094491481781
0.83438384532928467 0.42069119215011597 0.2961193323135376
0.91250526905059814 0.47996014356613159 0.30401965975761414
0.96747088432312012 0.53539305925369263 0.31901341676712036
0.99698108434677124 0.58552688360214233 0.33975711464881897
0 0.26380500197410583 0.26092997193336487
0.0018789852038025856 0.26727199554443359 0.2638917863368988
0.0049996916204690933 0.26921111345291138 0.26563480496406555
0.085330784320831299 0.27415105700492859 0.2643570601940155
0.23100250959396362 0.29011625051498413 0.26538005471229553
0.36401686072349548 0.30302137136459351 0.26727879047393799
0.49399289488792419 0.32658630609512329 0.2726840078830719
0.6169629693031311 0.35982263088226318 0.27492663264274597
0.73517650365829468 0.40625017881393433 0.28156277537345886
0.83330762386322021 0.45897486805915833 0.28692817687988281
0.90726566314697266 0.51094251871109009 0.29634466767311096
0.95929688215255737 0.5599977970123291 0.31328472495079041
0.99355095624923706 0.60646229982376099 0.33379983901977539
0.0015543620102107525 0.35276314616203308 0.27622148394584656
0.0041351616382598877 0.3579677939414978 0.27909061312675476
0.0065003191120922565 0.35699257254600525 0.2781556248664856
0.062489215284585953 0.35859999060630798 0.27435025572776794
0.22749176621437073 0.37404188513755798 0.27277091145515442
0.38093951344490051 0.38774538040161133 0.27024188637733459
0.50971537828445435 0.40121197700500488 0.26894915103912354
0.62485134601593018 0.41778385639190674 0.26506957411766052
0.73390871286392212 0.45382267236709595 0.26748651266098022
0.82895588874816895 0.50167477130889893 0.27427020668983459
0.89701735973358154 0.54826080799102783 0.28698450326919556
