luts/instant_consumer/polaroid_time_zero_expired_cold_-.cube
# Created by: G'MIC (https://gmic.eu)
TITLE "polaroid_time_zero_expired_cold_-"
# LUT size
LUT_3D_SIZE 7
# Data domain
DOMAIN_MIN 0.0 0.0 0.0
DOMAIN_MAX 1.0 1.0 1.0
# LUT data points
0.38433957099914551 0.19319069385528564 0.07655741274356842
0.40079471468925476 0.18867672979831696 0.078325919806957245
0.47075751423835754 0.18395036458969116 0.077289745211601257
0.56710010766983032 0.18469990789890289 0.077763035893440247
0.67343276739120483 0.20577642321586609 0.090106338262557983
0.78503203392028809 0.23023092746734619 0.10391664505004883
0.90085768699645996 0.28284651041030884 0.13158811628818512
0.39827042818069458 0.23441986739635468 0.06063447892665863
0.42387628555297852 0.23659266531467438 0.061550185084342957
0.49072462320327759 0.24105942249298096 0.060676783323287964
0.5822795033454895 0.24557517468929291 0.062047787010669708
0.68402326107025146 0.25735905766487122 0.077130593359470367
0.79386651515960693 0.28361049294471741 0.095670901238918304
0.90478581190109253 0.32773759961128235 0.1241798996925354
0.42886495590209961 0.34409484267234802 0.0090527404099702835
0.46317443251609802 0.34941041469573975 0.0059900921769440174
0.52848166227340698 0.35101425647735596 0.025193860754370689
0.61217606067657471 0.35365098714828491 0.048816949129104614
0.69830882549285889 0.35944560170173645 0.043163523077964783
0.79984313249588013 0.38230836391448975 0.058809094130992889
0.90625303983688354 0.41696402430534363 0.10147053003311157
0.47692465782165527 0.46699026226997375 0.0012431724462658167
0.51199352741241455 0.46931007504463196 0.0038395002484321594
0.57129442691802979 0.47622635960578918 0.0041037914343178272
0.6518128514289856 0.48499062657356262 0.014072822406888008
0.73454880714416504 0.49694797396659851 0.065082818269729614
0.8166232705116272 0.50344645977020264 0.034411516040563583
0.90625780820846558 0.52839535474777222 0.052389346063137054
0.53895258903503418 0.59209847450256348 0
0.55713105201721191 0.59645837545394897 0.00016371783567592502
0.61030286550521851 0.60037922859191895 0.0011907989392057061
0.6920628547668457 0.61175364255905151 0.0041919485665857792
0.77185916900634766 0.62535345554351807 0.021208310499787331
0.84897643327713013 0.64042884111404419 0.14131161570549011
0.91981178522109985 0.6546553373336792 0.15171068906784058
0.60787069797515869 0.72369503974914551 9.3347889560391195e-06
0.62383675575256348 0.72241365909576416 0
0.66721546649932861 0.72531759738922119 0.00040356506360694766
0.73011690378189087 0.73208677768707275 0.001690344768576324
0.80728447437286377 0.74118345975875854 0.0051072514615952969
0.87613546848297119 0.75096440315246582 0.16472087800502777
0.92986655235290527 0.76362115144729614 0.32042214274406433
0.71008753776550293 0.82636398077011108 0.001394369057379663
0.71934205293655396 0.82714956998825073 2.3336971935350448e-05
0.7509339451789856 0.82402390241622925 0.00087726069614291191
0.79394781589508057 0.82252651453018188 0.0039495727978646755
0.85378396511077881 0.83115887641906738 0.055922415107488632
0.9081692099571228 0.83079737424850464 0.27083182334899902
0.94796913862228394 0.83321034908294678 0.41708588600158691
0.39356955885887146 0.18965743482112885 0.1050848588347435
0.41000255942344666 0.18911594152450562 0.1113436371088028
0.47855722904205322 0.19175209105014801 0.12256821244955063
0.58086609840393066 0.20668235421180725 0.13595260679721832
0.68292319774627686 0.22651764750480652 0.14230598509311676
0.79259347915649414 0.25313767790794373 0.15421056747436523
0.90474212169647217 0.29550325870513916 0.17637772858142853
0.40357741713523865 0.2314898818731308 0.1069144606590271
0.43501833081245422 0.24012476205825806 0.10988443344831467
0.5041617751121521 0.24852955341339111 0.11680867522954941
0.59391969442367554 0.26183983683586121 0.12621203064918518
0.69293016195297241 0.27407130599021912 0.13583667576313019
0.800342857837677 0.29764637351036072 0.15010878443717957
0.90928888320922852 0.33682319521903992 0.17228750884532928
0.44016382098197937 0.34664130210876465 0.085697010159492493
0.47406947612762451 0.35064375400543213 0.081706419587135315
0.53926104307174683 0.35779684782028198 0.10045166313648224
0.61894053220748901 0.36438482999801636 0.11541982740163803
0.70834028720855713 0.37234446406364441 0.11554290354251862
0.80634671449661255 0.38919150829315186 0.12868951261043549
0.91003692150115967 0.41906428337097168 0.15771465003490448
0.49192515015602112 0.47415778040885925 0.042936019599437714
0.51577872037887573 0.47361993789672852 0.028908988460898399
0.57348883152008057 0.4815642237663269 0.029722625389695168
0.65801763534545898 0.49405550956726074 0.086730360984802246
0.73797523975372314 0.50168269872665405 0.12972630560398102
0.81661540269851685 0.50522798299789429 0.11278361827135086
0.90415507555007935 0.529144287109375 0.12555921077728271
0.54480302333831787 0.60014289617538452 0.0056897928006947041
0.56375926733016968 0.60269677639007568 0.0038222966250032187
0.61351966857910156 0.60334426164627075 0.0074266172014176846
0.68933427333831787 0.61445844173431396 0.011590202338993549
0.77339357137680054 0.62870663404464722 0.092904262244701385
0.84976458549499512 0.6432262659072876 0.19152885675430298
0.91952896118164062 0.65553182363510132 0.19491167366504669
0.61062633991241455 0.72283858060836792 0.0042461021803319454
0.62589800357818604 0.72193294763565063 0.0039966059848666191
0.66786950826644897 0.72735577821731567 0.0045321746729314327
0.7322651743888855 0.73267233371734619 0.0051768282428383827
0.80735296010971069 0.74306654930114746 0.031140122562646866
0.876198410987854 0.75088310241699219 0.22188864648342133
0.92905402183532715 0.76493299007415771 0.3482147753238678
0.71094012260437012 0.83197528123855591 0.035458091646432877
0.7210620641708374 0.82930725812911987 0.025790449231863022
0.74868088960647583 0.82951897382736206 0.014870647341012955
0.79275059700012207 0.82788431644439697 0.0046759364195168018
0.85291725397109985 0.83154702186584473 0.11190445721149445
0.90841984748840332 0.83032810688018799 0.30416357517242432
0.94808107614517212 0.83438670635223389 0.43577313423156738
0.43651825189590454 0.1942501962184906 0.19949263334274292
0.45465034246444702 0.20267243683338165 0.20465174317359924
0.49990534782409668 0.21244978904724121 0.20448657870292664
0.58501499891281128 0.22373564541339874 0.22490918636322021
0.68824654817581177 0.24296179413795471 0.24837173521518707
0.79680544137954712 0.28136241436004639 0.2596798837184906
0.907451331615448 0.32820567488670349 0.26798346638679504
0.46197342872619629 0.25443571805953979 0.20569247007369995
0.48742190003395081 0.26687330007553101 0.2104446142911911
0.52604109048843384 0.27284249663352966 0.20803648233413696
0.60407811403274536 0.28003314137458801 0.22432349622249603
0.70353275537490845 0.29487171769142151 0.23964443802833557
0.80900746583938599 0.31805357336997986 0.24643167853355408
0.91414815187454224 0.35339140892028809 0.25944003462791443
0.48372456431388855 0.34621024131774902 0.19696693122386932
0.50611793994903564 0.35584717988967896 0.19843927025794983
0.55795097351074219 0.3674105703830719 0.2030932605266571
0.62960731983184814 0.37446770071983337 0.21253989636898041
0.72097522020339966 0.38490495085716248 0.21739946305751801
0.81766247749328613 0.40116456151008606 0.22793324291706085
0.91485482454299927 0.43112125992774963 0.24840359389781952
0.50895231962203979 0.47064268589019775 0.17660889029502869
0.53230124711990356 0.47790461778640747 0.18085391819477081
0.58611887693405151 0.48538801074028015 0.17691455781459808
0.6648859977722168 0.49933680891990662 0.20456567406654358
0.7417597770690918 0.49958622455596924 0.21581380069255829
0.82466548681259155 0.509776771068573 0.20920300483703613
0.91575580835342407 0.53735911846160889 0.23353295028209686
0.55870932340621948 0.60739386081695557 0.16263258457183838
0.57540678977966309 0.60782802104949951 0.15497982501983643
0.61700081825256348 0.61021727323532104 0.13050292432308197
0.69136273860931396 0.61909717321395874 0.13732887804508209
0.7778504490852356 0.63390839099884033 0.22344666719436646
0.85189712047576904 0.64497631788253784 0.2772880494594574
0.91893917322158813 0.65562701225280762 0.26270860433578491
0.61731380224227905 0.72851502895355225 0.13374149799346924
0.63202393054962158 0.72863692045211792 0.11797461658716202
0.6653449535369873 0.73172426223754883 0.084221690893173218
0.7265465259552002 0.73621034622192383 0.050538636744022369
0.80718386173248291 0.74389880895614624 0.17793998122215271
0.87893980741500854 0.75408899784088135 0.31188562512397766
0.92868000268936157 0.76708292961120605 0.40249150991439819
0.71286731958389282 0.82630717754364014 0.21500103175640106
0.72336959838867188 0.8276371955871582 0.20269276201725006
0.74790245294570923 0.83021116256713867 0.17408078908920288
0.79032665491104126 0.83115726709365845 0.12453203648328781
0.84916096925735474 0.83078843355178833 0.21619434654712677
0.90699100494384766 0.83116471767425537 0.3596341609954834
0.94740229845046997 0.83554935455322266 0.47803002595901489
0.52184504270553589 0.23481535911560059 0.33908224105834961
0.53907233476638794 0.24677720665931702 0.34444621205329895
0.5720975399017334 0.26569831371307373 0.34894341230392456
0.62203872203826904 0.27718678116798401 0.35056889057159424
0.69980382919311523 0.2754950225353241 0.34984990954399109
0.80388742685317993 0.29155918955802917 0.38415783643722534
0.9041745662689209 0.34300026297569275 0.40110191702842712
0.55386841297149658 0.30462720990180969 0.34682765603065491
0.56764119863510132 0.31347867846488953 0.34809345006942749
0.59548938274383545 0.32490777969360352 0.34909781813621521
0.63876950740814209 0.33372065424919128 0.34997671842575073
0.71233570575714111 0.32653328776359558 0.35345864295959473
0.81229352951049805 0.3362758457660675 0.37803635001182556
0.91173416376113892 0.38325271010398865 0.39622792601585388
0.57524240016937256 0.37986528873443604 0.34164339303970337
0.58978456258773804 0.39473241567611694 0.34050342440605164
0.62542152404785156 0.41152817010879517 0.34022849798202515
0.65904468297958374 0.41784536838531494 0.34106940031051636
0.73044919967651367 0.40602833032608032 0.35006323456764221
0.82178109884262085 0.41776728630065918 0.35996514558792114
0.91376948356628418 0.44939896464347839 0.37497919797897339
0.56791406869888306 0.4742523729801178 0.31081691384315491
0.58600038290023804 0.48005101084709167 0.3116392195224762
0.62367534637451172 0.49148589372634888 0.31341949105262756
0.68155562877655029 0.51140737533569336 0.32151225209236145
0.75034189224243164 0.50934386253356934 0.33289673924446106
0.83335047960281372 0.5195080041885376 0.33768469095230103
0.92168509960174561 0.53938180208206177 0.35074922442436218
0.57788068056106567 0.60341805219650269 0.29298681020736694
0.59476608037948608 0.60671401023864746 0.29465401172637939
0.63641077280044556 0.61319953203201294 0.300506591796875
0.69706785678863525 0.62074679136276245 0.29440844058990479
0.78021866083145142 0.63751792907714844 0.34029796719551086
0.85076302289962769 0.64247500896453857 0.35563012957572937
0.92168092727661133 0.65233057737350464 0.34850108623504639
0.6204950213432312 0.72939467430114746 0.30306589603424072
0.63809323310852051 0.73018211126327515 0.30623260140419006
0.67558091878890991 0.73257684707641602 0.29795968532562256
0.73077410459518433 0.73527461290359497 0.28111255168914795
0.80200004577636719 0.74249464273452759 0.31175988912582397
0.87669914960861206 0.75744056701660156 0.40236443281173706
0.9290473461151123 0.76818400621414185 0.4585094153881073
0.72000801563262939 0.82673001289367676 0.36685431003570557
0.72760367393493652 0.82649391889572144 0.35830739140510559
0.75015479326248169 0.82717794179916382 0.34677118062973022
0.79127508401870728 0.82710134983062744 0.32206651568412781
0.84006029367446899 0.83307880163192749 0.31438946723937988
0.89990347623825073 0.83302950859069824 0.42820560932159424
0.94482386112213135 0.83643406629562378 0.53112602233886719
0.62643343210220337 0.30218839645385742 0.50403505563735962
0.6386684775352478 0.31411442160606384 0.50698637962341309
0.6604425311088562 0.32840916514396667 0.50822699069976807
0.70063632726669312 0.35484528541564941 0.5210309624671936
0.74804258346557617 0.36358463764190674 0.50609630346298218
0.8164328932762146 0.35886296629905701 0.49396184086799622
0.91075348854064941 0.36810830235481262 0.538138747215271
0.65441006422042847 0.37312453985214233 0.50915086269378662
0.66439610719680786 0.38109642267227173 0.50544083118438721
0.68052107095718384 0.3866848349571228 0.50903409719467163
0.71471798419952393 0.40952587127685547 0.51678484678268433
0.75746059417724609 0.41412031650543213 0.50943076610565186
0.81964397430419922 0.39782863855361938 0.49403777718544006
0.91289925575256348 0.40332183241844177 0.5389898419380188
0.67977941036224365 0.4577002227306366 0.50053739547729492
0.68949651718139648 0.46967461705207825 0.49454441666603088
0.70417219400405884 0.47593644261360168 0.49459072947502136
0.73289930820465088 0.49508264660835266 0.50490456819534302
0.76944243907928467 0.49346226453781128 0.50185304880142212
0.82901293039321899 0.46597540378570557 0.49455723166465759
0.9152911901473999 0.46698698401451111 0.52749782800674438
0.6595839262008667 0.5188673734664917 0.48039880394935608
0.67707014083862305 0.52730536460876465 0.48191756010055542
0.71279692649841309 0.54556000232696533 0.48179438710212708
0.74906504154205322 0.57020080089569092 0.48609426617622375
0.78346014022827148 0.57423371076583862 0.48840811848640442
0.83864092826843262 0.54595154523849487 0.48844939470291138
0.91902333498001099 0.55622315406799316 0.50554007291793823
0.65086162090301514 0.61739754676818848 0.44543695449829102
0.67067068815231323 0.6170729398727417 0.44509923458099365
0.69718116521835327 0.62487757205963135 0.44899004697799683
0.73781818151473999 0.63987612724304199 0.45611363649368286
0.79534453153610229 0.6548607349395752 0.47132602334022522
0.85531550645828247 0.64980018138885498 0.47354623675346375
0.92397940158843994 0.65509974956512451 0.47569561004638672
0.67397624254226685 0.71872758865356445 0.43762677907943726
0.67682570219039917 0.72847044467926025 0.43855884671211243
0.70150351524353027 0.73005086183547974 0.44163811206817627
0.74248892068862915 0.7396661639213562 0.44825336337089539
0.80627411603927612 0.74687784910202026 0.44556668400764465
0.87409490346908569 0.76003992557525635 0.50515103340148926
0.92619311809539795 0.76377385854721069 0.52396750450134277
0.73062431812286377 0.82375717163085938 0.48243093490600586
0.73673731088638306 0.82486355304718018 0.48214051127433777
0.75785189867019653 0.82673543691635132 0.48693075776100159
0.79513704776763916 0.82804197072982788 0.48654648661613464
0.83993595838546753 0.83038544654846191 0.46670618653297424
0.8944014310836792 0.83057743310928345 0.5108446478843689
0.94222360849380493 0.83748531341552734 0.60060989856719971
0.72744989395141602 0.40864807367324829 0.65096580982208252
0.73373246192932129 0.41558420658111572 0.65079015493392944
0.74730473756790161 0.42705419659614563 0.65002298355102539
0.77189713716506958 0.45139828324317932 0.65020567178726196
0.80580246448516846 0.48207837343215942 0.65717709064483643
0.84590739011764526 0.49011427164077759 0.64062201976776123
0.90225255489349365 0.47756728529930115 0.62940120697021484
0.74647539854049683 0.47870373725891113 0.64432603120803833
0.75260645151138306 0.4786350429058075 0.64549022912979126
0.76485317945480347 0.4866325855255127 0.64592647552490234
0.78471869230270386 0.50287985801696777 0.64796727895736694
0.81514400243759155 0.52605158090591431 0.65339678525924683
0.85138177871704102 0.52797108888626099 0.64158803224563599
0.90570485591888428 0.5090823769569397 0.63246327638626099
0.772655189037323 0.56176626682281494 0.63987165689468384
0.77718520164489746 0.55995160341262817 0.63947814702987671
0.78591227531433105 0.56656134128570557 0.63652670383453369
0.80371761322021484 0.58066701889038086 0.64362496137619019
0.82829183340072632 0.59638255834579468 0.65228009223937988
0.85891550779342651 0.59325563907623291 0.64252978563308716
0.9096367359161377 0.56441855430603027 0.63583683967590332
0.78179043531417847 0.61346340179443359 0.63093459606170654
0.78822702169418335 0.62094074487686157 0.62941408157348633
0.80406397581100464 0.63593846559524536 0.6307862401008606
0.82027196884155273 0.65102726221084595 0.6365286111831665
0.8417549729347229 0.66492617130279541 0.64402920007705688
0.86565089225769043 0.66207188367843628 0.63908451795578003
0.91317498683929443 0.62549066543579102 0.63697487115859985
0.75086992979049683 0.66643798351287842 0.61269402503967285
0.76249402761459351 0.66813808679580688 0.61526608467102051
0.78608888387680054 0.67799299955368042 0.6193159818649292
0.82460999488830566 0.70020115375518799 0.62537509202957153
0.84851831197738647 0.71531331539154053 0.63047665357589722
0.87779009342193604 0.72212463617324829 0.63701868057250977
0.91627895832061768 0.69047701358795166 0.63180172443389893
0.74164319038391113 0.74430316686630249 0.5927918553352356
0.75031477212905884 0.74354428052902222 0.59262782335281372
0.77143317461013794 0.74640506505966187 0.59441977739334106
0.80710685253143311 0.75606060028076172 0.60158991813659668
0.83959722518920898 0.76194089651107788 0.60491442680358887
0.88107645511627197 0.77062821388244629 0.61623740196228027
0.92352765798568726 0.76798886060714722 0.62174695730209351
0.78586786985397339 0.81565070152282715 0.60567384958267212
0.78851127624511719 0.81705993413925171 0.60818755626678467
0.80202031135559082 0.81988769769668579 0.60846042633056641
0.82097071409225464 0.82170814275741577 0.61064434051513672
0.85373079776763916 0.82814282178878784 0.62195664644241333
0.89158463478088379 0.83486014604568481 0.61671340465545654
0.93747979402542114 0.83987092971801758 0.67258888483047485
0.81121575832366943 0.55930429697036743 0.74857574701309204
0.81188100576400757 0.56056654453277588 0.74595129489898682
0.82013791799545288 0.57176214456558228 0.74385935068130493
0.83481556177139282 0.58680462837219238 0.74489986896514893
0.85417252779006958 0.60832762718200684 0.74834609031677246
0.87359458208084106 0.63006854057312012 0.75120401382446289
0.90073013305664062 0.63630586862564087 0.74365222454071045
0.82195842266082764 0.60182029008865356 0.74390643835067749
0.82348465919494629 0.60414934158325195 0.74359679222106934
0.82980287075042725 0.61067420244216919 0.74263995885848999
0.8414115309715271 0.62067610025405884 0.7418663501739502
0.85798072814941406 0.63766539096832275 0.74482816457748413
0.87748819589614868 0.65387535095214844 0.74837636947631836
0.90506422519683838 0.65913635492324829 0.74397248029708862
0.83754521608352661 0.66140878200531006 0.73960000276565552
0.83934396505355835 0.65925014019012451 0.73853594064712524
0.84500908851623535 0.66541248559951782 0.73816049098968506
0.85401386022567749 0.67299586534500122 0.74102556705474854
0.86665689945220947 0.684673011302948 0.74441295862197876
0.88288223743438721 0.69571483135223389 0.74647945165634155
0.90552961826324463 0.69371777772903442 0.74274575710296631
0.85106402635574341 0.70997810363769531 0.73565077781677246
0.85451620817184448 0.71298778057098389 0.73526781797409058
0.85890072584152222 0.71726346015930176 0.73523241281509399
0.86719739437103271 0.7251465916633606 0.73809558153152466
0.87877905368804932 0.73086220026016235 0.7409558892250061
0.89150762557983398 0.73945075273513794 0.74451231956481934
0.90774279832839966 0.73567777872085571 0.74391627311706543
0.84963136911392212 0.73992586135864258 0.73246419429779053
0.85564762353897095 0.74310201406478882 0.73262733221054077
0.86547577381134033 0.75057458877563477 0.73458206653594971
0.87701213359832764 0.76389533281326294 0.73686069250106812
0.88866215944290161 0.76861584186553955 0.73794698715209961
0.902168869972229 0.77948522567749023 0.74501615762710571
0.91261899471282959 0.77963989973068237 0.74563485383987427
0.8357732892036438 0.78267258405685425 0.72810524702072144
0.83931142091751099 0.78138452768325806 0.72837024927139282
0.85279512405395508 0.78623789548873901 0.72722029685974121
0.86983186006546021 0.79164671897888184 0.73224461078643799
0.89115196466445923 0.8022804856300354 0.73603177070617676
0.91324830055236816 0.81332391500473022 0.74699628353118896
0.92679083347320557 0.81558012962341309 0.74885743856430054
0.83986955881118774 0.83032530546188354 0.72882652282714844
0.84453362226486206 0.83036285638809204 0.73041260242462158
0.85597759485244751 0.8322111964225769 0.73359602689743042
0.86866629123687744 0.83362311124801636 0.73477381467819214
0.88729751110076904 0.83813798427581787 0.73955190181732178
0.91163212060928345 0.84415161609649658 0.74633616209030151
0.93841129541397095 0.84634321928024292 0.758797287940979
