luts/instant_consumer/polaroid_px-100uv+_cold_++.cube
# Created by: G'MIC (https://gmic.eu)
TITLE "polaroid_px-100uv+_cold_++"
# LUT size
LUT_3D_SIZE 13
# Data domain
DOMAIN_MIN 0.0 0.0 0.0
DOMAIN_MAX 1.0 1.0 1.0
# LUT data points
0.37490838766098022 0.41039717197418213 0.41960784792900085
0.37241211533546448 0.40784314274787903 0.4172496497631073
0.37087014317512512 0.40781030058860779 0.41663044691085815
0.37251999974250793 0.40847435593605042 0.4190879762172699
0.37719467282295227 0.41311752796173096 0.42329654097557068
0.38547223806381226 0.42099136114120483 0.43038532137870789
0.39783433079719543 0.43263506889343262 0.44059866666793823
0.41424152255058289 0.4474661648273468 0.45384275913238525
0.43532761931419373 0.46708264946937561 0.4710177481174469
0.46244519948959351 0.49217444658279419 0.49233266711235046
0.49825972318649292 0.52521318197250366 0.52031755447387695
0.54380172491073608 0.56742852926254272 0.55494230985641479
0.59281426668167114 0.61324548721313477 0.5926518440246582
0.37496086955070496 0.41067212820053101 0.41960784792900085
0.37257900834083557 0.40795439481735229 0.41870176792144775
0.37231907248497009 0.40801495313644409 0.41843438148498535
0.37390092015266418 0.40977513790130615 0.42020893096923828
0.37875780463218689 0.41454741358757019 0.42454725503921509
0.38702666759490967 0.42227664589881897 0.43162059783935547
0.39894980192184448 0.43341159820556641 0.44157901406288147
0.41503769159317017 0.44843092560768127 0.45477780699729919
0.43648555874824524 0.46807208657264709 0.47198718786239624
0.46441999077796936 0.4938640296459198 0.4941156804561615
0.5006147027015686 0.52724605798721313 0.52223783731460571
0.54446679353713989 0.56811463832855225 0.5559963583946228
0.59213918447494507 0.61239314079284668 0.59230548143386841
0.37667766213417053 0.41190603375434875 0.42108500003814697
0.37508425116539001 0.41071316599845886 0.42034310102462769
0.37518668174743652 0.41090252995491028 0.42074975371360779
0.37748622894287109 0.41310766339302063 0.42316409945487976
0.38250827789306641 0.41776746511459351 0.42753714323043823
0.39047342538833618 0.42536282539367676 0.43440711498260498
0.40202054381370544 0.43617337942123413 0.44423434138298035
0.41786864399909973 0.45093366503715515 0.45729386806488037
0.43924462795257568 0.47068911790847778 0.47449588775634766
0.46752163767814636 0.4967004656791687 0.49686238169670105
0.50338244438171387 0.52989071607589722 0.52461773157119751
0.54600673913955688 0.56928426027297974 0.5571826696395874
0.59214490652084351 0.61195904016494751 0.59213101863861084
0.38112333416938782 0.41594797372817993 0.42522534728050232
0.38009065389633179 0.41502159833908081 0.4245658814907074
0.38071826100349426 0.41567346453666687 0.4253656268119812
0.38333028554916382 0.41819286346435547 0.42775538563728333
0.3886030912399292 0.42283222079277039 0.43226736783981323
0.39613133668899536 0.43015769124031067 0.43902218341827393
0.40714177489280701 0.440530925989151 0.44844582676887512
0.42228496074676514 0.45474186539649963 0.46099817752838135
0.4432157576084137 0.47402504086494446 0.47788575291633606
0.4710080623626709 0.49986118078231812 0.49987709522247314
0.50643336772918701 0.53244203329086304 0.52710878849029541
0.5478661060333252 0.57099676132202148 0.5588916540145874
0.59326905012130737 0.61294442415237427 0.59287506341934204
0.38859701156616211 0.42256313562393188 0.43159544467926025
0.38773468136787415 0.42187333106994629 0.4310356080532074
0.38880914449691772 0.4227396547794342 0.43198302388191223
0.39181497693061829 0.42546871304512024 0.43460157513618469
0.397012859582901 0.43021520972251892 0.43911102414131165
0.40439021587371826 0.43723762035369873 0.4455808699131012
0.41456860303878784 0.44692340493202209 0.45444977283477783
0.42865565419197083 0.46002215147018433 0.46640995144844055
0.44844067096710205 0.47860985994338989 0.48261982202529907
0.47555679082870483 0.50373655557632446 0.50381684303283691
0.5102773904800415 0.53592431545257568 0.53048801422119141
0.55164831876754761 0.57406610250473022 0.56166237592697144
0.59697705507278442 0.61592936515808105 0.595375657081604
0.39909446239471436 0.43202513456344604 0.44065690040588379
0.39805769920349121 0.43104851245880127 0.43987762928009033
0.39938628673553467 0.43227964639663696 0.44087308645248413
0.40305906534194946 0.43525102734565735 0.44373786449432373
0.40891554951667786 0.4404522180557251 0.44860729575157166
0.41622582077980042 0.44743606448173523 0.45513570308685303
0.42540666460990906 0.45613691210746765 0.4633592963218689
0.43785035610198975 0.46794259548187256 0.47400659322738647
0.45629027485847473 0.48536789417266846 0.48926779627799988
0.48274874687194824 0.50989842414855957 0.50988674163818359
0.51735585927963257 0.54226487874984741 0.53615349531173706
0.55908995866775513 0.58076173067092896 0.56724178791046143
0.60483449697494507 0.62289804220199585 0.60104012489318848
0.41341012716293335 0.44512692093849182 0.45285332202911377
0.4120655357837677 0.44383227825164795 0.45166260004043579
0.41350635886192322 0.44497087597846985 0.45270290970802307
0.41771361231803894 0.44849416613578796 0.4557671844959259
0.42431238293647766 0.45430275797843933 0.46103945374488831
0.43244490027427673 0.46171179413795471 0.46786463260650635
0.44066628813743591 0.46949636936187744 0.47528088092803955
0.45143678784370422 0.4800422191619873 0.48503652215003967
0.46859070658683777 0.49627956748008728 0.49950796365737915
0.49478599429130554 0.52080041170120239 0.51973474025726318
0.53016698360443115 0.55369234085083008 0.54625731706619263
0.57299840450286865 0.59299838542938232 0.577678382396698
0.61898857355117798 0.63554447889328003 0.61128038167953491
0.43372499942779541 0.4638984203338623 0.46978509426116943
0.43170344829559326 0.46222963929176331 0.46807581186294556
0.43288522958755493 0.46294757723808289 0.46887296438217163
0.43680444359779358 0.4663027822971344 0.47132816910743713
0.44367203116416931 0.47212189435958862 0.47647017240524292
0.45252096652984619 0.48003014922142029 0.48360416293144226
0.46073248982429504 0.48789668083190918 0.49120551347732544
0.47115853428840637 0.49795958399772644 0.50083631277084351
0.48789092898368835 0.5140535831451416 0.51473337411880493
0.51438093185424805 0.53859084844589233 0.53527778387069702
0.55143392086029053 0.57290536165237427 0.56254851818084717
0.59495925903320312 0.61304622888565063 0.59400457143783569
0.64071363210678101 0.65523666143417358 0.62741720676422119
0.46308043599128723 0.49112170934677124 0.49324196577072144
0.4603845477104187 0.48876118659973145 0.49126923084259033
0.46122545003890991 0.48947837948799133 0.49138125777244568
0.4636043906211853 0.49156782031059265 0.49272382259368896
0.46830403804779053 0.49556243419647217 0.49615180492401123
0.47637486457824707 0.50278133153915405 0.50282329320907593
0.4872591495513916 0.51261287927627563 0.51196223497390747
0.50032937526702881 0.52509099245071411 0.52335959672927856
0.51842856407165527 0.54205608367919922 0.53807359933853149
0.54511731863021851 0.56685405969619751 0.55863791704177856
0.5822681188583374 0.6012645959854126 0.58560729026794434
0.62529432773590088 0.64082318544387817 0.61651265621185303
0.66964268684387207 0.68151110410690308 0.6482841968536377
0.50582605600357056 0.53085094690322876 0.52626782655715942
0.50348973274230957 0.52873218059539795 0.52465349435806274
0.50326180458068848 0.52887731790542603 0.52413582801818848
0.50323832035064697 0.52881008386611938 0.52354013919830322
0.50463616847991943 0.52989238500595093 0.52431380748748779
0.51194119453430176 0.53658163547515869 0.53013259172439575
0.52604025602340698 0.54906046390533447 0.54152542352676392
0.54256594181060791 0.56435286998748779 0.55510592460632324
0.56255322694778442 0.58280986547470093 0.57101631164550781
0.58850622177124023 0.60670775175094604 0.59064775705337524
0.62179899215698242 0.63747292757034302 0.61486071348190308
0.66060417890548706 0.67323321104049683 0.6426006555557251
0.70097136497497559 0.71043157577514648 0.67146778106689453
0.56683194637298584 0.58751571178436279 0.57236254215240479
0.56377047300338745 0.58514368534088135 0.57001060247421265
0.562724769115448 0.5844685435295105 0.56863820552825928
0.56119972467422485 0.5830836296081543 0.56720298528671265
0.56048941612243652 0.58235985040664673 0.56659352779388428
0.56675660610198975 0.58779329061508179 0.57152444124221802
0.58129477500915527 0.60063743591308594 0.58304440975189209
0.59863317012786865 0.61622041463851929 0.59663647413253784
0.61793410778045654 0.63357746601104736 0.61155432462692261
0.63982075452804565 0.65375840663909912 0.62792700529098511
0.6660035252571106 0.67825043201446533 0.64713335037231445
0.69639617204666138 0.70652550458908081 0.6691247820854187
0.7287101149559021 0.73647379875183105 0.69206249713897705
0.64235693216323853 0.65791630744934082 0.62852984666824341
0.63838332891464233 0.65454530715942383 0.62562751770019531
0.63612830638885498 0.65274918079376221 0.62339556217193604
0.63523155450820923 0.65193384885787964 0.6225275993347168
0.63590878248214722 0.65228801965713501 0.62271237373352051
0.64062035083770752 0.65606606006622314 0.62619888782501221
0.65105754137039185 0.66506689786911011 0.63449722528457642
0.66516804695129395 0.6773911714553833 0.64551031589508057
0.67994219064712524 0.69086676836013794 0.65717142820358276
0.69539439678192139 0.70500725507736206 0.66835153102874756
0.71222901344299316 0.72071582078933716 0.68117272853851318
0.7317357063293457 0.73959940671920776 0.69549918174743652
0.75465762615203857 0.76087552309036255 0.71129083633422852
0.72169440984725952 0.73167359828948975 0.68692046403884888
0.71744471788406372 0.72804433107376099 0.68395847082138062
0.71543604135513306 0.72599148750305176 0.68212282657623291
0.71589654684066772 0.72635030746459961 0.68208390474319458
0.7175452709197998 0.72760599851608276 0.68266922235488892
0.71946758031845093 0.72902554273605347 0.68458282947540283
0.72526323795318604 0.73361694812774658 0.68920856714248657
0.73473662137985229 0.7416730523109436 0.69661855697631836
0.74380481243133545 0.74976742267608643 0.70388144254684448
0.75090432167053223 0.75626087188720703 0.70941454172134399
0.75845819711685181 0.76430267095565796 0.71548616886138916
0.7688603401184082 0.77429765462875366 0.7229040265083313
0.78258198499679565 0.78751564025878906 0.73259282112121582
0.37574577331542969 0.4106670618057251 0.41960784792900085
0.372772216796875 0.4079740047454834 0.41960570216178894
0.37345483899116516 0.40886834263801575 0.41983801126480103
0.37665799260139465 0.41218218207359314 0.42263650894165039
0.3828921914100647 0.41823223233222961 0.42794352769851685
0.39291882514953613 0.42761027812957764 0.43620043992996216
0.40690630674362183 0.44076380133628845 0.44749566912651062
0.4249626100063324 0.45737120509147644 0.4619276225566864
0.44766655564308167 0.47838732600212097 0.48045489192008972
0.47710025310516357 0.50513410568237305 0.50311923027038574
0.51438170671463013 0.53936910629272461 0.53177458047866821
0.5585256814956665 0.58070498704910278 0.56597995758056641
0.60614913702011108 0.62490320205688477 0.60221952199935913
0.37640717625617981 0.41165933012962341 0.42071336507797241
0.37495404481887817 0.41035103797912598 0.42013013362884521
0.3755391538143158 0.41119536757469177 0.42118892073631287
0.3787701427936554 0.41428151726722717 0.42414012551307678
0.38506469130516052 0.42031475901603699 0.42949795722961426
0.39472872018814087 0.42962807416915894 0.43755972385406494
0.40822088718414307 0.44219982624053955 0.44864925742149353
0.42598366737365723 0.45847240090370178 0.46296271681785583
0.44870558381080627 0.47942277789115906 0.48113426566123962
0.47810184955596924 0.50652700662612915 0.50431305170059204
0.5152280330657959 0.5407530665397644 0.53310197591781616
0.55930888652801514 0.58155959844589233 0.56677252054214478
0.60622787475585938 0.62499165534973145 0.60236406326293945
0.37948986887931824 0.41424602270126343 0.4239007830619812
0.37888005375862122 0.41386118531227112 0.42346459627151489
0.37997725605964661 0.4151557981967926 0.42463487386703491
0.38326865434646606 0.41842284798622131 0.42753073573112488
0.38942542672157288 0.4242674708366394 0.43272680044174194
0.39869606494903564 0.43318694829940796 0.44061920046806335
0.41156002879142761 0.4453616738319397 0.45129698514938354
0.42859616875648499 0.46109569072723389 0.46516507863998413
0.45111504197120667 0.48174729943275452 0.48334136605262756
0.48037439584732056 0.50862431526184082 0.50635546445846558
0.51698786020278931 0.54263985157012939 0.53472691774368286
0.55978488922119141 0.58210062980651855 0.56748092174530029
0.60587877035140991 0.62460541725158691 0.60232144594192505
0.3857991099357605 0.42002049088478088 0.42892003059387207
0.38566881418228149 0.42020168900489807 0.42894724011421204
0.38711482286453247 0.42153385281562805 0.43020287156105042
0.39028248190879822 0.42457184195518494 0.43304318189620972
0.39608681201934814 0.43013009428977966 0.43823927640914917
0.40456601977348328 0.43835490942001343 0.44539102911949158
0.41667249798774719 0.44954857230186462 0.45533096790313721
0.43249261379241943 0.46448823809623718 0.46858969330787659
0.45409947633743286 0.4843384325504303 0.48596382141113281
0.48267284035682678 0.51070988178253174 0.50845658779144287
0.51884865760803223 0.5438302755355835 0.53613996505737305
0.56059402227401733 0.58254802227020264 0.56803935766220093
0.60617733001708984 0.62462526559829712 0.60238254070281982
0.39501497149467468 0.42852705717086792 0.43652808666229248
0.39549380540847778 0.42910584807395935 0.43667373061180115
0.39683347940444946 0.43018734455108643 0.43799903988838196
0.39981311559677124 0.43300357460975647 0.44065675139427185
0.40512421727180481 0.43794435262680054 0.44527336955070496
0.41300946474075317 0.44550272822380066 0.45201462507247925
0.4235776960849762 0.45540884137153625 0.46110072731971741
0.43805393576622009 0.46910926699638367 0.47330519556999207
0.45829346776008606 0.4879380464553833 0.4897618293762207
0.48569256067276001 0.51327496767044067 0.51122850179672241
0.52067148685455322 0.54546576738357544 0.53792834281921387
0.56218582391738892 0.58382576704025269 0.5693124532699585
0.607879638671875 0.62587803602218628 0.60327631235122681
0.40701651573181152 0.43953061103820801 0.44673511385917664
0.40728491544723511 0.4397595226764679 0.44679757952690125
0.40884926915168762 0.44110614061355591 0.4479338526725769
0.41202583909034729 0.44390228390693665 0.45056584477424622
0.41725859045982361 0.44859465956687927 0.45499283075332642
0.42438298463821411 0.45527231693267822 0.46127071976661682
0.4336494505405426 0.46390172839164734 0.46950700879096985
0.44644233584403992 0.47630214691162109 0.48028609156608582
0.46510067582130432 0.49381822347640991 0.49560374021530151
0.49111536145210266 0.51809817552566528 0.51596927642822266
0.52551388740539551 0.54978060722351074 0.54187411069869995
0.56702399253845215 0.58804351091384888 0.5729030966758728
0.61305797100067139 0.63056862354278564 0.60707634687423706
0.42244088649749756 0.45352852344512939 0.45973733067512512
0.42225685715675354 0.45338809490203857 0.45945009589195251
0.42385798692703247 0.45478808879852295 0.46060240268707275
0.42749151587486267 0.45775911211967468 0.46330380439758301
0.43306124210357666 0.46268841624259949 0.46771812438964844
0.44009992480278015 0.469124436378479 0.47369596362113953
0.44815996289253235 0.47692307829856873 0.48108112812042236
0.45945990085601807 0.48780685663223267 0.49105021357536316
0.47684571146965027 0.50420141220092773 0.50529646873474121
0.50224918127059937 0.52801883220672607 0.52503156661987305
0.53658998012542725 0.55976384878158569 0.55054032802581787
0.57840162515640259 0.59834790229797363 0.58145636320114136
0.62492197751998901 0.64116942882537842 0.61558252573013306
0.44364055991172791 0.47308468818664551 0.47733879089355469
0.44247141480445862 0.47215905785560608 0.47636950016021729
0.44406971335411072 0.47340482473373413 0.47735452651977539
0.44763016700744629 0.47641253471374512 0.47976809740066528
0.45310878753662109 0.48114323616027832 0.48397558927536011
0.46015846729278564 0.48734554648399353 0.48973813652992249
0.46813642978668213 0.49503457546234131 0.49695363640785217
0.47911250591278076 0.50562584400177002 0.50664758682250977
0.49621006846427917 0.5218997597694397 0.5206369161605835
0.5220072865486145 0.54607737064361572 0.54035395383834839
0.55693799257278442 0.57837557792663574 0.56627941131591797
0.59938514232635498 0.61733025312423706 0.59704762697219849
0.64498943090438843 0.65948665142059326 0.6304163932800293
0.47407755255699158 0.50114226341247559 0.50156718492507935
0.47174689173698425 0.49923756718635559 0.49990013241767883
0.47298517823219299 0.50021106004714966 0.50038748979568481
0.47551098465919495 0.50251114368438721 0.50206750631332397
0.47970223426818848 0.50605720281600952 0.50513672828674316
0.48623135685920715 0.51195979118347168 0.51043951511383057
0.49551171064376831 0.52055650949478149 0.51852667331695557
0.50840705633163452 0.53253078460693359 0.52924990653991699
0.52649766206741333 0.5495867133140564 0.54402661323547363
0.55275982618331909 0.57407152652740479 0.56375151872634888
0.58767491579055786 0.60633152723312378 0.58929657936096191
0.62906229496002197 0.64439719915390015 0.61926782131195068
0.67260551452636719 0.68457710742950439 0.65070581436157227
0.51743090152740479 0.54136615991592407 0.53513383865356445
0.51463252305984497 0.53889751434326172 0.5330391526222229
0.51489120721817017 0.53938543796539307 0.53298020362854004
0.5158042311668396 0.54060620069503784 0.53326195478439331
0.51795238256454468 0.5421445369720459 0.53476709127426147
0.52405184507369995 0.54749906063079834 0.53959810733795166
0.53503882884979248 0.55744045972824097 0.54856634140014648
0.54984849691390991 0.571044921875 0.56074702739715576
0.56897878646850586 0.58873385190963745 0.57567334175109863
0.59421974420547485 0.61209487915039062 0.59460800886154175
0.62615007162094116 0.64164656400680542 0.61802476644515991
0.66352128982543945 0.67618966102600098 0.6448739767074585
0.70270079374313354 0.71213227510452271 0.67298299074172974
0.57722628116607666 0.59705716371536255 0.58033233880996704
0.57368963956832886 0.59399998188018799 0.57757925987243652
0.57294988632202148 0.5933687686920166 0.57680743932723999
0.57255321741104126 0.59313291311264038 0.57629227638244629
0.5732843279838562 0.59393537044525146 0.57668274641036987
0.57858157157897949 0.59824538230895996 0.58070051670074463
0.58939695358276367 0.60796064138412476 0.58925056457519531
0.60411912202835083 0.62124955654144287 0.60097861289978027
0.62172263860702515 0.63745421171188354 0.61472803354263306
0.64311796426773071 0.65712076425552368 0.63087189197540283
0.66905099153518677 0.68108135461807251 0.64969265460968018
0.69885635375976562 0.70887404680252075 0.67110913991928101
0.73049300909042358 0.73818826675415039 0.69409573078155518
0.64981293678283691 0.66440623998641968 0.6342424750328064
0.64608603715896606 0.66116529703140259 0.63146340847015381
0.64419776201248169 0.65975159406661987 0.62995404005050659
0.64394700527191162 0.6591031551361084 0.62908089160919189
0.64436072111129761 0.65952622890472412 0.62939339876174927
0.64793401956558228 0.6625475287437439 0.63229584693908691
0.65595489740371704 0.66946315765380859 0.63875740766525269
0.6676827073097229 0.67976903915405273 0.64802968502044678
0.68122166395187378 0.69203531742095947 0.65842270851135254
0.69611233472824097 0.70608478784561157 0.66988420486450195
0.71363228559494019 0.72261953353881836 0.68256634473800659
0.73428606986999512 0.7416832447052002 0.69734853506088257
0.75688850879669189 0.76298928260803223 0.71397846937179565
0.72583293914794922 0.73481768369674683 0.69034004211425781
0.72266656160354614 0.73212236166000366 0.68792098760604858
0.72052127122879028 0.73031246662139893 0.68626773357391357
0.720237135887146 0.72987884283065796 0.68574017286300659
0.72064745426177979 0.73022556304931641 0.6862109899520874
0.72262752056121826 0.73134112358093262 0.68750888109207153
0.72696727514266968 0.73494255542755127 0.69103449583053589
0.73396360874176025 0.7410162091255188 0.69674050807952881
0.74211370944976807 0.74833554029464722 0.70310527086257935
0.74974483251571655 0.75550633668899536 0.70910239219665527
0.7587730884552002 0.76448458433151245 0.7159772515296936
0.77037101984024048 0.77548050880432129 0.72432416677474976
0.78511911630630493 0.78963536024093628 0.73493236303329468
0.37723830342292786 0.41177403926849365 0.4225824773311615
0.37681806087493896 0.41132879257202148 0.42207938432693481
0.37831559777259827 0.41300803422927856 0.42395973205566406
0.3828350305557251 0.41748401522636414 0.42769789695739746
0.39060896635055542 0.42510589957237244 0.43420505523681641
0.40256276726722717 0.43625041842460632 0.44374191761016846
0.41847908496856689 0.45117583870887756 0.45648467540740967
0.4384116530418396 0.46971866488456726 0.47229358553886414
0.46300658583641052 0.492380291223526 0.49179241061210632
0.49397000670433044 0.52098029851913452 0.51606488227844238
0.53216195106506348 0.55662935972213745 0.54537075757980347
0.57619041204452515 0.59681671857833862 0.57890486717224121
0.62216472625732422 0.63939976692199707 0.61370158195495605
0.37910750508308411 0.41334626078605652 0.42399939894676208
0.37890079617500305 0.41339248418807983 0.42405307292938232
0.38093525171279907 0.41560918092727661 0.42571425437927246
0.3855852484703064 0.42034298181533813 0.42970752716064453
0.393543541431427 0.42793229222297668 0.43620064854621887
0.40492266416549683 0.43888834118843079 0.44544380903244019
0.4202023446559906 0.45325314998626709 0.45784798264503479
0.4396650493144989 0.47129049897193909 0.47334760427474976
0.46439164876937866 0.49381539225578308 0.49283191561698914
0.49579405784606934 0.52231544256210327 0.51720535755157471
0.53411233425140381 0.55760520696640015 0.54678022861480713
0.5778006911277771 0.59795141220092773 0.58018219470977783
0.6236146092414856 0.64042770862579346 0.61485826969146729
0.38393601775169373 0.41814976930618286 0.42757788300514221
0.38424518704414368 0.41870763897895813 0.42793819308280945
0.38663631677627563 0.42096266150474548 0.43000376224517822
0.39117881655693054 0.42559519410133362 0.43388700485229492
0.3986818790435791 0.43297401070594788 0.4400905966758728
0.40959033370018005 0.44341138005256653 0.44893404841423035
0.42417162656784058 0.45714128017425537 0.46079438924789429
0.44271552562713623 0.47422394156455994 0.47571831941604614
0.46661409735679626 0.49611455202102661 0.49480825662612915
0.49715852737426758 0.5243876576423645 0.51904553174972534
0.53496509790420532 0.55829864740371704 0.5481640100479126
0.57848465442657471 0.5991058349609375 0.58103364706039429
0.62407320737838745 0.64069199562072754 0.61501681804656982
0.39192047715187073 0.42579704523086548 0.43403613567352295
0.39319378137588501 0.42694064974784851 0.43486607074737549
0.3953077495098114 0.42926314473152161 0.43678280711174011
0.3995303213596344 0.43325844407081604 0.44023281335830688
0.40622976422309875 0.43978029489517212 0.44585186243057251
0.41615331172943115 0.44936048984527588 0.45408216118812561
0.42938840389251709 0.46199369430541992 0.4649675190448761
0.44662496447563171 0.47776451706886292 0.47918900847434998
0.4694063663482666 0.49874049425125122 0.49736455082893372
0.49951204657554626 0.52590513229370117 0.52069896459579468
0.53621584177017212 0.55995672941207886 0.54906737804412842
0.57849085330963135 0.59942948818206787 0.5810997486114502
0.62345010042190552 0.64026755094528198 0.61489546298980713
0.4036274254322052 0.43648868799209595 0.44319561123847961
0.40537762641906738 0.43811658024787903 0.44447982311248779
0.40720516443252563 0.44001895189285278 0.44599908590316772
0.41053566336631775 0.44317355751991272 0.44882139563560486
0.41606664657592773 0.44853183627128601 0.45362648367881775
0.42460495233535767 0.45659631490707397 0.46087223291397095
0.43614953756332397 0.46754249930381775 0.47063225507736206
0.45171117782592773 0.48213955760002136 0.48350685834884644
0.47310701012611389 0.50182271003723145 0.50061970949172974
