luts/instant_consumer/polaroid_px-70_cold_--.cube
# Created by: G'MIC (https://gmic.eu)
TITLE "polaroid_px-70_cold_--"
# LUT size
LUT_3D_SIZE 5
# Data domain
DOMAIN_MIN 0.0 0.0 0.0
DOMAIN_MAX 1.0 1.0 1.0
# LUT data points
0.0046514174900949001 0.028123190626502037 0.029590876772999763
0.14299213886260986 0.060951441526412964 0.047128789126873016
0.52684599161148071 0.086056262254714966 0.084790296852588654
0.86396968364715576 0.27790641784667969 0.10109008848667145
0.9968113899230957 0.49585258960723877 0.15784986317157745
0.0020427480340003967 0.23919111490249634 0.09322560578584671
0.076592251658439636 0.23900644481182098 0.068871334195137024
0.52567338943481445 0.2622019350528717 0.035059940069913864
0.84814780950546265 0.38803771138191223 0.024664051830768585
0.99746376276016235 0.5498117208480835 0.10237517952919006
0.0023284314665943384 0.53648805618286133 0.13946115970611572
0.0094592822715640068 0.54697370529174805 0.12942489981651306
0.49432918429374695 0.5604393482208252 0.027923868969082832
0.81808674335479736 0.58737796545028687 0.007444464135915041
0.9975428581237793 0.63700640201568604 0.0040258970111608505
0.0053561790846288204 0.78371685743331909 0.22670605778694153
0.14829385280609131 0.78960895538330078 0.22920450568199158
0.53033870458602905 0.78300970792770386 0.20963926613330841
0.80391734838485718 0.78706449270248413 0.094174839556217194
0.99175363779067993 0.7937018871307373 0.010791913606226444
0.54148894548416138 0.94885283708572388 0.42840030789375305
0.5854683518409729 0.94467240571975708 0.43331319093704224
0.68833017349243164 0.94227224588394165 0.44153118133544922
0.82920295000076294 0.9457700252532959 0.40905523300170898
0.98080700635910034 0.95391833782196045 0.36134806275367737
0.00037648816942237318 0.082585006952285767 0.2240484356880188
0.11992887407541275 0.12704548239707947 0.22066816687583923
0.52693831920623779 0.10557641088962555 0.25617074966430664
0.87434738874435425 0.33747512102127075 0.30991467833518982
0.99767154455184937 0.55826079845428467 0.36302518844604492
0.00068959256168454885 0.2503637969493866 0.24609516561031342
0.13891178369522095 0.27057799696922302 0.2525574266910553
0.55339127779006958 0.32843023538589478 0.26808786392211914
0.85314786434173584 0.45418918132781982 0.28662493824958801
0.99767154455184937 0.59117883443832397 0.332468181848526
0.0071526919491589069 0.5592038631439209 0.28475841879844666
0.066198863089084625 0.562968909740448 0.27865913510322571
0.53337788581848145 0.57739460468292236 0.25561755895614624
0.82942873239517212 0.59923642873764038 0.2049219161272049
0.9945874810218811 0.65903776884078979 0.22218716144561768
0.065183244645595551 0.79369854927062988 0.3218628466129303
0.30275413393974304 0.7918211817741394 0.33089452981948853
0.56219863891601562 0.78667432069778442 0.32467788457870483
0.81527984142303467 0.78752791881561279 0.27760004997253418
0.98686736822128296 0.79347783327102661 0.22080744802951813
0.57597833871841431 0.94527214765548706 0.46995609998703003
0.61803418397903442 0.94349861145019531 0.47458028793334961
0.70420587062835693 0.93947398662567139 0.47787991166114807
0.83747798204421997 0.94592690467834473 0.46714982390403748
0.98125189542770386 0.95380318164825439 0.41821503639221191
0.038496099412441254 0.19604238867759705 0.44690462946891785
0.35072961449623108 0.26669096946716309 0.44878202676773071
0.58825761079788208 0.37854486703872681 0.44454556703567505
0.84321302175521851 0.3461507260799408 0.47196456789970398
0.99869781732559204 0.5060352087020874 0.49832791090011597
0.0080666486173868179 0.34387072920799255 0.4483928382396698
0.31718510389328003 0.37618845701217651 0.45566532015800476
0.60028481483459473 0.47426578402519226 0.45492202043533325
0.85333937406539917 0.470528244972229 0.48065665364265442
0.99899882078170776 0.60747843980789185 0.5129503607749939
0.005170769989490509 0.57806563377380371 0.44669285416603088
0.27203527092933655 0.58520054817199707 0.45290061831474304
0.60710757970809937 0.60840326547622681 0.46138814091682434
0.85151606798171997 0.65595513582229614 0.47732707858085632
0.99738878011703491 0.72321212291717529 0.50729978084564209
0.40201646089553833 0.79016304016113281 0.48647916316986084
0.51044535636901855 0.79332560300827026 0.4893738329410553
0.64421361684799194 0.7925071120262146 0.48231089115142822
0.83025294542312622 0.79333412647247314 0.46467351913452148
0.98755842447280884 0.79222434759140015 0.44235485792160034
0.66189169883728027 0.94356507062911987 0.56542414426803589
0.6763421893119812 0.94327002763748169 0.5565682053565979
0.74310171604156494 0.94065862894058228 0.56304466724395752
0.86247467994689941 0.94411981105804443 0.56961715221405029
0.98538494110107422 0.95596742630004883 0.53637588024139404
0.46087059378623962 0.39216858148574829 0.63841062784194946
0.6016993522644043 0.44545897841453552 0.64013165235519409
0.78030633926391602 0.57859188318252563 0.63861215114593506
0.88353180885314941 0.66246491670608521 0.63517510890960693
0.98535037040710449 0.63279622793197632 0.64454865455627441
0.40844663977622986 0.48366740345954895 0.63532572984695435
0.57002580165863037 0.52208763360977173 0.63609814643859863
0.77144932746887207 0.62960046529769897 0.63946372270584106
0.88123816251754761 0.6997145414352417 0.64046317338943481
0.98646450042724609 0.67853319644927979 0.6526113748550415
0.10973796248435974 0.64254903793334961 0.60649538040161133
0.39899936318397522 0.64449179172515869 0.61381250619888306
0.72198295593261719 0.68860459327697754 0.63710206747055054
0.88295727968215942 0.76026827096939087 0.65295511484146118
0.98908406496047974 0.74799984693527222 0.6664237380027771
0.39246648550033569 0.79897969961166382 0.61254346370697021
0.49734154343605042 0.79473370313644409 0.61887305974960327
0.6777227520942688 0.79404646158218384 0.63372796773910522
0.86393606662750244 0.80972695350646973 0.64409804344177246
0.99456048011779785 0.83919787406921387 0.68222910165786743
0.66997271776199341 0.94327449798583984 0.68683362007141113
0.70916479825973511 0.94315296411514282 0.69703572988510132
0.79696685075759888 0.94490373134613037 0.70519953966140747
0.89322495460510254 0.95033830404281616 0.72353726625442505
0.98975259065628052 0.95809721946716309 0.71101933717727661
0.73200476169586182 0.67905354499816895 0.85070222616195679
0.78951317071914673 0.70464211702346802 0.84667563438415527
0.87366873025894165 0.75509816408157349 0.84141421318054199
0.95262622833251953 0.81618839502334595 0.83051770925521851
0.99697303771972656 0.83999526500701904 0.83158344030380249
0.72068136930465698 0.7093881368637085 0.8531113862991333
0.77687114477157593 0.727772057056427 0.85220980644226074
0.87074941396713257 0.76930737495422363 0.84661626815795898
0.95608228445053101 0.82778441905975342 0.84049093723297119
0.99730706214904785 0.85277575254440308 0.84411317110061646
0.65176546573638916 0.76206916570663452 0.85044044256210327
0.71689653396606445 0.76657330989837646 0.85020071268081665
0.84100103378295898 0.79461109638214111 0.85371631383895874
0.9533267617225647 0.84775030612945557 0.85269176959991455
0.99648904800415039 0.88353890180587769 0.85201793909072876
0.50866222381591797 0.83836150169372559 0.84611779451370239
0.56289023160934448 0.83525246381759644 0.84486836194992065
0.70614874362945557 0.83195787668228149 0.85115534067153931
0.91109108924865723 0.86791694164276123 0.86804860830307007
0.99816161394119263 0.92200338840484619 0.87839120626449585
0.65317869186401367 0.96073174476623535 0.87582480907440186
0.69147008657455444 0.96004700660705566 0.87715202569961548
0.76983106136322021 0.95947885513305664 0.88125395774841309
0.88501137495040894 0.96088099479675293 0.89574718475341797
0.99197489023208618 0.97945719957351685 0.91022646427154541
