luts/instant_consumer/polaroid_px-100uv+_cold_+++.cube
# Created by: G'MIC (https://gmic.eu)
TITLE "polaroid_px-100uv+_cold_+++"
# LUT size
LUT_3D_SIZE 7
# Data domain
DOMAIN_MIN 0.0 0.0 0.0
DOMAIN_MAX 1.0 1.0 1.0
# LUT data points
0.37850886583328247 0.41004070639610291 0.40802299976348877
0.37254902720451355 0.40377238392829895 0.40635907649993896
0.37833622097969055 0.40758928656578064 0.41200226545333862
0.40028661489486694 0.42701399326324463 0.42879852652549744
0.43854841589927673 0.4621766209602356 0.45729741454124451
0.50363147258758545 0.52292156219482422 0.50288927555084229
0.6004372239112854 0.61358678340911865 0.56739062070846558
0.38273200392723083 0.41393908858299255 0.41272264719009399
0.37857580184936523 0.40952843427658081 0.41135141253471375
0.38583162426948547 0.4154706597328186 0.4173714816570282
0.4070284366607666 0.43483144044876099 0.43401122093200684
0.4440065324306488 0.46946296095848083 0.46206843852996826
0.51033180952072144 0.53099155426025391 0.50826090574264526
0.61038744449615479 0.62213021516799927 0.57247269153594971
0.39599835872650146 0.42558234930038452 0.4239368736743927
0.39237424731254578 0.42238423228263855 0.42222261428833008
0.39977464079856873 0.42901083827018738 0.42766061425209045
0.41858232021331787 0.44658058881759644 0.44233959913253784
0.45178210735321045 0.47821429371833801 0.46821552515029907
0.51532328128814697 0.53645282983779907 0.51160544157028198
0.61685049533843994 0.62721282243728638 0.57474976778030396
0.42021706700325012 0.44760364294052124 0.44481167197227478
0.41488969326019287 0.44359290599822998 0.44200530648231506
0.42362958192825317 0.45177331566810608 0.44684270024299622
0.44383886456489563 0.47055506706237793 0.46070036292076111
0.47581616044044495 0.50135236978530884 0.48464339971542358
0.53045982122421265 0.55074924230575562 0.52142989635467529
0.6192966103553772 0.63019323348999023 0.57627677917480469
0.46922031044960022 0.49208366870880127 0.48184019327163696
0.46134194731712341 0.48693922162055969 0.47835123538970947
0.46619617938995361 0.49211922287940979 0.48065045475959778
0.49355244636535645 0.51669329404830933 0.49632716178894043
0.5375174880027771 0.55581545829772949 0.52305930852890015
0.59484577178955078 0.60733473300933838 0.55886662006378174
0.67550897598266602 0.67890250682830811 0.60727506875991821
0.57508724927902222 0.58782637119293213 0.54792201519012451
0.56610053777694702 0.58236253261566162 0.54482388496398926
0.56423622369766235 0.58175849914550781 0.54385805130004883
0.59389710426330566 0.60663795471191406 0.5584905743598938
0.6387743353843689 0.64572644233703613 0.58269250392913818
0.68553370237350464 0.68726944923400879 0.60970902442932129
0.74378317594528198 0.73881417512893677 0.64359229803085327
0.73528695106506348 0.73164093494415283 0.63838964700698853
0.72511768341064453 0.72475016117095947 0.63538891077041626
0.72828638553619385 0.72786033153533936 0.63718700408935547
0.73912805318832397 0.73601990938186646 0.64093208312988281
0.76098436117172241 0.75360560417175293 0.65065377950668335
0.77591300010681152 0.7674405574798584 0.65825927257537842
0.79853940010070801 0.78832107782363892 0.67034363746643066
0.37867939472198486 0.4112345278263092 0.41283193230628967
0.37561440467834473 0.40714213252067566 0.4124700129032135
0.38706651329994202 0.41604238748550415 0.42078208923339844
0.41683143377304077 0.44261392951011658 0.44175872206687927
0.46297663450241089 0.48548796772956848 0.47512122988700867
0.5304563045501709 0.54976075887680054 0.52239948511123657
0.62231332063674927 0.63378608226776123 0.58199501037597656
0.38781628012657166 0.41941964626312256 0.419197678565979
0.38578614592552185 0.41662541031837463 0.41886028647422791
0.39692971110343933 0.42602503299713135 0.42743897438049316
0.42672964930534363 0.45331516861915588 0.44896745681762695
0.46850946545600891 0.49271047115325928 0.47995880246162415
0.53090554475784302 0.55140000581741333 0.52373814582824707
0.62887036800384521 0.63998055458068848 0.58556264638900757
0.40988829731941223 0.43908393383026123 0.43434929847717285
0.40733078122138977 0.43622395396232605 0.43336409330368042
0.41308924555778503 0.44148889183998108 0.43901526927947998
0.43363901972770691 0.46080669760704041 0.45530989766120911
0.47055616974830627 0.49535465240478516 0.48248559236526489
0.53701186180114746 0.5565568208694458 0.52648407220840454
0.63429617881774902 0.64345413446426392 0.58657777309417725
0.44232290983200073 0.46843928098678589 0.45988720655441284
0.43934172391891479 0.46575281023979187 0.45842242240905762
0.44313788414001465 0.4694647490978241 0.46157702803611755
0.45928624272346497 0.4845106303691864 0.47350600361824036
0.492026686668396 0.5146338939666748 0.49638661742210388
0.55247694253921509 0.56949061155319214 0.53474241495132446
0.64320570230484009 0.65033799409866333 0.58980220556259155
0.49922189116477966 0.52115172147750854 0.50219416618347168
0.49278289079666138 0.51630169153213501 0.49900782108306885
0.49852469563484192 0.52096426486968994 0.50131487846374512
0.51893073320388794 0.53859108686447144 0.51253712177276611
0.55515354871749878 0.57056951522827148 0.53452610969543457
0.61032760143280029 0.61994051933288574 0.56799256801605225
0.68616247177124023 0.68762481212615967 0.61340367794036865
0.60335004329681396 0.61554050445556641 0.56774228811264038
0.59163540601730347 0.60626226663589478 0.56219863891601562
0.59830033779144287 0.61128026247024536 0.56353765726089478
0.61973816156387329 0.62871795892715454 0.57308304309844971
0.65217763185501099 0.65676999092102051 0.5906984806060791
0.69327884912490845 0.69316548109054565 0.61449295282363892
0.74584668874740601 0.73997384309768677 0.64536958932876587
0.74524885416030884 0.74166154861450195 0.64777034521102905
0.73631173372268677 0.73477494716644287 0.64371377229690552
0.737865149974823 0.73491752147674561 0.64238715171813965
0.74761980772018433 0.74182331562042236 0.64495611190795898
0.76218980550765991 0.75406539440155029 0.65164601802825928
0.77858853340148926 0.7687346339225769 0.66056716442108154
0.80359029769897461 0.79161953926086426 0.67451733350753784
0.3939327597618103 0.42575731873512268 0.42742243409156799
0.39359837770462036 0.42410728335380554 0.42851182818412781
0.40785431861877441 0.43557989597320557 0.43813049793243408
0.43671253323554993 0.46071574091911316 0.4571690559387207
0.4929790198802948 0.51275932788848877 0.4954163134098053
0.577869713306427 0.59195828437805176 0.55205178260803223
0.66112905740737915 0.66827845573425293 0.60516476631164551
0.40372756123542786 0.43476331233978271 0.43398404121398926
0.40367564558982849 0.43361139297485352 0.43499484658241272
0.4182870090007782 0.44620463252067566 0.44544175267219543
0.4503474235534668 0.47550588846206665 0.46762552857398987
0.50310057401657104 0.5241665244102478 0.50366359949111938
0.58370447158813477 0.5985713005065918 0.55655539035797119
0.6714978814125061 0.6778755784034729 0.61102831363677979
0.42582195997238159 0.45446544885635376 0.44867447018623352
0.42667606472969055 0.45443686842918396 0.44999167323112488
0.43771940469741821 0.46445199847221375 0.45928561687469482
0.46456581354141235 0.48940879106521606 0.47897034883499146
0.51317441463470459 0.53402519226074219 0.51217120885848999
0.59128326177597046 0.60472649335861206 0.56072556972503662
0.67871630191802979 0.68281900882720947 0.61309385299682617
0.46615028381347656 0.49037763476371765 0.47697284817695618
0.47102105617523193 0.49398577213287354 0.48056656122207642
0.47767913341522217 0.50048285722732544 0.48618888854980469
0.49765259027481079 0.51895636320114136 0.50052565336227417
0.53569144010543823 0.55357986688613892 0.52564948797225952
0.60484808683395386 0.61543267965316772 0.56715768575668335
0.68672126531600952 0.68845760822296143 0.6154179573059082
0.54498070478439331 0.56232225894927979 0.53051185607910156
0.55094176530838013 0.56621319055557251 0.53388947248458862
0.55130475759506226 0.56698119640350342 0.53325039148330688
0.56580913066864014 0.57998448610305786 0.54143232107162476
0.59620368480682373 0.60693973302841187 0.55994665622711182
0.64707571268081665 0.65219473838806152 0.59004485607147217
0.71306020021438599 0.71079391241073608 0.62856274843215942
0.65239804983139038 0.65930068492889404 0.59720116853713989
0.64253348112106323 0.65143698453903198 0.59165322780609131
0.6501346230506897 0.65599864721298218 0.59203058481216431
0.66244328022003174 0.66562533378601074 0.5967026948928833
0.68160617351531982 0.68225985765457153 0.60750222206115723
0.71340668201446533 0.71046978235244751 0.62606650590896606
0.75746244192123413 0.75004547834396362 0.6519203782081604
0.77041292190551758 0.76383030414581299 0.66315120458602905
0.76222342252731323 0.7567097544670105 0.65778553485870361
0.762920081615448 0.75508350133895874 0.65406149625778198
0.76746273040771484 0.75786042213439941 0.65439724922180176
0.7737576961517334 0.76350611448287964 0.65767598152160645
0.78662121295928955 0.77517604827880859 0.66511696577072144
0.81012344360351562 0.79649686813354492 0.67858636379241943
0.44416135549545288 0.47185513377189636 0.46339106559753418
0.44887992739677429 0.47461983561515808 0.46772867441177368
0.46532216668128967 0.48907274007797241 0.47846198081970215
0.48761934041976929 0.50896495580673218 0.49264410138130188
0.52941697835922241 0.54682797193527222 0.52087455987930298
0.62369942665100098 0.63296663761138916 0.58065402507781982
0.70000249147415161 0.70227634906768799 0.62700605392456055
0.45563817024230957 0.48206847906112671 0.47102370858192444
0.45717859268188477 0.48277884721755981 0.47337484359741211
0.47415316104888916 0.49807438254356384 0.48483118414878845
0.49786922335624695 0.520130455493927 0.50069504976272583
0.53883302211761475 0.5571100115776062 0.52772253751754761
0.63890737295150757 0.64737212657928467 0.58967125415802002
0.7163161039352417 0.71685791015625 0.63620471954345703
0.46969255805015564 0.49503582715988159 0.48054444789886475
0.47344404458999634 0.49772822856903076 0.48401129245758057
0.49299588799476624 0.51538461446762085 0.49740484356880188
0.52484601736068726 0.54457253217697144 0.51879048347473145
0.57813745737075806 0.59291011095046997 0.55358844995498657
0.65408587455749512 0.66051626205444336 0.59845656156539917
0.72930806875228882 0.72725063562393188 0.64185619354248047
0.49654030799865723 0.5198943018913269 0.49948388338088989
0.50697249174118042 0.52766925096511841 0.50655359029769897
0.52754998207092285 0.54611754417419434 0.5194517970085144
0.56121885776519775 0.57674175500869751 0.5409967303276062
0.60411554574966431 0.61558341979980469 0.56887036561965942
0.66750359535217285 0.67149478197097778 0.60507375001907349
0.73537623882293701 0.73154294490814209 0.64350742101669312
0.5791124701499939 0.59352332353591919 0.55272889137268066
0.58970183134078979 0.60135042667388916 0.55807256698608398
0.60168582201004028 0.61221253871917725 0.5637395977973938
0.62395703792572021 0.6324426531791687 0.57653248310089111
0.65091818571090698 0.65627467632293701 0.59274554252624512
0.69375157356262207 0.69430398941040039 0.61774510145187378
0.7467922568321228 0.74094212055206299 0.64824157953262329
0.69362223148345947 0.69533610343933105 0.6207423210144043
0.68988692760467529 0.69165349006652832 0.61695170402526855
0.70175039768218994 0.70142805576324463 0.62033993005752563
0.71091318130493164 0.70908677577972412 0.62374860048294067
0.71932405233383179 0.71611291170120239 0.62909519672393799
0.74107873439788818 0.73525345325469971 0.64220666885375977
0.77556097507476807 0.7660222053527832 0.66235262155532837
0.79191035032272339 0.78225469589233398 0.67473101615905762
0.78778570890426636 0.77828395366668701 0.67094635963439941
0.79156661033630371 0.78013986349105835 0.66912257671356201
0.79227614402770996 0.78002041578292847 0.66762310266494751
0.79079806804656982 0.77874642610549927 0.66686683893203735
0.79780036211013794 0.78503608703613281 0.67155379056930542
0.81701219081878662 0.8022768497467041 0.68257427215576172
0.55694812536239624 0.57279342412948608 0.53579550981521606
0.55844968557357788 0.57334393262863159 0.53797668218612671
0.57473033666610718 0.58871161937713623 0.54798877239227295
0.61150860786437988 0.62420034408569336 0.57133781909942627
0.62187331914901733 0.63254070281982422 0.57839369773864746
0.66320276260375977 0.66809684038162231 0.60262703895568848
0.73127889633178711 0.72930765151977539 0.64228802919387817
0.56623053550720215 0.58105921745300293 0.54107654094696045
0.56702977418899536 0.58141034841537476 0.54286044836044312
0.58479118347167969 0.59826928377151489 0.55387324094772339
0.61710172891616821 0.62906855344772339 0.57393813133239746
0.6363224983215332 0.6458856463432312 0.58554798364639282
0.67287689447402954 0.67770189046859741 0.60729318857192993
0.74461781978607178 0.7413526177406311 0.64944261312484741
0.57597100734710693 0.59040385484695435 0.54703241586685181
0.57992291450500488 0.59383857250213623 0.55023461580276489
0.60094231367111206 0.61313462257385254 0.56336778402328491
0.63134962320327759 0.64070451259613037 0.58157354593276978
0.66061198711395264 0.66637396812438965 0.5990099310874939
0.70270705223083496 0.70328307151794434 0.62379789352416992
0.76052570343017578 0.75462514162063599 0.65759718418121338
0.58854073286056519 0.60319525003433228 0.55671745538711548
0.59506338834762573 0.60830152034759521 0.56081557273864746
0.61991924047470093 0.63027513027191162 0.57521688938140869
0.65163552761077881 0.65865480899810791 0.59354954957962036
0.67583316564559937 0.67952054738998413 0.60789221525192261
0.71831387281417847 0.7164914608001709 0.63221639394760132
0.76921892166137695 0.76121056079864502 0.66141152381896973
0.62515681982040405 0.63763582706451416 0.58174943923950195
0.63195258378982544 0.641754150390625 0.58383208513259888
0.65741044282913208 0.66370916366577148 0.59684157371520996
0.68900769948959351 0.69134759902954102 0.61366254091262817
0.70989775657653809 0.70905286073684692 0.6257050633430481
0.73854619264602661 0.73387473821640015 0.64235490560531616
0.77626216411590576 0.76687109470367432 0.6640506386756897
0.71079659461975098 0.71275442838668823 0.63039308786392212
0.71392691135406494 0.71411788463592529 0.6302153468132019
0.73367559909820557 0.730915367603302 0.63829666376113892
0.74866384267807007 0.74358171224594116 0.64525395631790161
0.75486600399017334 0.74824857711791992 0.64876395463943481
0.7682996392250061 0.75969982147216797 0.65730792284011841
0.79306071996688843 0.78134959936141968 0.67162626981735229
0.7961810827255249 0.78597718477249146 0.67464166879653931
0.79676085710525513 0.78640091419219971 0.67463237047195435
0.80435299873352051 0.79243093729019165 0.67546743154525757
0.80671632289886475 0.79383432865142822 0.67546147108078003
0.8040500283241272 0.79092901945114136 0.67373549938201904
0.80747848749160767 0.79365873336791992 0.676524817943573
0.82231390476226807 0.80664801597595215 0.68508118391036987
0.70417612791061401 0.70365059375762939 0.6247442364692688
0.69414889812469482 0.69482618570327759 0.61830908060073853
0.69983315467834473 0.70044046640396118 0.62051379680633545
0.72575664520263672 0.72468739748001099 0.63515090942382812
0.75002127885818481 0.74590623378753662 0.64805251359939575
0.76363939046859741 0.75701010227203369 0.6546027660369873
0.78014564514160156 0.7717517614364624 0.66489279270172119
0.70318770408630371 0.70318210124969482 0.62117236852645874
0.70080983638763428 0.70051300525665283 0.6204456090927124
0.71121752262115479 0.71077346801757812 0.62656563520431519
0.73809587955474854 0.73537033796310425 0.64150393009185791
0.76281613111495972 0.75700688362121582 0.65466046333312988
0.76653599739074707 0.75957196950912476 0.65646600723266602
0.78794556856155396 0.77878814935684204 0.66958308219909668
0.71241289377212524 0.71081149578094482 0.62470030784606934
0.71352863311767578 0.7122572660446167 0.62648087739944458
0.72708678245544434 0.72533643245697021 0.63481611013412476
0.74793040752410889 0.74387156963348389 0.64612120389938354
0.76840502023696899 0.76137673854827881 0.65692007541656494
0.77614325284957886 0.76772701740264893 0.66153848171234131
0.79761785268783569 0.78652548789978027 0.67473417520523071
0.72224569320678711 0.72060227394104004 0.63153195381164551
0.72378271818161011 0.72250127792358398 0.63282263278961182
0.73837465047836304 0.73602044582366943 0.64132237434387207
0.75350207090377808 0.74911510944366455 0.64944946765899658
0.76874524354934692 0.76185071468353271 0.65731531381607056
0.78028291463851929 0.77106529474258423 0.66399818658828735
0.80186909437179565 0.78986626863479614 0.67711782455444336
0.73095285892486572 0.72993165254592896 0.63761264085769653
0.73047661781311035 0.72907125949859619 0.63702571392059326
0.74208122491836548 0.73927187919616699 0.64292222261428833
0.75884377956390381 0.75361955165863037 0.65161234140396118
0.77005118131637573 0.76286894083023071 0.65771257877349854
0.78239160776138306 0.77269208431243896 0.66486632823944092
0.80257159471511841 0.79015839099884033 0.67643231153488159
0.76376640796661377 0.75885927677154541 0.65610098838806152
0.76211434602737427 0.75676041841506958 0.65432584285736084
0.76997095346450806 0.76331132650375366 0.65710091590881348
0.78046596050262451 0.77200567722320557 0.66177064180374146
0.78573870658874512 0.77590417861938477 0.66486471891403198
0.79279190301895142 0.78149688243865967 0.66942447423934937
0.80842506885528564 0.79474532604217529 0.67848199605941772
0.8052600622177124 0.79421669244766235 0.67800247669219971
0.80583173036575317 0.79427200555801392 0.67716890573501587
0.81032657623291016 0.79752236604690552 0.67748081684112549
0.81282442808151245 0.79979509115219116 0.6777186393737793
0.81313818693161011 0.79892754554748535 0.67792576551437378
0.81526172161102295 0.80045813322067261 0.67961782217025757
0.82613682746887207 0.80971848964691162 0.68581420183181763
0.80336755514144897 0.79260343313217163 0.67446935176849365
0.7969818115234375 0.78606110811233521 0.67147624492645264
0.79514420032501221 0.78411126136779785 0.67018818855285645
0.80609273910522461 0.79362708330154419 0.67457431554794312
0.82328647375106812 0.80861455202102661 0.68315809965133667
0.82843112945556641 0.81300002336502075 0.68573802709579468
0.82465451955795288 0.8101198673248291 0.68417340517044067
0.80416667461395264 0.79159098863601685 0.67400616407394409
0.80051857233047485 0.78858095407485962 0.67251724004745483
0.80318033695220947 0.79062533378601074 0.67387813329696655
0.81088334321975708 0.79737275838851929 0.67701923847198486
0.82679015398025513 0.81108969449996948 0.6853708028793335
0.83092129230499268 0.81580883264541626 0.68713235855102539
0.83191591501235962 0.81638270616531372 0.68895381689071655
0.81017506122589111 0.79590326547622681 0.67436176538467407
0.80927026271820068 0.7955213189125061 0.67508590221405029
0.81456607580184937 0.8009074330329895 0.67922288179397583
0.82034730911254883 0.80607789754867554 0.68204957246780396
0.82801121473312378 0.81224828958511353 0.68645793199539185
0.83118182420730591 0.8154943585395813 0.68736571073532104
0.83553934097290039 0.8192177414894104 0.69131547212600708
0.82146447896957397 0.80653673410415649 0.68126660585403442
0.81854021549224854 0.80470514297485352 0.68080431222915649
0.82034397125244141 0.8066786527633667 0.68222743272781372
0.8219534158706665 0.80798375606536865 0.68352818489074707
0.82454085350036621 0.81011533737182617 0.68479818105697632
0.82622438669204712 0.81089776754379272 0.68592053651809692
0.83356392383575439 0.81714868545532227 0.69043195247650146
0.81891858577728271 0.80521589517593384 0.68088233470916748
0.81484603881835938 0.8021124005317688 0.67904359102249146
0.8134080171585083 0.80108976364135742 0.67853766679763794
0.81491118669509888 0.80208319425582886 0.67924290895462036
0.81617861986160278 0.80288738012313843 0.6799357533454895
0.8187795877456665 0.80414742231369019 0.68156057596206665
0.82822614908218384 0.81200015544891357 0.68709558248519897
0.81725573539733887 0.80403947830200195 0.67980033159255981
0.81378185749053955 0.80028808116912842 0.67815428972244263
0.81195515394210815 0.8001825213432312 0.67695748805999756
0.81299954652786255 0.80001121759414673 0.6768994927406311
0.81403970718383789 0.80040979385375977 0.67726081609725952
0.81623870134353638 0.80141705274581909 0.67953985929489136
0.82538002729415894 0.80923151969909668 0.68464928865432739
0.82296586036682129 0.80854290723800659 0.68306666612625122
0.8236498236656189 0.80916833877563477 0.682869553565979
0.82475656270980835 0.80974549055099487 0.68177366256713867
0.82474726438522339 0.80966967344284058 0.68099808692932129
0.82571649551391602 0.80970233678817749 0.68166238069534302
0.82654297351837158 0.809792160987854 0.68279778957366943
0.83382731676101685 0.81592762470245361 0.68682187795639038
