luts/instant_consumer/polaroid_px-100uv+_cold_-.cube
# Created by: G'MIC (https://gmic.eu)
TITLE "polaroid_px-100uv+_cold_-"
# LUT size
LUT_3D_SIZE 5
# Data domain
DOMAIN_MIN 0.0 0.0 0.0
DOMAIN_MAX 1.0 1.0 1.0
# LUT data points
0.091577000916004181 0.10621699690818787 0.11041919142007828
0.14448137581348419 0.16326795518398285 0.16735385358333588
0.30270585417747498 0.32277694344520569 0.32616236805915833
0.45101922750473022 0.46869620680809021 0.465730220079422
0.59446805715560913 0.61420488357543945 0.59644252061843872
0.18100503087043762 0.20112277567386627 0.20526371896266937
0.21045421063899994 0.23171471059322357 0.23569247126579285
0.32774415612220764 0.34702187776565552 0.34980791807174683
0.45936834812164307 0.47554028034210205 0.47159591317176819
0.60225337743759155 0.62153017520904541 0.59970968961715698
0.36837577819824219 0.38806489109992981 0.39057311415672302
0.35799989104270935 0.38121905922889709 0.38344851136207581
0.4157659113407135 0.43662780523300171 0.43833571672439575
0.49528300762176514 0.51357412338256836 0.50715768337249756
0.62349927425384521 0.64355224370956421 0.617564857006073
0.51520639657974243 0.53750455379486084 0.52637916803359985
0.50764912366867065 0.53071260452270508 0.52014803886413574
0.5255281925201416 0.54805475473403931 0.5375097393989563
0.58359259366989136 0.6036754846572876 0.5853990912437439
0.68859362602233887 0.70810508728027344 0.67341846227645874
0.74264043569564819 0.75710070133209229 0.71807175874710083
0.73815262317657471 0.75255495309829712 0.71187722682952881
0.74053293466567993 0.75587868690490723 0.71539407968521118
0.79175561666488647 0.80386626720428467 0.75645190477371216
0.84483164548873901 0.85405725240707397 0.79968619346618652
0.20465199649333954 0.22722460329532623 0.23063722252845764
0.25730651617050171 0.27911245822906494 0.28352183103561401
0.38740578293800354 0.40471130609512329 0.40892207622528076
0.51284301280975342 0.53044998645782471 0.52331268787384033
0.63075578212738037 0.65063571929931641 0.62665438652038574
0.27849671244621277 0.29879671335220337 0.3028113842010498
0.32471087574958801 0.34563803672790527 0.34806901216506958
0.40950471162796021 0.42956191301345825 0.42816969752311707
0.51756811141967773 0.53566277027130127 0.52539467811584473
0.64181733131408691 0.66252201795578003 0.6345943808555603
0.44342154264450073 0.46300563216209412 0.45904123783111572
0.43582057952880859 0.45713678002357483 0.45357587933540344
0.46013393998146057 0.48095399141311646 0.47598698735237122
0.53417539596557617 0.55415046215057373 0.54175788164138794
0.64953845739364624 0.67020297050476074 0.64177137613296509
0.56871789693832397 0.58790761232376099 0.57121819257736206
0.55933493375778198 0.5800510048866272 0.56344807147979736
0.55936294794082642 0.58117419481277466 0.56570690870285034
0.60887545347213745 0.6295202374458313 0.60676926374435425
0.71335726976394653 0.73103374242782593 0.69370800256729126
0.7688833475112915 0.77992844581604004 0.73826837539672852
0.76327145099639893 0.77506685256958008 0.73288857936859131
0.75720381736755371 0.77003699541091919 0.72968107461929321
0.7972482442855835 0.80655169486999512 0.76091736555099487
0.85481828451156616 0.85991257429122925 0.8069385290145874
0.40901479125022888 0.42837771773338318 0.42369359731674194
0.44668731093406677 0.46194806694984436 0.46060046553611755
0.48003605008125305 0.4980333149433136 0.49206715822219849
0.56067138910293579 0.5802423357963562 0.56514847278594971
0.69986486434936523 0.72043198347091675 0.68512415885925293
0.4518449604511261 0.4713415801525116 0.46741724014282227
0.47051680088043213 0.48878803849220276 0.48518803715705872
0.51115459203720093 0.52722495794296265 0.52094835042953491
0.58092027902603149 0.59927558898925781 0.58220428228378296
0.71065253019332886 0.73130613565444946 0.69212895631790161
0.49524912238121033 0.51476794481277466 0.50904589891433716
0.5069696307182312 0.52644461393356323 0.51889747381210327
0.54867291450500488 0.56784439086914062 0.55399805307388306
0.61829096078872681 0.63809210062026978 0.61417168378829956
0.72855114936828613 0.74585890769958496 0.70658165216445923
0.61197894811630249 0.62985491752624512 0.61036401987075806
0.63036590814590454 0.64910107851028442 0.62482810020446777
0.64119875431060791 0.6611626148223877 0.63356465101242065
0.67186433076858521 0.69186049699783325 0.65992158651351929
0.76712918281555176 0.78046131134033203 0.73729425668716431
0.80903059244155884 0.81705814599990845 0.77276730537414551
0.8052336573600769 0.81433665752410889 0.77035295963287354
0.80551838874816895 0.81468290090560913 0.7699592113494873
0.82566195726394653 0.83335584402084351 0.78495645523071289
0.88513857126235962 0.88714635372161865 0.83180719614028931
0.59917581081390381 0.61779171228408813 0.59455877542495728
0.61226958036422729 0.62952262163162231 0.60780161619186401
0.64705884456634521 0.66538161039352417 0.63849371671676636
0.6620599627494812 0.68072009086608887 0.65301573276519775
0.73708546161651611 0.75630009174346924 0.71396267414093018
0.61836028099060059 0.63789212703704834 0.61542850732803345
0.62568199634552002 0.64505797624588013 0.62171995639801025
0.65690159797668457 0.67618632316589355 0.64749014377593994
0.68620079755783081 0.70600700378417969 0.67185986042022705
0.75931310653686523 0.77566581964492798 0.73122864961624146
0.62502580881118774 0.64430749416351318 0.62151873111724854
0.63351714611053467 0.65396022796630859 0.62785893678665161
0.6745983362197876 0.69454050064086914 0.66120439767837524
0.71723759174346924 0.7349703311920166 0.69707304239273071
0.80187290906906128 0.81178313493728638 0.76437968015670776
0.6762850284576416 0.69631314277648926 0.66378915309906006
0.68801027536392212 0.70754402875900269 0.673728346824646
0.71925729513168335 0.73710453510284424 0.69819051027297974
0.76503342390060425 0.78014826774597168 0.7366216778755188
0.84599924087524414 0.85358089208602905 0.7997555136680603
0.84743398427963257 0.85465604066848755 0.80312520265579224
0.84109801054000854 0.84812772274017334 0.79933661222457886
0.86139315366744995 0.86533594131469727 0.81417131423950195
0.88238298892974854 0.8850284218788147 0.83120113611221313
0.91470861434936523 0.91519266366958618 0.85568779706954956
0.8377339243888855 0.84436887502670288 0.79423356056213379
0.84178221225738525 0.84800058603286743 0.79767060279846191
0.85490536689758301 0.86095762252807617 0.80857545137405396
0.88710492849349976 0.89099311828613281 0.83536893129348755
0.89041626453399658 0.89103859663009644 0.83511817455291748
0.84033298492431641 0.8494076132774353 0.79938596487045288
0.84343308210372925 0.8523440957069397 0.80071520805358887
0.85994499921798706 0.86820930242538452 0.81303638219833374
0.89029425382614136 0.8929792046546936 0.83584487438201904
0.88906461000442505 0.89000719785690308 0.83403688669204712
0.84886455535888672 0.85562986135482788 0.80445897579193115
0.84484851360321045 0.85313928127288818 0.80049222707748413
0.86743748188018799 0.87564069032669067 0.81781941652297974
0.8998371958732605 0.90085691213607788 0.84407716989517212
0.89850330352783203 0.89741623401641846 0.8397289514541626
0.86273312568664551 0.86733734607696533 0.81221508979797363
0.86464023590087891 0.8670918345451355 0.81451976299285889
0.87546133995056152 0.87813979387283325 0.82320320606231689
0.90222358703613281 0.90245789289474487 0.84610265493392944
0.93025398254394531 0.92685776948928833 0.86606240272521973
0.90416598320007324 0.90381592512130737 0.8465314507484436
0.91365152597427368 0.91077810525894165 0.85356813669204712
0.91431844234466553 0.91063743829727173 0.85253214836120605
0.9340670108795166 0.92955243587493896 0.87040281295776367
0.94647866487503052 0.94110840559005737 0.87988197803497314
