luts/instant_consumer/polaroid_px-680_--.cube
# Created by: G'MIC (https://gmic.eu)
TITLE "polaroid_px-680_--"
# LUT size
LUT_3D_SIZE 13
# Data domain
DOMAIN_MIN 0.0 0.0 0.0
DOMAIN_MAX 1.0 1.0 1.0
# LUT data points
0.00014253503468353301 0.095292247831821442 0.11159829795360565
0.0025701634585857391 0.092788994312286377 0.11284001916646957
0.026315083727240562 0.08539898693561554 0.11468510329723358
0.17740678787231445 0.077669493854045868 0.12376546114683151
0.32694360613822937 0.057928752154111862 0.12987311184406281
0.46660664677619934 0.039677191525697708 0.14102019369602203
0.61240231990814209 0.052553243935108185 0.15273681282997131
0.74885749816894531 0.13543909788131714 0.16355450451374054
0.84475767612457275 0.2562689483165741 0.17169393599033356
0.901084303855896 0.34554469585418701 0.17941035330295563
0.93700742721557617 0.41897541284561157 0.19401243329048157
0.96944224834442139 0.48644769191741943 0.20985037088394165
0.99155360460281372 0.54294580221176147 0.24064390361309052
0.00074073940049856901 0.10940290242433548 0.11896179616451263
0.0033690659329295158 0.11462400853633881 0.11869516968727112
0.042492914944887161 0.11218871921300888 0.11595539748668671
0.19894304871559143 0.10859003663063049 0.11948149651288986
0.33934774994850159 0.098495885729789734 0.12791493535041809
0.47349366545677185 0.090177901089191437 0.13802824914455414
0.61980319023132324 0.11825277656316757 0.14983159303665161
0.75311046838760376 0.1987789124250412 0.16048435866832733
0.83675861358642578 0.29054722189903259 0.16851526498794556
0.89729017019271851 0.37282678484916687 0.17635498940944672
0.9350706934928894 0.43791121244430542 0.19143061339855194
0.967326819896698 0.49687859416007996 0.20907095074653625
0.99058538675308228 0.55070418119430542 0.24034930765628815
0.0012870189966633916 0.16839638352394104 0.12924689054489136
0.0045746150426566601 0.17937393486499786 0.12855280935764313
0.02608204260468483 0.18553841114044189 0.12211140990257263
0.19757787883281708 0.18714870512485504 0.11937088519334793
0.34792563319206238 0.17311275005340576 0.12791109085083008
0.48531371355056763 0.17071481049060822 0.13470728695392609
0.63119643926620483 0.20232617855072021 0.14376649260520935
0.75397300720214844 0.26474201679229736 0.15156352519989014
0.8323027491569519 0.3395075798034668 0.16064342856407166
0.89262014627456665 0.40746816992759705 0.16947707533836365
0.92986249923706055 0.46272516250610352 0.18714767694473267
0.96243089437484741 0.5158570408821106 0.20606648921966553
0.98946911096572876 0.56688213348388672 0.23605304956436157
0.00077269313624128699 0.25298663973808289 0.1401563286781311
0.0033365287818014622 0.2614997923374176 0.14361436665058136
0.0049684261903166771 0.26975992321968079 0.14129930734634399
0.1248307004570961 0.28227514028549194 0.13666851818561554
0.34604150056838989 0.2936650812625885 0.13866987824440002
0.50070571899414062 0.28810903429985046 0.1400110125541687
0.63984984159469604 0.29768168926239014 0.13693766295909882
0.74727714061737061 0.33740174770355225 0.13856028020381927
0.82401037216186523 0.39675208926200867 0.14434847235679626
0.87909120321273804 0.45376119017601013 0.15503174066543579
0.92017954587936401 0.50213992595672607 0.17369925975799561
0.95544159412384033 0.54746723175048828 0.1961580365896225
0.98644721508026123 0.58927464485168457 0.23186522722244263
0 0.3370668888092041 0.1611541360616684
0.0010633132187649608 0.3466452956199646 0.16810594499111176
0.0039268494583666325 0.35463178157806396 0.16901274025440216
0.074965521693229675 0.3650517463684082 0.16443423926830292
0.30713379383087158 0.39021947979927063 0.15839584171772003
0.50222635269165039 0.41253906488418579 0.14850495755672455
0.63872605562210083 0.41957157850265503 0.14028841257095337
0.74190777540206909 0.42814821004867554 0.13010649383068085
0.81783038377761841 0.45602363348007202 0.12453411519527435
0.86935406923294067 0.50097107887268066 0.13409772515296936
0.91225618124008179 0.54136776924133301 0.15196621417999268
0.94796842336654663 0.5787920355796814 0.18492090702056885
0.98029667139053345 0.61271089315414429 0.22330851852893829
0 0.4193989634513855 0.18029393255710602
0.0025194354820996523 0.43083423376083374 0.18564823269844055
0.0039843390695750713 0.43859642744064331 0.18653538823127747
0.054207939654588699 0.4472673237323761 0.18315976858139038
0.27692613005638123 0.47225821018218994 0.17660394310951233
0.47159165143966675 0.50077307224273682 0.16122554242610931
0.63092148303985596 0.52436071634292603 0.14460073411464691
0.73405289649963379 0.53533196449279785 0.13153171539306641
0.8072887659072876 0.54310297966003418 0.12144290655851364
0.86107540130615234 0.55731332302093506 0.11852040141820908
0.90361714363098145 0.57743972539901733 0.13009749352931976
0.93960046768188477 0.60873985290527344 0.16066893935203552
0.97491675615310669 0.6378406286239624 0.20425938069820404
0 0.50232762098312378 0.18968185782432556
0.0025388381909579039 0.51127558946609497 0.19298070669174194
0.0032605489250272512 0.51892334222793579 0.19384072721004486
0.035463668406009674 0.52721500396728516 0.19152767956256866
0.25215521454811096 0.5462220311164856 0.1863940954208374
0.43442961573600769 0.56945067644119263 0.17434807121753693
0.59177887439727783 0.59239232540130615 0.15959306061267853
0.71465784311294556 0.6150810718536377 0.14432431757450104
0.79338300228118896 0.62510204315185547 0.13658653199672699
0.84690064191818237 0.62810713052749634 0.13424597680568695
0.89135122299194336 0.63416033983230591 0.137440025806427
0.93090707063674927 0.6457170844078064 0.14303959906101227
0.96658319234848022 0.66477352380752563 0.17767125368118286
0 0.58352088928222656 0.19598720967769623
0.0011257844744250178 0.58833503723144531 0.19834576547145844
0.0020505269058048725 0.59313672780990601 0.19793610274791718
0.026518354192376137 0.59942770004272461 0.19565197825431824
0.23867426812648773 0.6119655966758728 0.19355727732181549
0.41534122824668884 0.62909883260726929 0.18998898565769196
0.56182163953781128 0.64685022830963135 0.18221130967140198
0.68557995557785034 0.66426360607147217 0.1730693131685257
0.77142196893692017 0.67975413799285889 0.16875439882278442
0.83185118436813354 0.69162225723266602 0.16316412389278412
0.87935471534729004 0.69586843252182007 0.16590042412281036
0.92045408487319946 0.70035278797149658 0.17528627812862396
0.9572606086730957 0.70488321781158447 0.19534681737422943
0.00014935662329662591 0.65711241960525513 0.20259681344032288
0.0010262882569804788 0.6575087308883667 0.20407350361347198
0.0024710712023079395 0.66145062446594238 0.20109520852565765
0.054137241095304489 0.66626018285751343 0.20035159587860107
0.25796288251876831 0.67054224014282227 0.20935496687889099
0.4189002513885498 0.67918974161148071 0.21586430072784424
0.55517101287841797 0.69240140914916992 0.21453049778938293
0.66196990013122559 0.70435917377471924 0.21292063593864441
0.74636757373809814 0.71808552742004395 0.2116609513759613
0.81190061569213867 0.73349672555923462 0.21367841958999634
0.86833059787750244 0.74740058183670044 0.2224871963262558
0.91002386808395386 0.75141233205795288 0.2361954003572464
0.94474995136260986 0.75494319200515747 0.25752928853034973
0.0020313188433647156 0.72181141376495361 0.216126948595047
0.0068789464421570301 0.72230535745620728 0.21533825993537903
0.043112646788358688 0.72332972288131714 0.21226556599140167
0.18036113679409027 0.72538548707962036 0.21945753693580627
0.32668665051460266 0.7276836633682251 0.23293493688106537
0.45095309615135193 0.73095381259918213 0.24297589063644409
0.56416153907775879 0.73937338590621948 0.24737191200256348
0.65328067541122437 0.74739253520965576 0.25358369946479797
0.72780007123947144 0.75640344619750977 0.25913852453231812
0.78976321220397949 0.76845359802246094 0.26576808094978333
0.84983283281326294 0.78667205572128296 0.28093880414962769
0.89768010377883911 0.79888468980789185 0.30083194375038147
0.93489444255828857 0.80685591697692871 0.32469218969345093
0.13112509250640869 0.77709513902664185 0.24736745655536652
0.1791427880525589 0.77770251035690308 0.25073263049125671
0.2572074830532074 0.77740544080734253 0.25901734828948975
0.34233161807060242 0.77706462144851685 0.26698124408721924
0.4212266206741333 0.77713656425476074 0.27695313096046448
0.50233113765716553 0.77958744764328003 0.28965690732002258
0.58930939435958862 0.78757631778717041 0.30178052186965942
0.6624944806098938 0.79459285736083984 0.31261077523231506
0.72367274761199951 0.80006855726242065 0.31928601861000061
0.77704900503158569 0.80745148658752441 0.32635030150413513
0.82873892784118652 0.82022970914840698 0.3396223783493042
0.87742161750793457 0.83770507574081421 0.36051288247108459
0.91703200340270996 0.86014461517333984 0.38722127676010132
0.3985171914100647 0.83139598369598389 0.32608905434608459
0.41697847843170166 0.83341366052627563 0.33204853534698486
0.44458264112472534 0.8330690860748291 0.33809831738471985
0.48755732178688049 0.83323031663894653 0.34536802768707275
0.53147685527801514 0.83470356464385986 0.35540848970413208
0.57376503944396973 0.83821350336074829 0.36515721678733826
0.63113516569137573 0.84072726964950562 0.37355175614356995
0.68378394842147827 0.84734618663787842 0.38431587815284729
0.7320626974105835 0.85489022731781006 0.39298433065414429
0.77673149108886719 0.86320304870605469 0.40165108442306519
0.82201248407363892 0.87356942892074585 0.41341972351074219
0.86182153224945068 0.88784885406494141 0.42844763398170471
0.893443763256073 0.90549427270889282 0.44492852687835693
0.56061917543411255 0.90016263723373413 0.4249005913734436
0.56864994764328003 0.90125161409378052 0.4278719425201416
0.58094573020935059 0.90081524848937988 0.43165931105613708
0.60232686996459961 0.9017636775970459 0.43709239363670349
0.62418735027313232 0.90296870470046997 0.44457948207855225
0.64496999979019165 0.90734869241714478 0.45301082730293274
0.67706000804901123 0.91146272420883179 0.46126019954681396
0.71010708808898926 0.91545933485031128 0.46839037537574768
0.74704074859619141 0.92048877477645874 0.4759528636932373
0.7830548882484436 0.92693185806274414 0.48448833823204041
0.81953310966491699 0.93322306871414185 0.49273926019668579
0.85270595550537109 0.94232863187789917 0.50388377904891968
0.88093525171279907 0.94953817129135132 0.51516878604888916
3.0158547815517522e-05 0.095574401319026947 0.1380390077829361
0.0024197448510676622 0.094839058816432953 0.1353258341550827
0.025085270404815674 0.087446831166744232 0.14109000563621521
0.17445440590381622 0.087213657796382904 0.1527017205953598
0.32739707827568054 0.097717717289924622 0.16819159686565399
0.46938994526863098 0.12334731221199036 0.18862159550189972
0.61574143171310425 0.15379151701927185 0.20325140655040741
0.75047874450683594 0.21176290512084961 0.21313761174678802
0.8400038480758667 0.29220700263977051 0.21858276426792145
0.89735853672027588 0.36705243587493896 0.22017890214920044
0.93744421005249023 0.43527001142501831 0.22882348299026489
0.96702378988265991 0.49343138933181763 0.24426442384719849
0.99143153429031372 0.54794204235076904 0.27231636643409729
0.00096143834525719285 0.11521449685096741 0.14658096432685852
0.0049401973374187946 0.12259647250175476 0.14997118711471558
0.048446863889694214 0.11940789222717285 0.15273666381835938
0.20033508539199829 0.12487254291772842 0.15975695848464966
0.34136524796485901 0.13882428407669067 0.17308619618415833
0.47943726181983948 0.16087375581264496 0.18798917531967163
0.62776315212249756 0.1947433203458786 0.19910155236721039
0.75346332788467407 0.25141355395317078 0.20810985565185547
0.8357052206993103 0.32146689295768738 0.21265769004821777
0.89248502254486084 0.38961008191108704 0.21591414511203766
0.9351811408996582 0.44983562827110291 0.227632075548172
0.96589845418930054 0.50484859943389893 0.24423567950725555
0.99108248949050903 0.55805361270904541 0.27239367365837097
0.0017220590962097049 0.17664030194282532 0.15986013412475586
0.0036163630429655313 0.18721938133239746 0.16438435018062592
0.039933912456035614 0.19176207482814789 0.16258779168128967
0.21511292457580566 0.19749319553375244 0.16453200578689575
0.35606080293655396 0.19869011640548706 0.17220491170883179
0.49787026643753052 0.21323981881141663 0.18273034691810608
0.64329355955123901 0.24652662873268127 0.19194932281970978
0.75422590970993042 0.29952573776245117 0.1971905529499054
0.83629918098449707 0.36131802201271057 0.20270727574825287
0.88608962297439575 0.42023754119873047 0.21092697978019714
0.92890453338623047 0.47520458698272705 0.22300352156162262
0.96207898855209351 0.52532351016998291 0.24094189703464508
0.98955261707305908 0.57385778427124023 0.26991069316864014
0.0018251904984936118 0.26160749793052673 0.17546865344047546
0.0041972738690674305 0.27030995488166809 0.18208491802215576
0.012414565309882164 0.27465945482254028 0.18038845062255859
0.17330080270767212 0.28856205940246582 0.17979301512241364
0.36398938298225403 0.29858678579330444 0.18132130801677704
0.51532399654388428 0.29933613538742065 0.18194492161273956
0.64507925510406494 0.31734803318977356 0.1816573441028595
0.74875503778457642 0.36112144589424133 0.18427738547325134
0.82621997594833374 0.40869876742362976 0.18720626831054688
0.87708532810211182 0.4616105854511261 0.19661484658718109
0.92085415124893188 0.50965970754623413 0.21179379522800446
0.95629256963729858 0.55170071125030518 0.23345823585987091
0.98577678203582764 0.59328609704971313 0.26425188779830933
0.00057549570919945836 0.3456801176071167 0.19378022849559784
0.0038898542989045382 0.35393497347831726 0.2008071094751358
0.0099493740126490593 0.35766357183456421 0.20026662945747375
0.13370202481746674 0.37097981572151184 0.19846862554550171
0.33537006378173828 0.39531129598617554 0.19436353445053101
0.51550817489624023 0.41427931189537048 0.18597768247127533
0.64551883935928345 0.42108860611915588 0.17917299270629883
0.74159729480743408 0.43395239114761353 0.17201808094978333
0.8165125846862793 0.46286967396736145 0.16675572097301483
0.86842525005340576 0.50569641590118408 0.17530050873756409
0.91190552711486816 0.54629182815551758 0.19184295833110809
0.94848906993865967 0.58164817094802856 0.21724407374858856
0.98007398843765259 0.614845871925354 0.25329530239105225
0.00014640958397649229 0.42854154109954834 0.20658467710018158
0.0026426727417856455 0.43752124905586243 0.21264491975307465
0.0062488033436238766 0.44248664379119873 0.21054196357727051
0.10113103687763214 0.45351150631904602 0.2078331857919693
0.30224201083183289 0.4774840772151947 0.20351020991802216
0.48588603734970093 0.50256389379501343 0.19311243295669556
0.637969970703125 0.52552515268325806 0.1798875629901886
0.73505163192749023 0.5316692590713501 0.16939899325370789
0.80639362335205078 0.53806501626968384 0.16089017689228058
0.85839718580245972 0.55553406476974487 0.1594819575548172
0.90286624431610107 0.58159911632537842 0.16847202181816101
0.93924623727798462 0.61179089546203613 0.19417700171470642
0.96909862756729126 0.63927662372589111 0.23353557288646698
0.00015671673463657498 0.50737357139587402 0.21069464087486267
0.0038544898852705956 0.51666110754013062 0.21539276838302612
0.0045077307149767876 0.52343010902404785 0.21354281902313232
0.063187450170516968 0.5318901538848877 0.21064774692058563
0.27590566873550415 0.54953449964523315 0.20809245109558105
0.45488068461418152 0.57071971893310547 0.20133976638317108
0.60150051116943359 0.59224611520767212 0.18942505121231079
0.71942490339279175 0.61390352249145508 0.17667631804943085
0.79572087526321411 0.62391763925552368 0.17104123532772064
0.84529620409011841 0.62918943166732788 0.16923807561397552
0.89058768749237061 0.63404303789138794 0.1689867228269577
0.93051308393478394 0.64604413509368896 0.17749613523483276
0.96302372217178345 0.66549688577651978 0.21084755659103394
0.00019522274669725448 0.58555752038955688 0.21268868446350098
0.0036273433361202478 0.5933382511138916 0.21604155004024506
0.0057604173198342323 0.59847182035446167 0.21432463824748993
0.053644604980945587 0.60389083623886108 0.21177293360233307
0.26171743869781494 0.61423408985137939 0.21341721713542938
0.43430140614509583 0.62888205051422119 0.21013031899929047
0.57200193405151367 0.64593303203582764 0.20492659509181976
0.68804341554641724 0.66661781072616577 0.19862531125545502
0.77521210908889771 0.68403321504592896 0.19495776295661926
0.8324396014213562 0.69195002317428589 0.19715481996536255
0.87795782089233398 0.6959119439125061 0.19639985263347626
0.91880112886428833 0.69892889261245728 0.20648615062236786
0.95685029029846191 0.70437437295913696 0.21995680034160614
8.3594226452987641e-05 0.65819162130355835 0.21240508556365967
0.0010543224634602666 0.66085779666900635 0.21711079776287079
0.0050253025256097317 0.66517448425292969 0.2149217277765274
0.092762738466262817 0.66917425394058228 0.21615411341190338
0.28223505616188049 0.67466729879379272 0.22425659000873566
0.43449243903160095 0.68225646018981934 0.2280910313129425
0.56035846471786499 0.69415760040283203 0.2271927148103714
0.65999722480773926 0.70681607723236084 0.23109763860702515
0.74705713987350464 0.72088682651519775 0.23553335666656494
0.81439244747161865 0.73714721202850342 0.24022409319877625
0.86743754148483276 0.74747687578201294 0.25006455183029175
0.9093138575553894 0.75045263767242432 0.26034054160118103
0.94471162557601929 0.75525176525115967 0.27579388022422791
0.0031107584945857525 0.72204047441482544 0.22541764378547668
0.01150188036262989 0.72344511747360229 0.22659201920032501
0.068812519311904907 0.72520166635513306 0.22721861302852631
0.21184045076370239 0.7265782356262207 0.23589326441287994
0.34152334928512573 0.72863471508026123 0.24788571894168854
0.45760622620582581 0.73266398906707764 0.25685042142868042
0.56793832778930664 0.7390674352645874 0.26533544063568115
0.65434950590133667 0.74739938974380493 0.27109417319297791
0.72961091995239258 0.757987380027771 0.27635005116462708
0.79233890771865845 0.77128392457962036 0.28775408864021301
0.85082721710205078 0.78796350955963135 0.30490422248840332
0.90066397190093994 0.80147284269332886 0.32194623351097107
0.93283343315124512 0.80623519420623779 0.33843505382537842
0.15416063368320465 0.77758949995040894 0.26109600067138672
0.20550140738487244 0.7776188850402832 0.26409584283828735
0.2787443995475769 0.77747088670730591 0.27207401394844055
0.35478106141090393 0.7765771746635437 0.27977016568183899
0.42997977137565613 0.7775498628616333 0.28928089141845703
0.50838780403137207 0.78036594390869141 0.30391427874565125
0.59008562564849854 0.78637027740478516 0.31609299778938293
0.66363084316253662 0.79337656497955322 0.32541346549987793
0.72663509845733643 0.80073255300521851 0.33213183283805847
0.77851861715316772 0.80934113264083862 0.34211638569831848
0.8312111496925354 0.82408607006072998 0.35734009742736816
0.8823392391204834 0.84593439102172852 0.37904879450798035
0.91669201850891113 0.86192411184310913 0.39897668361663818
0.40584889054298401 0.83194935321807861 0.33749210834503174
0.42497438192367554 0.8327060341835022 0.33964991569519043
0.4542146623134613 0.83270865678787231 0.34599679708480835
0.4946187436580658 0.83324897289276123 0.35493773221969604
0.53595238924026489 0.83524239063262939 0.36430010199546814
0.5791662335395813 0.83995413780212402 0.37696141004562378
0.62747347354888916 0.84387892484664917 0.38558828830718994
0.6823849081993103 0.84676921367645264 0.39162328839302063
0.7318921685218811 0.85383695363998413 0.40028241276741028
0.77722638845443726 0.86378473043441772 0.41180971264839172
0.82158946990966797 0.87493735551834106 0.42413461208343506
0.86334282159805298 0.89287674427032471 0.44170975685119629
0.8973921537399292 0.9108891487121582 0.46010342240333557
0.56532150506973267 0.89851516485214233 0.4301542341709137
0.57114613056182861 0.90029513835906982 0.43241441249847412
0.58480167388916016 0.90097826719284058 0.43605124950408936
0.6037522554397583 0.90161418914794922 0.44245246052742004
0.62616503238677979 0.90242570638656616 0.44910132884979248
0.64720720052719116 0.90830063819885254 0.45934796333312988
0.67778319120407104 0.91150563955307007 0.46549072861671448
0.7107163667678833 0.91515302658081055 0.47195717692375183
0.74591434001922607 0.91940706968307495 0.4787590503692627
0.78260701894760132 0.92553126811981201 0.48802322149276733
0.8192792534828186 0.93339306116104126 0.49707108736038208
0.85232400894165039 0.94260019063949585 0.50786358118057251
0.88176894187927246 0.94876885414123535 0.52088338136672974
0.00033192354021593928 0.093705855309963226 0.18650858104228973
0.0031244165729731321 0.10287245362997055 0.18620438873767853
0.021698417142033577 0.10682772099971771 0.18627849221229553
0.16227926313877106 0.10320762544870377 0.19620980322360992
0.32096406817436218 0.10713627934455872 0.20980070531368256
0.46774724125862122 0.13471852242946625 0.22664149105548859
0.62404149770736694 0.17126086354255676 0.24313086271286011
0.7611241340637207 0.23857176303863525 0.25865203142166138
0.84686362743377686 0.31809604167938232 0.26838013529777527
0.89911311864852905 0.3908926248550415 0.27603310346603394
0.93491047620773315 0.45559686422348022 0.28565678000450134
0.96320271492004395 0.51482880115509033 0.30283859372138977
0.98573023080825806 0.56857204437255859 0.33138075470924377
0.0019924088846892118 0.12526586651802063 0.19521693885326385
0.0056064529344439507 0.13813275098800659 0.20038411021232605
0.048981431871652603 0.14260847866535187 0.20280250906944275
0.19650587439537048 0.1498863697052002 0.21106283366680145
0.33946910500526428 0.16821692883968353 0.22329433262348175
0.4848422110080719 0.19478374719619751 0.23744718730449677
0.64129555225372314 0.22853979468345642 0.25119754672050476
0.76338189840316772 0.28159236907958984 0.25987550616264343
0.84339481592178345 0.34625804424285889 0.26642018556594849
0.89338809251785278 0.40871790051460266 0.27292811870574951
0.93158531188964844 0.47146046161651611 0.28508216142654419
0.9614751935005188 0.52780437469482422 0.30439120531082153
0.98596096038818359 0.57705140113830566 0.33017721772193909
0.0028132570441812277 0.18842460215091705 0.20600825548171997
0.0062101176008582115 0.19883187115192413 0.21376170217990875
0.075978957116603851 0.20681093633174896 0.21808987855911255
0.23068208992481232 0.21840402483940125 0.22084352374076843
0.36691579222679138 0.23193095624446869 0.228716641664505
0.51397645473480225 0.25747218728065491 0.24186822772026062
0.65829974412918091 0.28660589456558228 0.25041544437408447
0.76391041278839111 0.32951062917709351 0.25423440337181091
0.83813202381134033 0.38412016630172729 0.26072028279304504
0.88618284463882446 0.43882828950881958 0.26709383726119995
0.92671740055084229 0.4942166805267334 0.27599614858627319
0.95849311351776123 0.54487413167953491 0.3005102276802063
0.98721551895141602 0.59000283479690552 0.32834973931312561
0.0016062419163063169 0.26789197325706482 0.21756207942962646
0.0096190953627228737 0.27631106972694397 0.22555539011955261
0.081174783408641815 0.28406402468681335 0.22956469655036926
0.23588858544826508 0.29762545228004456 0.23205618560314178
0.38963165879249573 0.30998215079307556 0.23335345089435577
0.53321897983551025 0.32019099593162537 0.23543231189250946
0.66135102510452271 0.34555143117904663 0.23790912330150604
0.75723749399185181 0.38431963324546814 0.23906819522380829
0.83077621459960938 0.42718330025672913 0.24267058074474335
0.88077837228775024 0.47539630532264709 0.25037771463394165
0.92095381021499634 0.51952815055847168 0.26339656114578247
0.95459461212158203 0.56378000974655151 0.2889268696308136
0.98418158292770386 0.60574531555175781 0.31885647773742676
0.0037796469405293465 0.35426574945449829 0.2356337308883667
0.027006829157471657 0.36099347472190857 0.23930063843727112
0.080060385167598724 0.36738726496696472 0.24018284678459167
0.21393993496894836 0.38132381439208984 0.24249374866485596
0.3766319751739502 0.40246561169624329 0.23995497822761536
0.53626132011413574 0.41916242241859436 0.23342375457286835
0.657787024974823 0.42579835653305054 0.22602391242980957
