luts/instant_consumer/polaroid_px-100uv+_warm_+.cube
# Created by: G'MIC (https://gmic.eu)
TITLE "polaroid_px-100uv+_warm_+"
# LUT size
LUT_3D_SIZE 13
# Data domain
DOMAIN_MIN 0.0 0.0 0.0
DOMAIN_MAX 1.0 1.0 1.0
# LUT data points
0.32313081622123718 0.29981395602226257 0.30422347784042358
0.32356646656990051 0.30146133899688721 0.30564078688621521
0.32809817790985107 0.30696627497673035 0.31108775734901428
0.33686676621437073 0.31707513332366943 0.32152098417282104
0.35199800133705139 0.3337351381778717 0.33794975280761719
0.37301313877105713 0.3566984236240387 0.3608042299747467
0.39862397313117981 0.38435494899749756 0.3883422315120697
0.4264170229434967 0.41406500339508057 0.41786366701126099
0.45580264925956726 0.44488492608070374 0.44841188192367554
0.48777920007705688 0.47838515043258667 0.48083281517028809
0.52524751424789429 0.51626259088516235 0.51684749126434326
0.5697140097618103 0.56020110845565796 0.55767101049423218
0.61828339099884033 0.60774421691894531 0.60145026445388794
0.32502865791320801 0.30218225717544556 0.30626058578491211
0.32566520571708679 0.3036421537399292 0.30801701545715332
0.32978001236915588 0.30900609493255615 0.31318238377571106
0.33819186687469482 0.31894770264625549 0.32304102182388306
0.35232251882553101 0.33436170220375061 0.33835649490356445
0.37217724323272705 0.35600933432579041 0.3598625659942627
0.39708337187767029 0.38300177454948425 0.38681718707084656
0.4251105785369873 0.4132835865020752 0.41681388020515442
0.4552556574344635 0.44521820545196533 0.44821569323539734
0.48872843384742737 0.47975966334342957 0.4816213846206665
0.52701079845428467 0.51844710111618042 0.51852679252624512
0.57088959217071533 0.56193870306015015 0.55893081426620483
0.6187177300453186 0.60859733819961548 0.60155993700027466
0.3318723738193512 0.3099784255027771 0.31429752707481384
0.33243390917778015 0.31141245365142822 0.31573718786239624
0.33614945411682129 0.31639736890792847 0.32067441940307617
0.34391868114471436 0.32522034645080566 0.32964327931404114
0.35608723759651184 0.33887195587158203 0.3429601788520813
0.37385669350624084 0.3583683967590332 0.36214900016784668
0.39753207564353943 0.38398668169975281 0.38779956102371216
0.42541989684104919 0.41394558548927307 0.41765576601028442
0.45634028315544128 0.44645226001739502 0.44959369301795959
0.49080577492713928 0.48200657963752747 0.48374113440513611
0.52960795164108276 0.52132391929626465 0.52072024345397949
0.57310867309570312 0.56434553861618042 0.56065219640731812
0.61949586868286133 0.60991579294204712 0.60238546133041382
0.34538072347640991 0.32523965835571289 0.3297269344329834
0.34538450837135315 0.32632926106452942 0.3305942714214325
0.3482939600944519 0.33036255836486816 0.33486172556877136
0.35468995571136475 0.3378603458404541 0.3424561619758606
0.36523562669754028 0.34962606430053711 0.35407721996307373
0.38116371631622314 0.36668506264686584 0.37104886770248413
0.40243449807167053 0.39001914858818054 0.39432829618453979
0.42890551686286926 0.41815409064292908 0.42208459973335266
0.45934906601905823 0.44996353983879089 0.4531254768371582
0.49386489391326904 0.48546633124351501 0.4868319034576416
0.5328337550163269 0.52477240562438965 0.52359300851821899
0.57606422901153564 0.56756007671356201 0.56307923793792725
0.62206739187240601 0.61275011301040649 0.60417532920837402
0.36542424559593201 0.34820681810379028 0.35243117809295654
0.36468952894210815 0.34831854701042175 0.35279145836830139
0.36649343371391296 0.3510729968547821 0.35576194524765015
0.37118899822235107 0.35675761103630066 0.3616853654384613
0.37992176413536072 0.3665061891078949 0.37159284949302673
0.39367914199829102 0.38122671842575073 0.38627719879150391
0.41258341073989868 0.40145760774612427 0.40629535913467407
0.43654105067253113 0.42665854096412659 0.43109935522079468
0.46534770727157593 0.45655146241188049 0.45970273017883301
0.49901947379112244 0.4909636378288269 0.49239993095397949
0.53761571645736694 0.52983689308166504 0.52835774421691895
0.58062863349914551 0.57236742973327637 0.56724196672439575
0.62656480073928833 0.61731612682342529 0.6079026460647583
0.39107128977775574 0.37692713737487793 0.38110345602035522
0.38947761058807373 0.37591078877449036 0.38091149926185608
0.38980647921562195 0.37714478373527527 0.38196900486946106
0.39281263947486877 0.38095247745513916 0.38615554571151733
0.3996691107749939 0.3884226381778717 0.39406353235244751
0.41116213798522949 0.40077310800552368 0.40624132752418518
0.42731136083602905 0.41755661368370056 0.42307674884796143
0.44837334752082825 0.43979907035827637 0.44454857707023621
0.47502622008323669 0.46712493896484375 0.47049364447593689
0.50733548402786255 0.49978247284889221 0.50088721513748169
0.54551088809967041 0.53775429725646973 0.53578227758407593
0.58829164505004883 0.58007454872131348 0.57409530878067017
0.63433223962783813 0.62507683038711548 0.61446213722229004
0.42053332924842834 0.40944567322731018 0.41309383511543274
0.41823035478591919 0.40771874785423279 0.41183927655220032
0.41746491193771362 0.4073755145072937 0.4121738076210022
0.41884058713912964 0.40944567322731018 0.41462615132331848
0.42399179935455322 0.41476923227310181 0.42041134834289551
0.43324929475784302 0.42435750365257263 0.43011105060577393
0.44693982601165771 0.438680499792099 0.44400253891944885
0.46548205614089966 0.45790302753448486 0.46244940161705017
0.48967722058296204 0.48253265023231506 0.48562473058700562
0.52045559883117676 0.51330041885375977 0.51403677463531494
0.55816888809204102 0.55054229497909546 0.54761046171188354
0.60086935758590698 0.59269958734512329 0.58547729253768921
0.64679145812988281 0.63745975494384766 0.62516987323760986
0.45355340838432312 0.44487860798835754 0.44765579700469971
0.45105713605880737 0.44302919507026672 0.44630789756774902
0.44984579086303711 0.4420522153377533 0.44599497318267822
0.45006456971168518 0.44239914417266846 0.44685378670692444
0.45323127508163452 0.44558936357498169 0.45047652721405029
0.46029907464981079 0.45296606421470642 0.45779585838317871
0.47237130999565125 0.46518063545227051 0.46966338157653809
0.48932716250419617 0.48225921392440796 0.48585212230682373
0.51154661178588867 0.50479036569595337 0.50676614046096802
0.54059159755706787 0.5336298942565918 0.53322863578796387
0.57745647430419922 0.56977182626724243 0.56535464525222778
0.62007230520248413 0.61161255836486816 0.60218518972396851
0.66543996334075928 0.65570205450057983 0.64118045568466187
0.49234649538993835 0.48503351211547852 0.48608213663101196
0.49033698439598083 0.48362702131271362 0.48496463894844055
0.48944500088691711 0.48239439725875854 0.48457145690917969
0.48845160007476807 0.48163893818855286 0.48423299193382263
0.48943445086479187 0.48265549540519714 0.48543402552604675
0.49514982104301453 0.48814716935157776 0.49102076888084412
0.5063062310218811 0.49924474954605103 0.50170028209686279
0.52267217636108398 0.51544028520584106 0.516643226146698
0.54313200712203979 0.53597927093505859 0.5357290506362915
0.57005870342254639 0.56259596347808838 0.55977737903594971
0.60552418231964111 0.59728682041168213 0.59029442071914673
0.64681512117385864 0.63770169019699097 0.62541145086288452
0.69048190116882324 0.68005537986755371 0.66240769624710083
0.5407598614692688 0.53361779451370239 0.53150242567062378
0.53998744487762451 0.53272789716720581 0.53102207183837891
0.53948551416397095 0.53219479322433472 0.53016293048858643
0.53729510307312012 0.5302014946937561 0.52880978584289551
0.53626710176467896 0.52896475791931152 0.52814787626266479
0.5403066873550415 0.53316736221313477 0.53228640556335449
0.55152183771133423 0.54414463043212891 0.5424993634223938
0.56751853227615356 0.55976486206054688 0.55679011344909668
0.58713912963867188 0.57909059524536133 0.57454478740692139
0.61180323362350464 0.60312420129776001 0.59621816873550415
0.6436234712600708 0.63412803411483765 0.62324225902557373
0.68130087852478027 0.67050009965896606 0.65493029356002808
0.72065764665603638 0.70938616991043091 0.68844103813171387
0.60279273986816406 0.59410840272903442 0.58616584539413452
0.60252338647842407 0.59382277727127075 0.58589529991149902
0.60196506977081299 0.5930977463722229 0.58516013622283936
0.59939205646514893 0.59075886011123657 0.58350402116775513
0.59682410955429077 0.58843564987182617 0.5814928412437439
0.59971660375595093 0.5910719633102417 0.58440542221069336
0.61018073558807373 0.60105407238006592 0.59348362684249878
0.62502390146255493 0.6155848503112793 0.60655456781387329
0.64288836717605591 0.63262605667114258 0.62263542413711548
0.66352266073226929 0.65367549657821655 0.64129304885864258
0.68954586982727051 0.67871403694152832 0.66317528486251831
0.71965122222900391 0.70816516876220703 0.68853873014450073
0.7526664137840271 0.74035483598709106 0.71656745672225952
0.67599058151245117 0.66443920135498047 0.64884269237518311
0.67517352104187012 0.6640021800994873 0.64856457710266113
0.67450797557830811 0.66330891847610474 0.64779508113861084
0.67315822839736938 0.66170215606689453 0.64626914262771606
0.67069554328918457 0.65943747758865356 0.64480751752853394
0.6721072793006897 0.66081899404525757 0.64619767665863037
0.67945605516433716 0.66790235042572021 0.65280622243881226
0.69176995754241943 0.67987930774688721 0.66380840539932251
0.70634180307388306 0.69430923461914062 0.67689806222915649
0.72160166501998901 0.70929861068725586 0.69077944755554199
0.74000650644302368 0.72766262292861938 0.70651155710220337
0.76143056154251099 0.74898815155029297 0.72598028182983398
0.78700220584869385 0.77303248643875122 0.74684053659439087
0.75161075592041016 0.73722100257873535 0.71320241689682007
0.75102376937866211 0.73686081171035767 0.7129817008972168
0.75063407421112061 0.73629003763198853 0.71234810352325439
0.7503851056098938 0.73585468530654907 0.71188724040985107
0.74874889850616455 0.73434102535247803 0.71071487665176392
0.74805557727813721 0.73373079299926758 0.71064221858978271
0.7523341178894043 0.73812413215637207 0.71486812829971313
0.76132625341415405 0.74715280532836914 0.72337853908538818
0.77247029542922974 0.75787800550460815 0.73335045576095581
0.78214716911315918 0.76763337850570679 0.7422943115234375
0.79268562793731689 0.7779962420463562 0.75186651945114136
0.80646800994873047 0.79151058197021484 0.7639508843421936
0.82389706373214722 0.80841851234436035 0.77962720394134521
0.32929113507270813 0.30663260817527771 0.31165620684623718
0.33055126667022705 0.30929175019264221 0.31361204385757446
0.33492991328239441 0.31500732898712158 0.31937518715858459
0.34405156970024109 0.32545167207717896 0.3300529420375824
0.35955855250358582 0.34287169575691223 0.34683999419212341
0.38218739628791809 0.3670693039894104 0.37113431096076965
0.41028517484664917 0.39744743704795837 0.40126398205757141
0.43860095739364624 0.42775961756706238 0.43136104941368103
0.46723604202270508 0.45795759558677673 0.46138617396354675
0.49847596883773804 0.49015659093856812 0.49237287044525146
0.53411322832107544 0.52612882852554321 0.52678585052490234
0.57800090312957764 0.56950700283050537 0.56677055358886719
0.62678664922714233 0.61706119775772095 0.6101183295249939
0.33121934533119202 0.30863431096076965 0.31322872638702393
0.33250105381011963 0.31109333038330078 0.31553611159324646
0.33736878633499146 0.31745436787605286 0.32175612449645996
0.34640097618103027 0.32799652218818665 0.33222752809524536
0.36097025871276855 0.34421896934509277 0.34835049510002136
0.38225558400154114 0.36750605702400208 0.37143874168395996
0.40889707207679749 0.39633911848068237 0.40016347169876099
0.43785896897315979 0.42723706364631653 0.4306560754776001
0.46779584884643555 0.45888343453407288 0.46169480681419373
0.50045692920684814 0.49245777726173401 0.49421259760856628
0.53750312328338623 0.53004211187362671 0.52968901395797729
0.5809028148651123 0.57283025979995728 0.56912553310394287
0.62843030691146851 0.61902010440826416 0.61135822534561157
0.33828091621398926 0.31654131412506104 0.32058566808700562
0.33980312943458557 0.31913438439369202 0.32336002588272095
0.34460124373435974 0.32551753520965576 0.32972034811973572
0.35316449403762817 0.33558851480484009 0.33969774842262268
0.36622762680053711 0.35039985179901123 0.35439899563789368
0.38531202077865601 0.37106698751449585 0.37501579523086548
0.40974712371826172 0.39755561947822571 0.40137356519699097
0.43806767463684082 0.42782863974571228 0.43129435181617737
0.4689178466796875 0.46029815077781677 0.46303820610046387
0.50301933288574219 0.49539428949356079 0.49648568034172058
0.54120147228240967 0.53378748893737793 0.53250718116760254
0.58412200212478638 0.5762101411819458 0.57158380746841431
0.6303938627243042 0.62141138315200806 0.61283987760543823
0.35277321934700012 0.33286210894584656 0.33700615167617798
0.35412603616714478 0.33528926968574524 0.33950901031494141
0.358144611120224 0.34088319540023804 0.34512060880661011
0.36524137854576111 0.34937787055969238 0.35366198420524597
0.37641140818595886 0.36204454302787781 0.36637526750564575
0.39287450909614563 0.38010525703430176 0.38416585326194763
0.41477534174919128 0.40370264649391174 0.40772610902786255
0.44144549965858459 0.43187865614891052 0.43542683124542236
0.47177451848983765 0.46348816156387329 0.46606448292732239
0.50598376989364624 0.49847933650016785 0.49932593107223511
0.54437285661697388 0.53712141513824463 0.53538596630096436
0.58731943368911743 0.57932174205780029 0.57410776615142822
0.63295716047286987 0.62402141094207764 0.61455100774765015
0.37584161758422852 0.35860145092010498 0.36235320568084717
0.37603998184204102 0.36002472043037415 0.36393696069717407
0.37807789444923401 0.36350724101066589 0.36760035157203674
0.38305255770683289 0.3695925772190094 0.37406593561172485
0.39215990900993347 0.37973484396934509 0.38429117202758789
0.40595895051956177 0.39466440677642822 0.3993893563747406
0.42477014660835266 0.41482356190681458 0.41928321123123169
0.44850414991378784 0.4398103654384613 0.44372636079788208
0.47682860493659973 0.46914339065551758 0.47181570529937744
0.51008027791976929 0.5029447078704834 0.50350862741470337
0.54817980527877808 0.5411076545715332 0.53873896598815918
0.59082084894180298 0.58309125900268555 0.57705140113830566
0.63658052682876587 0.62778580188751221 0.61735570430755615
0.40437674522399902 0.39083138108253479 0.39399778842926025
0.40325537323951721 0.39072790741920471 0.39435544610023499
0.40330284833908081 0.39159026741981506 0.39569589495658875
0.40606173872947693 0.39490321278572083 0.39955300092697144
0.41275817155838013 0.40238261222839355 0.40725091099739075
0.42403838038444519 0.41432574391365051 0.41933169960975647
0.43958806991577148 0.43083643913269043 0.4356333315372467
0.45973756909370422 0.4519464373588562 0.45596984028816223
0.48536717891693115 0.47830909490585327 0.48094487190246582
0.5169302225112915 0.5099831223487854 0.51040744781494141
0.55428934097290039 0.54717177152633667 0.54436355829238892
0.59696650505065918 0.58927625417709351 0.58217304944992065
0.64306855201721191 0.63428860902786255 0.62256872653961182
0.43559762835502625 0.4255126416683197 0.42797389626502991
0.43361356854438782 0.42434212565422058 0.4271203875541687
0.43221688270568848 0.42309519648551941 0.42674437165260315
0.43296438455581665 0.42413574457168579 0.42839175462722778
0.43755510449409485 0.42897182703018188 0.43369463086128235
0.4462675154209137 0.43812057375907898 0.44290900230407715
0.4587758481502533 0.45103934407234192 0.45558235049247742
0.47576722502708435 0.46863195300102234 0.4726087749004364
0.49887758493423462 0.4923100471496582 0.49452584981918335
0.5285797119140625 0.52192032337188721 0.52175825834274292
0.56526696681976318 0.55825299024581909 0.5544126033782959
0.60784316062927246 0.59996408224105835 0.5917515754699707
0.65405255556106567 0.64491313695907593 0.63166606426239014
0.4679906964302063 0.46046310663223267 0.46190813183784485
0.46641302108764648 0.45864978432655334 0.46095269918441772
0.46459788084030151 0.45760995149612427 0.46003320813179016
0.46410608291625977 0.45696285367012024 0.46026968955993652
0.46663627028465271 0.45938533544540405 0.46322330832481384
0.47297683358192444 0.46569177508354187 0.46966797113418579
0.48336338996887207 0.47630408406257629 0.47973999381065369
0.49854341149330139 0.49191224575042725 0.49454638361930847
0.51967942714691162 0.51308929920196533 0.51417869329452515
0.54790431261062622 0.54117631912231445 0.53975820541381836
0.58363980054855347 0.57627242803573608 0.57097500562667847
0.62575167417526245 0.6175646185874939 0.60765582323074341
0.67110717296600342 0.66163748502731323 0.64636504650115967
0.50489550828933716 0.49801084399223328 0.49804478883743286
0.5043942928314209 0.4972999095916748 0.49753215909004211
0.50302952527999878 0.49676543474197388 0.49715876579284668
0.50194042921066284 0.49531957507133484 0.49676501750946045
0.50249820947647095 0.49565893411636353 0.49749785661697388
0.50676798820495605 0.49972790479660034 0.50150948762893677
0.51593446731567383 0.50895023345947266 0.51011496782302856
0.53022509813308716 0.52341967821121216 0.52349799871444702
0.55030149221420288 0.54333192110061646 0.54180783033370972
0.57690936326980591 0.56942152976989746 0.56550472974777222
0.6112513542175293 0.60316747426986694 0.59513169527053833
0.65156227350234985 0.6426125168800354 0.62957233190536499
0.69489204883575439 0.68457448482513428 0.66644245386123657
0.55100888013839722 0.544147789478302 0.54084813594818115
0.55119365453720093 0.54439258575439453 0.54137140512466431
0.55140018463134766 0.54430669546127319 0.54131245613098145
0.54997712373733521 0.54265958070755005 0.54011648893356323
0.54876214265823364 0.54116612672805786 0.53903067111968994
0.5512804388999939 0.54376882314682007 0.54157620668411255
0.55967253446578979 0.55200493335723877 0.54912865161895752
0.57359373569488525 0.56572014093399048 0.56181067228317261
0.59244334697723389 0.58442956209182739 0.57866400480270386
0.61690801382064819 0.60846030712127686 0.60029357671737671
0.64806604385375977 0.63874119520187378 0.62693649530410767
0.68441945314407349 0.6743895411491394 0.65799248218536377
0.72351706027984619 0.71247714757919312 0.69109499454498291
0.61027127504348755 0.60225248336791992 0.59341073036193848
0.61136674880981445 0.60260587930679321 0.59384632110595703
0.61174315214157104 0.60272872447967529 0.59420657157897949
0.60996866226196289 0.60103362798690796 0.59265214204788208
0.60783445835113525 0.5987555980682373 0.59068644046783447
0.60898733139038086 0.59985029697418213 0.59182733297348022
0.61620527505874634 0.60678786039352417 0.59822589159011841
0.62881898880004883 0.6192091703414917 0.60953801870346069
0.64554262161254883 0.63596773147583008 0.6245695948600769
0.6667555570602417 0.65652817487716675 0.64299267530441284
0.69222486019134521 0.68153578042984009 0.66497957706451416
0.72215408086776733 0.71081668138504028 0.69066929817199707
0.75485891103744507 0.74274754524230957 0.71852689981460571
0.68083482980728149 0.66963368654251099 0.65373522043228149
0.68143737316131592 0.67031669616699219 0.65431064367294312
0.68165832757949829 0.67015331983566284 0.65423792600631714
0.68023765087127686 0.66869783401489258 0.65285539627075195
0.67801707983016968 0.66637009382247925 0.65076595544815063
0.67792814970016479 0.66623139381408691 0.65090465545654297
0.68291628360748291 0.67121297121047974 0.65552222728729248
0.69307386875152588 0.68117290735244751 0.66451042890548706
0.7066115140914917 0.69459825754165649 0.67673319578170776
0.72268474102020264 0.71050781011581421 0.69096958637237549
0.74122661352157593 0.72860288619995117 0.70732969045639038
0.76330113410949707 0.75021469593048096 0.72684580087661743
0.78846186399459839 0.7751690149307251 0.74823659658432007
0.75398379564285278 0.74009990692138672 0.71632200479507446
0.75487428903579712 0.74071037769317627 0.71695733070373535
0.75499254465103149 0.74068140983581543 0.71668720245361328
0.75433999300003052 0.73979878425598145 0.71580708026885986
0.75200337171554565 0.73747348785400391 0.71374213695526123
0.75074505805969238 0.73638474941253662 0.71304082870483398
0.75333470106124878 0.73907780647277832 0.71561938524246216
0.76062732934951782 0.74627941846847534 0.7220308780670166
0.77000397443771362 0.75557559728622437 0.73103058338165283
0.78026860952377319 0.76601457595825195 0.74065375328063965
0.79203945398330688 0.77761423587799072 0.75112700462341309
0.8066449761390686 0.79247748851776123 0.76430737972259521
0.8248218297958374 0.81054055690765381 0.78055775165557861
0.34136030077934265 0.3203352689743042 0.32487356662750244
0.34250941872596741 0.32277539372444153 0.32722881436347961
0.34736037254333496 0.32896289229393005 0.33316859602928162
0.35553085803985596 0.33841598033905029 0.34286731481552124
0.36896634101867676 0.35344031453132629 0.35795658826828003
0.39131525158882141 0.37733566761016846 0.3817811906337738
0.42119988799095154 0.40937036275863647 0.41349786520004272
0.45179185271263123 0.4419923722743988 0.44551509618759155
0.4825732409954071 0.47406092286109924 0.47681844234466553
0.5146479606628418 0.50695246458053589 0.50854974985122681
0.55017709732055664 0.54286426305770874 0.54234820604324341
0.59308415651321411 0.58467984199523926 0.58085852861404419
0.64017415046691895 0.63060486316680908 0.62240874767303467
0.34236669540405273 0.32100996375083923 0.32550829648971558
0.3447592556476593 0.324535071849823 0.32895901799201965
0.35022249817848206 0.33190399408340454 0.33610638976097107
0.35897469520568848 0.34227484464645386 0.34649258852005005
0.37275967001914978 0.35761070251464844 0.36174967885017395
0.39393061399459839 0.38052400946617126 0.38461187481880188
0.42181047797203064 0.41056779026985168 0.41420093178749084
0.45229098200798035 0.44288602471351624 0.44607618451118469
0.4839329719543457 0.47588995099067688 0.47825649380683899
0.51739209890365601 0.51011025905609131 0.5108831524848938
0.55426311492919922 0.54722845554351807 0.54564541578292847
0.59640264511108398 0.58868354558944702 0.58380275964736938
0.64271301031112671 0.63344794511795044 0.62443357706069946
0.34910368919372559 0.32770109176635742 0.33196032047271729
0.35216635465621948 0.33247774839401245 0.33652317523956299
0.35827070474624634 0.34060132503509521 0.34463959932327271
0.36706066131591797 0.35122507810592651 0.35522326827049255
0.38030195236206055 0.36595237255096436 0.36997506022453308
0.39939430356025696 0.38682839274406433 0.39073985815048218
0.42446008324623108 0.41372716426849365 0.41734883189201355
0.45376372337341309 0.44471055269241333 0.44777137041091919
0.48574981093406677 0.47799003124237061 0.47984901070594788
0.5200200080871582 0.51334542036056519 0.5132480263710022
0.55786985158920288 0.55102300643920898 0.54887270927429199
0.60007625818252563 0.59242630004882812 0.58640873432159424
0.64526653289794922 0.63637065887451172 0.62644463777542114
0.3644828200340271 0.34454742074012756 0.34856972098350525
0.3674328625202179 0.34940120577812195 0.35318833589553833
0.37272697687149048 0.35648289322853088 0.36029103398323059
0.38041004538536072 0.36589276790618896 0.36982879042625427
0.39200368523597717 0.37921997904777527 0.38323763012886047
0.40867537260055542 0.39741876721382141 0.40142670273780823
0.4309060275554657 0.42102417349815369 0.42481523752212524
0.45786204934120178 0.44948911666870117 0.45243024826049805
0.48880463838577271 0.48147767782211304 0.48313286900520325
0.52323645353317261 0.51611202955245972 0.51606708765029907
0.56140834093093872 0.55381679534912109 0.55082350969314575
0.60281389951705933 0.59536957740783691 0.58860617876052856
0.64792591333389282 0.63893818855285645 0.62807518243789673
0.39007288217544556 0.37380304932594299 0.37675982713699341
0.39151087403297424 0.37631341814994812 0.37965372204780579
0.39418593049049377 0.38068452477455139 0.38432860374450684
0.39923661947250366 0.38706463575363159 0.39094185829162598
0.40843445062637329 0.39733326435089111 0.4015006422996521
0.42242962121963501 0.41205495595932007 0.41613325476646423
0.44137018918991089 0.43258455395698547 0.43644624948501587
0.46528473496437073 0.45738723874092102 0.46047443151473999
0.49367177486419678 0.48668515682220459 0.48830237984657288
