luts/instant_consumer/polaroid_px-680_cold_++_alt.cube
# Created by: G'MIC (https://gmic.eu)
TITLE "polaroid_px-680_cold_++_alt"
# LUT size
LUT_3D_SIZE 5
# Data domain
DOMAIN_MIN 0.0 0.0 0.0
DOMAIN_MAX 1.0 1.0 1.0
# LUT data points
0.1609659343957901 0.28203263878822327 0.31136378645896912
0.1853145956993103 0.28465431928634644 0.31372550129890442
0.33868473768234253 0.29014706611633301 0.31371867656707764
0.6356126070022583 0.33323889970779419 0.32542687654495239
0.87287479639053345 0.44625219702720642 0.35791367292404175
0.15584821999073029 0.31080642342567444 0.31613302230834961
0.20348113775253296 0.31009000539779663 0.3159431517124176
0.38633430004119873 0.33260846138000488 0.31559345126152039
0.64893245697021484 0.37950074672698975 0.32592529058456421
0.86682313680648804 0.48552632331848145 0.35917225480079651
0.14676250517368317 0.40577793121337891 0.32911136746406555
0.20903894305229187 0.40976083278656006 0.331033855676651
0.40257525444030762 0.44842678308486938 0.33304139971733093
0.66082435846328735 0.5072367787361145 0.33915308117866516
0.84834951162338257 0.56395286321640015 0.35560458898544312
0.15649349987506866 0.56634259223937988 0.35337173938751221
0.22926732897758484 0.56223130226135254 0.35557955503463745
0.41165420413017273 0.59979021549224854 0.37028294801712036
0.64902430772781372 0.66247457265853882 0.38948950171470642
0.83973968029022217 0.73976147174835205 0.42917510867118835
0.41204068064689636 0.80429178476333618 0.45329707860946655
0.45702186226844788 0.80479639768600464 0.45828929543495178
0.57331579923629761 0.8199608325958252 0.48870563507080078
0.72377842664718628 0.84952974319458008 0.53599739074707031
0.84510374069213867 0.88206833600997925 0.59590804576873779
0.16470588743686676 0.28521046042442322 0.32142090797424316
0.19005905091762543 0.28668379783630371 0.32376638054847717
0.35625383257865906 0.29054304957389832 0.3382667601108551
0.66580665111541748 0.34817731380462646 0.37441554665565491
0.87521076202392578 0.47701740264892578 0.4238622784614563
0.1668531745672226 0.31713950634002686 0.33759155869483948
0.23272816836833954 0.32365214824676514 0.34011548757553101
0.41614770889282227 0.34701913595199585 0.35318422317504883
0.67527240514755249 0.40565058588981628 0.38093703985214233
0.87171798944473267 0.51059871912002563 0.41884523630142212
0.21293750405311584 0.42556107044219971 0.36020419001579285
0.25604355335235596 0.42832636833190918 0.36021131277084351
0.43772804737091064 0.46579974889755249 0.36926376819610596
0.67841577529907227 0.51025217771530151 0.37837338447570801
0.85756266117095947 0.58172625303268433 0.40866988897323608
0.21186141669750214 0.57524484395980835 0.37749400734901428
0.27767711877822876 0.58093845844268799 0.38162717223167419
0.44067531824111938 0.61265760660171509 0.40033736824989319
0.66279822587966919 0.67266243696212769 0.4235406219959259
0.84665930271148682 0.74582397937774658 0.4679291844367981
0.42329892516136169 0.80640298128128052 0.46919268369674683
0.46912339329719543 0.80905932188034058 0.47613415122032166
0.58093047142028809 0.82448393106460571 0.50585639476776123
0.7250598669052124 0.85117155313491821 0.55203157663345337
0.84590798616409302 0.88294053077697754 0.61078304052352905
0.18285776674747467 0.29197579622268677 0.37852317094802856
0.25974223017692566 0.30391901731491089 0.38776275515556335
0.41705325245857239 0.34913694858551025 0.41393834352493286
0.64910781383514404 0.3488183319568634 0.45115646719932556
0.88269233703613281 0.44606494903564453 0.49847066402435303
0.17973542213439941 0.33642438054084778 0.40230336785316467
0.2831767201423645 0.35433605313301086 0.41619640588760376
0.46559402346611023 0.40375009179115295 0.43545344471931458
0.68192517757415771 0.41204908490180969 0.46852990984916687
0.88353848457336426 0.52580589056015015 0.51512265205383301
0.22277191281318665 0.43274059891700745 0.41487377882003784
0.3011736273765564 0.44434064626693726 0.42607712745666504
0.50844460725784302 0.49716028571128845 0.4602547287940979
0.71307915449142456 0.55526286363601685 0.49010583758354187
0.86961305141448975 0.65108495950698853 0.53524744510650635
0.32083931565284729 0.58989065885543823 0.44684082269668579
0.38370239734649658 0.60219490528106689 0.45398536324501038
0.50140440464019775 0.63423442840576172 0.46727642416954041
0.70234388113021851 0.69802951812744141 0.50832241773605347
0.85887271165847778 0.74560528993606567 0.53083294630050659
0.46808004379272461 0.81015455722808838 0.51755118370056152
0.49381047487258911 0.81175988912582397 0.51813006401062012
0.58865785598754883 0.82871395349502563 0.53683090209960938
0.73197430372238159 0.85544401407241821 0.58978545665740967
0.85448318719863892 0.8895263671875 0.65003949403762817
0.30313816666603088 0.33103480935096741 0.53446954488754272
0.40875312685966492 0.34853026270866394 0.54355508089065552
0.60358548164367676 0.43387144804000854 0.56433147192001343
0.73908787965774536 0.54825115203857422 0.58750659227371216
0.85622638463973999 0.54494363069534302 0.60955995321273804
0.29176867008209229 0.38022547960281372 0.55038601160049438
0.40463933348655701 0.39980152249336243 0.55547040700912476
0.61478704214096069 0.49169975519180298 0.57603448629379272
0.74779373407363892 0.59510904550552368 0.60044121742248535
0.85973066091537476 0.5942416787147522 0.62023603916168213
0.21268372237682343 0.48459622263908386 0.53523921966552734
0.32505661249160767 0.49011152982711792 0.54139584302902222
0.58549761772155762 0.55144453048706055 0.57955312728881836
0.75430774688720703 0.66561782360076904 0.61426317691802979
0.8658982515335083 0.67689347267150879 0.63495945930480957
0.29877933859825134 0.60723137855529785 0.53090715408325195
0.36525526642799377 0.6133573055267334 0.53613615036010742
0.53364449739456177 0.6477547287940979 0.561634361743927
0.74486780166625977 0.73177295923233032 0.61509972810745239
0.86996042728424072 0.78974473476409912 0.65889346599578857
0.37864804267883301 0.79531985521316528 0.56788778305053711
0.43506205081939697 0.79648596048355103 0.57221025228500366
0.59045600891113281 0.82551771402359009 0.60324901342391968
0.7397657036781311 0.86073839664459229 0.64546728134155273
0.86589908599853516 0.89905834197998047 0.71304655075073242
0.59318733215332031 0.50299513339996338 0.74352335929870605
0.65207690000534058 0.52851283550262451 0.74194300174713135
0.76042652130126953 0.61461150646209717 0.7408638596534729
0.83881556987762451 0.73971253633499146 0.74464207887649536
0.87031751871109009 0.78565877676010132 0.74662917852401733
0.57660812139511108 0.54297953844070435 0.74482327699661255
0.63992667198181152 0.56415760517120361 0.74231427907943726
0.75529336929321289 0.64948982000350952 0.74501663446426392
0.83663278818130493 0.7590215802192688 0.74955219030380249
0.87780839204788208 0.80677753686904907 0.75719422101974487
0.48160830140113831 0.61833393573760986 0.73491871356964111
0.55384987592697144 0.62082111835479736 0.73723441362380981
0.71460181474685669 0.67658931016921997 0.74492472410202026
0.83074074983596802 0.78571897745132446 0.7584415078163147
0.87608140707015991 0.83502054214477539 0.76812571287155151
0.28902995586395264 0.72324758768081665 0.71280241012573242
0.3588377833366394 0.7200390100479126 0.71374452114105225
0.54070663452148438 0.72438454627990723 0.72638344764709473
0.79030692577362061 0.79768520593643188 0.75729858875274658
0.8813897967338562 0.87672662734985352 0.7858625054359436
0.42984846234321594 0.85850632190704346 0.72766768932342529
0.46573832631111145 0.85723757743835449 0.72664862871170044
0.57142525911331177 0.86268943548202515 0.73593693971633911
0.71984201669692993 0.87475240230560303 0.75426572561264038
0.88154655694961548 0.91998779773712158 0.8115541934967041
