luts/instant_consumer/polaroid_px-100uv+_warm_--.cube
# Created by: G'MIC (https://gmic.eu)
TITLE "polaroid_px-100uv+_warm_--"
# LUT size
LUT_3D_SIZE 7
# Data domain
DOMAIN_MIN 0.0 0.0 0.0
DOMAIN_MAX 1.0 1.0 1.0
# LUT data points
0.011527356691658497 0.013325275853276253 0.024474095553159714
0.082124821841716766 0.075569421052932739 0.083166159689426422
0.24054829776287079 0.22181312739849091 0.2239624559879303
0.36430016160011292 0.34247326850891113 0.34255415201187134
0.46294763684272766 0.4406646192073822 0.43836280703544617
0.55275893211364746 0.53201949596405029 0.52483165264129639
0.64640313386917114 0.62933939695358276 0.61538451910018921
0.11531025171279907 0.10687696933746338 0.11287050694227219
0.15295657515525818 0.1398920863866806 0.14528849720954895
0.26099216938018799 0.24222484230995178 0.24323093891143799
0.37687665224075317 0.35609999299049377 0.35593345761299133
0.46726438403129578 0.44613808393478394 0.44427573680877686
0.55107051134109497 0.53138160705566406 0.52434909343719482
0.64076012372970581 0.62352871894836426 0.60983932018280029
0.29480823874473572 0.27653372287750244 0.27823325991630554
0.29935336112976074 0.279905766248703 0.28173360228538513
0.34872922301292419 0.32884269952774048 0.32869857549667358
0.42132395505905151 0.40141800045967102 0.40148040652275085
0.48428931832313538 0.46441465616226196 0.46309012174606323
0.55554062128067017 0.53667217493057251 0.52996182441711426
0.63860785961151123 0.62230032682418823 0.60857850313186646
0.43108555674552917 0.4115203320980072 0.41058516502380371
0.42064490914344788 0.40069633722305298 0.40022164583206177
0.43653413653373718 0.41687142848968506 0.41644689440727234
0.48213854432106018 0.46207994222640991 0.462108314037323
0.52653521299362183 0.50651842355728149 0.50489974021911621
0.58088785409927368 0.56217962503433228 0.55510938167572021
0.65367650985717773 0.63788378238677979 0.62352877855300903
0.51856917142868042 0.4998137354850769 0.49192163348197937
0.51702260971069336 0.49717280268669128 0.49078679084777832
0.52356332540512085 0.50348114967346191 0.49897468090057373
0.54902571439743042 0.52863782644271851 0.52579081058502197
0.58287233114242554 0.56275814771652222 0.55755656957626343
0.62829530239105225 0.60954701900482178 0.59919661283493042
0.70568346977233887 0.68922120332717896 0.67263740301132202
0.61766481399536133 0.60022187232971191 0.58388370275497437
0.62469160556793213 0.60656332969665527 0.59160327911376953
0.62356770038604736 0.60523515939712524 0.59176075458526611
0.63568520545959473 0.61727273464202881 0.60516560077667236
0.666545569896698 0.64928954839706421 0.63627910614013672
0.69729304313659668 0.68164891004562378 0.66593736410140991
0.77649670839309692 0.76204675436019897 0.74410825967788696
0.78443092107772827 0.77059042453765869 0.75073230266571045
0.7870713472366333 0.77325797080993652 0.75393718481063843
0.78197097778320312 0.76870185136795044 0.74880737066268921
0.78383982181549072 0.77007371187210083 0.74914759397506714
0.81829291582107544 0.8059079647064209 0.78786271810531616
0.84918934106826782 0.83861374855041504 0.82457077503204346
0.89377790689468384 0.88452208042144775 0.87337291240692139
0.15122462809085846 0.1389634907245636 0.14336389303207397
0.20870164036750793 0.19139412045478821 0.19361922144889832
0.31929108500480652 0.2992250919342041 0.29940655827522278
0.43159887194633484 0.40802013874053955 0.40788653492927551
0.5101628303527832 0.48641601204872131 0.48441925644874573
0.58214408159255981 0.56019002199172974 0.55318468809127808
0.66278350353240967 0.64375388622283936 0.63101601600646973
0.21750497817993164 0.20095059275627136 0.20239505171775818
0.26629948616027832 0.24605235457420349 0.24794608354568481
0.341962069272995 0.32246527075767517 0.32210856676101685
0.43730893731117249 0.41664978861808777 0.41679179668426514
0.50689697265625 0.4855542778968811 0.48347428441047668
0.57916700839996338 0.55869156122207642 0.55131369829177856
0.66241669654846191 0.64465713500976562 0.62950664758682251
0.36626544594764709 0.34377649426460266 0.34348070621490479
0.38226771354675293 0.36003032326698303 0.36004295945167542
0.40258127450942993 0.38288319110870361 0.38292619585990906
0.45618659257888794 0.43699455261230469 0.43742746114730835
0.51095104217529297 0.49198713898658752 0.4897516667842865
0.58031904697418213 0.56241786479949951 0.55307447910308838
0.66253572702407837 0.64647418260574341 0.62963175773620605
0.47992849349975586 0.46047645807266235 0.45857071876525879
0.46964427828788757 0.44976186752319336 0.44890233874320984
0.47605809569358826 0.45676976442337036 0.45603689551353455
0.50521558523178101 0.48615378141403198 0.48481282591819763
0.542796790599823 0.52430647611618042 0.51945036649703979
0.59680819511413574 0.57961636781692505 0.56812697649002075
0.67462319135665894 0.65945291519165039 0.64109688997268677
0.55277806520462036 0.53438878059387207 0.52632290124893188
0.54982072114944458 0.53023815155029297 0.5233272910118103
0.55149692296981812 0.53182780742645264 0.52587437629699707
0.56610476970672607 0.54663097858428955 0.54078632593154907
0.59088623523712158 0.57230657339096069 0.56228512525558472
0.63371843099594116 0.61688566207885742 0.6006273627281189
0.71789258718490601 0.70237857103347778 0.68163281679153442
0.63802200555801392 0.62154555320739746 0.6063351035118103
0.64133483171463013 0.62334960699081421 0.60788971185684204
0.64033007621765137 0.6223146915435791 0.60752230882644653
0.64603769779205322 0.62839317321777344 0.61340606212615967
0.67144083976745605 0.65525549650192261 0.63816022872924805
0.70354962348937988 0.68964082002639771 0.66852140426635742
0.78272503614425659 0.76945120096206665 0.74737167358398438
0.78669470548629761 0.77382248640060425 0.75506550073623657
0.79000186920166016 0.77617728710174561 0.75674772262573242
0.79512017965316772 0.78170090913772583 0.76196932792663574
0.79578572511672974 0.78315860033035278 0.76252102851867676
0.82171380519866943 0.81031298637390137 0.79107022285461426
0.85646897554397583 0.84715205430984497 0.83010363578796387
0.89180046319961548 0.88389748334884644 0.86801940202713013
0.34704041481018066 0.32710036635398865 0.32778653502464294
0.37440919876098633 0.35365897417068481 0.3538767397403717
0.40938127040863037 0.38870927691459656 0.38996809720993042
0.4728565514087677 0.45061245560646057 0.4502406120300293
0.54176127910614014 0.51946127414703369 0.51577180624008179
0.61580884456634521 0.59607613086700439 0.584739089012146
0.69567590951919556 0.67801141738891602 0.66096347570419312
0.36817258596420288 0.3476291298866272 0.34823441505432129
0.39633968472480774 0.37375181913375854 0.37511733174324036
0.42939713597297668 0.40629419684410095 0.40714246034622192
0.48655685782432556 0.4653087854385376 0.4648343026638031
0.54657602310180664 0.52642166614532471 0.5223391056060791
0.61586934328079224 0.59702271223068237 0.58541935682296753
0.69774645566940308 0.6805959939956665 0.66118383407592773
0.42150381207466125 0.39929163455963135 0.39923888444900513
0.44565662741661072 0.42534250020980835 0.42552706599235535
0.47768920660018921 0.45770213007926941 0.45776021480560303
0.51162636280059814 0.4924243688583374 0.49138408899307251
0.56005668640136719 0.54266107082366943 0.53689116239547729
0.62515246868133545 0.60926121473312378 0.59551894664764404
0.70551443099975586 0.69082087278366089 0.66969567537307739
0.51166188716888428 0.49176952242851257 0.49017322063446045
0.51854526996612549 0.49889814853668213 0.49835115671157837
0.53493952751159668 0.51574254035949707 0.51382720470428467
0.55079430341720581 0.53225046396255493 0.527446448802948
0.5826495885848999 0.56549113988876343 0.55576807260513306
0.63772648572921753 0.62202721834182739 0.60571295022964478
0.71741783618927002 0.70332396030426025 0.68132913112640381
0.59285068511962891 0.57324284315109253 0.56473392248153687
0.59329897165298462 0.57367515563964844 0.56514585018157959
0.59943073987960815 0.58010196685791016 0.57089442014694214
0.60412019491195679 0.58554261922836304 0.57343369722366333
0.61973291635513306 0.60267573595046997 0.58614295721054077
0.66232591867446899 0.64670819044113159 0.62621432542800903
0.74427556991577148 0.73007029294967651 0.70726281404495239
0.68125879764556885 0.66431665420532227 0.64899551868438721
0.67941045761108398 0.66155797243118286 0.64521795511245728
0.68143808841705322 0.66364759206771851 0.6462898850440979
0.68297439813613892 0.66638988256454468 0.64647018909454346
0.69250667095184326 0.67805927991867065 0.65583652257919312
0.72642076015472412 0.71410363912582397 0.69075584411621094
0.80143994092941284 0.7901763916015625 0.7685198187828064
0.811015784740448 0.7992551326751709 0.78253340721130371
0.81180548667907715 0.79891872406005859 0.78006017208099365
0.81847316026687622 0.80528736114501953 0.78581643104553223
0.81979584693908691 0.80776149034500122 0.78708833456039429
0.82995867729187012 0.81999623775482178 0.79962819814682007
0.86199289560317993 0.85456186532974243 0.83697509765625
0.90071088075637817 0.89540219306945801 0.87986195087432861
0.48104292154312134 0.46077990531921387 0.45758187770843506
0.49318376183509827 0.47370117902755737 0.47078707814216614
0.52243685722351074 0.50294786691665649 0.50067150592803955
0.5406261682510376 0.52094811201095581 0.51773840188980103
0.57090646028518677 0.55108773708343506 0.54329949617385864
0.64607501029968262 0.62728714942932129 0.61275124549865723
0.73671424388885498 0.72175395488739014 0.69948309659957886
0.49775293469429016 0.47639217972755432 0.47314375638961792
0.51347893476486206 0.49123656749725342 0.48933020234107971
0.53495901823043823 0.51515465974807739 0.51349681615829468
0.55646520853042603 0.53678232431411743 0.53229659795761108
0.58483242988586426 0.56555557250976562 0.55711144208908081
0.64887082576751709 0.63173842430114746 0.61535108089447021
0.73961663246154785 0.7244141697883606 0.70136809349060059
0.50877732038497925 0.48705065250396729 0.48404881358146667
0.52256554365158081 0.50139057636260986 0.5001368522644043
0.54899269342422485 0.52956563234329224 0.52715200185775757
0.56936949491500854 0.55028939247131348 0.54536920785903931
0.60532611608505249 0.58803099393844604 0.57869213819503784
0.67188692092895508 0.65673649311065674 0.63932770490646362
0.75728237628936768 0.74433022737503052 0.72123545408248901
0.54616361856460571 0.52555876970291138 0.52048361301422119
0.54899334907531738 0.52933752536773682 0.52646350860595703
0.57841205596923828 0.55920350551605225 0.55334115028381348
0.59960013628005981 0.58098596334457397 0.57117670774459839
0.6299748420715332 0.61280125379562378 0.59851753711700439
0.68917679786682129 0.67361736297607422 0.65486687421798706
0.77104538679122925 0.75806283950805664 0.73534917831420898
0.61602330207824707 0.59650063514709473 0.58462214469909668
0.62276285886764526 0.60349249839782715 0.59148317575454712
0.63980650901794434 0.62088900804519653 0.60673093795776367
0.65277373790740967 0.6347583532333374 0.61690616607666016
0.6646120548248291 0.64771395921707153 0.62698787450790405
0.70703756809234619 0.69154387712478638 0.66971737146377563
0.78173303604125977 0.76826745271682739 0.74636602401733398
0.71524345874786377 0.6990123987197876 0.68181741237640381
0.72147911787033081 0.70533275604248047 0.68621420860290527
0.73006844520568848 0.71331995725631714 0.69343143701553345
0.73519438505172729 0.71974474191665649 0.69676637649536133
0.72992753982543945 0.71628165245056152 0.6914132833480835
0.76251506805419922 0.75071364641189575 0.72784841060638428
0.82673722505569458 0.81590116024017334 0.79650622606277466
0.84768450260162354 0.83658653497695923 0.82104372978210449
0.85493552684783936 0.84332364797592163 0.82604074478149414
0.85941600799560547 0.84726852178573608 0.82998800277709961
0.85461831092834473 0.84392309188842773 0.82464802265167236
0.85175108909606934 0.84362983703613281 0.82340246438980103
0.87899720668792725 0.87303000688552856 0.85673457384109497
0.92330265045166016 0.91893994808197021 0.90670740604400635
0.58707636594772339 0.56615740060806274 0.55587297677993774
0.5965694785118103 0.577217698097229 0.56726109981536865
0.61218941211700439 0.5936850905418396 0.58352935314178467
0.63147664070129395 0.61310011148452759 0.60125905275344849
0.64134269952774048 0.62272769212722778 0.60831314325332642
0.66846746206283569 0.64950340986251831 0.63280677795410156
0.77372610569000244 0.75969111919403076 0.73842442035675049
0.59635639190673828 0.57466405630111694 0.56467717885971069
0.60678088665008545 0.58623260259628296 0.57684719562530518
0.62520813941955566 0.60662448406219482 0.59607410430908203
0.6471371054649353 0.62876933813095093 0.61443209648132324
0.6557842493057251 0.63827180862426758 0.62083184719085693
0.68296056985855103 0.66742640733718872 0.64643782377243042
0.78088873624801636 0.76832205057144165 0.74726665019989014
0.60225653648376465 0.58132928609848022 0.57199949026107788
0.61117136478424072 0.59140163660049438 0.5823940634727478
0.63146984577178955 0.61322373151779175 0.60241299867630005
0.65079820156097412 0.63293588161468506 0.6192283034324646
0.66735965013504028 0.65025633573532104 0.63282537460327148
0.7038576602935791 0.68832868337631226 0.66658210754394531
0.80333656072616577 0.79096215963363647 0.77029156684875488
0.61315131187438965 0.5935744047164917 0.5820431113243103
0.61926227807998657 0.60044091939926147 0.5886414647102356
0.63955032825469971 0.62166213989257812 0.60775965452194214
0.6635739803314209 0.64615428447723389 0.62986260652542114
0.6888279914855957 0.67176920175552368 0.65290480852127075
0.73537403345108032 0.71909439563751221 0.69935119152069092
0.82689809799194336 0.81495475769042969 0.79617160558700562
0.6451154351234436 0.62747734785079956 0.61034113168716431
0.65711617469787598 0.63917654752731323 0.62032824754714966
0.67118394374847412 0.65370500087738037 0.63300728797912598
0.69574397802352905 0.67861062288284302 0.65799301862716675
0.71994614601135254 0.70347964763641357 0.68217253684997559
0.7689054012298584 0.75430083274841309 0.73422724008560181
0.8434416651725769 0.83322823047637939 0.8147551417350769
0.73669135570526123 0.72282689809799194 0.70238399505615234
0.75021743774414062 0.73608899116516113 0.71308809518814087
0.75765836238861084 0.74242496490478516 0.72047024965286255
0.7782059907913208 0.7633705735206604 0.74181705713272095
0.78801071643829346 0.77525687217712402 0.75223839282989502
0.82200890779495239 0.81181317567825317 0.79120737314224243
0.87612044811248779 0.86876398324966431 0.85203456878662109
0.88082557916641235 0.87166035175323486 0.85767793655395508
0.88938075304031372 0.88070571422576904 0.86402589082717896
0.89313781261444092 0.88338428735733032 0.86867272853851318
0.89605152606964111 0.88724654912948608 0.87209463119506836
0.9025425910949707 0.89626818895339966 0.88047361373901367
0.91522085666656494 0.91103458404541016 0.89760679006576538
0.94534409046173096 0.9424254298210144 0.93248426914215088
0.71361047029495239 0.69486540555953979 0.67953413724899292
0.72452521324157715 0.708770751953125 0.69368058443069458
0.73234444856643677 0.71831423044204712 0.70273905992507935
0.74661833047866821 0.73289769887924194 0.71617180109024048
0.76982748508453369 0.75670462846755981 0.73814958333969116
0.78179162740707397 0.76934230327606201 0.74850690364837646
0.80691665410995483 0.7936561107635498 0.77220112085342407
0.72009390592575073 0.70101428031921387 0.68588149547576904
0.72972768545150757 0.71310728788375854 0.69794172048568726
0.7426643967628479 0.72834950685501099 0.71220517158508301
0.76072132587432861 0.74761867523193359 0.72922265529632568
0.78123646974563599 0.76983988285064697 0.7480660080909729
0.78825241327285767 0.77779191732406616 0.75396287441253662
0.81409502029418945 0.80212002992630005 0.78176730871200562
0.72799521684646606 0.71037006378173828 0.69607490301132202
0.73395842313766479 0.71803158521652222 0.70311671495437622
0.74755555391311646 0.73334264755249023 0.71702545881271362
0.76830792427062988 0.75562828779220581 0.73708277940750122
0.79168319702148438 0.78042232990264893 0.75818914175033569
0.79663360118865967 0.78535109758377075 0.76162898540496826
0.83035397529602051 0.81814932823181152 0.7967829704284668
0.732616126537323 0.71671313047409058 0.70118755102157593
0.73622113466262817 0.72138720750808716 0.70448952913284302
0.74732321500778198 0.73377090692520142 0.71544355154037476
0.77167773246765137 0.75932955741882324 0.73984360694885254
0.80359435081481934 0.79252815246582031 0.77178609371185303
0.81719070672988892 0.80599993467330933 0.78633254766464233
0.85426896810531616 0.84346902370452881 0.82516533136367798
0.74259465932846069 0.72853392362594604 0.70964783430099487
0.74898314476013184 0.73442995548248291 0.71401840448379517
0.75375962257385254 0.73994117975234985 0.71897447109222412
0.77657449245452881 0.76400721073150635 0.74386554956436157
0.81702858209609985 0.80604201555252075 0.78588390350341797
0.84621113538742065 0.83669662475585938 0.81796455383300781
0.88768088817596436 0.88179433345794678 0.86481714248657227
0.78440707921981812 0.77310794591903687 0.75142121315002441
0.78703612089157104 0.77212989330291748 0.75186550617218018
0.80213874578475952 0.78931146860122681 0.76990038156509399
0.81826901435852051 0.80589067935943604 0.78787112236022949
0.84601598978042603 0.83489894866943359 0.8151898980140686
0.88567268848419189 0.87924891710281372 0.86220479011535645
0.92094391584396362 0.91777735948562622 0.90429496765136719
0.89321243762969971 0.88599228858947754 0.87220591306686401
0.90250027179718018 0.8951297402381897 0.88085532188415527
0.90569448471069336 0.89820969104766846 0.88529747724533081
0.91244584321975708 0.9064096212387085 0.89392995834350586
0.93336272239685059 0.92950308322906494 0.91772472858428955
0.94851493835449219 0.94646847248077393 0.93714118003845215
0.96302205324172974 0.96167260408401489 0.95426470041275024
0.87741267681121826 0.86729127168655396 0.85403841733932495
0.88062626123428345 0.87273025512695312 0.85928225517272949
0.88299494981765747 0.87781107425689697 0.86473596096038818
0.88986068964004517 0.88329976797103882 0.87145179510116577
0.91005432605743408 0.90272271633148193 0.89191544055938721
0.93503552675247192 0.9298061728477478 0.91628211736679077
0.93205374479293823 0.92753654718399048 0.91045665740966797
0.87658298015594482 0.86510354280471802 0.85126739740371704
0.88190847635269165 0.87223905324935913 0.85792797803878784
0.88603413105010986 0.87888997793197632 0.86538839340209961
0.89441746473312378 0.88793450593948364 0.87528449296951294
0.91059350967407227 0.90519678592681885 0.89377743005752563
0.93657249212265015 0.93155771493911743 0.91999596357345581
0.93704366683959961 0.93066173791885376 0.91923904418945312
0.88172405958175659 0.87081575393676758 0.85750198364257812
0.88301968574523926 0.8746039867401123 0.86074244976043701
0.88804489374160767 0.88058114051818848 0.8667525053024292
0.89864790439605713 0.89246410131454468 0.87909400463104248
0.91499429941177368 0.9095953106880188 0.89739692211151123
0.93623882532119751 0.93179088830947876 0.9211122989654541
0.93829208612442017 0.93171787261962891 0.92175227403640747
0.88966852426528931 0.88017505407333374 0.8669472336769104
0.88775891065597534 0.88014227151870728 0.86561256647109985
0.89010989665985107 0.88338392972946167 0.86878669261932373
0.90382719039916992 0.89815282821655273 0.88407039642333984
0.92443287372589111 0.91947871446609497 0.90706777572631836
0.94240862131118774 0.93881195783615112 0.92981636524200439
0.9465949535369873 0.94218260049819946 0.93356984853744507
0.89497500658035278 0.88749611377716064 0.87436223030090332
0.89648425579071045 0.88970804214477539 0.87498944997787476
0.89579373598098755 0.88963514566421509 0.87508857250213623
0.90966594219207764 0.90448850393295288 0.89055311679840088
0.93511849641799927 0.93200069665908813 0.91918277740478516
0.95157337188720703 0.949016273021698 0.94029718637466431
0.95293503999710083 0.95020365715026855 0.94245880842208862
0.90782672166824341 0.90178775787353516 0.89014655351638794
0.90800994634628296 0.90132230520248413 0.88830780982971191
0.91196370124816895 0.90591967105865479 0.89400148391723633
0.92285412549972534 0.91758692264556885 0.90669572353363037
0.93463391065597534 0.93186527490615845 0.92042028903961182
0.95026415586471558 0.94930261373519897 0.94068586826324463
0.95940506458282471 0.95852857828140259 0.95181822776794434
0.93445813655853271 0.93174654245376587 0.9216078519821167
0.93594735860824585 0.92921179533004761 0.92049723863601685
0.94136792421340942 0.93558049201965332 0.92746627330780029
0.94617378711700439 0.94446587562561035 0.93580895662307739
0.96126747131347656 0.96156543493270874 0.95427674055099487
0.97298067808151245 0.97339838743209839 0.96905636787414551
0.97869133949279785 0.97825360298156738 0.97563326358795166
