luts/instant_consumer/polaroid_px-70_cold_++.cube
# Created by: G'MIC (https://gmic.eu)
TITLE "polaroid_px-70_cold_++"
# LUT size
LUT_3D_SIZE 7
# Data domain
DOMAIN_MIN 0.0 0.0 0.0
DOMAIN_MAX 1.0 1.0 1.0
# LUT data points
0.00014020134403835982 0.39505746960639954 0.44705882668495178
0.0039215688593685627 0.38854005932807922 0.44359895586967468
0.038293428719043732 0.38560047745704651 0.44313725829124451
0.23379305005073547 0.39332106709480286 0.44705882668495178
0.46320727467536926 0.40842974185943604 0.45098039507865906
0.70608937740325928 0.46552643179893494 0.45487865805625916
0.87615042924880981 0.55918234586715698 0.4697214663028717
0.00021900850697420537 0.39612704515457153 0.44705882668495178
0.0031012741383165121 0.393474280834198 0.44423860311508179
0.054598670452833176 0.39061841368675232 0.44317027926445007
0.25305911898612976 0.40362173318862915 0.44705882668495178
0.48194515705108643 0.43347558379173279 0.45104923844337463
0.7113112211227417 0.49536749720573425 0.45306029915809631
0.87394225597381592 0.5865710973739624 0.46790006756782532
0.0013749216450378299 0.42693570256233215 0.44705882668495178
0.0038682825397700071 0.43030127882957458 0.44705882668495178
0.095362640917301178 0.43349069356918335 0.44705882668495178
0.31154432892799377 0.45649740099906921 0.44522640109062195
0.50931203365325928 0.48868733644485474 0.44318884611129761
0.71207481622695923 0.55303376913070679 0.44576552510261536
0.8599933385848999 0.62498795986175537 0.46022477746009827
0.00056873395806178451 0.53096354007720947 0.44987392425537109
0.0043696383945643902 0.534309983253479 0.45217534899711609
0.080215930938720703 0.54329615831375122 0.45118468999862671
0.33414223790168762 0.56359875202178955 0.44807416200637817
0.54460948705673218 0.60073316097259521 0.4434637725353241
0.72009259462356567 0.6442839503288269 0.44768837094306946
0.83986693620681763 0.68293344974517822 0.46270182728767395
0.000535059894900769 0.69725275039672852 0.46937936544418335
0.0044928006827831268 0.68932735919952393 0.470878005027771
0.13339461386203766 0.69262212514877319 0.47193917632102966
0.37327420711517334 0.70863085985183716 0.46983978152275085
0.55777180194854736 0.72228127717971802 0.4680364727973938
0.71403390169143677 0.75321388244628906 0.47197163105010986
0.83542823791503906 0.77458292245864868 0.48478895425796509
0.17636200785636902 0.83214747905731201 0.5050961971282959
0.21595272421836853 0.82504022121429443 0.50559741258621216
0.32841166853904724 0.82007795572280884 0.51091843843460083
0.46332570910453796 0.82657945156097412 0.51109778881072998
0.60689032077789307 0.83486831188201904 0.51530516147613525
0.7340778112411499 0.84528803825378418 0.5202711820602417
0.83807605504989624 0.85006099939346313 0.53240269422531128
0.62022459506988525 0.89862185716629028 0.56532394886016846
0.61740481853485107 0.89703649282455444 0.56412547826766968
0.64378905296325684 0.89460444450378418 0.56651836633682251
0.69310188293457031 0.89106345176696777 0.56797176599502563
0.74933600425720215 0.89412134885787964 0.57252579927444458
0.80743533372879028 0.89718544483184814 0.57612878084182739
0.86060082912445068 0.895668625831604 0.5828481912612915
0.0016077079344540834 0.38896477222442627 0.44846814870834351
0.0039215688593685627 0.38818472623825073 0.44737747311592102
0.034840870648622513 0.38518548011779785 0.44618284702301025
0.23807205259799957 0.39185330271720886 0.44974437355995178
0.47559010982513428 0.41364270448684692 0.45457905530929565
0.71160304546356201 0.47895044088363647 0.46224549412727356
0.87391465902328491 0.56972223520278931 0.47991153597831726
0.00027268353733234107 0.39421564340591431 0.4476715624332428
0.0039478973485529423 0.39286947250366211 0.44767546653747559
0.071542821824550629 0.39375486969947815 0.44826081395149231
0.27697649598121643 0.41299524903297424 0.45180100202560425
0.49991309642791748 0.44552338123321533 0.45868882536888123
0.72701573371887207 0.51034688949584961 0.46448987722396851
0.87540698051452637 0.59601116180419922 0.48506167531013489
0.00084129784954711795 0.42643684148788452 0.45168426632881165
0.0060984441079199314 0.43369802832603455 0.45347362756729126
0.11592522263526917 0.44222226738929749 0.45260325074195862
0.32846793532371521 0.46235665678977966 0.45162969827651978
0.52573347091674805 0.49955287575721741 0.45526555180549622
0.72616982460021973 0.56393814086914062 0.46184170246124268
0.86514955759048462 0.63725930452346802 0.48261147737503052
0.00094374112086370587 0.54315173625946045 0.46436473727226257
0.0039305444806814194 0.54288673400878906 0.46466484665870667
0.11583627760410309 0.55214905738830566 0.46404853463172913
0.35243383049964905 0.58075034618377686 0.46511545777320862
0.55487155914306641 0.60969644784927368 0.46241235733032227
0.72589987516403198 0.65006172657012939 0.465719074010849
0.84934824705123901 0.69159650802612305 0.47912132740020752
0.0015007468173280358 0.69882738590240479 0.4822099506855011
0.0022334379609674215 0.69541770219802856 0.48316806554794312
0.18192219734191895 0.69976890087127686 0.48653370141983032
0.39296874403953552 0.71333557367324829 0.49008485674858093
0.57547932863235474 0.73341846466064453 0.48701798915863037
0.73053348064422607 0.76118755340576172 0.48583784699440002
0.83662837743759155 0.77308851480484009 0.49975976347923279
0.22887860238552094 0.83442085981369019 0.51594793796539307
0.26261875033378601 0.82820028066635132 0.51505523920059204
0.36634081602096558 0.82178622484207153 0.52108770608901978
0.49014222621917725 0.83097809553146362 0.52536934614181519
0.61373543739318848 0.83894616365432739 0.52649366855621338
0.73540610074996948 0.84412890672683716 0.52697646617889404
0.83778959512710571 0.84938269853591919 0.5421520471572876
0.6306997537612915 0.89857596158981323 0.56887936592102051
0.63119232654571533 0.89614605903625488 0.56804275512695312
0.65470927953720093 0.89422082901000977 0.56961286067962646
0.69861084222793579 0.89354944229125977 0.57402831315994263
0.75539779663085938 0.89678889513015747 0.57756727933883667
0.79929172992706299 0.89264506101608276 0.57662510871887207
0.86089694499969482 0.8950764536857605 0.58548402786254883
0.0031055526342242956 0.38729286193847656 0.45955881476402283
0.0078431377187371254 0.38823530077934265 0.45874398946762085
0.050644084811210632 0.38839444518089294 0.45704585313796997
0.23106890916824341 0.39421513676643372 0.46513345837593079
0.48665472865104675 0.39679607748985291 0.47821205854415894
0.74080199003219604 0.45284754037857056 0.4980471134185791
0.87805008888244629 0.5850902795791626 0.52872657775878906
0.0012706981506198645 0.39017370343208313 0.45884245634078979
0.0059352051466703415 0.39364197850227356 0.46081444621086121
0.086915202438831329 0.39836180210113525 0.4616972804069519
0.27920940518379211 0.41048601269721985 0.47151154279708862
0.52580910921096802 0.42950823903083801 0.48438793420791626
0.74216049909591675 0.51182317733764648 0.50851631164550781
0.87365639209747314 0.62630158662796021 0.53539085388183594
0.00016395718557760119 0.43446347117424011 0.46851766109466553
0.0026142194401472807 0.44036227464675903 0.47245362401008606
0.16332116723060608 0.45031458139419556 0.47805288434028625
0.34949564933776855 0.47206953167915344 0.48223519325256348
0.55800461769104004 0.51461911201477051 0.49422398209571838
0.74785512685775757 0.5921817421913147 0.51286500692367554
0.86400014162063599 0.66630810499191284 0.53160828351974487
0.0015284370165318251 0.56026995182037354 0.49451372027397156
0.033803422003984451 0.55495309829711914 0.49259191751480103
0.20246540009975433 0.56438004970550537 0.49478095769882202
0.38384202122688293 0.58414340019226074 0.49722641706466675
0.5736382007598877 0.61392116546630859 0.49879878759384155
0.73993736505508423 0.66406446695327759 0.50494801998138428
0.85545456409454346 0.71360009908676147 0.52264547348022461
0.080999098718166351 0.71230506896972656 0.51586264371871948
0.11578331887722015 0.70699220895767212 0.51234441995620728
0.25648343563079834 0.70813971757888794 0.5134655237197876
0.41407284140586853 0.72014433145523071 0.51590853929519653
0.58109337091445923 0.74156862497329712 0.51544135808944702
0.73584145307540894 0.75903308391571045 0.52117419242858887
0.84195691347122192 0.77338129281997681 0.52358704805374146
0.31218239665031433 0.83767688274383545 0.53554725646972656
0.33563512563705444 0.83072209358215332 0.53476864099502563
0.41186511516571045 0.82877320051193237 0.53904670476913452
0.52425336837768555 0.83334773778915405 0.54175287485122681
0.63261717557907104 0.84422028064727783 0.54591125249862671
0.74812418222427368 0.84571903944015503 0.55040895938873291
0.84283065795898438 0.8494337797164917 0.55510550737380981
0.65064412355422974 0.89760231971740723 0.57505375146865845
0.65271735191345215 0.89416134357452393 0.57487970590591431
0.67809200286865234 0.89423871040344238 0.57675844430923462
0.71848040819168091 0.89496052265167236 0.57957750558853149
0.76611942052841187 0.89617842435836792 0.58362448215484619
0.81609457731246948 0.89288020133972168 0.58515733480453491
0.86182236671447754 0.89362311363220215 0.58915376663208008
0.0031325845047831535 0.39344242215156555 0.50101125240325928
0.0042375004850327969 0.39487981796264648 0.49695980548858643
0.15431728959083557 0.40310665965080261 0.49602559208869934
0.2871280312538147 0.41974005103111267 0.50163298845291138
0.47785142064094543 0.42640483379364014 0.52204900979995728
0.73043322563171387 0.45883458852767944 0.55196076631546021
0.88649928569793701 0.54243618249893188 0.56144672632217407
0.00028753842343576252 0.40179169178009033 0.50002795457839966
0.023679725825786591 0.40399006009101868 0.50046372413635254
0.19041353464126587 0.42263859510421753 0.50632482767105103
0.32715606689453125 0.44368252158164978 0.51296770572662354
0.50874334573745728 0.45819962024688721 0.53176784515380859
0.74057281017303467 0.50183546543121338 0.5549623966217041
0.88416844606399536 0.59095543622970581 0.56752949953079224
0.00053220265544950962 0.46298429369926453 0.51543760299682617
0.010415485128760338 0.46262991428375244 0.51941478252410889
0.22067627310752869 0.47724935412406921 0.52505254745483398
0.38209864497184753 0.51094704866409302 0.5319366455078125
0.55797094106674194 0.53193098306655884 0.54539370536804199
0.76017475128173828 0.59000688791275024 0.56087160110473633
0.86962652206420898 0.68532168865203857 0.57300186157226562
0.0021004022564738989 0.56658565998077393 0.53030335903167725
0.03660665825009346 0.56692725419998169 0.53261804580688477
0.24956344068050385 0.58209973573684692 0.53910529613494873
0.42588847875595093 0.59948956966400146 0.54570204019546509
0.60852301120758057 0.64478069543838501 0.55335646867752075
0.75740975141525269 0.70158761739730835 0.56098353862762451
0.85624843835830688 0.75414669513702393 0.56756842136383057
0.17137975990772247 0.71999692916870117 0.55126714706420898
0.24397596716880798 0.71531194448471069 0.5510784387588501
0.35217612981796265 0.72526735067367554 0.55188935995101929
0.47307810187339783 0.73537057638168335 0.55332076549530029
0.61197578907012939 0.75268673896789551 0.55458950996398926
0.75059372186660767 0.7638012170791626 0.55297791957855225
0.84476977586746216 0.79461956024169922 0.55887454748153687
0.43584907054901123 0.83842378854751587 0.56511479616165161
0.45525050163269043 0.83845615386962891 0.56349432468414307
0.49667680263519287 0.83720678091049194 0.56293958425521851
0.57850068807601929 0.83975076675415039 0.56474894285202026
0.67005330324172974 0.84494447708129883 0.56952053308486938
0.76398879289627075 0.84912252426147461 0.57001572847366333
0.8492012619972229 0.85354810953140259 0.57307064533233643
0.68959540128707886 0.89751148223876953 0.5869978666305542
0.68885642290115356 0.89372998476028442 0.58541297912597656
0.70417159795761108 0.89431816339492798 0.58409315347671509
0.74406713247299194 0.89369332790374756 0.58727431297302246
0.78102785348892212 0.89367169141769409 0.58929437398910522
0.82821005582809448 0.8930848240852356 0.59250336885452271
0.87231075763702393 0.89484673738479614 0.5983765721321106
0.0039161681197583675 0.41126587986946106 0.57128387689590454
0.072844095528125763 0.41241699457168579 0.56764161586761475
0.29700455069541931 0.43081420660018921 0.56790494918823242
0.45973142981529236 0.47997948527336121 0.57157015800476074
0.58978813886642456 0.53765773773193359 0.5776599645614624
0.72436797618865967 0.54035121202468872 0.5939212441444397
0.86816787719726562 0.59111547470092773 0.60144698619842529
0.036536857485771179 0.42196595668792725 0.57359534502029419
0.16741690039634705 0.43101328611373901 0.57162445783615112
0.32793757319450378 0.45707684755325317 0.57372772693634033
0.48996880650520325 0.51936972141265869 0.57924395799636841
0.60716491937637329 0.57339596748352051 0.58363211154937744
0.73595374822616577 0.57551378011703491 0.59538894891738892
0.86693423986434937 0.622161865234375 0.60115355253219604
0.013413837179541588 0.50106984376907349 0.5812717080116272
0.13247507810592651 0.49994164705276489 0.58373290300369263
0.33463487029075623 0.52295857667922974 0.58513873815536499
0.51920032501220703 0.58199888467788696 0.58846616744995117
0.63459628820419312 0.64713478088378906 0.58918541669845581
0.74305254220962524 0.64479446411132812 0.59403812885284424
0.86264312267303467 0.68756860494613647 0.59726053476333618
0.0027376061771064997 0.61527341604232788 0.58413231372833252
0.041315983980894089 0.60555416345596313 0.58264684677124023
0.28374963998794556 0.61334025859832764 0.58620184659957886
0.50807672739028931 0.65104275941848755 0.59153032302856445
0.64888995885848999 0.70962262153625488 0.58945238590240479
0.75884765386581421 0.72059917449951172 0.59316104650497437
0.85508525371551514 0.77048754692077637 0.59481537342071533
0.18449924886226654 0.73353183269500732 0.58396792411804199
0.24684880673885345 0.73232275247573853 0.58229541778564453
0.36148080229759216 0.73304945230484009 0.5824396014213562
0.50792467594146729 0.74599736928939819 0.58664560317993164
0.65335386991500854 0.77082687616348267 0.58768624067306519
0.7707972526550293 0.79522770643234253 0.58619540929794312
0.85484504699707031 0.82856094837188721 0.59061127901077271
0.4475039541721344 0.84446120262145996 0.58378893136978149
0.46310350298881531 0.83703988790512085 0.58241409063339233
0.52803885936737061 0.83656996488571167 0.58444678783416748
0.62613564729690552 0.84427183866500854 0.5848851203918457
0.71378064155578613 0.84587341547012329 0.58595424890518188
0.79150861501693726 0.85350757837295532 0.58874952793121338
0.86190366744995117 0.86189043521881104 0.58974575996398926
0.70517122745513916 0.89424020051956177 0.5942569375038147
0.71272623538970947 0.89502584934234619 0.59436661005020142
0.73646628856658936 0.89202475547790527 0.59423476457595825
0.76933431625366211 0.89358866214752197 0.59516185522079468
0.80426609516143799 0.89389216899871826 0.59721070528030396
0.84251052141189575 0.89344829320907593 0.6019665002822876
0.87929636240005493 0.89519941806793213 0.60342055559158325
0.29083824157714844 0.46572425961494446 0.63749116659164429
0.37838155031204224 0.47457823157310486 0.63506680727005005
0.51134204864501953 0.51001536846160889 0.63186246156692505
0.64277899265289307 0.57360565662384033 0.6301264762878418
0.73598825931549072 0.68674278259277344 0.61790591478347778
0.79361289739608765 0.72174072265625 0.61323875188827515
0.85157352685928345 0.7135663628578186 0.61492919921875
0.32730138301849365 0.49555805325508118 0.63627642393112183
0.3982105553150177 0.50710159540176392 0.63344919681549072
0.51727616786956787 0.54219681024551392 0.63063639402389526
0.65044325590133667 0.61164170503616333 0.62769150733947754
0.74257582426071167 0.71511495113372803 0.6159176230430603
0.79760086536407471 0.74658513069152832 0.61205476522445679
0.85198748111724854 0.73884314298629761 0.61271458864212036
0.29502469301223755 0.56708604097366333 0.63460886478424072
0.3631058931350708 0.57074236869812012 0.63290250301361084
0.49989289045333862 0.60199368000030518 0.62878018617630005
0.64750397205352783 0.66700202226638794 0.62436723709106445
0.74256163835525513 0.75442337989807129 0.61325240135192871
0.80125969648361206 0.78273546695709229 0.60805028676986694
0.85468405485153198 0.77817738056182861 0.6101568341255188
0.15489406883716583 0.66987603902816772 0.62360042333602905
0.27283558249473572 0.67036598920822144 0.62353897094726562
0.4304707944393158 0.67335432767868042 0.62211012840270996
0.61724793910980225 0.71645480394363403 0.6184503436088562
0.744426429271698 0.7866252064704895 0.61143070459365845
0.80149704217910767 0.81408083438873291 0.60563957691192627
0.85222440958023071 0.81193715333938599 0.60787397623062134
0.2472890168428421 0.76261907815933228 0.61230927705764771
0.29118365049362183 0.7613823413848877 0.6111903190612793
0.39277762174606323 0.75990289449691772 0.61130416393280029
0.53912985324859619 0.76851963996887207 0.60982280969619751
0.7149730920791626 0.80678147077560425 0.60831612348556519
0.81520026922225952 0.84417730569839478 0.60624641180038452
0.86296719312667847 0.8471037745475769 0.60733956098556519
0.47050824761390686 0.84878456592559814 0.60311883687973022
0.49269920587539673 0.84747052192687988 0.6008683443069458
0.54971331357955933 0.84672302007675171 0.60308951139450073
0.63898533582687378 0.84820252656936646 0.60305237770080566
0.7360156774520874 0.85483616590499878 0.60430502891540527
0.81620460748672485 0.86582618951797485 0.60615706443786621
0.87623965740203857 0.87582981586456299 0.60569506883621216
0.71071541309356689 0.89740884304046631 0.60372698307037354
0.71925872564315796 0.89731532335281372 0.60363578796386719
0.74324274063110352 0.89601844549179077 0.60484403371810913
0.78029471635818481 0.89461439847946167 0.60710686445236206
0.82142478227615356 0.89668357372283936 0.60843700170516968
0.85557061433792114 0.89643228054046631 0.61135715246200562
0.88805508613586426 0.89981144666671753 0.61357766389846802
0.58058661222457886 0.6345517635345459 0.65498596429824829
0.61458033323287964 0.6453666090965271 0.65469002723693848
0.6770511269569397 0.68097305297851562 0.6482168436050415
0.74953645467758179 0.74068170785903931 0.63893997669219971
0.81025159358978271 0.7986149787902832 0.62707090377807617
0.8542780876159668 0.84550535678863525 0.61935579776763916
0.87528926134109497 0.84619367122650146 0.61895656585693359
0.58924424648284912 0.66584670543670654 0.65360009670257568
0.6186143159866333 0.67487448453903198 0.65069711208343506
0.67885822057723999 0.70564204454421997 0.64475226402282715
0.75382691621780396 0.75845795869827271 0.6344408392906189
0.81417572498321533 0.81193554401397705 0.6264345645904541
0.85516512393951416 0.84784245491027832 0.6215507984161377
0.87709891796112061 0.8526310920715332 0.61960786581039429
0.57948470115661621 0.70966798067092896 0.64654636383056641
0.60853344202041626 0.71420872211456299 0.64459288120269775
0.6704251766204834 0.73745167255401611 0.6396414041519165
0.75388842821121216 0.78435426950454712 0.63248997926712036
0.81849390268325806 0.82910215854644775 0.62456035614013672
0.85611641407012939 0.85748624801635742 0.61980640888214111
0.87560665607452393 0.86082100868225098 0.61813491582870483
0.5476611852645874 0.76120859384536743 0.63920623064041138
0.57544821500778198 0.76402568817138672 0.6382375955581665
0.64435619115829468 0.77379214763641357 0.63694614171981812
0.73645657300949097 0.80614578723907471 0.6291164755821228
0.81159728765487671 0.84100073575973511 0.62234753370285034
0.85916233062744141 0.86848753690719604 0.61949604749679565
0.87944763898849487 0.87416088581085205 0.61821383237838745
0.44345846772193909 0.80557852983474731 0.63273888826370239
0.47612836956977844 0.80427807569503784 0.63217151165008545
0.55645382404327393 0.80885124206542969 0.63175052404403687
0.68352121114730835 0.82323962450027466 0.62777912616729736
0.78951758146286011 0.85036790370941162 0.62192225456237793
0.85916709899902344 0.87573486566543579 0.61974465847015381
0.88551515340805054 0.88410836458206177 0.6205296516418457
0.60203516483306885 0.86715686321258545 0.62326103448867798
0.60892444849014282 0.86398649215698242 0.62278592586517334
0.64148116111755371 0.86447489261627197 0.62186020612716675
0.69610249996185303 0.86405634880065918 0.62147241830825806
0.76118201017379761 0.86573880910873413 0.62004786729812622
0.85034281015396118 0.8834456205368042 0.61980676651000977
0.88671755790710449 0.89329856634140015 0.62120097875595093
0.75696736574172974 0.90335613489151001 0.61887252330780029
0.76228666305541992 0.90136128664016724 0.61932510137557983
0.77610480785369873 0.90123856067657471 0.61920374631881714
0.80570662021636963 0.89858227968215942 0.62007635831832886
0.8350149393081665 0.89739251136779785 0.61959922313690186
0.86741739511489868 0.8999595046043396 0.62080621719360352
0.89724445343017578 0.90401744842529297 0.62364393472671509
