luts/instant_consumer/polaroid_px-70_cold_+.cube
# Created by: G'MIC (https://gmic.eu)
TITLE "polaroid_px-70_cold_+"
# LUT size
LUT_3D_SIZE 13
# Data domain
DOMAIN_MIN 0.0 0.0 0.0
DOMAIN_MAX 1.0 1.0 1.0
# LUT data points
0 0.23137255012989044 0.31764706969261169
0 0.23137255012989044 0.31750762462615967
0.0022616966161876917 0.23129358887672424 0.31627035140991211
0.0047589768655598164 0.22909972071647644 0.31488323211669922
0.0078707672655582428 0.22716030478477478 0.3137628436088562
0.026537412777543068 0.22516931593418121 0.31372550129890442
0.17936556041240692 0.23406949639320374 0.31535273790359497
0.37748822569847107 0.24645987153053284 0.31593418121337891
0.56631195545196533 0.2679499089717865 0.31506550312042236
0.72559821605682373 0.31001368165016174 0.3125188946723938
0.85360419750213623 0.38362985849380493 0.31027436256408691
0.9359438419342041 0.45868948101997375 0.31852322816848755
0.97975647449493408 0.52285164594650269 0.3362160325050354
0 0.23137255012989044 0.31704962253570557
0 0.23056825995445251 0.3165772557258606
0.001446263981051743 0.22933401167392731 0.31554189324378967
0.0039023156277835369 0.23159529268741608 0.31440308690071106
0.0046736025251448154 0.23137706518173218 0.31372550129890442
0.039009828120470047 0.23246173560619354 0.31378832459449768
0.2134784460067749 0.24625711143016815 0.31547719240188599
0.40245893597602844 0.26090538501739502 0.31540665030479431
0.57618695497512817 0.28687372803688049 0.31446999311447144
0.73228657245635986 0.33411818742752075 0.31150063872337341
0.85451114177703857 0.40244501829147339 0.31092768907546997
0.93890804052352905 0.48076257109642029 0.31962531805038452
0.98013997077941895 0.53957027196884155 0.33751758933067322
0 0.2334848940372467 0.31548956036567688
0 0.23107393085956573 0.31545165181159973
0.00020117666281294078 0.23056231439113617 0.31493645906448364
0.0022991255391389132 0.23819492757320404 0.31415435671806335
0.0045007294975221157 0.24289597570896149 0.31372550129890442
0.080090992152690887 0.2478681206703186 0.31377699971199036
0.25802192091941833 0.26408141851425171 0.31439647078514099
0.42421844601631165 0.28479719161987305 0.31292018294334412
0.58865833282470703 0.31347241997718811 0.31118336319923401
0.74198317527770996 0.36411744356155396 0.3086790144443512
0.85612499713897705 0.43032404780387878 0.31017205119132996
0.93655955791473389 0.5055583119392395 0.32021340727806091
0.98153483867645264 0.56369662284851074 0.34116852283477783
0 0.25026300549507141 0.31547808647155762
0 0.25172293186187744 0.31585478782653809
3.9493337681051344e-05 0.25525471568107605 0.31564512848854065
0.00084496295312419534 0.26397690176963806 0.31440171599388123
0.011710462160408497 0.2704734206199646 0.31243202090263367
0.13854731619358063 0.28487890958786011 0.31234782934188843
0.29455193877220154 0.30290353298187256 0.31132316589355469
0.44784659147262573 0.31905853748321533 0.3090842068195343
0.60365360975265503 0.35661578178405762 0.30741211771965027
0.75366520881652832 0.4153047502040863 0.3049696683883667
0.86121642589569092 0.47669696807861328 0.30860692262649536
0.93130558729171753 0.53902959823608398 0.32002061605453491
0.97630167007446289 0.59009444713592529 0.34186685085296631
0 0.30642902851104736 0.31671974062919617
0 0.30502575635910034 0.31796187162399292
0.001504800864495337 0.30618759989738464 0.31782236695289612
0.005455436185002327 0.31520313024520874 0.31559652090072632
0.025563992559909821 0.32282069325447083 0.31298366189002991
0.18830746412277222 0.34464657306671143 0.31151002645492554
0.3468174934387207 0.36854088306427002 0.3093675971031189
0.48543959856033325 0.3849281370639801 0.30706572532653809
0.62092739343643188 0.40924188494682312 0.30359160900115967
0.75681114196777344 0.46668159961700439 0.30089250206947327
0.85267424583435059 0.52430343627929688 0.30576536059379578
0.92712312936782837 0.5778922438621521 0.31880894303321838
0.97444969415664673 0.62271988391876221 0.34295493364334106
0 0.38133725523948669 0.32031819224357605
0 0.38393768668174744 0.32272046804428101
0.001315382425673306 0.39003089070320129 0.32326078414916992
0.0055035608820617199 0.39859044551849365 0.32045397162437439
0.034221094101667404 0.40654158592224121 0.31640017032623291
0.22538076341152191 0.42907816171646118 0.31445026397705078
0.39339515566825867 0.45123982429504395 0.31103140115737915
0.52950894832611084 0.47258347272872925 0.30800577998161316
0.65168339014053345 0.50084704160690308 0.30322074890136719
0.76701313257217407 0.53481948375701904 0.2976277768611908
0.8491891622543335 0.57316488027572632 0.30063143372535706
0.91412568092346191 0.6187170147895813 0.31748184561729431
0.96716398000717163 0.65914016962051392 0.34245145320892334
0 0.4931732714176178 0.32868477702140808
0 0.48496472835540771 0.32975789904594421
0.00072767969686537981 0.48289105296134949 0.33005028963088989
0.0033728654962033033 0.49387368559837341 0.32783281803131104
0.046131044626235962 0.50661790370941162 0.32367041707038879
0.25728908181190491 0.52709949016571045 0.3216860294342041
0.41884160041809082 0.54400259256362915 0.31895577907562256
0.56330537796020508 0.56701207160949707 0.31419163942337036
0.68176025152206421 0.59915781021118164 0.30942252278327942
0.77897197008132935 0.62519192695617676 0.30535513162612915
0.85168939828872681 0.64663296937942505 0.3085484504699707
0.90526878833770752 0.66310560703277588 0.31588411331176758
0.95540356636047363 0.69231563806533813 0.34089654684066772
0.0010255401721224189 0.61468130350112915 0.3417721688747406
0.0025401096791028976 0.60028707981109619 0.34396195411682129
0.0037003012839704752 0.5951419472694397 0.34423625469207764
0.004009889904409647 0.60291707515716553 0.34130874276161194
0.09622376412153244 0.61560213565826416 0.33747029304504395
0.30735680460929871 0.63126987218856812 0.33696767687797546
0.45737400650978088 0.64614778757095337 0.33591949939727783
0.57765334844589233 0.65958619117736816 0.3354758620262146
0.68761980533599854 0.68529403209686279 0.3313353955745697
0.77873349189758301 0.70441395044326782 0.32604831457138062
0.84338116645812988 0.71367383003234863 0.33384650945663452
0.89531588554382324 0.71984344720840454 0.3438989520072937
0.94245690107345581 0.73487204313278198 0.36266055703163147
0.005641294177621603 0.71928542852401733 0.36444312334060669
0.0066386056132614613 0.71107476949691772 0.36374953389167786
0.0086189117282629013 0.70801210403442383 0.36066135764122009
0.05827624723315239 0.71354693174362183 0.36024236679077148
0.22307564318180084 0.71855521202087402 0.36326095461845398
0.37193220853805542 0.72510379552841187 0.36494848132133484
0.49289023876190186 0.73473846912384033 0.36620011925697327
0.60290300846099854 0.74862152338027954 0.36470603942871094
0.6896241307258606 0.75751668214797974 0.36527380347251892
0.77266925573348999 0.76761448383331299 0.36221966147422791
0.83777523040771484 0.77680200338363647 0.36610338091850281
0.88958817720413208 0.78257828950881958 0.38257908821105957
0.94132190942764282 0.79423600435256958 0.40280252695083618
0.10580285638570786 0.8095964789390564 0.39315369725227356
0.12603729963302612 0.80540627241134644 0.39209157228469849
0.1785971075296402 0.80118370056152344 0.39288845658302307
0.26704585552215576 0.80004036426544189 0.39722248911857605
0.36148250102996826 0.80115759372711182 0.40331584215164185
0.4506189227104187 0.80160814523696899 0.40677139163017273
0.53751653432846069 0.80472856760025024 0.40703004598617554
0.62170690298080444 0.80982178449630737 0.41003924608230591
0.69910931587219238 0.81542038917541504 0.41421389579772949
0.77388805150985718 0.82390075922012329 0.40987825393676758
0.83558863401412964 0.82810884714126587 0.41015791893005371
0.88767838478088379 0.83062022924423218 0.42664796113967896
0.93874698877334595 0.83659714460372925 0.44662362337112427
0.38139775395393372 0.86643975973129272 0.44677639007568359
0.38488739728927612 0.86432886123657227 0.44609344005584717
0.40899136662483215 0.86138415336608887 0.44757667183876038
0.44801190495491028 0.86022210121154785 0.45124921202659607
0.49264180660247803 0.85707074403762817 0.45306810736656189
0.55438858270645142 0.85481178760528564 0.45537653565406799
0.61352527141571045 0.85671418905258179 0.45652419328689575
0.66411787271499634 0.86065113544464111 0.46238145232200623
0.72751343250274658 0.86643707752227783 0.46652171015739441
0.7847864031791687 0.86721116304397583 0.46735242009162903
0.84130018949508667 0.86494499444961548 0.46763160824775696
0.89022022485733032 0.86614292860031128 0.4758375883102417
0.93742358684539795 0.86977493762969971 0.49211773276329041
0.5778840184211731 0.90692430734634399 0.50873535871505737
0.58074569702148438 0.90594381093978882 0.50710391998291016
0.58551692962646484 0.90099567174911499 0.50376158952713013
0.60328084230422974 0.8975406289100647 0.50374239683151245
0.63240152597427368 0.89680683612823486 0.50733548402786255
0.67545640468597412 0.89421075582504272 0.50954461097717285
0.70754945278167725 0.89571845531463623 0.51240265369415283
0.73875200748443604 0.90315437316894531 0.52055072784423828
0.78090792894363403 0.90395647287368774 0.52151167392730713
0.82735133171081543 0.90073692798614502 0.52012175321578979
0.86392682790756226 0.90012830495834351 0.52383512258529663
0.90073508024215698 0.90072399377822876 0.52813512086868286
0.9410892128944397 0.90324795246124268 0.53795039653778076
0.73462212085723877 0.93354690074920654 0.55641627311706543
0.73483705520629883 0.93314158916473389 0.55507439374923706
0.73762375116348267 0.93068349361419678 0.55399197340011597
0.74790322780609131 0.92736989259719849 0.55413776636123657
0.76455932855606079 0.92723679542541504 0.55747866630554199
0.78521180152893066 0.92676800489425659 0.55902421474456787
0.80504059791564941 0.92773592472076416 0.56041789054870605
0.82209104299545288 0.9297216534614563 0.56210589408874512
0.84865432977676392 0.93171864748001099 0.56503057479858398
0.87813681364059448 0.92975914478302002 0.56546813249588013
0.89957821369171143 0.92885756492614746 0.56646192073822021
0.92245292663574219 0.92994195222854614 0.57117944955825806
0.95124858617782593 0.93378788232803345 0.57957679033279419
0 0.23137255012989044 0.31911763548851013
0 0.23027887940406799 0.31898072361946106
0.0037233689799904823 0.22951272130012512 0.31832107901573181
0.0065171034075319767 0.22852148115634918 0.31831946969032288
0.0080030253157019615 0.22695170342922211 0.31762072443962097
0.035617228597402573 0.22543126344680786 0.31678515672683716
0.20190539956092834 0.23395319283008575 0.31970271468162537
0.39638498425483704 0.24832342565059662 0.32316315174102783
0.58114951848983765 0.27538153529167175 0.32382220029830933
0.74179792404174805 0.32119911909103394 0.32201871275901794
0.86606276035308838 0.3980485200881958 0.32641199231147766
0.94178593158721924 0.4724593460559845 0.33906975388526917
0.98000657558441162 0.53303444385528564 0.35959616303443909
0 0.23181983828544617 0.31868496537208557
0 0.23093700408935547 0.31902992725372314
0.0030378454830497503 0.23090595006942749 0.31835824251174927
0.0044364631175994873 0.23259378969669342 0.31794068217277527
0.0059228786267340183 0.23162542283535004 0.31693902611732483
0.053758449852466583 0.23327961564064026 0.31724238395690918
0.23379461467266083 0.24910730123519897 0.32129174470901489
0.42288362979888916 0.2677646279335022 0.32444471120834351
0.59636199474334717 0.2985723614692688 0.32483741641044617
0.75050538778305054 0.34940516948699951 0.322591632604599
0.86527776718139648 0.41568616032600403 0.32722359895706177
0.94016236066818237 0.48898309469223022 0.34115996956825256
0.97658860683441162 0.54685431718826294 0.36211183667182922
0 0.2353900671005249 0.31795096397399902
0 0.23400042951107025 0.3191884458065033
0.0016991409938782454 0.23654733598232269 0.31942513585090637
0.0038763906341046095 0.24213013052940369 0.31815916299819946
0.0063206539489328861 0.2440863698720932 0.31680262088775635
0.097413428127765656 0.25035896897315979 0.31681644916534424
0.2756597101688385 0.26929706335067749 0.31960031390190125
0.44611099362373352 0.2933293879032135 0.32093271613121033
0.61239767074584961 0.32366082072257996 0.32069498300552368
0.75786083936691284 0.38033312559127808 0.32131826877593994
0.86399215459823608 0.44524732232093811 0.32723695039749146
0.93308746814727783 0.51120942831039429 0.34184011816978455
0.9748302698135376 0.56899851560592651 0.36486142873764038
0 0.25384694337844849 0.31911647319793701
0 0.25741064548492432 0.3212745189666748
0.00044952094322070479 0.26320165395736694 0.32283762097358704
0.0020291495602577925 0.26842477917671204 0.31973680853843689
0.016694476827979088 0.27347609400749207 0.31665217876434326
0.15212705731391907 0.28776490688323975 0.31625133752822876
0.30728417634963989 0.30806225538253784 0.3168385922908783
0.46708795428276062 0.3284047544002533 0.31727072596549988
0.62436372041702271 0.36393353343009949 0.31685730814933777
0.76343715190887451 0.42212334275245667 0.31801044940948486
0.86320489645004272 0.48161458969116211 0.324605792760849
0.92896169424057007 0.54049021005630493 0.34014084935188293
0.9756317138671875 0.59578347206115723 0.36462995409965515
0 0.31267136335372925 0.32284766435623169
0.00013427734666038305 0.31499418616294861 0.32564756274223328
0.0034136155154556036 0.31723350286483765 0.32648280262947083
0.0062591400928795338 0.32151436805725098 0.32308241724967957
0.032859846949577332 0.32757502794265747 0.31890887022018433
0.20297104120254517 0.34903833270072937 0.31706047058105469
0.35898986458778381 0.37248325347900391 0.31606659293174744
0.50005221366882324 0.38545164465904236 0.31379309296607971
0.6352195143699646 0.41893783211708069 0.31322440505027771
0.76483190059661865 0.4740268886089325 0.31415039300918579
0.85999214649200439 0.52989155054092407 0.32119956612586975
0.92512208223342896 0.58197981119155884 0.33901870250701904
0.97291779518127441 0.62917816638946533 0.36453112959861755
0 0.3929649293422699 0.32978031039237976
0.0011586208129301667 0.39634519815444946 0.33232203125953674
0.0038722618483006954 0.39994373917579651 0.33220526576042175
0.0070195067673921585 0.40492859482765198 0.32874032855033875
0.042384561151266098 0.41193845868110657 0.32436498999595642
0.23520408570766449 0.43316122889518738 0.32235634326934814
0.40329757332801819 0.45644095540046692 0.32034990191459656
0.53650021553039551 0.47741648554801941 0.31931200623512268
0.65829461812973022 0.506308913230896 0.31556454300880432
0.77226501703262329 0.5417361855506897 0.31327000260353088
0.8577570915222168 0.58522725105285645 0.31955698132514954
0.918354332447052 0.62343645095825195 0.33437219262123108
0.96604835987091064 0.66258543729782104 0.36057326197624207
0 0.49803104996681213 0.33741256594657898
0.0015644896775484085 0.49377989768981934 0.33998268842697144
0.003911635372787714 0.49605360627174377 0.34105712175369263
0.0042765000835061073 0.50412029027938843 0.33771619200706482
0.061093587428331375 0.51397866010665894 0.33386626839637756
0.26618963479995728 0.53550153970718384 0.33463239669799805
0.42927813529968262 0.55493444204330444 0.33362367749214172
0.56755298376083374 0.57495748996734619 0.33029648661613464
0.68319100141525269 0.60247629880905151 0.32536724209785461
0.77821427583694458 0.62787777185440063 0.32399919629096985
0.85413241386413574 0.65144979953765869 0.32627826929092407
0.909404456615448 0.66729974746704102 0.33154734969139099
0.95576685667037964 0.69432353973388672 0.35425332188606262
0.0018561419565230608 0.61558496952056885 0.35096430778503418
0.0028693852946162224 0.60667937994003296 0.35396352410316467
0.0051066228188574314 0.60586059093475342 0.35465866327285767
0.0071458406746387482 0.61136877536773682 0.35089379549026489
0.11959919333457947 0.62238407135009766 0.34867852926254272
0.32172200083732605 0.63785690069198608 0.35090816020965576
0.4638856053352356 0.65199095010757446 0.35187703371047974
0.58393710851669312 0.66643726825714111 0.34949234127998352
0.69338351488113403 0.68667358160018921 0.34460604190826416
0.78079438209533691 0.7035488486289978 0.34422364830970764
0.84815084934234619 0.71659713983535767 0.35086438059806824
0.89992678165435791 0.72466224431991577 0.36003416776657104
0.94429022073745728 0.73782253265380859 0.37395456433296204
0.0048718024045228958 0.72176617383956909 0.37280642986297607
0.0047191842459142208 0.71604073047637939 0.37179115414619446
0.014712958596646786 0.71520668268203735 0.37025737762451172
0.091576732695102692 0.72031313180923462 0.37153220176696777
0.25350630283355713 0.72467505931854248 0.37608587741851807
0.39291644096374512 0.73381000757217407 0.37848407030105591
0.50342679023742676 0.74116212129592896 0.38193035125732422
0.60335195064544678 0.74894136190414429 0.38276851177215576
0.69384241104125977 0.75738638639450073 0.38061064481735229
0.77769023180007935 0.77130162715911865 0.37687024474143982
0.84313362836837769 0.78131252527236938 0.38214942812919617
0.89309972524642944 0.78541916608810425 0.39981263875961304
0.93878155946731567 0.7934645414352417 0.41685467958450317
0.139688640832901 0.81280362606048584 0.40391990542411804
0.16014687716960907 0.80891448259353638 0.40307676792144775
0.20994278788566589 0.80364632606506348 0.40462085604667664
0.29309657216072083 0.80288577079772949 0.40966072678565979
0.38631066679954529 0.80578243732452393 0.41627192497253418
0.4668286144733429 0.80445659160614014 0.42033100128173828
0.55227398872375488 0.80671864748001099 0.42282199859619141
0.62810784578323364 0.80970084667205811 0.42606642842292786
0.70204555988311768 0.81561839580535889 0.42823627591133118
0.77960789203643799 0.82596689462661743 0.42523199319839478
0.83943074941635132 0.83026647567749023 0.42911204695701599
0.88970720767974854 0.83314001560211182 0.4446222186088562
0.93590807914733887 0.83906692266464233 0.46058958768844604
0.40215986967086792 0.86925679445266724 0.45724257826805115
0.40366780757904053 0.865367591381073 0.45557358860969543
0.42121335864067078 0.85873472690582275 0.4563618004322052
0.46670255064964294 0.85683238506317139 0.45987462997436523
0.51571226119995117 0.85704481601715088 0.46370419859886169
0.56637084484100342 0.85891866683959961 0.46730586886405945
0.61637300252914429 0.86071586608886719 0.46978551149368286
0.66974753141403198 0.86099058389663696 0.47369465231895447
0.73126780986785889 0.86526012420654297 0.47766387462615967
0.79030150175094604 0.87102055549621582 0.47929918766021729
0.8415834903717041 0.87156277894973755 0.48365694284439087
0.88985306024551392 0.87174952030181885 0.4937969446182251
0.93547672033309937 0.8735816478729248 0.50478219985961914
0.59078282117843628 0.90760183334350586 0.51360058784484863
0.58422386646270752 0.90333181619644165 0.50892400741577148
0.59252762794494629 0.89873790740966797 0.50774216651916504
0.61665451526641846 0.89602965116500854 0.51016473770141602
0.64749729633331299 0.89562702178955078 0.51249402761459351
0.68188184499740601 0.89617681503295898 0.51579117774963379
0.70973438024520874 0.89700967073440552 0.51863068342208862
0.74370872974395752 0.90130794048309326 0.5238947868347168
0.78302043676376343 0.9055866003036499 0.52856385707855225
0.82479959726333618 0.90506714582443237 0.52974808216094971
0.86080896854400635 0.90378636121749878 0.53082734346389771
0.89823341369628906 0.90452450513839722 0.53799974918365479
0.93842482566833496 0.90601611137390137 0.54805141687393188
0.74022567272186279 0.9331134557723999 0.55722683668136597
0.73522913455963135 0.93109053373336792 0.55481153726577759
0.74283480644226074 0.93050515651702881 0.55528467893600464
0.75486528873443604 0.92802166938781738 0.55690407752990723
0.77113384008407593 0.9284205436706543 0.55879968404769897
0.78733092546463013 0.92714774608612061 0.56045067310333252
0.80751663446426392 0.92767035961151123 0.56243592500686646
0.82577812671661377 0.92919856309890747 0.56408661603927612
0.84815853834152222 0.93124115467071533 0.56663632392883301
0.87136000394821167 0.92990660667419434 0.5670890212059021
0.89335376024246216 0.92916399240493774 0.56747478246688843
0.91977465152740479 0.92952227592468262 0.57198983430862427
0.94861811399459839 0.93203854560852051 0.57980567216873169
0 0.22897939383983612 0.32206648588180542
0 0.22749023139476776 0.3216133713722229
0.0039487653411924839 0.22748646140098572 0.32258209586143494
0.0077223237603902817 0.22790421545505524 0.32362845540046692
0.0097112171351909637 0.22638820111751556 0.32314971089363098
0.046407900750637054 0.22449006140232086 0.32322925329208374
0.22021247446537018 0.22928881645202637 0.32554951310157776
0.41914495825767517 0.24596992135047913 0.3321395218372345
0.60192173719406128 0.28085315227508545 0.34015822410583496
0.75392872095108032 0.33293798565864563 0.3469807505607605
0.86656469106674194 0.4104742705821991 0.35918056964874268
0.94259965419769287 0.48891431093215942 0.37534657120704651
0.98071348667144775 0.55127573013305664 0.39549830555915833
0 0.2309366911649704 0.32175144553184509
0 0.22823275625705719 0.32156863808631897
0.0033985960762947798 0.22928358614444733 0.32192358374595642
0.0065754312090575695 0.23217569291591644 0.32256871461868286
0.0082100061699748039 0.23096413910388947 0.32210761308670044
0.070215962827205658 0.23325267434120178 0.32371869683265686
0.25799122452735901 0.24773155152797699 0.32954022288322449
0.44777122139930725 0.26836749911308289 0.33623242378234863
0.61676740646362305 0.30486825108528137 0.34248948097229004
0.76429659128189087 0.36098873615264893 0.34973037242889404
0.86938619613647461 0.43184870481491089 0.35996660590171814
0.93880051374435425 0.50238251686096191 0.37695282697677612
0.97481954097747803 0.56374621391296387 0.39834174513816833
0 0.23508284986019135 0.3214358389377594
0 0.23511050641536713 0.32278156280517578
0.0019235049840062857 0.2401861846446991 0.32388520240783691
0.0041273226961493492 0.24446240067481995 0.32308343052864075
0.007913895882666111 0.24503412842750549 0.32137197256088257
0.11747381091117859 0.25252863764762878 0.32439196109771729
0.30001324415206909 0.27340781688690186 0.33205515146255493
0.47281840443611145 0.29947993159294128 0.3375220000743866
0.63457971811294556 0.33406594395637512 0.34209805727005005
0.77098697423934937 0.39188730716705322 0.346943199634552
0.86723577976226807 0.45755288004875183 0.35643753409385681
0.93137723207473755 0.52322012186050415 0.3742193877696991
0.97204697132110596 0.58302289247512817 0.39863172173500061
0 0.2549683153629303 0.32274574041366577
0 0.26159721612930298 0.32726976275444031
0.00035059312358498573 0.26822397112846375 0.3295709490776062
0.0015699798241257668 0.27131766080856323 0.32684528827667236
0.025530153885483742 0.27524593472480774 0.32415276765823364
0.17495065927505493 0.29177933931350708 0.32764950394630432
0.33444631099700928 0.3140508234500885 0.33250647783279419
0.49768248200416565 0.34201264381408691 0.33676469326019287
0.64549010992050171 0.37993037700653076 0.34070879220962524
0.77510195970535278 0.43359845876693726 0.34356120228767395
0.86800819635391235 0.49094384908676147 0.3510591983795166
0.92987364530563354 0.55014228820800781 0.36946520209312439
0.97578281164169312 0.60789376497268677 0.39666730165481567
0 0.32028350234031677 0.33093059062957764
0.00037635353510268033 0.3223114013671875 0.33414092659950256
0.0043695336207747459 0.32392063736915588 0.33526149392127991
0.0084525765851140022 0.3266652524471283 0.33355817198753357
0.044784814119338989 0.33209088444709778 0.33007073402404785
0.22389085590839386 0.35395076870918274 0.33093738555908203
0.37794026732444763 0.37269666790962219 0.3318181037902832
0.52147006988525391 0.39329001307487488 0.33231168985366821
0.65469670295715332 0.43443796038627625 0.33626952767372131
0.77644866704940796 0.48482620716094971 0.3389187753200531
0.865753173828125 0.53807467222213745 0.34800976514816284
0.92453658580780029 0.59105187654495239 0.36877766251564026
0.97236371040344238 0.63919061422348022 0.39319467544555664
0 0.40632787346839905 0.34036186337471008
0.0024538526777178049 0.40811243653297424 0.34352460503578186
0.0053995768539607525 0.40929540991783142 0.34460681676864624
