luts/instant_consumer/polaroid_time_zero_expired.cube
# Created by: G'MIC (https://gmic.eu)
TITLE "polaroid_time_zero_expired"
# LUT size
LUT_3D_SIZE 7
# Data domain
DOMAIN_MIN 0.0 0.0 0.0
DOMAIN_MAX 1.0 1.0 1.0
# LUT data points
0.61571425199508667 0.34892585873603821 0.13280202448368073
0.62092477083206177 0.34559044241905212 0.12935361266136169
0.64098381996154785 0.34766528010368347 0.12965770065784454
0.68460553884506226 0.35051587224006653 0.13080574572086334
0.74999809265136719 0.35101336240768433 0.12874199450016022
0.82651597261428833 0.35998338460922241 0.13094852864742279
0.90216612815856934 0.38256910443305969 0.14680592715740204
0.62048125267028809 0.36582359671592712 0.12920078635215759
0.62827444076538086 0.36248138546943665 0.1294594407081604
0.65128850936889648 0.36396363377571106 0.13309101760387421
0.69625061750411987 0.36782640218734741 0.12923060357570648
0.76096296310424805 0.37187743186950684 0.1205083504319191
0.83740544319152832 0.38193213939666748 0.11767067760229111
0.91536861658096313 0.40661370754241943 0.13511323928833008
0.63266503810882568 0.40744203329086304 0.11027254909276962
0.64494037628173828 0.4068758487701416 0.10867493599653244
0.67246568202972412 0.40853786468505859 0.11468292027711868
0.71881103515625 0.41633999347686768 0.1172502413392067
0.7782629132270813 0.42353665828704834 0.11141806095838547
0.84704256057739258 0.43246263265609741 0.095845192670822144
0.92410272359848022 0.45748752355575562 0.11230054497718811
0.65607833862304688 0.48710513114929199 0.060981210321187973
0.67117989063262939 0.48849111795425415 0.05460873618721962
0.70307028293609619 0.49557334184646606 0.044174492359161377
0.75220763683319092 0.50447332859039307 0.068442642688751221
0.80754679441452026 0.51342439651489258 0.10696577280759811
0.86251610517501831 0.52007341384887695 0.084161274135112762
0.92513424158096313 0.54117131233215332 0.070252254605293274
0.68834394216537476 0.58874726295471191 0.011587599292397499
0.7024189829826355 0.5900077223777771 0.0078286565840244293
0.73317378759384155 0.59538435935974121 0
0.78139227628707886 0.60267847776412964 0.0010535146575421095
0.83678066730499268 0.61564624309539795 0.040682610124349594
0.88710129261016846 0.63176929950714111 0.13022059202194214
0.9334636926651001 0.64748716354370117 0.13608834147453308
0.73166418075561523 0.69698822498321533 0
0.74268639087677002 0.6966138482093811 4.6673943870700896e-05
0.76624786853790283 0.6980280876159668 0
0.80772370100021362 0.70480966567993164 0.0010074091842398047
0.85621058940887451 0.71514230966567993 0.0015432918444275856
0.904319167137146 0.72850978374481201 0.14689856767654419
0.94195616245269775 0.74671334028244019 0.27929100394248962
0.79778945446014404 0.80582106113433838 0.0044137993827462196
0.80510294437408447 0.8050878643989563 0.001158291706815362
0.82192331552505493 0.80632436275482178 0.00022850785171613097
0.85045242309570312 0.80938082933425903 0.001514374976977706
0.89283245801925659 0.81380480527877808 0.078289777040481567
0.92997395992279053 0.81629776954650879 0.25201627612113953
0.95653825998306274 0.82355242967605591 0.37000924348831177
0.61781901121139526 0.34568902850151062 0.14756406843662262
0.62034153938293457 0.34479120373725891 0.13980156183242798
0.638896644115448 0.34776735305786133 0.13983249664306641
0.68471944332122803 0.34997564554214478 0.14753124117851257
0.75570321083068848 0.35066425800323486 0.15615317225456238
0.83690452575683594 0.36087274551391602 0.15851929783821106
0.91447830200195312 0.38730958104133606 0.16901667416095734
0.62407833337783813 0.36520177125930786 0.14466114342212677
0.62944197654724121 0.36394116282463074 0.14227941632270813
0.65120011568069458 0.36659112572669983 0.14386165142059326
0.6973995566368103 0.36830383539199829 0.14418923854827881
0.76729089021682739 0.37043830752372742 0.14656081795692444
0.84729647636413574 0.38035988807678223 0.1463455855846405
0.92505478858947754 0.40726393461227417 0.15898251533508301
0.63662183284759521 0.40909364819526672 0.12871626019477844
0.64664715528488159 0.40879616141319275 0.12920387089252472
0.67378205060958862 0.41354984045028687 0.13165725767612457
0.72108453512191772 0.41918078064918518 0.13256652653217316
0.78498238325119019 0.42449304461479187 0.13607765734195709
0.85555213689804077 0.4344254732131958 0.12720310688018799
0.92989331483840942 0.46321764588356018 0.1456669420003891
0.65926611423492432 0.48887887597084045 0.088150337338447571
0.67267841100692749 0.49060556292533875 0.088886916637420654
0.70416593551635742 0.49729925394058228 0.084249861538410187
0.75618791580200195 0.50894647836685181 0.10768734663724899
0.81272369623184204 0.51721513271331787 0.13771817088127136
0.86639970541000366 0.52220255136489868 0.12171680480241776
0.93000471591949463 0.54572951793670654 0.12043304741382599
0.69193148612976074 0.59226608276367188 0.022305028513073921
0.70412927865982056 0.59442663192749023 0.028436264023184776
0.73347073793411255 0.59775388240814209 0.013085922226309776
0.78307324647903442 0.60690838098526001 0.025134412571787834
0.8388027548789978 0.62209206819534302 0.10234791040420532
0.88767504692077637 0.63451886177062988 0.17142254114151001
0.93470603227615356 0.64874297380447388 0.16526558995246887
0.73228806257247925 0.70048171281814575 0
0.74001693725585938 0.69917315244674683 1.3762829667030019e-06
0.76464605331420898 0.70087939500808716 0
0.80524122714996338 0.70681524276733398 1.5557981214442407e-06
0.85751873254776001 0.71812820434570312 0.035676993429660797
0.90328258275985718 0.7293897271156311 0.18551208078861237
0.94076299667358398 0.74891388416290283 0.29503408074378967
0.79986953735351562 0.80803608894348145 0.044126980006694794
0.80393069982528687 0.80663871765136719 0.028849434107542038
0.8201906681060791 0.80602127313613892 0.014374976046383381
0.84935903549194336 0.80954903364181519 0.0034851823002099991
0.89166462421417236 0.81459087133407593 0.12009672075510025
0.92912518978118896 0.81684064865112305 0.27502286434173584
0.95689040422439575 0.82602357864379883 0.39651602506637573
0.6358335018157959 0.34901601076126099 0.18729583919048309
0.63711512088775635 0.35007587075233459 0.17892235517501831
0.65337884426116943 0.35448992252349854 0.18116877973079681
0.69707375764846802 0.35625961422920227 0.1956755518913269
0.76751583814620972 0.35636383295059204 0.21327504515647888
0.84898155927658081 0.36715841293334961 0.21884815394878387
0.92621749639511108 0.40029063820838928 0.22291959822177887
0.64513659477233887 0.3718111515045166 0.18797589838504791
0.64954125881195068 0.37293055653572083 0.1867881566286087
0.66932582855224609 0.37813505530357361 0.19225840270519257
0.71038037538528442 0.37684363126754761 0.19549627602100372
0.78087526559829712 0.3758394718170166 0.21100994944572449
0.85813957452774048 0.38687595725059509 0.20930691063404083
0.93161851167678833 0.41595938801765442 0.21496914327144623
0.65540808439254761 0.41548216342926025 0.17886935174465179
0.66393250226974487 0.41653499007225037 0.1817438006401062
0.68829584121704102 0.42420604825019836 0.1869402676820755
0.73003137111663818 0.42706760764122009 0.1880999356508255
0.79601085186004639 0.43050137162208557 0.19801068305969238
0.86653017997741699 0.44569259881973267 0.19122499227523804
0.93367207050323486 0.47551968693733215 0.20486199855804443
0.66990154981613159 0.48994851112365723 0.1606963574886322
0.68156737089157104 0.49052584171295166 0.1627592146396637
0.70959246158599854 0.49899163842201233 0.16342014074325562
0.75788867473602295 0.51187461614608765 0.1814132034778595
0.815471351146698 0.51980644464492798 0.19513890147209167
0.87216103076934814 0.52756929397583008 0.17706398665904999
0.93478143215179443 0.5525822639465332 0.19157826900482178
0.70079517364501953 0.59658718109130859 0.14317969977855682
0.71118068695068359 0.59502673149108887 0.13864001631736755
0.73649150133132935 0.59944385290145874 0.12093231827020645
0.78261631727218628 0.61101621389389038 0.12735879421234131
0.83908051252365112 0.62647736072540283 0.18846173584461212
0.89040583372116089 0.63873034715652466 0.23885802924633026
0.93735283613204956 0.65103632211685181 0.238123819231987
0.73924720287322998 0.70146501064300537 0.11506560444831848
0.74676436185836792 0.70064836740493774 0.1051473394036293
0.76768249273300171 0.70388078689575195 0.070366337895393372
0.80517369508743286 0.70952373743057251 0.053075589239597321
0.85892379283905029 0.72046893835067749 0.14045654237270355
0.90577954053878784 0.73291438817977905 0.25716176629066467
0.94022011756896973 0.75262057781219482 0.34895113110542297
0.80116385221481323 0.80701363086700439 0.18484817445278168
0.80696368217468262 0.80724567174911499 0.16889171302318573
0.82154381275177002 0.80688613653182983 0.15220987796783447
0.84738391637802124 0.81150203943252563 0.11195740103721619
0.88789743185043335 0.81404072046279907 0.18758717179298401
0.9282410740852356 0.81761336326599121 0.31003570556640625
0.95686274766921997 0.82536625862121582 0.42256534099578857
0.67775082588195801 0.35838282108306885 0.2751200795173645
0.68045502901077271 0.35992315411567688 0.27038401365280151
0.69731950759887695 0.36606267094612122 0.27966123819351196
0.72949916124343872 0.37102428078651428 0.28468993306159973
0.78143191337585449 0.37120535969734192 0.2849251925945282
0.85874563455581665 0.37614953517913818 0.31214606761932373
0.93458014726638794 0.40473362803459167 0.33385589718818665
0.69325464963912964 0.38810157775878906 0.27976515889167786
0.69768816232681274 0.39119181036949158 0.28124368190765381
0.71496343612670898 0.40031403303146362 0.29296478629112244
0.7391204833984375 0.40076994895935059 0.283346027135849
0.78951835632324219 0.39413845539093018 0.28283593058586121
0.86151671409606934 0.39926257729530334 0.30089551210403442
0.93323254585266113 0.43101033568382263 0.32279807329177856
0.70284950733184814 0.43586686253547668 0.27104294300079346
0.71107292175292969 0.43945339322090149 0.27589008212089539
0.730693519115448 0.45138463377952576 0.28623035550117493
0.75635039806365967 0.45503756403923035 0.27950462698936462
0.80473452806472778 0.44462156295776367 0.28428012132644653
0.87428122758865356 0.45791849493980408 0.30178427696228027
0.93552005290985107 0.48903968930244446 0.31203556060791016
0.70249027013778687 0.49764150381088257 0.25264599919319153
0.71429264545440674 0.49893766641616821 0.25540822744369507
0.7374495267868042 0.51251882314682007 0.26263219118118286
0.77198559045791626 0.52470093965530396 0.26864951848983765
0.81947296857833862 0.52208864688873291 0.27392464876174927
0.87896275520324707 0.52911925315856934 0.26934275031089783
0.93949288129806519 0.55904757976531982 0.29073667526245117
0.71780216693878174 0.59120744466781616 0.2499907910823822
0.72852486371994019 0.58539831638336182 0.24517819285392761
0.75138813257217407 0.59687322378158569 0.24874772131443024
0.78835487365722656 0.61291790008544922 0.2481517493724823
0.84117794036865234 0.63144940137863159 0.28393211960792542
0.89151519536972046 0.6341816782951355 0.29283797740936279
0.93989783525466919 0.64310091733932495 0.28560471534729004
0.74570232629776001 0.69798225164413452 0.24830342829227448
0.75708580017089844 0.69270288944244385 0.24767589569091797
0.77615892887115479 0.69864648580551147 0.25049757957458496
0.80714887380599976 0.70944201946258545 0.23482836782932281
0.85629832744598389 0.72246068716049194 0.25025978684425354
0.90683495998382568 0.74002623558044434 0.33989593386650085
0.94149631261825562 0.74994087219238281 0.38796436786651611
0.8022083044052124 0.80511873960494995 0.31317543983459473
0.80888211727142334 0.80206668376922607 0.29938077926635742
0.82182163000106812 0.803810715675354 0.29415607452392578
0.84404999017715454 0.8104667067527771 0.26996657252311707
0.88274079561233521 0.81631124019622803 0.26248371601104736
0.9267888069152832 0.82237577438354492 0.36723628640174866
0.95446336269378662 0.82819432020187378 0.47047644853591919
0.73973113298416138 0.37844029068946838 0.41417264938354492
0.74225884675979614 0.38268917798995972 0.40935623645782471
0.75778329372406006 0.3921501636505127 0.41632279753684998
0.7832217812538147 0.40662595629692078 0.42267537117004395
0.81595325469970703 0.41886037588119507 0.41578885912895203
0.86402261257171631 0.41196140646934509 0.40459835529327393
0.93621939420700073 0.42020294070243835 0.4502316415309906
0.76045131683349609 0.42200437188148499 0.41587871313095093
0.76203680038452148 0.42498144507408142 0.41574114561080933
0.77376836538314819 0.43473619222640991 0.42159658670425415
0.79209405183792114 0.44679400324821472 0.42012020945549011
0.81997030973434448 0.45250919461250305 0.40888431668281555
0.86692297458648682 0.43819549679756165 0.40515843033790588
0.9359891414642334 0.44627577066421509 0.45156440138816833
0.77628320455551147 0.48560547828674316 0.40773952007293701
0.78328442573547363 0.48998472094535828 0.41020697355270386
0.79424548149108887 0.49888172745704651 0.41567084193229675
0.80863624811172485 0.50790214538574219 0.41824066638946533
0.83166027069091797 0.51147568225860596 0.41233769059181213
0.87591427564620972 0.49187305569648743 0.41806283593177795
0.93662065267562866 0.50047928094863892 0.4458865225315094
0.76964312791824341 0.54052847623825073 0.38826161623001099
0.78223568201065063 0.54479831457138062 0.38780692219734192
0.79838502407073975 0.55934065580368042 0.39640557765960693
0.81801152229309082 0.57337182760238647 0.40741246938705444
0.84269404411315918 0.57037431001663208 0.40502253174781799
0.88143515586853027 0.54871118068695068 0.40348038077354431
0.93818509578704834 0.56465244293212891 0.42578724026679993
0.76249110698699951 0.60774856805801392 0.37093186378479004
0.77391433715820312 0.60258692502975464 0.36277234554290771
0.79205238819122314 0.61695140600204468 0.37223881483078003
0.81625169515609741 0.63452434539794922 0.37919259071350098
0.84954214096069336 0.64209121465682983 0.38411164283752441
0.89091545343399048 0.63387715816497803 0.38680428266525269
0.93955105543136597 0.63707923889160156 0.39766329526901245
0.76522547006607056 0.69970309734344482 0.36024659872055054
0.7805100679397583 0.69144320487976074 0.36331385374069214
0.79883241653442383 0.69761955738067627 0.37153461575508118
0.82113873958587646 0.71282768249511719 0.37787097692489624
0.85517841577529907 0.72154808044433594 0.37191286683082581
0.90292459726333618 0.74139267206192017 0.43588986992835999
0.94130653142929077 0.74905645847320557 0.44502443075180054
0.79975247383117676 0.80028098821640015 0.41027402877807617
0.81452947854995728 0.79281127452850342 0.41423985362052917
0.82827192544937134 0.79394727945327759 0.41511693596839905
0.84604734182357788 0.80520021915435791 0.41123369336128235
0.8747706413269043 0.8173944354057312 0.40385240316390991
0.91591554880142212 0.8243253231048584 0.43346109986305237
0.94979369640350342 0.83341485261917114 0.54314208030700684
0.80421572923660278 0.4448811411857605 0.56071823835372925
0.8054807186126709 0.44760024547576904 0.5571022629737854
0.81871944665908813 0.45664453506469727 0.56238019466400146
0.83882182836532593 0.47440221905708313 0.57253378629684448
0.86015480756759644 0.50220650434494019 0.58442825078964233
0.88570737838745117 0.51048606634140015 0.56265139579772949
0.92894232273101807 0.50696063041687012 0.55594265460968018
0.82280629873275757 0.48954063653945923 0.56104713678359985
0.82032066583633423 0.48847225308418274 0.56108057498931885
0.83093750476837158 0.49882048368453979 0.56471198797225952
0.84820520877838135 0.51742887496948242 0.57431697845458984
0.86818462610244751 0.5405346155166626 0.58416891098022461
0.89000469446182251 0.54034298658370972 0.56664800643920898
0.92870783805847168 0.52496188879013062 0.54960399866104126
0.83795720338821411 0.55464416742324829 0.55502957105636597
0.8433043360710144 0.55589765310287476 0.55747652053833008
0.84905886650085449 0.56184548139572144 0.56073915958404541
0.85849010944366455 0.57501757144927979 0.57114052772521973
0.87507325410842896 0.59642893075942993 0.58115166425704956
0.89048260450363159 0.58569055795669556 0.55199277400970459
0.93057429790496826 0.56285494565963745 0.55327516794204712
0.83529031276702881 0.60490477085113525 0.54721552133560181
0.84482836723327637 0.60850900411605835 0.54594051837921143
0.8527342677116394 0.61779105663299561 0.54906082153320312
0.86250758171081543 0.63197237253189087 0.56014114618301392
0.87879735231399536 0.65219020843505859 0.57121562957763672
0.89455211162567139 0.64291298389434814 0.54712021350860596
0.93300342559814453 0.61434733867645264 0.56120413541793823
0.82252234220504761 0.64926987886428833 0.53856801986694336
0.83042627573013306 0.65172511339187622 0.53033936023712158
0.84116017818450928 0.66249185800552368 0.52898740768432617
0.85653591156005859 0.67817801237106323 0.53713583946228027
0.87820130586624146 0.6985400915145874 0.55437922477722168
0.90084046125411987 0.69719535112380981 0.55592495203018188
0.93432587385177612 0.66893255710601807 0.55581521987915039
0.81110155582427979 0.71690505743026733 0.51997131109237671
0.82150793075561523 0.71490424871444702 0.52027285099029541
0.83472001552581787 0.7182806134223938 0.5166022777557373
0.85118848085403442 0.72664088010787964 0.51916539669036865
0.87166112661361694 0.74080604314804077 0.53430432081222534
0.90302062034606934 0.75282669067382812 0.54965519905090332
0.94085824489593506 0.74454277753829956 0.54493981599807739
0.82405620813369751 0.79876953363418579 0.54523807764053345
0.83498692512512207 0.79444867372512817 0.54812002182006836
0.84737503528594971 0.79496794939041138 0.54838204383850098
0.86066752672195435 0.8019106388092041 0.55288189649581909
0.87679356336593628 0.81360447406768799 0.557506263256073
0.90566849708557129 0.82332438230514526 0.54909521341323853
0.94750255346298218 0.83344990015029907 0.62466484308242798
0.86325192451477051 0.5594782829284668 0.69749653339385986
0.86352163553237915 0.55794990062713623 0.69588708877563477
0.86967426538467407 0.5685420036315918 0.69877338409423828
0.87884479761123657 0.57950621843338013 0.70215564966201782
0.88846701383590698 0.59851545095443726 0.70826369524002075
0.90451216697692871 0.61931955814361572 0.70803195238113403
0.92856478691101074 0.63216120004653931 0.70083117485046387
0.87517845630645752 0.59292185306549072 0.69767159223556519
0.87550538778305054 0.59073090553283691 0.69907099008560181
0.88001531362533569 0.59728878736495972 0.70236653089523315
0.88792389631271362 0.61015874147415161 0.70778828859329224
0.89636915922164917 0.6309320330619812 0.71721875667572021
0.90886974334716797 0.64921307563781738 0.72090297937393188
0.93071514368057251 0.6440889835357666 0.69712692499160767
0.88436496257781982 0.64379668235778809 0.69535672664642334
0.88807171583175659 0.63966959714889526 0.69926506280899048
0.89058023691177368 0.64185070991516113 0.70343589782714844
0.8949388861656189 0.65228807926177979 0.71019935607910156
0.90063303709030151 0.67078137397766113 0.71696341037750244
0.91004377603530884 0.6829412579536438 0.71380603313446045
0.93204843997955322 0.66923576593399048 0.6986771821975708
0.88347786664962769 0.6884390115737915 0.69508910179138184
0.88911527395248413 0.68351364135742188 0.69834786653518677
0.89232277870178223 0.68491601943969727 0.70095705986022949
0.89681875705718994 0.69405066967010498 0.70589709281921387
0.90325635671615601 0.70964592695236206 0.7095445990562439
0.9129754900932312 0.72527891397476196 0.71292006969451904
0.93446403741836548 0.71177715063095093 0.71356105804443359
0.87213718891143799 0.7156912088394165 0.69706469774246216
0.87720370292663574 0.71646654605865479 0.69704407453536987
0.88331961631774902 0.72224670648574829 0.69700777530670166
0.89293181896209717 0.73113149404525757 0.70080548524856567
0.9041898250579834 0.74671155214309692 0.70998561382293701
0.91426968574523926 0.76613068580627441 0.72098970413208008
0.9316975474357605 0.75579202175140381 0.71368759870529175
0.85782337188720703 0.75844979286193848 0.68555951118469238
0.86469501256942749 0.7598952054977417 0.69161266088485718
0.87371981143951416 0.76531624794006348 0.69573509693145752
0.88784235715866089 0.76920455694198608 0.69829607009887695
0.90363383293151855 0.78254610300064087 0.71498715877532959
0.91592675447463989 0.80503219366073608 0.73106676340103149
0.93787199258804321 0.79963809251785278 0.72741317749023438
0.85853880643844604 0.81776803731918335 0.69776171445846558
0.86634868383407593 0.81751865148544312 0.7043921947479248
0.87650024890899658 0.82014292478561401 0.71049231290817261
0.88828593492507935 0.82168769836425781 0.71281808614730835
0.90020227432250977 0.82489454746246338 0.71053093671798706
0.91513848304748535 0.8405684232711792 0.71941417455673218
0.94319838285446167 0.84421181678771973 0.73994594812393188
