luts/fujixtransiii/fuji_xtrans_iii_mono+r.cube
# Created by: G'MIC (https://gmic.eu)
TITLE "fuji_xtrans_iii_mono+r"
# LUT size
LUT_3D_SIZE 5
# Data domain
DOMAIN_MIN 0.0 0.0 0.0
DOMAIN_MAX 1.0 1.0 1.0
# LUT data points
0.011329052038490772 0.011329052038490772 0.011329052038490772
0.14020536839962006 0.14020536839962006 0.14020536839962006
0.41009131073951721 0.41009131073951721 0.41009131073951721
0.60546505451202393 0.60546505451202393 0.60546505451202393
0.66147452592849731 0.66147452592849731 0.66147452592849731
0.079211264848709106 0.079211264848709106 0.079211264848709106
0.21422776579856873 0.21422776579856873 0.21422776579856873
0.45006391406059265 0.45006391406059265 0.45006391406059265
0.64785313606262207 0.64785313606262207 0.64785313606262207
0.71032601594924927 0.71032601594924927 0.71032601594924927
0.23649753630161285 0.23649753630161285 0.23649753630161285
0.34658718109130859 0.34658718109130859 0.34658718109130859
0.53869801759719849 0.53869801759719849 0.53869801759719849
0.68866407871246338 0.68866407871246338 0.68866407871246338
0.76802587509155273 0.76802587509155273 0.76802587509155273
0.31789645552635193 0.31789645552635193 0.31789645552635193
0.40816196799278259 0.40816196799278259 0.40816196799278259
0.59331035614013672 0.59331035614013672 0.59331035614013672
0.73260623216629028 0.73260623216629028 0.73260623216629028
0.82691365480422974 0.82691365480422974 0.82691365480422974
0.36214640736579895 0.36214640736579895 0.36214640736579895
0.48640549182891846 0.48640549182891846 0.48640549182891846
0.64276468753814697 0.64276468753814697 0.64276468753814697
0.78437238931655884 0.78437238931655884 0.78437238931655884
0.84656310081481934 0.84656310081481934 0.84656310081481934
0.018502075225114822 0.018502075225114822 0.018502075225114822
0.21793808043003082 0.21793808043003082 0.21793808043003082
0.44311237335205078 0.44311237335205078 0.44311237335205078
0.65925389528274536 0.65925389528274536 0.65925389528274536
0.7578161358833313 0.7578161358833313 0.7578161358833313
0.11194459348917007 0.11194459348917007 0.11194459348917007
0.24965691566467285 0.24965691566467285 0.24965691566467285
0.47311976552009583 0.47311976552009583 0.47311976552009583
0.67124396562576294 0.67124396562576294 0.67124396562576294
0.80201637744903564 0.80201637744903564 0.80201637744903564
0.29775452613830566 0.29775452613830566 0.29775452613830566
0.382396399974823 0.382396399974823 0.382396399974823
0.54672849178314209 0.54672849178314209 0.54672849178314209
0.71282798051834106 0.71282798051834106 0.71282798051834106
0.82203805446624756 0.82203805446624756 0.82203805446624756
0.37308293581008911 0.37308293581008911 0.37308293581008911
0.48742252588272095 0.48742252588272095 0.48742252588272095
0.62277960777282715 0.62277960777282715 0.62277960777282715
0.77260911464691162 0.77260911464691162 0.77260911464691162
0.86882048845291138 0.86882048845291138 0.86882048845291138
0.42510926723480225 0.42510926723480225 0.42510926723480225
0.53208780288696289 0.53208780288696289 0.53208780288696289
0.65338307619094849 0.65338307619094849 0.65338307619094849
0.79294532537460327 0.79294532537460327 0.79294532537460327
0.88537889719009399 0.88537889719009399 0.88537889719009399
0.064179964363574982 0.066255681216716766 0.066255681216716766
0.21982593834400177 0.21984460949897766 0.21984460949897766
0.45753267407417297 0.45754784345626831 0.45754784345626831
0.66943359375 0.66943359375 0.66943359375
0.80793839693069458 0.80793839693069458 0.80793839693069458
0.13172620534896851 0.13172620534896851 0.13172620534896851
0.2916640043258667 0.2916640043258667 0.2916640043258667
0.49522888660430908 0.49522888660430908 0.49522888660430908
0.67947781085968018 0.67947781085968018 0.67947781085968018
0.821544349193573 0.821544349193573 0.821544349193573
0.32528451085090637 0.32528451085090637 0.32528451085090637
0.41770279407501221 0.41770279407501221 0.41770279407501221
0.57806706428527832 0.57806706428527832 0.57806706428527832
0.72454065084457397 0.72454065084457397 0.72454065084457397
0.84966325759887695 0.84966325759887695 0.84966325759887695
0.46635213494300842 0.46635213494300842 0.46635213494300842
0.53373712301254272 0.53373712301254272 0.53373712301254272
0.65858668088912964 0.65858668088912964 0.65858668088912964
0.79074996709823608 0.79074996709823608 0.79074996709823608
0.91245108842849731 0.91245108842849731 0.91245108842849731
0.50842177867889404 0.50842177867889404 0.50842177867889404
0.57623481750488281 0.57623481750488281 0.57623481750488281
0.67745745182037354 0.67745745182037354 0.67745745182037354
0.84071093797683716 0.84071093797683716 0.84071093797683716
0.93621981143951416 0.93621981143951416 0.93621981143951416
0.18577614426612854 0.18589749932289124 0.18589749932289124
0.26211905479431152 0.26211905479431152 0.26211905479431152
0.45546042919158936 0.45549076795578003 0.45549076795578003
0.67771321535110474 0.67771321535110474 0.67771321535110474
0.82018756866455078 0.82018756866455078 0.82018756866455078
0.14975379407405853 0.14975379407405853 0.14975379407405853
0.30395027995109558 0.30395027995109558 0.30395027995109558
0.51121371984481812 0.51121371984481812 0.51121371984481812
0.70154464244842529 0.70154464244842529 0.70154464244842529
0.83511590957641602 0.83511590957641602 0.83511590957641602
0.33494254946708679 0.33494254946708679 0.33494254946708679
0.44305840134620667 0.44305840134620667 0.44305840134620667
0.59775835275650024 0.59775835275650024 0.59775835275650024
0.74236232042312622 0.74236232042312622 0.74236232042312622
0.87665349245071411 0.87665349245071411 0.87665349245071411
0.505126953125 0.505126953125 0.505126953125
0.56854903697967529 0.56854903697967529 0.56854903697967529
0.68537414073944092 0.68537414073944092 0.68537414073944092
0.80964475870132446 0.80964475870132446 0.80964475870132446
0.94273096323013306 0.94273096323013306 0.94273096323013306
0.57710206508636475 0.57710206508636475 0.57710206508636475
0.63166028261184692 0.63166028261184692 0.63166028261184692
0.76079857349395752 0.76079857349395752 0.76079857349395752
0.88300508260726929 0.88300508260726929 0.88300508260726929
0.96378868818283081 0.96378868818283081 0.96378868818283081
0.35104727745056152 0.35104727745056152 0.35104727745056152
0.38285690546035767 0.38285690546035767 0.38285690546035767
0.49996492266654968 0.49999779462814331 0.49999779462814331
0.67969644069671631 0.67969644069671631 0.67969644069671631
0.78497183322906494 0.78497183322906494 0.78497183322906494
0.20843608677387238 0.20843608677387238 0.20843608677387238
0.32933366298675537 0.32933366298675537 0.32933366298675537
0.50941389799118042 0.50942444801330566 0.50942444801330566
0.70521265268325806 0.70521265268325806 0.70521265268325806
0.81525105237960815 0.81525105237960815 0.81525105237960815
0.28367772698402405 0.28367772698402405 0.28367772698402405
0.43857622146606445 0.43857622146606445 0.43857622146606445
0.60090458393096924 0.60090458393096924 0.60090458393096924
0.755806565284729 0.755806565284729 0.755806565284729
0.87623590230941772 0.87623590230941772 0.87623590230941772
0.51171255111694336 0.51171255111694336 0.51171255111694336
0.57824218273162842 0.57824218273162842 0.57824218273162842
0.70624774694442749 0.70624774694442749 0.70624774694442749
0.82769638299942017 0.82769638299942017 0.82769638299942017
0.94210916757583618 0.94210916757583618 0.94210916757583618
0.63618952035903931 0.63618952035903931 0.63618952035903931
0.65300267934799194 0.65300267934799194 0.65300267934799194
0.78002399206161499 0.78002399206161499 0.78002399206161499
0.8943292498588562 0.8943292498588562 0.8943292498588562
0.96663880348205566 0.96663880348205566 0.96663880348205566
