luts/fujixtransiii/fuji_xtrans_iii_astia.cube
# Created by: G'MIC (https://gmic.eu)
TITLE "fuji_xtrans_iii_astia"
# LUT size
LUT_3D_SIZE 7
# Data domain
DOMAIN_MIN 0.0 0.0 0.0
DOMAIN_MAX 1.0 1.0 1.0
# LUT data points
0.0087847542017698288 0.013076214119791985 0.010874370113015175
0.10538893938064575 0.020159313455224037 0.012015743181109428
0.3355557918548584 0.033718511462211609 0.0074212467297911644
0.58837759494781494 0.10019179433584213 0.023304928094148636
0.79455214738845825 0.15807931125164032 0.10764716565608978
0.86325788497924805 0.18912798166275024 0.17152079939842224
0.89530777931213379 0.21622961759567261 0.20672595500946045
0.0063876733183860779 0.08840448409318924 0.0095965666696429253
0.10827673971652985 0.097642891108989716 0.0073380414396524429
0.34334298968315125 0.12989750504493713 0.0088347792625427246
0.59699130058288574 0.17606756091117859 0.021683981642127037
0.79486703872680664 0.21443760395050049 0.084713384509086609
0.89063704013824463 0.24588634073734283 0.16119734942913055
0.94036376476287842 0.31388166546821594 0.20988678932189941
0.0065861120820045471 0.2835175096988678 0.0018133275443688035
0.058375895023345947 0.31545239686965942 0.00029352225828915834
0.33666643500328064 0.34570026397705078 0.0046550524421036243
0.58572161197662354 0.35387381911277771 0.0097841750830411911
0.76851010322570801 0.37909659743309021 0.038131128996610641
0.90153104066848755 0.38961294293403625 0.12960433959960938
0.94796538352966309 0.38578611612319946 0.17630885541439056
0.0026896607596427202 0.4479350745677948 0.0015300227096304297
0.042534742504358292 0.49515733122825623 0
0.29285955429077148 0.53188687562942505 0.00010896570893237367
0.56305146217346191 0.54519325494766235 0.00044081444502808154
0.73218345642089844 0.5581163763999939 0.014644727110862732
0.84495067596435547 0.57343870401382446 0.059099145233631134
0.91349130868911743 0.59849804639816284 0.16770042479038239
0.011347916908562183 0.51453495025634766 0.01324488315731287
0.031328238546848297 0.60726362466812134 0.0033576516434550285
0.27743974328041077 0.61178547143936157 0.00088225718354806304
0.55126762390136719 0.68027126789093018 0.0026991001795977354
0.73986506462097168 0.67399764060974121 0.010079402476549149
0.83833706378936768 0.68335497379302979 0.053327091038227081
0.89779019355773926 0.71695208549499512 0.1639779657125473
0.015209975652396679 0.55379939079284668 0.026344569399952888
0.069112785160541534 0.67901605367660522 0.054772261530160904
0.27944126725196838 0.7120521068572998 0.035506080836057663
0.55703747272491455 0.71697986125946045 0.013209234923124313
0.69515222311019897 0.71467572450637817 0.043357685208320618
0.87381827831268311 0.72300702333450317 0.13449598848819733
0.93068498373031616 0.74754112958908081 0.23176595568656921
0.023412726819515228 0.59984362125396729 0.013392250053584576
0.079851426184177399 0.7102552056312561 0.070247739553451538
0.27950695157051086 0.74224370718002319 0.049105387181043625
0.57597190141677856 0.74953508377075195 0.038979146629571915
0.70740675926208496 0.7772979736328125 0.14352604746818542
0.85053962469100952 0.78728336095809937 0.24405036866664886
0.91837817430496216 0.78875178098678589 0.29016029834747314
0.0077459746971726418 0.02421640045940876 0.14511016011238098
0.12953068315982819 0.044381279498338699 0.13051570951938629
0.3463607132434845 0.078286699950695038 0.14704863727092743
0.61073440313339233 0.13826434314250946 0.18701888620853424
0.82403790950775146 0.16589120030403137 0.26104167103767395
0.89751261472702026 0.19831591844558716 0.29643464088439941
0.98957306146621704 0.28214770555496216 0.4358099102973938
0.0096077416092157364 0.11803705245256424 0.13745321333408356
0.1156170591711998 0.13031481206417084 0.12133462727069855
0.35805514454841614 0.16860675811767578 0.12471345067024231
0.60457497835159302 0.19527900218963623 0.1515507698059082
0.80155646800994873 0.23754534125328064 0.22257213294506073
0.93100607395172119 0.28470495343208313 0.30705606937408447
0.9911123514175415 0.31455850601196289 0.39156985282897949
0.0049015418626368046 0.31654328107833862 0.093360453844070435
0.064096502959728241 0.3277733325958252 0.068335302174091339
0.33606478571891785 0.34537684917449951 0.07155272364616394
0.58738249540328979 0.36282587051391602 0.095954760909080505
0.77131915092468262 0.39836844801902771 0.16442884504795074
0.91165268421173096 0.41732513904571533 0.26541078090667725
0.97929990291595459 0.44030240178108215 0.35167345404624939
0.0034110574051737785 0.51183962821960449 0.051356595009565353
0.041521482169628143 0.53509283065795898 0.033869888633489609
0.27437341213226318 0.54877990484237671 0.033354457467794418
0.5518796443939209 0.55942058563232422 0.04790274053812027
0.7401311993598938 0.56981295347213745 0.097994394600391388
0.8787161111831665 0.58253085613250732 0.19868633151054382
0.96102571487426758 0.59842634201049805 0.26063323020935059
0.0077017988078296185 0.59894877672195435 0.14117191731929779
0.035465434193611145 0.65946090221405029 0.030741134658455849
0.23934806883335114 0.69029748439788818 0.046175308525562286
0.52637314796447754 0.70530885457992554 0.058389820158481598
0.7153855562210083 0.70437514781951904 0.096418358385562897
0.85547441244125366 0.72268128395080566 0.19735129177570343
0.96208852529525757 0.74734395742416382 0.26985052227973938
0.011277277022600174 0.62938600778579712 0.22262036800384521
0.079971760511398315 0.72909438610076904 0.11537344008684158
0.25614619255065918 0.76092231273651123 0.14810051023960114
0.5553099513053894 0.76037096977233887 0.090350627899169922
0.69453293085098267 0.77676284313201904 0.13499905169010162
0.85639935731887817 0.79259109497070312 0.26467886567115784
0.91838729381561279 0.79126876592636108 0.2914072573184967
0.0093552237376570702 0.65476244688034058 0.38116684556007385
0.13526315987110138 0.76032829284667969 0.20267030596733093
0.26146700978279114 0.78427314758300781 0.21642021834850311
0.51157885789871216 0.78040522336959839 0.18708685040473938
0.68465268611907959 0.79268103837966919 0.17650146782398224
0.86055994033813477 0.8101925253868103 0.29187646508216858
0.92028909921646118 0.83969849348068237 0.37538832426071167
0.025953121483325958 0.089680932462215424 0.48086553812026978
0.19045856595039368 0.10212694108486176 0.48700422048568726
0.39393946528434753 0.13260726630687714 0.46063464879989624
0.62139761447906494 0.17558255791664124 0.48122429847717285
0.81949818134307861 0.21067740023136139 0.47949650883674622
0.93593114614486694 0.25608471035957336 0.52529263496398926
0.99858158826828003 0.29835283756256104 0.59683597087860107
0.018089728429913521 0.17700549960136414 0.43169155716896057
0.14876215159893036 0.19263380765914917 0.42709088325500488
0.3768007755279541 0.21504586935043335 0.40650483965873718
0.60759550333023071 0.24618308246135712 0.41545110940933228
0.79988706111907959 0.28818407654762268 0.44146266579627991
0.93445402383804321 0.32221248745918274 0.48308262228965759
0.99862861633300781 0.36445027589797974 0.50368261337280273
0.0081626297906041145 0.34951391816139221 0.38458079099655151
0.1044379323720932 0.36091744899749756 0.37085115909576416
0.3566972017288208 0.3724212646484375 0.36749222874641418
0.58777254819869995 0.39222064614295959 0.3675503134727478
0.77909094095230103 0.41721495985984802 0.40800487995147705
0.91463971138000488 0.44557100534439087 0.4599020779132843
0.99289697408676147 0.45085358619689941 0.4804074764251709
0.0084438696503639221 0.54174888134002686 0.36080700159072876
0.061699826270341873 0.54883289337158203 0.31876897811889648
0.30949556827545166 0.55468058586120605 0.31196600198745728
0.55617326498031616 0.56837588548660278 0.32003575563430786
0.74369555711746216 0.57869338989257812 0.3481748104095459
0.87868160009384155 0.59563696384429932 0.39759594202041626
0.98727154731750488 0.61318361759185791 0.45168769359588623
0.0076724933460354805 0.63554561138153076 0.39981254935264587
0.06501343846321106 0.69072836637496948 0.31485599279403687
0.26672372221946716 0.70171743631362915 0.27314260601997375
0.53215920925140381 0.70278251171112061 0.28745153546333313
0.71988821029663086 0.71089679002761841 0.32470247149467468
0.86385148763656616 0.72836720943450928 0.36910143494606018
0.97663825750350952 0.74859344959259033 0.39440631866455078
0.061847701668739319 0.75311994552612305 0.3764721155166626
0.098809048533439636 0.77465295791625977 0.33345919847488403
0.26803427934646606 0.78657436370849609 0.2917478084564209
0.51328879594802856 0.79562473297119141 0.31073027849197388
0.69755405187606812 0.81298494338989258 0.35828500986099243
0.85966390371322632 0.81567001342773438 0.37797001004219055
0.95236951112747192 0.8307492733001709 0.42081263661384583
0.070758223533630371 0.77001690864562988 0.35325774550437927
0.11134601384401321 0.78302353620529175 0.34689092636108398
0.28677627444267273 0.81695020198822021 0.41332763433456421
0.49762627482414246 0.83109080791473389 0.41137018799781799
0.68183213472366333 0.83142918348312378 0.38721597194671631
0.87304109334945679 0.85074490308761597 0.4234708845615387
0.94592326879501343 0.8639875054359436 0.45652076601982117
0.085071727633476257 0.14042085409164429 0.73954015970230103
0.26504552364349365 0.1605638712644577 0.74383324384689331
0.45462289452552795 0.19219058752059937 0.7245059609413147
0.63659477233886719 0.23379577696323395 0.69413191080093384
0.80782204866409302 0.28025627136230469 0.69421350955963135
0.93393135070800781 0.31604203581809998 0.68890517950057983
0.99749267101287842 0.35452479124069214 0.7108311653137207
0.035208549350500107 0.24106231331825256 0.72201764583587646
0.20521636307239532 0.26484525203704834 0.7234761118888855
0.413238525390625 0.29600715637207031 0.6931387186050415
0.61820805072784424 0.31996217370033264 0.67153948545455933
0.79795747995376587 0.35829839110374451 0.67025607824325562
0.92945414781570435 0.38144409656524658 0.66874760389328003
0.99274212121963501 0.40359202027320862 0.68462246656417847
0.014874342828989029 0.40009045600891113 0.67702794075012207
0.15351781249046326 0.41042852401733398 0.67253249883651733
0.38538450002670288 0.42183899879455566 0.65269428491592407
0.59887582063674927 0.44058841466903687 0.64410758018493652
0.78077024221420288 0.46066248416900635 0.63932907581329346
0.90605896711349487 0.48535862565040588 0.65148389339447021
0.99424654245376587 0.50338327884674072 0.66500353813171387
0.014985177665948868 0.56517887115478516 0.62348365783691406
0.11374462395906448 0.56723535060882568 0.61068344116210938
0.34468623995780945 0.57034170627593994 0.5897214412689209
0.57343250513076782 0.58098083734512329 0.57706177234649658
0.75461316108703613 0.5919075608253479 0.59041011333465576
0.88703185319900513 0.61533546447753906 0.60686683654785156
0.98829150199890137 0.6333814263343811 0.61830753087997437
0.024375885725021362 0.6907888650894165 0.62920063734054565
0.11516560614109039 0.70169579982757568 0.56894087791442871
0.32425016164779663 0.70625633001327515 0.53946185111999512
0.55212962627410889 0.71110421419143677 0.54380100965499878
0.7290414571762085 0.72021621465682983 0.54005450010299683
0.86706459522247314 0.73759061098098755 0.55290919542312622
0.97680079936981201 0.75908547639846802 0.58077317476272583
0.054884307086467743 0.76967251300811768 0.66932696104049683
0.15223541855812073 0.79226946830749512 0.5830531120300293
0.30909383296966553 0.80600506067276001 0.5377088189125061
0.50765591859817505 0.81689703464508057 0.52497178316116333
0.71289253234863281 0.81178444623947144 0.51688075065612793
0.86354678869247437 0.83687734603881836 0.55309802293777466
0.9732244610786438 0.86683666706085205 0.58044850826263428
0.065067708492279053 0.78481948375701904 0.68786072731018066
0.17826254665851593 0.81360501050949097 0.61809247732162476
0.30885475873947144 0.82559460401535034 0.547160804271698
0.50467288494110107 0.83105885982513428 0.52587485313415527
0.7126762866973877 0.83652377128601074 0.5330621600151062
0.88166850805282593 0.88354837894439697 0.57017534971237183
0.97162330150604248 0.90031701326370239 0.59731709957122803
0.23308809101581573 0.16423715651035309 0.86289077997207642
0.35192087292671204 0.1978188157081604 0.87190824747085571
0.50800371170043945 0.24820201098918915 0.87197750806808472
0.6681981086730957 0.29768627882003784 0.8690561056137085
0.8131597638130188 0.34394374489784241 0.85222029685974121
0.93128669261932373 0.38258105516433716 0.84640014171600342
0.99215787649154663 0.40765270590782166 0.86677247285842896
0.097386471927165985 0.31388252973556519 0.91388869285583496
0.27440571784973145 0.35027340054512024 0.92177242040634155
0.45724490284919739 0.37420415878295898 0.88423675298690796
0.63524484634399414 0.39862436056137085 0.85914367437362671
0.79295563697814941 0.42719766497612 0.83911705017089844
0.92095440626144409 0.44952654838562012 0.82709747552871704
0.99134957790374756 0.46649438142776489 0.83228009939193726
0.057070847600698471 0.45541909337043762 0.87680536508560181
0.2285805344581604 0.47850048542022705 0.87557506561279297
0.42937383055686951 0.48626598715782166 0.85023599863052368
0.60944497585296631 0.50535100698471069 0.82562375068664551
0.77551519870758057 0.52457535266876221 0.8074566125869751
0.90259021520614624 0.53942674398422241 0.80618739128112793
0.99347448348999023 0.56204479932785034 0.81134617328643799
0.042681913822889328 0.59116655588150024 0.82918000221252441
0.19388841092586517 0.60032373666763306 0.82743650674819946
0.39715361595153809 0.60318595170974731 0.80192816257476807
0.59462904930114746 0.61568146944046021 0.78407055139541626
0.75764650106430054 0.628318190574646 0.779121994972229
0.88946038484573364 0.64200389385223389 0.78086680173873901
0.98835402727127075 0.66959398984909058 0.77832973003387451
0.055357526987791061 0.71382278203964233 0.79361635446548462
0.20310325920581818 0.71261674165725708 0.78376930952072144
0.38876879215240479 0.72159993648529053 0.76070559024810791
0.57657098770141602 0.72963345050811768 0.74516439437866211
0.73808944225311279 0.73536241054534912 0.73793613910675049
0.87469404935836792 0.75039088726043701 0.73862576484680176
0.98239147663116455 0.78735613822937012 0.75054341554641724
0.13016419112682343 0.81708186864852905 0.78404062986373901
0.223054438829422 0.81639003753662109 0.7578270435333252
0.37784436345100403 0.81236875057220459 0.74073857069015503
0.56160658597946167 0.82909440994262695 0.7311745285987854
0.73139971494674683 0.82905083894729614 0.73103481531143188
0.87415128946304321 0.84395253658294678 0.71837937831878662
0.97515439987182617 0.88586485385894775 0.73395967483520508
0.14299167692661285 0.82911562919616699 0.78729093074798584
0.27144512534141541 0.85483115911483765 0.80469459295272827
0.39803019165992737 0.86415845155715942 0.79233449697494507
0.58376437425613403 0.87189614772796631 0.78833270072937012
0.73655241727828979 0.87881535291671753 0.76118379831314087
0.89565110206604004 0.89259862899780273 0.71757924556732178
0.9748605489730835 0.92344766855239868 0.72698283195495605
0.37327209115028381 0.15701237320899963 0.95707958936691284
0.45668509602546692 0.21478268504142761 0.95509308576583862
0.57643872499465942 0.27732908725738525 0.95286494493484497
0.71321284770965576 0.34147244691848755 0.95561903715133667
0.83807724714279175 0.39079025387763977 0.94904118776321411
0.9391326904296875 0.44198477268218994 0.95445454120635986
0.99490517377853394 0.49482569098472595 0.99005681276321411
0.2246585339307785 0.36168542504310608 0.96855288743972778
0.36788591742515564 0.41830149292945862 0.97890615463256836
0.51155894994735718 0.44116994738578796 0.97617965936660767
0.65921199321746826 0.46906572580337524 0.97223609685897827
0.80227029323577881 0.49666157364845276 0.96923530101776123
0.91538256406784058 0.5185970664024353 0.95242369174957275
0.99304330348968506 0.53175121545791626 0.96353930234909058
0.12014131993055344 0.51380544900894165 0.98249417543411255
0.31536126136779785 0.54412400722503662 0.98844689130783081
0.47224608063697815 0.55197107791900635 0.98273271322250366
0.63270562887191772 0.56540131568908691 0.96152007579803467
0.77691298723220825 0.58334004878997803 0.9524645209312439
0.89807087182998657 0.60500705242156982 0.94420838356018066
0.99057126045227051 0.60833519697189331 0.9426645040512085
0.11206274479627609 0.63132709264755249 0.96909445524215698
0.29890182614326477 0.64421325922012329 0.96387374401092529
0.45838010311126709 0.64897638559341431 0.9477723240852356
0.62625753879547119 0.65920823812484741 0.93210703134536743
0.76495325565338135 0.6692270040512085 0.9263617992401123
0.89144694805145264 0.67666161060333252 0.92882245779037476
0.99206101894378662 0.69174087047576904 0.93206477165222168
0.13502529263496399 0.73811560869216919 0.94652867317199707
0.3020254373550415 0.74279117584228516 0.93924486637115479
0.45059284567832947 0.74973171949386597 0.91781902313232422
0.6101919412612915 0.75529271364212036 0.90382510423660278
0.75597041845321655 0.76156497001647949 0.89653438329696655
0.87969541549682617 0.77371728420257568 0.89696639776229858
0.98710519075393677 0.8002745509147644 0.90276080369949341
0.21296276152133942 0.82982045412063599 0.93236535787582397
0.30989128351211548 0.83880293369293213 0.92723041772842407
0.43896958231925964 0.84750467538833618 0.91311007738113403
0.59404826164245605 0.85279840230941772 0.89675807952880859
0.75414049625396729 0.85358583927154541 0.88287961483001709
0.87265008687973022 0.86302918195724487 0.87972474098205566
0.98098373413085938 0.90183573961257935 0.89563488960266113
0.34234333038330078 0.89619171619415283 0.96056264638900757
0.3181021511554718 0.88286316394805908 0.92351806163787842
0.43269443511962891 0.89032882452011108 0.9082716703414917
0.59016495943069458 0.89814025163650513 0.91417628526687622
0.75512361526489258 0.90227848291397095 0.87785333395004272
0.88742858171463013 0.91531163454055786 0.8778681755065918
0.98361802101135254 0.93683546781539917 0.88821631669998169
0.50054782629013062 0.21992906928062439 1
0.55986243486404419 0.26600551605224609 0.99919462203979492
0.65230214595794678 0.32120078802108765 0.99758166074752808
0.76744323968887329 0.39867469668388367 0.99552208185195923
0.87273484468460083 0.47925278544425964 0.99363678693771362
0.9570268988609314 0.54802632331848145 0.99602425098419189
0.98818683624267578 0.57402873039245605 0.99849849939346313
0.40302956104278564 0.36794823408126831 0.99632155895233154
0.51102817058563232 0.43405163288116455 0.99439018964767456
0.61531507968902588 0.48343539237976074 0.99195337295532227
0.73344326019287109 0.52800977230072021 0.9906620979309082
0.85380339622497559 0.57382583618164062 0.99275177717208862
0.94570285081863403 0.59979504346847534 0.99454551935195923
0.98750084638595581 0.59664928913116455 0.99932444095611572
0.17302180826663971 0.5630260705947876 0.99935412406921387
0.37341946363449097 0.60233259201049805 0.99769777059555054
0.54288607835769653 0.62531012296676636 0.99608463048934937
0.67777162790298462 0.64241081476211548 0.99601548910140991
0.81585884094238281 0.65105199813842773 0.99498122930526733
0.92698514461517334 0.66255414485931396 0.99552756547927856
0.98813694715499878 0.67434513568878174 0.99934548139572144
0.18499036133289337 0.67346179485321045 0.99940162897109985
0.35515347123146057 0.69806063175201416 0.99989587068557739
0.52684283256530762 0.71462053060531616 0.99738746881484985
0.66676783561706543 0.72155922651290894 0.99405252933502197
0.79833841323852539 0.72917711734771729 0.98934149742126465
0.91763502359390259 0.73689728975296021 0.99033129215240479
0.99136531352996826 0.74020558595657349 0.99868166446685791
0.19296106696128845 0.77776330709457397 0.99978065490722656
0.35592961311340332 0.78769797086715698 0.99933290481567383
0.52415335178375244 0.7994844913482666 0.99562054872512817
0.65614026784896851 0.80466210842132568 0.99109011888504028
0.78545200824737549 0.8116639256477356 0.99043738842010498
0.90031212568283081 0.82180655002593994 0.99238795042037964
0.99033933877944946 0.83300065994262695 0.99090766906738281
0.3009796142578125 0.87821626663208008 0.99713259935379028
0.37661191821098328 0.88536626100540161 0.99585729837417603
0.5057365894317627 0.87968164682388306 0.99053466320037842
0.64553308486938477 0.89118373394012451 0.9869266152381897
0.78582561016082764 0.89710706472396851 0.98836642503738403
0.9105294942855835 0.90582782030105591 0.99150991439819336
0.99026858806610107 0.92413663864135742 0.98549169301986694
0.35823604464530945 0.90914070606231689 0.9865339994430542
0.36177602410316467 0.90067601203918457 0.97860258817672729
0.48574525117874146 0.90385812520980835 0.97276854515075684
0.63889563083648682 0.91244912147521973 0.9860222339630127
0.77949357032775879 0.92682206630706787 0.98771554231643677
0.90750312805175781 0.93467062711715698 0.98751276731491089
0.98821878433227539 0.95587754249572754 0.98148626089096069
