luts/fujixtransiii/fuji_xtrans_iii_astia.cube
# Created by: G'MIC (https://gmic.eu)
TITLE "fuji_xtrans_iii_astia"
# LUT size
LUT_3D_SIZE 13
# Data domain
DOMAIN_MIN 0.0 0.0 0.0
DOMAIN_MAX 1.0 1.0 1.0
# LUT data points
0.0087847542017698288 0.013076214119791985 0.010874370113015175
0.032793890684843063 0.013970961794257164 0.010022765956819057
0.10538893938064575 0.020159313455224037 0.012015743181109428
0.20156353712081909 0.026252446696162224 0.011245098896324635
0.3355557918548584 0.033718511462211609 0.0074212467297911644
0.47039699554443359 0.062861651182174683 0.0093870125710964203
0.58837759494781494 0.10019179433584213 0.023304928094148636
0.71706873178482056 0.13734522461891174 0.058108985424041748
0.79455214738845825 0.15807931125164032 0.10764716565608978
0.84173732995986938 0.17702215909957886 0.14939136803150177
0.86325788497924805 0.18912798166275024 0.17152079939842224
0.88086956739425659 0.20038922131061554 0.19460470974445343
0.89530777931213379 0.21622961759567261 0.20672595500946045
0.0077525121159851551 0.033622980117797852 0.011471991427242756
0.031736694276332855 0.038710545748472214 0.010087525472044945
0.10894355177879333 0.046960074454545975 0.010399163700640202
0.20788900554180145 0.05781758576631546 0.010843419469892979
0.33567813038825989 0.072288081049919128 0.010146705433726311
0.46737545728683472 0.092593938112258911 0.012487823143601418
0.60029309988021851 0.11900374293327332 0.02198873832821846
0.71686804294586182 0.14668993651866913 0.056148946285247803
0.7941209077835083 0.16882611811161041 0.098189368844032288
0.8498578667640686 0.18886470794677734 0.14967085421085358
0.87337630987167358 0.20334826409816742 0.17230932414531708
0.8912082314491272 0.22019088268280029 0.18717958033084869
0.92200720310211182 0.25872215628623962 0.22597891092300415
0.0063876733183860779 0.08840448409318924 0.0095965666696429253
0.028549943119287491 0.095732823014259338 0.0080543821677565575
0.10827673971652985 0.097642891108989716 0.0073380414396524429
0.2197122722864151 0.11288585513830185 0.0091035431250929832
0.34334298968315125 0.12989750504493713 0.0088347792625427246
0.46966758370399475 0.15237721800804138 0.013524658046662807
0.59699130058288574 0.17606756091117859 0.021683981642127037
0.71278762817382812 0.19527570903301239 0.043656833469867706
0.79486703872680664 0.21443760395050049 0.084713384509086609
0.85448062419891357 0.22911620140075684 0.1297449916601181
0.89063704013824463 0.24588634073734283 0.16119734942913055
0.91985148191452026 0.28371670842170715 0.18877758085727692
0.94036376476287842 0.31388166546821594 0.20988678932189941
0.0071937711909413338 0.18724469840526581 0.006663887295871973
0.028924964368343353 0.19042675197124481 0.0060461605899035931
0.085855312645435333 0.18674911558628082 0.0040523456409573555
0.21033857762813568 0.20592665672302246 0.0058539598248898983
0.34026134014129639 0.22608721256256104 0.0071972864679992199
0.47266075015068054 0.24222804605960846 0.010704713873565197
0.59559017419815063 0.25750768184661865 0.020285272970795631
0.7035592794418335 0.2689615786075592 0.029765425249934196
0.78832352161407471 0.28825899958610535 0.059149991720914841
0.85341787338256836 0.31046831607818604 0.10169731825590134
0.92217570543289185 0.32831746339797974 0.16389875113964081
0.93729227781295776 0.3401128351688385 0.17802900075912476
0.9426390528678894 0.34239694476127625 0.18344798684120178
0.0065861120820045471 0.2835175096988678 0.0018133275443688035
0.020279079675674438 0.30469369888305664 0.0017913818592205644
0.058375895023345947 0.31545239686965942 0.00029352225828915834
0.18636313080787659 0.32718425989151001 0.0022574181202799082
0.33666643500328064 0.34570026397705078 0.0046550524421036243
0.47126021981239319 0.35129690170288086 0.0065327663905918598
0.58572161197662354 0.35387381911277771 0.0097841750830411911
0.68568533658981323 0.36173796653747559 0.017184492200613022
0.76851010322570801 0.37909659743309021 0.038131128996610641
0.83515149354934692 0.38936078548431396 0.076388277113437653
0.90153104066848755 0.38961294293403625 0.12960433959960938
0.93534946441650391 0.3688386082649231 0.15736892819404602
0.94796538352966309 0.38578611612319946 0.17630885541439056
0.0027020922861993313 0.38126185536384583 1.077091019396903e-05
0.012091991491615772 0.42138060927391052 3.5903034586226568e-05
0.042071517556905746 0.42618456482887268 0
0.14474397897720337 0.44031897187232971 0.00043358895345591009
0.31674715876579285 0.45240119099617004 0.0024293786846101284
0.45867389440536499 0.45890256762504578 0.0034764907322824001
0.57115334272384644 0.45969107747077942 0.004147757776081562
0.66319316625595093 0.45670533180236816 0.0081099718809127808
0.74801188707351685 0.47090139985084534 0.019659258425235748
0.80957424640655518 0.48428890109062195 0.04021904245018959
0.84855920076370239 0.48563486337661743 0.066205687820911407
0.9001196026802063 0.46771958470344543 0.12200869619846344
0.94252783060073853 0.50142693519592285 0.18911969661712646
0.0026896607596427202 0.4479350745677948 0.0015300227096304297
0.010304814204573631 0.48721757531166077 7.1088004915509373e-05
0.042534742504358292 0.49515733122825623 0
0.13180665671825409 0.52001643180847168 0
0.29285955429077148 0.53188687562942505 0.00010896570893237367
0.43249401450157166 0.53212130069732666 0.00051661470206454396
0.56305146217346191 0.54519325494766235 0.00044081444502808154
0.64987820386886597 0.55148935317993164 0.0050002154894173145
0.73218345642089844 0.5581163763999939 0.014644727110862732
0.80234271287918091 0.5683666467666626 0.024089379236102104
0.84495067596435547 0.57343870401382446 0.059099145233631134
0.86746680736541748 0.58059680461883545 0.090837471187114716
0.91349130868911743 0.59849804639816284 0.16770042479038239
0.0058929743245244026 0.48011043667793274 0.0029731153044849634
0.011426200158894062 0.51744270324707031 6.4326268329750746e-06
0.037541903555393219 0.56051576137542725 0.00037630865699611604
0.13318733870983124 0.55750387907028198 0
0.29639354348182678 0.58781874179840088 0
0.38964539766311646 0.59404140710830688 0
0.55268263816833496 0.61233383417129517 0.0002692428242880851
0.6410599946975708 0.62507569789886475 0.0034429063089191914
0.72998493909835815 0.62581712007522583 0.010556568391621113
0.802909255027771 0.63674229383468628 0.020896103233098984
0.83810639381408691 0.63810992240905762 0.055256564170122147
0.86451566219329834 0.65164154767990112 0.099042437970638275
0.90502375364303589 0.66387158632278442 0.16795919835567474
0.011347916908562183 0.51453495025634766 0.01324488315731287
0.01333440188318491 0.53920263051986694 0.00042953490628860891
0.031328238546848297 0.60726362466812134 0.0033576516434550285
0.10808482766151428 0.58148324489593506 0.00071782129816710949
0.27743974328041077 0.61178547143936157 0.00088225718354806304
0.38117781281471252 0.64725601673126221 0.00054458918748423457
0.55126762390136719 0.68027126789093018 0.0026991001795977354
0.64717984199523926 0.68113189935684204 0.0042707556858658791
0.73986506462097168 0.67399764060974121 0.010079402476549149
0.80800586938858032 0.67940562963485718 0.017430802807211876
0.83833706378936768 0.68335497379302979 0.053327091038227081
0.86347067356109619 0.6992153525352478 0.10466401278972626
0.89779019355773926 0.71695208549499512 0.1639779657125473
0.013423396274447441 0.54706156253814697 0.024788904935121536
0.015358375385403633 0.53993123769760132 0.0024695901665836573
0.036527581512928009 0.59774637222290039 0.012127356603741646
0.11101152002811432 0.62616503238677979 0.028439704328775406
0.28060474991798401 0.65116041898727417 0.015854973345994949
0.39899566769599915 0.67897075414657593 0.0044095208868384361
0.54524940252304077 0.69663459062576294 0.0068075293675065041
0.63121020793914795 0.69975316524505615 0.0093765556812286377
0.71578460931777954 0.69184404611587524 0.011845323257148266
0.80569887161254883 0.68905270099639893 0.024591917172074318
0.85635614395141602 0.70514345169067383 0.085275433957576752
0.89571547508239746 0.7269025444984436 0.163418248295784
0.92561417818069458 0.74124884605407715 0.21651840209960938
0.015209975652396679 0.55379939079284668 0.026344569399952888
0.019329370930790901 0.54604607820510864 0.008667919784784317
0.069112785160541534 0.67901605367660522 0.054772261530160904
0.12066010385751724 0.71152091026306152 0.067851126194000244
0.27944126725196838 0.7120521068572998 0.035506080836057663
0.4088384211063385 0.71006250381469727 0.0067837284877896309
0.55703747272491455 0.71697986125946045 0.013209234923124313
0.62152928113937378 0.71575367450714111 0.019924882799386978
0.69515222311019897 0.71467572450637817 0.043357685208320618
0.8038972020149231 0.7017788290977478 0.049062348902225494
0.87381827831268311 0.72300702333450317 0.13449598848819733
0.91962182521820068 0.74259793758392334 0.21278367936611176
0.93068498373031616 0.74754112958908081 0.23176595568656921
0.022225068882107735 0.59209573268890381 0.018397476524114609
0.0258192028850317 0.58666682243347168 0.012944000773131847
0.078614749014377594 0.70668751001358032 0.065253570675849915
0.12817679345607758 0.7344437837600708 0.079339854419231415
0.28323572874069214 0.73839682340621948 0.041672125458717346
0.41197779774665833 0.73861962556838989 0.013503684662282467
0.57700127363204956 0.73857969045639038 0.024848653003573418
0.62372171878814697 0.73805129528045654 0.050537377595901489
0.70221555233001709 0.74987781047821045 0.089564017951488495
0.79448103904724121 0.74340438842773438 0.13252377510070801
0.85480928421020508 0.75286674499511719 0.1784387081861496
0.91227513551712036 0.75781619548797607 0.23394925892353058
0.92461317777633667 0.76066547632217407 0.24898900091648102
0.023412726819515228 0.59984362125396729 0.013392250053584576
0.02625579759478569 0.60155099630355835 0.014909452758729458
0.079851426184177399 0.7102552056312561 0.070247739553451538
0.12487954646348953 0.738045334815979 0.083189927041530609
0.27950695157051086 0.74224370718002319 0.049105387181043625
0.40963032841682434 0.74614572525024414 0.019426802173256874
0.57597190141677856 0.74953508377075195 0.038979146629571915
0.60196805000305176 0.76825940608978271 0.092766687273979187
0.70740675926208496 0.7772979736328125 0.14352604746818542
0.80195105075836182 0.78172487020492554 0.21723455190658569
0.85053962469100952 0.78728336095809937 0.24405036866664886
0.90066778659820557 0.78760093450546265 0.27588862180709839
0.91837817430496216 0.78875178098678589 0.29016029834747314
0.0075585907325148582 0.016761256381869316 0.035882718861103058
0.027631886303424835 0.018167996779084206 0.036396849900484085
0.10443619638681412 0.027177922427654266 0.045771252363920212
0.20982113480567932 0.0405159592628479 0.051791023463010788
0.29755017161369324 0.048858270049095154 0.045029271394014359
0.45196825265884399 0.084502607583999634 0.044983342289924622
0.60414093732833862 0.12052887678146362 0.063376724720001221
0.72464489936828613 0.14430741965770721 0.11397503316402435
0.82360494136810303 0.15698044002056122 0.18702518939971924
0.86913824081420898 0.17960004508495331 0.225905641913414
0.88340282440185547 0.19208340346813202 0.23563018441200256
0.89717346429824829 0.20365388691425323 0.25597864389419556
0.94471949338912964 0.24917462468147278 0.32200205326080322
0.0094279870390892029 0.047327633947134018 0.048279855400323868
0.036032117903232574 0.044871117919683456 0.041530326008796692
0.1128956526517868 0.055359650403261185 0.044874556362628937
0.21241563558578491 0.067537195980548859 0.042809534817934036
0.33287706971168518 0.081498809158802032 0.039899490773677826
0.46999010443687439 0.10570336133241653 0.045218866318464279
0.60252255201339722 0.12817217409610748 0.063772581517696381
0.70926296710968018 0.15543322265148163 0.10773055255413055
0.80324006080627441 0.17861323058605194 0.15736888349056244
0.86782872676849365 0.20041808485984802 0.21026171743869781
0.89571940898895264 0.21788309514522552 0.23338459432125092
0.92678588628768921 0.24654990434646606 0.27497723698616028
0.96606713533401489 0.27706077694892883 0.3385654091835022
0.0077538881450891495 0.098407477140426636 0.047632943838834763
0.033651672303676605 0.10288893431425095 0.038539018481969833
0.10514046251773834 0.11003203690052032 0.041636791080236435
0.21675392985343933 0.12886042892932892 0.037319257855415344
0.34915238618850708 0.14411246776580811 0.037611719220876694
0.47638562321662903 0.16131539642810822 0.042870912700891495
0.60052013397216797 0.17868506908416748 0.056121330708265305
0.70489513874053955 0.1993086189031601 0.092445030808448792
0.79885923862457275 0.22265000641345978 0.13540424406528473
0.86594051122665405 0.24295578896999359 0.18807393312454224
0.91690540313720703 0.26507687568664551 0.24318881332874298
0.94265443086624146 0.28741684556007385 0.27074548602104187
0.96458381414413452 0.29625231027603149 0.31817695498466492
0.007215836551040411 0.19372732937335968 0.030238296836614609
0.024455275386571884 0.19180099666118622 0.025386510416865349
0.085208505392074585 0.20296558737754822 0.02677428349852562
0.20785263180732727 0.21777752041816711 0.028147393837571144
0.34457516670227051 0.23047870397567749 0.023083241656422615
0.47615507245063782 0.24320624768733978 0.030018286779522896
0.59955614805221558 0.25438699126243591 0.040569618344306946
0.70141232013702393 0.27272778749465942 0.072876110672950745
0.79024791717529297 0.29470574855804443 0.11354727298021317
0.86126667261123657 0.31254822015762329 0.16742706298828125
0.9195404052734375 0.32588011026382446 0.21570697426795959
0.93918097019195557 0.3349757194519043 0.22990638017654419
0.95947909355163574 0.34697085618972778 0.27772071957588196
0.0051273568533360958 0.3031037449836731 0.017118372023105621
0.016587560996413231 0.30506616830825806 0.015780430287122726
0.057202178984880447 0.31690651178359985 0.011454697698354721
0.17711290717124939 0.33026999235153198 0.01428064052015543
0.32989472150802612 0.33871996402740479 0.016044482588768005
0.4704386293888092 0.34678736329078674 0.0163421630859375
0.58902525901794434 0.3553009033203125 0.022821912541985512
0.69051527976989746 0.37016153335571289 0.047284968197345734
0.76989805698394775 0.38942667841911316 0.088780812919139862
0.8407357931137085 0.40206065773963928 0.14362926781177521
0.9018096923828125 0.40522083640098572 0.18713314831256866
0.93444526195526123 0.40828368067741394 0.20735429227352142
0.95654714107513428 0.43725284934043884 0.2412295937538147
0.0049023944884538651 0.40660670399665833 0.01097030658274889
0.013337558135390282 0.42299875617027283 0.011960347183048725
0.039908658713102341 0.43281736969947815 0.006482232827693224
0.14127999544143677 0.44233262538909912 0.0069314395077526569
0.30856448411941528 0.44782537221908569 0.010219963267445564
0.45482894778251648 0.45449948310852051 0.011746499687433243
0.57417076826095581 0.46107590198516846 0.016052888706326485
0.67363643646240234 0.46772009134292603 0.026170812547206879
0.75330442190170288 0.48029157519340515 0.058321304619312286
0.81657689809799194 0.49078935384750366 0.10064101964235306
0.87679839134216309 0.49653062224388123 0.14637503027915955
0.93821603059768677 0.51087599992752075 0.20252968370914459
0.9564286470413208 0.53925752639770508 0.22938698530197144
0.0043862434104084969 0.47258275747299194 0.014719391241669655
0.010883585549890995 0.51636278629302979 0.0076267467811703682
0.038156382739543915 0.52901524305343628 0.0042012385092675686
0.12184552848339081 0.5323798656463623 0.0029028649441897869
0.2815394401550293 0.54163926839828491 0.0044761807657778263
0.42714586853981018 0.54483067989349365 0.0056262444704771042
0.55518043041229248 0.55078804492950439 0.010740556754171848
0.65803670883178711 0.55713427066802979 0.02026856318116188
0.74170184135437012 0.56279504299163818 0.033777631819248199
0.80873006582260132 0.57141655683517456 0.071648843586444855
0.87385213375091553 0.57785099744796753 0.13560739159584045
0.91618907451629639 0.58748835325241089 0.17378723621368408
0.94445121288299561 0.60409349203109741 0.21793606877326965
0.0074375378899276257 0.55179572105407715 0.049534354358911514
0.015336294658482075 0.57961302995681763 0.0050238962285220623
0.035134289413690567 0.59852832555770874 0.0038078606594353914
0.10770875215530396 0.59706336259841919 0.002190758241340518
0.26559805870056152 0.60595721006393433 0.0027230654377490282
0.39115384221076965 0.61629706621170044 0.0026367485988885164
0.53941500186920166 0.62463968992233276 0.0081642149016261101
0.64388704299926758 0.63026505708694458 0.020038319751620293
0.72775208950042725 0.63807827234268188 0.027161227539181709
0.79985356330871582 0.64468866586685181 0.058628275990486145
0.86445021629333496 0.65439468622207642 0.1231195479631424
0.91471463441848755 0.66260403394699097 0.18406510353088379
0.94142478704452515 0.67351782321929932 0.21984301507472992
0.01569581963121891 0.58697885274887085 0.038775365799665451
0.021485676988959312 0.6140550971031189 0.0058080637827515602
0.031662527471780777 0.63872289657592773 0.0074892831034958363
0.087242394685745239 0.63972687721252441 0.007380377035588026
0.24963207542896271 0.64972496032714844 0.0099541163071990013
0.38622227311134338 0.67389708757400513 0.009519629180431366
0.53358227014541626 0.69278591871261597 0.014310469850897789
0.64039838314056396 0.69085878133773804 0.01637675054371357
0.72356277704238892 0.69056004285812378 0.035377815365791321
0.79535353183746338 0.7030559778213501 0.078858241438865662
0.85614359378814697 0.71549993753433228 0.13185499608516693
0.90732145309448242 0.71945047378540039 0.18909727036952972
0.94061380624771118 0.73010224103927612 0.22995299100875854
0.020617047324776649 0.60183191299438477 0.020239736884832382
0.027609746903181076 0.62361174821853638 0.012007963843643665
0.056636795401573181 0.67841160297393799 0.040404599159955978
0.10819679498672485 0.70158404111862183 0.050417192280292511
0.26823341846466064 0.70859360694885254 0.035238452255725861
0.39782601594924927 0.71417301893234253 0.015243724919855595
0.55588358640670776 0.72252517938613892 0.021965205669403076
0.6376609206199646 0.7223440408706665 0.03276202455163002
0.71609342098236084 0.71727323532104492 0.056397922337055206
0.79388803243637085 0.7308921217918396 0.11527222394943237
0.86095404624938965 0.74392414093017578 0.17614711821079254
0.91404831409454346 0.74686163663864136 0.21901585161685944
0.93112891912460327 0.74717807769775391 0.23316513001918793
0.021939415484666824 0.60633152723312378 0.041841320693492889
0.029045134782791138 0.61910605430603027 0.015863711014389992
0.075540788471698761 0.7084992527961731 0.063660398125648499
0.12341920286417007 0.73048907518386841 0.076834432780742645
0.27458566427230835 0.73830544948577881 0.053022872656583786
0.41056910157203674 0.74177134037017822 0.020811881870031357
0.58055078983306885 0.74303120374679565 0.028189415112137794
0.625690758228302 0.75442105531692505 0.05998808890581131
0.70236939191818237 0.74950301647186279 0.094871193170547485
0.7900470495223999 0.75787609815597534 0.16568942368030548
0.86555570363998413 0.76956796646118164 0.22362431883811951
0.91404205560684204 0.75980597734451294 0.23975925147533417
0.92669457197189331 0.7574959397315979 0.24318468570709229
0.018065867945551872 0.61947435140609741 0.14764469861984253
0.029786054044961929 0.61837202310562134 0.02219473198056221
0.083604000508785248 0.71402251720428467 0.077895611524581909
0.1374160498380661 0.74801784753799438 0.11536218971014023
0.27770146727561951 0.75325661897659302 0.089546814560890198
0.40849542617797852 0.75102674961090088 0.045939695090055466
0.57283765077590942 0.75108486413955688 0.051271505653858185
0.60412520170211792 0.77058416604995728 0.09836636483669281
0.70298522710800171 0.7775300145149231 0.13937066495418549
0.79138624668121338 0.78202623128890991 0.21155890822410583
0.85149282217025757 0.79004418849945068 0.24915392696857452
0.89632856845855713 0.79629093408584595 0.28705546259880066
0.91514450311660767 0.79813849925994873 0.30115914344787598
0.015123075805604458 0.62907308340072632 0.21768061816692352
0.031842071563005447 0.62605381011962891 0.057443954050540924
0.11719600856304169 0.73468190431594849 0.13048458099365234
0.16389581561088562 0.76982647180557251 0.17524901032447815
0.26649349927902222 0.77035486698150635 0.16165144741535187
0.40560758113861084 0.7623705267906189 0.10743521898984909
0.56878036260604858 0.75665813684463501 0.068679779767990112
0.59274154901504517 0.7790604829788208 0.11360214650630951
0.69501382112503052 0.78514254093170166 0.14593100547790527
0.79809999465942383 0.78896254301071167 0.2282063215970993
0.85247021913528442 0.79568403959274292 0.25862649083137512
0.89989656209945679 0.82036834955215454 0.32766711711883545
0.91287112236022949 0.83111876249313354 0.35485994815826416
0.0077459746971726418 0.02421640045940876 0.14511016011238098
0.048102091997861862 0.032812021672725677 0.13877567648887634
0.12953068315982819 0.044381279498338699 0.13051570951938629
0.2568347156047821 0.060255192220211029 0.13166280090808868
0.3463607132434845 0.078286699950695038 0.14704863727092743
0.46995079517364502 0.11012966930866241 0.1630614846944809
0.61073440313339233 0.13826434314250946 0.18701888620853424
0.7306220531463623 0.15650434792041779 0.23051907122135162
0.82403790950775146 0.16589120030403137 0.26104167103767395
0.87370938062667847 0.18206322193145752 0.28233397006988525
0.89751261472702026 0.19831591844558716 0.29643464088439941
0.93823987245559692 0.23624394834041595 0.35491597652435303
0.98957306146621704 0.28214770555496216 0.4358099102973938
0.012559957802295685 0.061839442700147629 0.13412876427173615
0.048131424933671951 0.06495329737663269 0.13102376461029053
0.12283332645893097 0.072171121835708618 0.12747719883918762
0.23540128767490387 0.087214387953281403 0.1305672824382782
0.35607635974884033 0.10622138530015945 0.13860924541950226
0.48321241140365601 0.12846824526786804 0.14792194962501526
0.60849034786224365 0.14621800184249878 0.16777513921260834
0.71554684638977051 0.17202417552471161 0.20354601740837097
0.81075268983840942 0.1903982013463974 0.23234289884567261
0.87666964530944824 0.21450990438461304 0.26936164498329163
0.92140215635299683 0.24097707867622375 0.30061030387878418
0.95589840412139893 0.26518154144287109 0.34384840726852417
0.99098408222198486 0.28910112380981445 0.40154308080673218
0.0096077416092157364 0.11803705245256424 0.13745321333408356
0.040543321520090103 0.12332218885421753 0.12818685173988342
0.1156170591711998 0.13031481206417084 0.12133462727069855
0.2299906313419342 0.15110085904598236 0.12078327685594559
0.35805514454841614 0.16860675811767578 0.12471345067024231
0.48589473962783813 0.18301944434642792 0.1337902694940567
0.60457497835159302 0.19527900218963623 0.1515507698059082
0.70764255523681641 0.21433651447296143 0.18634934723377228
0.80155646800994873 0.23754534125328064 0.22257213294506073
0.87267327308654785 0.26458609104156494 0.26159569621086121
0.93100607395172119 0.28470495343208313 0.30705606937408447
0.96811056137084961 0.2937890887260437 0.34271875023841858
0.9911123514175415 0.31455850601196289 0.39156985282897949
0.0075493757613003254 0.20803897082805634 0.12461866438388824
0.027211731299757957 0.21072095632553101 0.11259420216083527
0.092494472861289978 0.21851705014705658 0.10122315585613251
0.21732833981513977 0.23195755481719971 0.099316120147705078
0.35288405418395996 0.24541042745113373 0.10332769900560379
0.48457229137420654 0.2566225528717041 0.11084358394145966
0.59907788038253784 0.26747751235961914 0.12991771101951599
0.70113790035247803 0.28434789180755615 0.16149181127548218
0.79093259572982788 0.30555060505867004 0.20060673356056213
0.86279618740081787 0.32207164168357849 0.24181570112705231
0.92747485637664795 0.3400309681892395 0.2926451563835144
0.97778940200805664 0.35909855365753174 0.34832906723022461
0.98875319957733154 0.37302529811859131 0.38644960522651672
0.0049015418626368046 0.31654328107833862 0.093360453844070435
0.017819991335272789 0.31553331017494202 0.086177617311477661
0.064096502959728241 0.3277733325958252 0.068335302174091339
