luts/fujixtransiii/fuji_xtrans_iii_classic_chrome.cube
# Created by: G'MIC (https://gmic.eu)
TITLE "fuji_xtrans_iii_classic_chrome"
# LUT size
LUT_3D_SIZE 13
# Data domain
DOMAIN_MIN 0.0 0.0 0.0
DOMAIN_MAX 1.0 1.0 1.0
# LUT data points
0.0082612279802560806 0.011854329146444798 0.0083617717027664185
0.025492455810308456 0.013992908410727978 0.0094628576189279556
0.08526090532541275 0.021145390346646309 0.012905913405120373
0.17281056940555573 0.035617411136627197 0.022710073739290237
0.28569233417510986 0.062421523034572601 0.038381028920412064
0.40461441874504089 0.094682268798351288 0.061340630054473877
0.52182662487030029 0.13519838452339172 0.093779392540454865
0.64698576927185059 0.18084621429443359 0.13340230286121368
0.72467023134231567 0.21065658330917358 0.16314388811588287
0.77490222454071045 0.23587237298488617 0.18921513855457306
0.79387819766998291 0.24838224053382874 0.19921380281448364
0.81351697444915771 0.26369437575340271 0.22098289430141449
0.82593792676925659 0.27689754962921143 0.23481503129005432
0.0079290652647614479 0.02833952009677887 0.011220685206353664
0.028151193633675575 0.033403642475605011 0.014717311598360538
0.091431818902492523 0.040329921990633011 0.019168030470609665
0.18511134386062622 0.064041078090667725 0.030299227684736252
0.29804816842079163 0.091140374541282654 0.04375622421503067
0.41533446311950684 0.11791142821311951 0.068087376654148102
0.53421872854232788 0.14982858300209045 0.097449116408824921
0.6387714147567749 0.18911673128604889 0.13020890951156616
0.72436797618865967 0.21720878779888153 0.15938179194927216
0.78407192230224609 0.24694225192070007 0.19291502237319946
0.80856168270111084 0.26335147023200989 0.20172493159770966
0.83141887187957764 0.28367635607719421 0.21894544363021851
0.85993921756744385 0.31600779294967651 0.25414577126502991
0.0077289058826863766 0.063755437731742859 0.013259544037282467
0.027597734704613686 0.073911078274250031 0.016958035528659821
0.091708630323410034 0.083500757813453674 0.022606285288929939
0.19595284759998322 0.11041770130395889 0.035561118274927139
0.31018120050430298 0.13956427574157715 0.052552629262208939
0.42558297514915466 0.16626591980457306 0.076370447874069214
0.540965735912323 0.19124029576778412 0.097876362502574921
0.64651519060134888 0.22343143820762634 0.12728342413902283
0.73171544075012207 0.25425595045089722 0.1572754979133606
0.7931867241859436 0.28124988079071045 0.18811769783496857
0.82793402671813965 0.29762172698974609 0.20601150393486023
0.86158794164657593 0.33010014891624451 0.22864446043968201
0.88312768936157227 0.35704818367958069 0.25173959136009216
0.011085630394518375 0.12986257672309875 0.01613222062587738
0.038253214210271835 0.13948406279087067 0.01957855187356472
0.084975585341453552 0.14627596735954285 0.02452404610812664
0.19247004389762878 0.17341503500938416 0.039229150861501694
0.31314069032669067 0.20189192891120911 0.058941993862390518
0.42984452843666077 0.22733363509178162 0.076304599642753601
0.5465509295463562 0.25369265675544739 0.089775457978248596
0.65426629781723022 0.28123489022254944 0.12378771603107452
0.73781716823577881 0.30987206101417542 0.15452033281326294
0.80884993076324463 0.3344879150390625 0.18291883170604706
0.86875665187835693 0.36766824126243591 0.21986550092697144
0.88542753458023071 0.37514913082122803 0.23142997920513153
0.89220142364501953 0.38135015964508057 0.23725150525569916
0.0098184626549482346 0.20838735997676849 0.014800606295466423
0.026785532012581825 0.23828575015068054 0.019924912601709366
0.065215587615966797 0.25204741954803467 0.024241682142019272
0.17365841567516327 0.27398058772087097 0.036656055599451065
0.31327137351036072 0.29451572895050049 0.061417538672685623
0.43785756826400757 0.30983969569206238 0.07371782511472702
0.55070364475250244 0.33102649450302124 0.084046199917793274
0.6546749472618103 0.35704004764556885 0.11744770407676697
0.74033898115158081 0.38287371397018433 0.15189209580421448
0.80550932884216309 0.4013727605342865 0.18062335252761841
0.86153674125671387 0.41604596376419067 0.21586468815803528
0.88845765590667725 0.39727112650871277 0.22295686602592468
0.9005357027053833 0.41649141907691956 0.23671409487724304
0.0050124372355639935 0.30429449677467346 0.012778742238879204
0.016005616635084152 0.34271544218063354 0.018051911145448685
0.050116833299398422 0.34812226891517639 0.022553926333785057
0.14928990602493286 0.37070220708847046 0.031382229179143906
0.3071819543838501 0.39270099997520447 0.056025635451078415
0.43951302766799927 0.40548673272132874 0.074852153658866882
0.55320394039154053 0.41844108700752258 0.091560021042823792
0.65313738584518433 0.43384334444999695 0.11088915169239044
0.73379629850387573 0.45541548728942871 0.13904224336147308
0.78855669498443604 0.47537434101104736 0.17186206579208374
0.83319699764251709 0.48533642292022705 0.20196467638015747
0.86982864141464233 0.48231858015060425 0.22868669033050537
0.91153073310852051 0.51972907781600952 0.27603581547737122
0.0043468698859214783 0.3712860643863678 0.016933979466557503
0.011703565716743469 0.40516930818557739 0.019459160044789314
0.047562200576066971 0.42073768377304077 0.021832320839166641
0.14044597744941711 0.44369524717330933 0.032259594649076462
0.29368495941162109 0.47164049744606018 0.049260832369327545
0.42588967084884644 0.48449638485908508 0.073634430766105652
0.55574303865432739 0.49805906414985657 0.098177485167980194
0.6492769718170166 0.51766812801361084 0.12628465890884399
0.73239660263061523 0.53353822231292725 0.15257912874221802
0.79550206661224365 0.55346697568893433 0.17978963255882263
0.84021198749542236 0.56423890590667725 0.20974919199943542
0.86150121688842773 0.57082706689834595 0.23409724235534668
0.90145695209503174 0.60085278749465942 0.28367689251899719
0.0074819079600274563 0.40297600626945496 0.030872942879796028
0.013047626242041588 0.4395202100276947 0.034640219062566757
0.03750934824347496 0.48957881331443787 0.057479634881019592
0.13414023816585541 0.48677277565002441 0.041937675327062607
0.2942049503326416 0.52398586273193359 0.051266614347696304
0.39125460386276245 0.54234200716018677 0.069591045379638672
0.55719733238220215 0.57058525085449219 0.11289813369512558
0.65175151824951172 0.58900672197341919 0.14485754072666168
0.74083060026168823 0.60331767797470093 0.17747010290622711
0.80959820747375488 0.62237030267715454 0.19977542757987976
0.84337180852890015 0.63068079948425293 0.2185213565826416
0.86664795875549316 0.64445537328720093 0.24868229031562805
0.90078848600387573 0.66466164588928223 0.29591813683509827
0.013052278198301792 0.45026975870132446 0.065901525318622589
0.017266083508729935 0.46246069669723511 0.050186514854431152
0.03024781122803688 0.5344359278678894 0.09624742716550827
0.11096587777137756 0.51560688018798828 0.066434405744075775
0.27768966555595398 0.54935121536254883 0.071179397404193878
0.37998393177986145 0.59220224618911743 0.095819152891635895
0.5615425705909729 0.6332659125328064 0.14050370454788208
0.66229903697967529 0.64339751005172729 0.16580890119075775
0.75662314891815186 0.6517987847328186 0.1969289630651474
0.82257974147796631 0.66097348928451538 0.21495454013347626
0.84808659553527832 0.6664544939994812 0.23386204242706299
0.87421172857284546 0.69365823268890381 0.27065089344978333
0.90139484405517578 0.71340733766555786 0.30754169821739197
0.01554291695356369 0.47630578279495239 0.084360189735889435
0.018219234421849251 0.46255952119827271 0.048510294407606125
0.033707190304994583 0.5269773006439209 0.08903234452009201
0.10334023833274841 0.5604284405708313 0.11625218391418457
0.2765234112739563 0.59213006496429443 0.11698497831821442
0.39754447340965271 0.62438631057739258 0.12655407190322876
0.55158489942550659 0.64664590358734131 0.15348570048809052
0.64840245246887207 0.65576803684234619 0.16709531843662262
0.73681753873825073 0.66456621885299683 0.19349001348018646
0.82142090797424316 0.67193686962127686 0.22076927125453949
0.86530768871307373 0.69262176752090454 0.26289659738540649
0.90067481994628906 0.7204282283782959 0.30644935369491577
0.92534029483795166 0.73939639329910278 0.33907142281532288
0.017750818282365799 0.48533126711845398 0.086813874542713165
0.022618431597948074 0.48441195487976074 0.064504973590373993
0.052968598902225494 0.62096565961837769 0.17694076895713806
0.097018569707870483 0.65528082847595215 0.20697459578514099
0.26017451286315918 0.65938401222229004 0.18487131595611572
0.40387135744094849 0.65656518936157227 0.15740902721881866
0.56938868761062622 0.67217713594436646 0.18457919359207153
0.64165645837783813 0.6776202917098999 0.19538335502147675
0.72143101692199707 0.68532842397689819 0.22210434079170227
0.82196968793869019 0.68529427051544189 0.23956772685050964
0.88829141855239868 0.72170388698577881 0.30344530940055847
0.92474842071533203 0.74444949626922607 0.34438961744308472
0.93272298574447632 0.74828439950942993 0.35146191716194153
0.024740181863307953 0.52422416210174561 0.086182147264480591
0.025027750059962273 0.5238376259803772 0.083216302096843719
0.058336712419986725 0.64935052394866943 0.20332984626293182
0.099775560200214386 0.67976617813110352 0.23279733955860138
0.25710055232048035 0.68629831075668335 0.21326714754104614
0.4075152575969696 0.69339799880981445 0.19618596136569977
0.59014064073562622 0.70126825571060181 0.21528205275535583
0.64024835824966431 0.70753037929534912 0.23325005173683167
0.72253048419952393 0.72068917751312256 0.26555085182189941
0.81602716445922852 0.72676706314086914 0.29808762669563293
0.86976164579391479 0.74474179744720459 0.3312649130821228
0.91974616050720215 0.75731784105300903 0.36076724529266357
0.93209916353225708 0.75888019800186157 0.3664836585521698
0.024728348478674889 0.52900415658950806 0.090704821050167084
0.023849787190556526 0.52586919069290161 0.084902174770832062
0.064362332224845886 0.6534043550491333 0.20987400412559509
0.099654272198677063 0.68297076225280762 0.23720830678939819
0.25806471705436707 0.69039535522460938 0.21808235347270966
0.40730345249176025 0.69974416494369507 0.20379294455051422
0.59252738952636719 0.71281701326370239 0.23150689899921417
0.6173241138458252 0.73850560188293457 0.27336761355400085
0.72735261917114258 0.75689196586608887 0.31274181604385376
0.82396113872528076 0.7682376503944397 0.35839143395423889
0.86816209554672241 0.78139775991439819 0.38458722829818726
0.9156869649887085 0.78540849685668945 0.40386465191841125
0.9281582236289978 0.7878342866897583 0.41206571459770203
0.0072629889473319054 0.015133113600313663 0.023438801988959312
0.024295477196574211 0.02086079865694046 0.026768449693918228
0.088680550456047058 0.03470960259437561 0.0413082055747509
0.18137004971504211 0.054543349891901016 0.061081156134605408
0.24944336712360382 0.068382561206817627 0.067492224276065826
0.38973337411880493 0.11088811606168747 0.096977338194847107
0.5366557240486145 0.15634001791477203 0.13676263391971588
0.65315747261047363 0.19088259339332581 0.17125269770622253
0.75388723611831665 0.22386264801025391 0.21119134128093719
0.79896372556686401 0.25045230984687805 0.24003675580024719
0.81820207834243774 0.26560819149017334 0.25032368302345276
0.83258652687072754 0.27831277251243591 0.26725530624389648
0.87749475240707397 0.31951886415481567 0.32537627220153809
0.011204873211681843 0.040611866861581802 0.037009265273809433
0.038130607455968857 0.04737834632396698 0.041270177811384201
0.093496538698673248 0.059746850281953812 0.050449460744857788
0.18246178328990936 0.078233592212200165 0.064951889216899872
0.2789624035358429 0.099763773381710052 0.077257923781871796
0.40692692995071411 0.13333500921726227 0.10354086011648178
0.53443092107772827 0.16054582595825195 0.13147591054439545
0.63940131664276123 0.19819596409797668 0.16160281002521515
0.73271375894546509 0.23128969967365265 0.194649338722229
0.79954260587692261 0.26119342446327209 0.23482117056846619
0.82594829797744751 0.27604189515113831 0.24963769316673279
0.86278092861175537 0.31295883655548096 0.2885894775390625
0.89656585454940796 0.34281805157661438 0.33784162998199463
0.014789446257054806 0.086568094789981842 0.045744262635707855
0.044097211211919785 0.088403500616550446 0.049554083496332169
0.091657795011997223 0.09569975733757019 0.054828345775604248
0.18522094190120697 0.11656144261360168 0.068648919463157654
0.30009201169013977 0.14721120893955231 0.088826932013034821
0.42178565263748169 0.17383483052253723 0.11130210757255554
0.54226386547088623 0.19820016622543335 0.13392482697963715
0.64217567443847656 0.23198266327381134 0.16290242969989777
0.73045319318771362 0.26611340045928955 0.1942131519317627
0.8065495491027832 0.29621332883834839 0.22893534600734711
0.85644161701202393 0.31935939192771912 0.2667115330696106
0.88133424520492554 0.34471264481544495 0.28652942180633545
0.90262758731842041 0.36243727803230286 0.3274284303188324
0.012598314322531223 0.14988029003143311 0.053848594427108765
0.041820153594017029 0.15692000091075897 0.055955551564693451
0.085889719426631927 0.16532742977142334 0.060799077153205872
0.18603195250034332 0.18174813687801361 0.075025267899036407
0.30644682049751282 0.2066592276096344 0.095323316752910614
0.43000301718711853 0.23239575326442719 0.11673218756914139
0.55030637979507446 0.25589114427566528 0.13543452322483063
0.65210700035095215 0.28796148300170898 0.16440092027187347
0.73674637079238892 0.3224061131477356 0.19458715617656708
0.81205838918685913 0.34803682565689087 0.22371064126491547
0.86738592386245728 0.36938861012458801 0.25533998012542725
0.88850182294845581 0.37784206867218018 0.27001681923866272
0.90932655334472656 0.3972109854221344 0.31190407276153564
0.0078121856786310673 0.24518130719661713 0.05400046706199646
0.028350859880447388 0.25618234276771545 0.056162860244512558
0.069043286144733429 0.2624574601650238 0.064117655158042908
0.17328976094722748 0.27564728260040283 0.080381609499454498
0.30440476536750793 0.29430693387985229 0.10132815688848495
0.43058532476425171 0.3169015645980835 0.11894585192203522
0.55173736810684204 0.33928054571151733 0.13721641898155212
0.66006553173065186 0.36644503474235535 0.16711580753326416
0.74637347459793091 0.39786231517791748 0.19664777815341949
0.81609964370727539 0.42180117964744568 0.23050667345523834
0.87099343538284302 0.43340766429901123 0.26262471079826355
0.89738243818283081 0.43235090374946594 0.27114832401275635
0.91977792978286743 0.47088712453842163 0.30261152982711792
0.0046386569738388062 0.33705064654350281 0.045341789722442627
0.016979306936264038 0.36151239275932312 0.050656113773584366
0.049262311309576035 0.36601310968399048 0.064105093479156494
0.14371423423290253 0.37446743249893188 0.076516963541507721
0.29103967547416687 0.39016848802566528 0.096751734614372253
0.43058449029922485 0.40869748592376709 0.11704147607088089
0.55225855112075806 0.4271521270275116 0.13921728730201721
0.66117388010025024 0.44819197058677673 0.16783934831619263
0.74737554788589478 0.47131809592247009 0.19554197788238525
0.80694055557250977 0.48971295356750488 0.22256128489971161
0.86139118671417236 0.50528228282928467 0.25377944111824036
0.90726244449615479 0.52095150947570801 0.28367578983306885
0.92658823728561401 0.54916167259216309 0.30826494097709656
0.004606299102306366 0.39917069673538208 0.050373181700706482
0.011919597163796425 0.44379684329032898 0.049144476652145386
0.037338152527809143 0.45717951655387878 0.061639375984668732
0.12753520905971527 0.46219214797019958 0.072465546429157257
0.27573826909065247 0.47880005836486816 0.089416131377220154
0.41947793960571289 0.49405738711357117 0.11238874495029449
0.54586493968963623 0.50310879945755005 0.14037731289863586
0.6562044620513916 0.52358919382095337 0.17573077976703644
0.74164861440658569 0.54671233892440796 0.20342780649662018
0.81096524000167847 0.56518650054931641 0.22827491164207458
0.86520534753799438 0.5788159966468811 0.26246634125709534
0.89648067951202393 0.58987557888031006 0.28118860721588135
0.92240899801254272 0.61675727367401123 0.31277909874916077
0.008191247470676899 0.48245742917060852 0.1019793227314949
0.014893580228090286 0.49601453542709351 0.0626816526055336
0.035518407821655273 0.52379769086837769 0.087412275373935699
0.11039229482412338 0.53014767169952393 0.083976700901985168
0.26380160450935364 0.54718691110610962 0.0996689572930336
0.39634037017822266 0.56573933362960815 0.11658833920955658
0.54446864128112793 0.58246892690658569 0.15390151739120483
0.65475594997406006 0.59736400842666626 0.18998676538467407
0.73986911773681641 0.61742860078811646 0.22081311047077179
0.8081057071685791 0.63319224119186401 0.23818404972553253
0.86850142478942871 0.6506272554397583 0.26993238925933838
0.9081990122795105 0.66363871097564697 0.30621469020843506
0.92870086431503296 0.68263596296310425 0.32996454834938049
0.019134266301989555 0.51848012208938599 0.10740691423416138
0.024155905470252037 0.53198528289794922 0.089164748787879944
0.031317900866270065 0.56996876001358032 0.12673844397068024
0.084785968065261841 0.57576447725296021 0.12430928647518158
0.2425692230463028 0.59745198488235474 0.13445672392845154
0.38331201672554016 0.61637920141220093 0.13266895711421967
0.54735082387924194 0.64337235689163208 0.1677105575799942
0.65813863277435303 0.65672117471694946 0.20039874315261841
0.74231278896331787 0.6660953164100647 0.23326964676380157
0.8105396032333374 0.68429917097091675 0.26294025778770447
0.86729294061660767 0.70508551597595215 0.28985151648521423
0.91319793462753296 0.71811592578887939 0.3251916766166687
0.94302660226821899 0.73460882902145386 0.35540682077407837
0.02429167740046978 0.53133845329284668 0.097116567194461823
0.028733929619193077 0.54369688034057617 0.098725743591785431
0.044862605631351471 0.61151504516601562 0.16494245827198029
0.08560478687286377 0.64261412620544434 0.19489355385303497
0.24753473699092865 0.65393173694610596 0.18450403213500977
0.39677980542182922 0.65841597318649292 0.16502268612384796
0.57503968477249146 0.68020343780517578 0.19605699181556702
0.65666329860687256 0.69006621837615967 0.21736817061901093
0.73716878890991211 0.69392836093902588 0.24405872821807861
0.81396770477294922 0.7116621732711792 0.2799803614616394
0.87069332599639893 0.73153191804885864 0.31693768501281738
0.92206192016601562 0.74644345045089722 0.34953200817108154
0.93603265285491943 0.75023841857910156 0.35921832919120789
0.023927606642246246 0.53837758302688599 0.11581040918827057
0.030401626601815224 0.54973357915878296 0.1045290008187294
0.056977845728397369 0.64688557386398315 0.19900071620941162
0.095292411744594574 0.67600184679031372 0.22824934124946594
0.25743678212165833 0.68595302104949951 0.21533553302288055
0.40573382377624512 0.69272816181182861 0.19891957938671112
0.59253525733947754 0.70394659042358398 0.22173736989498138
0.64939296245574951 0.71560829877853394 0.25018700957298279
0.72935223579406738 0.72534024715423584 0.2786814272403717
0.81658816337585449 0.73843437433242798 0.31506860256195068
0.8778805136680603 0.76078474521636963 0.35716238617897034
0.92209261655807495 0.75812149047851562 0.36267897486686707
0.9327360987663269 0.75744879245758057 0.36444905400276184
0.017831943929195404 0.56057566404342651 0.20076166093349457
0.030057286843657494 0.5510256290435791 0.11008737236261368
0.064011082053184509 0.65890979766845703 0.21501611173152924
0.10784002393484116 0.69550484418869019 0.25795605778694153
0.24777323007583618 0.70336741209030151 0.24746090173721313
0.40099376440048218 0.70477843284606934 0.22007662057876587
0.58315014839172363 0.7157442569732666 0.24106265604496002
0.6137092113494873 0.7390754222869873 0.28109118342399597
0.72369104623794556 0.75240647792816162 0.31040066480636597
0.82075315713882446 0.76845496892929077 0.35924413800239563
0.86838382482528687 0.78361552953720093 0.38577640056610107
0.909199059009552 0.79224920272827148 0.41081544756889343
0.92823797464370728 0.79368442296981812 0.4199712872505188
0.01416334230452776 0.57612764835357666 0.25655755400657654
0.029943892732262611 0.55790746212005615 0.13793538510799408
0.090187206864356995 0.6810300350189209 0.25070875883102417
0.12605489790439606 0.71835935115814209 0.29501062631607056
0.2342115044593811 0.72283565998077393 0.29144191741943359
0.39341330528259277 0.72002345323562622 0.26761478185653687
0.58408659696578979 0.71983182430267334 0.25134366750717163
0.60542923212051392 0.7455521821975708 0.2870078980922699
0.72099435329437256 0.76143324375152588 0.31786930561065674
0.81920433044433594 0.77560830116271973 0.36694562435150146
0.86912661790847778 0.7899516224861145 0.39667215943336487
0.91274195909500122 0.81601631641387939 0.44942700862884521
0.92476320266723633 0.82775044441223145 0.47369822859764099
0.0092568490654230118 0.028734050691127777 0.087752863764762878
0.039918921887874603 0.037702910602092743 0.091379322111606598
0.10809444636106491 0.054283574223518372 0.097133606672286987
0.2198445051908493 0.079279325902462006 0.12043696641921997
0.29687029123306274 0.10054725408554077 0.1409304141998291
0.41467443108558655 0.14102207124233246 0.1767420768737793
0.54785549640655518 0.177167609333992 0.21094898879528046
0.66430920362472534 0.20843274891376495 0.24018138647079468
0.75803500413894653 0.23361177742481232 0.25909614562988281
0.80446141958236694 0.25600454211235046 0.28207936882972717
0.82904928922653198 0.27394780516624451 0.29339933395385742
0.87082874774932861 0.31019541621208191 0.34250503778457642
0.92831277847290039 0.3570665717124939 0.41114076972007751
0.015849962830543518 0.058548767119646072 0.087248526513576508
0.049814216792583466 0.065201625227928162 0.093769848346710205
0.10790381580591202 0.079877801239490509 0.10661093145608902
0.20018909871578217 0.098444066941738129 0.12284228950738907
0.30514496564865112 0.12548854947090149 0.14551720023155212
0.42491665482521057 0.15781402587890625 0.17206136882305145
0.54514265060424805 0.18479621410369873 0.19724197685718536
0.65338975191116333 0.22086884081363678 0.22741927206516266
0.74522233009338379 0.25054305791854858 0.25127881765365601
0.8131721019744873 0.28047448396682739 0.28038933873176575
0.85808742046356201 0.30800944566726685 0.30824822187423706
0.89207565784454346 0.33638995885848999 0.34761705994606018
0.92450320720672607 0.36343923211097717 0.38794532418251038
0.019063733518123627 0.1081121414899826 0.10599127411842346
0.049257375299930573 0.10751254856586456 0.10519669204950333
0.1065470352768898 0.11743754893541336 0.1136164665222168
0.19746296107769012 0.14208094775676727 0.1329624354839325
0.31053504347801208 0.16650384664535522 0.15405221283435822
0.43178528547286987 0.19293835759162903 0.17853805422782898
0.54628437757492065 0.21830938756465912 0.20023968815803528
0.64872080087661743 0.25133582949638367 0.22510114312171936
0.73796939849853516 0.28538721799850464 0.25388956069946289
0.81435078382492065 0.31709915399551392 0.2860623300075531
0.87066531181335449 0.34216129779815674 0.32103797793388367
0.9027068018913269 0.35914868116378784 0.34674546122550964
0.9387277364730835 0.39303305745124817 0.39203989505767822
0.013995376415550709 0.17348425090312958 0.12011806666851044
0.040963295847177505 0.17865826189517975 0.11999540030956268
0.094423599541187286 0.1894400417804718 0.1271088719367981
0.19389714300632477 0.20648020505905151 0.14400234818458557
0.31101784110069275 0.22456309199333191 0.16216139495372772
0.43460911512374878 0.24986499547958374 0.18299005925655365
0.55269473791122437 0.2729499340057373 0.20271062850952148
0.65533065795898438 0.30137720704078674 0.226747065782547
0.73878824710845947 0.33423912525177002 0.25467485189437866
0.81449705362319946 0.36240780353546143 0.28497302532196045
0.87941694259643555 0.38766759634017944 0.32289937138557434
0.92754250764846802 0.41414362192153931 0.36927995085716248
0.95351672172546387 0.43420299887657166 0.40074101090431213
0.0082397907972335815 0.25479328632354736 0.12715762853622437
0.028123533353209496 0.27060875296592712 0.12664872407913208
0.075966313481330872 0.28034967184066772 0.13470156490802765
0.17770594358444214 0.29233464598655701 0.14640669524669647
