luts/fujixtransiii/fuji_xtrans_iii_acros.cube
# Created by: G'MIC (https://gmic.eu)
TITLE "fuji_xtrans_iii_acros"
# LUT size
LUT_3D_SIZE 7
# Data domain
DOMAIN_MIN 0.0 0.0 0.0
DOMAIN_MAX 1.0 1.0 1.0
# LUT data points
0.017840411514043808 0.017840411514043808 0.017840411514043808
0.045241590589284897 0.045241590589284897 0.045241590589284897
0.11816789209842682 0.11816789209842682 0.11816789209842682
0.22303798794746399 0.22303798794746399 0.22303798794746399
0.34762081503868103 0.34762081503868103 0.34762081503868103
0.39537933468818665 0.39537933468818665 0.39537933468818665
0.42793750762939453 0.42793750762939453 0.42793750762939453
0.052253767848014832 0.052253767848014832 0.052253767848014832
0.089111477136611938 0.089111477136611938 0.089111477136611938
0.17136712372303009 0.17136712372303009 0.17136712372303009
0.27290302515029907 0.27290302515029907 0.27290302515029907
0.37295371294021606 0.37295371294021606 0.37295371294021606
0.43099567294120789 0.43099567294120789 0.43099567294120789
0.4921385645866394 0.4921385645866394 0.4921385645866394
0.15999755263328552 0.15999755263328552 0.15999755263328552
0.19728346168994904 0.19728346168994904 0.19728346168994904
0.27982094883918762 0.27982094883918762 0.27982094883918762
0.3650454580783844 0.3650454580783844 0.3650454580783844
0.44311758875846863 0.44311758875846863 0.44311758875846863
0.51103442907333374 0.51103442907333374 0.51103442907333374
0.52348905801773071 0.52348905801773071 0.52348905801773071
0.2724306583404541 0.2724306583404541 0.2724306583404541
0.31675511598587036 0.31675511598587036 0.31675511598587036
0.40992730855941772 0.40992730855941772 0.40992730855941772
0.47730109095573425 0.47730109095573425 0.47730109095573425
0.54646497964859009 0.54646497964859009 0.54646497964859009
0.60197287797927856 0.60197287797927856 0.60197287797927856
0.64030814170837402 0.64030814170837402 0.64030814170837402
0.34120392799377441 0.34120392799377441 0.34120392799377441
0.41716626286506653 0.41716626286506653 0.41716626286506653
0.46238306164741516 0.46238306164741516 0.46238306164741516
0.57619833946228027 0.57619833946228027 0.57619833946228027
0.63111573457717896 0.63111573457717896 0.63111573457717896
0.66814470291137695 0.66814470291137695 0.66814470291137695
0.72096425294876099 0.72096425294876099 0.72096425294876099
0.37667214870452881 0.37667214870452881 0.37667214870452881
0.4898315966129303 0.4898315966129303 0.4898315966129303
0.54876446723937988 0.54876446723937988 0.54876446723937988
0.60780686140060425 0.60780686140060425 0.60780686140060425
0.64538067579269409 0.64538067579269409 0.64538067579269409
0.71401911973953247 0.71401911973953247 0.71401911973953247
0.7540053129196167 0.7540053129196167 0.7540053129196167
0.41317251324653625 0.41317251324653625 0.41317251324653625
0.51590955257415771 0.51590955257415771 0.51590955257415771
0.57242661714553833 0.57242661714553833 0.57242661714553833
0.63551944494247437 0.63551944494247437 0.63551944494247437
0.71152549982070923 0.71152549982070923 0.71152549982070923
0.76876306533813477 0.76876306533813477 0.76876306533813477
0.78876292705535889 0.78876292705535889 0.78876292705535889
0.036959510296583176 0.036959510296583176 0.036959510296583176
0.081255309283733368 0.081255309283733368 0.081255309283733368
0.1604171097278595 0.1604171097278595 0.1604171097278595
0.27480632066726685 0.27480632066726685 0.27480632066726685
0.37848475575447083 0.37848475575447083 0.37848475575447083
0.43353527784347534 0.43353527784347534 0.43353527784347534
0.52060532569885254 0.52060532569885254 0.52060532569885254
0.093383684754371643 0.093383684754371643 0.093383684754371643
0.12213453650474548 0.12213453650474548 0.12213453650474548
0.20076017081737518 0.20076017081737518 0.20076017081737518
0.29827886819839478 0.29827886819839478 0.29827886819839478
0.39652708172798157 0.39652708172798157 0.39652708172798157
0.48629811406135559 0.48629811406135559 0.48629811406135559
0.53859525918960571 0.53859525918960571 0.53859525918960571
0.19963529706001282 0.19963529706001282 0.19963529706001282
0.23791138827800751 0.23791138827800751 0.23791138827800751
0.30097821354866028 0.30097821354866028 0.30097821354866028
0.38593506813049316 0.38593506813049316 0.38593506813049316
0.47203555703163147 0.47203555703163147 0.47203555703163147
0.54722553491592407 0.54722553491592407 0.54722553491592407
0.59639042615890503 0.59639042615890503 0.59639042615890503
0.33321592211723328 0.33321592211723328 0.33321592211723328
0.37518739700317383 0.37518739700317383 0.37518739700317383
0.42815861105918884 0.42815861105918884 0.42815861105918884
0.49979954957962036 0.49979954957962036 0.49979954957962036
0.572612464427948 0.572612464427948 0.572612464427948
0.62529957294464111 0.62529957294464111 0.62529957294464111
0.66647601127624512 0.66647601127624512 0.66647601127624512
0.41889044642448425 0.41889044642448425 0.41889044642448425
0.47182190418243408 0.47182190418243408 0.47182190418243408
0.53075271844863892 0.53075271844863892 0.53075271844863892
0.59438234567642212 0.59438234567642212 0.59438234567642212
0.6546744704246521 0.6546744704246521 0.6546744704246521
0.72000986337661743 0.72000986337661743 0.72000986337661743
0.76786011457443237 0.76786011457443237 0.76786011457443237
0.45102253556251526 0.45102253556251526 0.45102253556251526
0.53701013326644897 0.53701013326644897 0.53701013326644897
0.59201157093048096 0.59201157093048096 0.59201157093048096
0.64472472667694092 0.64472472667694092 0.64472472667694092
0.70056283473968506 0.70056283473968506 0.70056283473968506
0.76923638582229614 0.76923638582229614 0.76923638582229614
0.78920954465866089 0.78920954465866089 0.78920954465866089
0.49034076929092407 0.49034076929092407 0.49034076929092407
0.57247298955917358 0.57247298955917358 0.57247298955917358
0.61442768573760986 0.61442768573760986 0.61442768573760986
0.65997719764709473 0.65997719764709473 0.65997719764709473
0.71689307689666748 0.71689307689666748 0.71689307689666748
0.78686469793319702 0.78686469793319702 0.78686469793319702
0.84060430526733398 0.84060430526733398 0.84060430526733398
0.12254281342029572 0.12254281342029572 0.12254281342029572
0.17461897432804108 0.17461897432804108 0.17461897432804108
0.24273800849914551 0.24273800849914551 0.24273800849914551
0.33265799283981323 0.33265799283981323 0.33265799283981323
0.43346494436264038 0.43346494436264038 0.43346494436264038
0.51549732685089111 0.51549732685089111 0.51549732685089111
0.56545811891555786 0.56545811891555786 0.56545811891555786
0.15934941172599792 0.15934941172599792 0.15934941172599792
0.19546341896057129 0.19546341896057129 0.19546341896057129
0.2680681049823761 0.2680681049823761 0.2680681049823761
0.36186188459396362 0.36186188459396362 0.36186188459396362
0.46008861064910889 0.46008861064910889 0.46008861064910889
0.53190898895263672 0.53190898895263672 0.53190898895263672
0.59063959121704102 0.59063959121704102 0.59063959121704102
0.2683735191822052 0.2683735191822052 0.2683735191822052
0.29928091168403625 0.29928091168403625 0.29928091168403625
0.35933735966682434 0.35933735966682434 0.35933735966682434
0.42619132995605469 0.42619132995605469 0.42619132995605469
0.51384764909744263 0.51384764909744263 0.51384764909744263
0.58879262208938599 0.58879262208938599 0.58879262208938599
0.62929892539978027 0.62929892539978027 0.62929892539978027
0.39134436845779419 0.39134436845779419 0.39134436845779419
0.41992762684822083 0.41992762684822083 0.41992762684822083
0.47201180458068848 0.47201180458068848 0.47201180458068848
0.53228014707565308 0.53228014707565308 0.53228014707565308
0.60061180591583252 0.60061180591583252 0.60061180591583252
0.65399396419525146 0.65399396419525146 0.65399396419525146
0.70464968681335449 0.70464968681335449 0.70464968681335449
0.47510033845901489 0.47510033845901489 0.47510033845901489
0.52638715505599976 0.52638715505599976 0.52638715505599976
0.57132947444915771 0.57132947444915771 0.57132947444915771
0.62454712390899658 0.62454712390899658 0.62454712390899658
0.68212413787841797 0.68212413787841797 0.68212413787841797
0.73741859197616577 0.73741859197616577 0.73741859197616577
0.78654873371124268 0.78654873371124268 0.78654873371124268
0.57687044143676758 0.57687044143676758 0.57687044143676758
0.58593863248825073 0.58593863248825073 0.58593863248825073
0.62619221210479736 0.62619221210479736 0.62619221210479736
0.68363279104232788 0.68363279104232788 0.68363279104232788
0.75212210416793823 0.75212210416793823 0.75212210416793823
0.79564362764358521 0.79564362764358521 0.79564362764358521
0.84532642364501953 0.84532642364501953 0.84532642364501953
0.58643555641174316 0.58643555641174316 0.58643555641174316
0.60165691375732422 0.60165691375732422 0.60165691375732422
0.66813164949417114 0.66813164949417114 0.66813164949417114
0.72324854135513306 0.72324854135513306 0.72324854135513306
0.76489090919494629 0.76489090919494629 0.76489090919494629
0.83553516864776611 0.83553516864776611 0.83553516864776611
0.86292558908462524 0.86292558908462524 0.86292558908462524
0.23455838859081268 0.23455838859081268 0.23455838859081268
0.27415725588798523 0.27415725588798523 0.27415725588798523
0.33517476916313171 0.33517476916313171 0.33517476916313171
0.41122159361839294 0.41122159361839294 0.41122159361839294
0.4913235604763031 0.4913235604763031 0.4913235604763031
0.56716763973236084 0.56716763973236084 0.56716763973236084
0.62033993005752563 0.62033993005752563 0.62033993005752563
0.25411584973335266 0.25411584973335266 0.25411584973335266
0.29899457097053528 0.29899457097053528 0.29899457097053528
0.35475325584411621 0.35475325584411621 0.35475325584411621
0.43011292815208435 0.43011292815208435 0.43011292815208435
0.51678025722503662 0.51678025722503662 0.51678025722503662
0.58193755149841309 0.58193755149841309 0.58193755149841309
0.63571101427078247 0.63571101427078247 0.63571101427078247
0.34671175479888916 0.34671175479888916 0.34671175479888916
0.38269582390785217 0.38269582390785217 0.38269582390785217
0.43634811043739319 0.43634811043739319 0.43634811043739319
0.50129884481430054 0.50129884481430054 0.50129884481430054
0.57367074489593506 0.57367074489593506 0.57367074489593506
0.63799631595611572 0.63799631595611572 0.63799631595611572
0.68801552057266235 0.68801552057266235 0.68801552057266235
0.46444174647331238 0.46444174647331238 0.46444174647331238
0.48869240283966064 0.48869240283966064 0.48869240283966064
0.53570520877838135 0.53570520877838135 0.53570520877838135
0.59118360280990601 0.59118360280990601 0.59118360280990601
0.64623439311981201 0.64623439311981201 0.64623439311981201
0.70306015014648438 0.70306015014648438 0.70306015014648438
0.74226158857345581 0.74226158857345581 0.74226158857345581
0.56615698337554932 0.56615698337554932 0.56615698337554932
0.57643693685531616 0.57643693685531616 0.57643693685531616
0.61985123157501221 0.61985123157501221 0.61985123157501221
0.67029547691345215 0.67029547691345215 0.67029547691345215
0.71287047863006592 0.71287047863006592 0.71287047863006592
0.77087724208831787 0.77087724208831787 0.77087724208831787
0.81607735157012939 0.81607735157012939 0.81607735157012939
0.63260376453399658 0.63260376453399658 0.63260376453399658
0.64799529314041138 0.64799529314041138 0.64799529314041138
0.68361735343933105 0.68361735343933105 0.68361735343933105
0.71959191560745239 0.71959191560745239 0.71959191560745239
0.77041947841644287 0.77041947841644287 0.77041947841644287
0.83493334054946899 0.83493334054946899 0.83493334054946899
0.89246249198913574 0.89246249198913574 0.89246249198913574
0.64853793382644653 0.64853793382644653 0.64853793382644653
0.66635787487030029 0.66635787487030029 0.66635787487030029
0.69405138492584229 0.69405138492584229 0.69405138492584229
0.73349767923355103 0.73349767923355103 0.73349767923355103
0.79318064451217651 0.79318064451217651 0.79318064451217651
0.88076686859130859 0.88076686859130859 0.88076686859130859
0.91590589284896851 0.91590589284896851 0.91590589284896851
0.33020156621932983 0.33020156621932983 0.33020156621932983
0.36812102794647217 0.36812102794647217 0.36812102794647217
0.42278212308883667 0.42278212308883667 0.42278212308883667
0.49411296844482422 0.49411296844482422 0.49411296844482422
0.57097846269607544 0.57097846269607544 0.57097846269607544
0.6261601448059082 0.6261601448059082 0.6261601448059082
0.68657654523849487 0.68657654523849487 0.68657654523849487
0.36588567495346069 0.36588567495346069 0.36588567495346069
0.40989145636558533 0.40989145636558533 0.40989145636558533
0.45805579423904419 0.45805579423904419 0.45805579423904419
0.51519477367401123 0.51519477367401123 0.51519477367401123
0.58046418428421021 0.58046418428421021 0.58046418428421021
0.64144867658615112 0.64144867658615112 0.64144867658615112
0.69372451305389404 0.69372451305389404 0.69372451305389404
0.43588277697563171 0.43588277697563171 0.43588277697563171
0.46996727585792542 0.46996727585792542 0.46996727585792542
0.51632940769195557 0.51632940769195557 0.51632940769195557
0.5722804069519043 0.5722804069519043 0.5722804069519043
0.62075138092041016 0.62075138092041016 0.62075138092041016
0.67432218790054321 0.67432218790054321 0.67432218790054321
0.72149252891540527 0.72149252891540527 0.72149252891540527
0.52413636445999146 0.52413636445999146 0.52413636445999146
0.55673521757125854 0.55673521757125854 0.55673521757125854
0.5994185209274292 0.5994185209274292 0.5994185209274292
0.64712858200073242 0.64712858200073242 0.64712858200073242
0.68645012378692627 0.68645012378692627 0.68645012378692627
0.74012374877929688 0.74012374877929688 0.74012374877929688
0.79278045892715454 0.79278045892715454 0.79278045892715454
0.60744398832321167 0.60744398832321167 0.60744398832321167
0.63479518890380859 0.63479518890380859 0.63479518890380859
0.67099475860595703 0.67099475860595703 0.67099475860595703
0.71168345212936401 0.71168345212936401 0.71168345212936401
0.75162333250045776 0.75162333250045776 0.75162333250045776
0.80401992797851562 0.80401992797851562 0.80401992797851562
0.8487972617149353 0.8487972617149353 0.8487972617149353
0.69820445775985718 0.69820445775985718 0.69820445775985718
0.69786828756332397 0.69786828756332397 0.69786828756332397
0.72186678647994995 0.72186678647994995 0.72186678647994995
0.77094435691833496 0.77094435691833496 0.77094435691833496
0.81163251399993896 0.81163251399993896 0.81163251399993896
0.86808055639266968 0.86808055639266968 0.86808055639266968
0.92519468069076538 0.92519468069076538 0.92519468069076538
0.70465594530105591 0.70465594530105591 0.70465594530105591
0.74487721920013428 0.74487721920013428 0.74487721920013428
0.77011555433273315 0.77011555433273315 0.77011555433273315
0.81609034538269043 0.81609034538269043 0.81609034538269043
0.85585689544677734 0.85585689544677734 0.85585689544677734
0.90648704767227173 0.90648704767227173 0.90648704767227173
0.94630318880081177 0.94630318880081177 0.94630318880081177
0.4323284924030304 0.4323284924030304 0.4323284924030304
0.46296000480651855 0.46296000480651855 0.46296000480651855
0.50985288619995117 0.50985288619995117 0.50985288619995117
0.57433360815048218 0.57433360815048218 0.57433360815048218
0.64217877388000488 0.64217877388000488 0.64217877388000488
0.69996547698974609 0.69996547698974609 0.69996547698974609
0.7370305061340332 0.7370305061340332 0.7370305061340332
0.4683595597743988 0.4683595597743988 0.4683595597743988
0.50874799489974976 0.50874799489974976 0.50874799489974976
0.54662513732910156 0.54662513732910156 0.54662513732910156
0.5962950587272644 0.5962950587272644 0.5962950587272644
0.65395188331604004 0.65395188331604004 0.65395188331604004
0.71240437030792236 0.71240437030792236 0.71240437030792236
0.74156379699707031 0.74156379699707031 0.74156379699707031
0.5235598087310791 0.5235598087310791 0.5235598087310791
0.56430482864379883 0.56430482864379883 0.56430482864379883
0.59692072868347168 0.59692072868347168 0.59692072868347168
0.64038622379302979 0.64038622379302979 0.64038622379302979
0.68617290258407593 0.68617290258407593 0.68617290258407593
0.73419797420501709 0.73419797420501709 0.73419797420501709
0.76968508958816528 0.76968508958816528 0.76968508958816528
0.59410935640335083 0.59410935640335083 0.59410935640335083
0.62633669376373291 0.62633669376373291 0.62633669376373291
0.65828365087509155 0.65828365087509155 0.65828365087509155
0.69523465633392334 0.69523465633392334 0.69523465633392334
0.73837685585021973 0.73837685585021973 0.73837685585021973
0.78564375638961792 0.78564375638961792 0.78564375638961792
0.82995659112930298 0.82995659112930298 0.82995659112930298
0.67326658964157104 0.67326658964157104 0.67326658964157104
0.69288933277130127 0.69288933277130127 0.69288933277130127
0.72542238235473633 0.72542238235473633 0.72542238235473633
0.76050913333892822 0.76050913333892822 0.76050913333892822
0.79544293880462646 0.79544293880462646 0.79544293880462646
0.83637720346450806 0.83637720346450806 0.83637720346450806
0.88320541381835938 0.88320541381835938 0.88320541381835938
0.73751628398895264 0.73751628398895264 0.73751628398895264
0.75842040777206421 0.75842040777206421 0.75842040777206421
0.78298026323318481 0.78298026323318481 0.78298026323318481
0.81800919771194458 0.81800919771194458 0.81800919771194458
0.85549795627593994 0.85549795627593994 0.85549795627593994
0.89189684391021729 0.89189684391021729 0.89189684391021729
0.9481741189956665 0.9481741189956665 0.9481741189956665
0.80528634786605835 0.80528634786605835 0.80528634786605835
0.78783804178237915 0.78783804178237915 0.78783804178237915
0.81032049655914307 0.81032049655914307 0.81032049655914307
0.85106748342514038 0.85106748342514038 0.85106748342514038
0.88592725992202759 0.88592725992202759 0.88592725992202759
0.92825102806091309 0.92825102806091309 0.92825102806091309
0.96779894828796387 0.96779894828796387 0.96779894828796387
0.53481763601303101 0.53481763601303101 0.53481763601303101
0.55228173732757568 0.55228173732757568 0.55228173732757568
0.59507805109024048 0.59507805109024048 0.59507805109024048
0.65047246217727661 0.65047246217727661 0.65047246217727661
0.71353328227996826 0.71353328227996826 0.71353328227996826
0.76591670513153076 0.76591670513153076 0.76591670513153076
0.78634315729141235 0.78634315729141235 0.78634315729141235
0.55481302738189697 0.55481302738189697 0.55481302738189697
0.59586089849472046 0.59586089849472046 0.59586089849472046
0.63336628675460815 0.63336628675460815 0.63336628675460815
0.67390149831771851 0.67390149831771851 0.67390149831771851
0.72775977849960327 0.72775977849960327 0.72775977849960327
0.77363544702529907 0.77363544702529907 0.77363544702529907
0.78819793462753296 0.78819793462753296 0.78819793462753296
0.6039467453956604 0.6039467453956604 0.6039467453956604
0.64982938766479492 0.64982938766479492 0.64982938766479492
0.68348962068557739 0.68348962068557739 0.68348962068557739
0.71555805206298828 0.71555805206298828 0.71555805206298828
0.75674605369567871 0.75674605369567871 0.75674605369567871
0.79132884740829468 0.79132884740829468 0.79132884740829468
0.81908673048019409 0.81908673048019409 0.81908673048019409
0.65830707550048828 0.65830707550048828 0.65830707550048828
0.70521587133407593 0.70521587133407593 0.70521587133407593
0.73450946807861328 0.73450946807861328 0.73450946807861328
0.76396727561950684 0.76396727561950684 0.76396727561950684
0.79500108957290649 0.79500108957290649 0.79500108957290649
0.8338167667388916 0.8338167667388916 0.8338167667388916
0.85919737815856934 0.85919737815856934 0.85919737815856934
0.73500901460647583 0.73500901460647583 0.73500901460647583
0.7609449028968811 0.7609449028968811 0.7609449028968811
0.78825825452804565 0.78825825452804565 0.78825825452804565
0.81633859872817993 0.81633859872817993 0.81633859872817993
0.84942376613616943 0.84942376613616943 0.84942376613616943
0.88673889636993408 0.88673889636993408 0.88673889636993408
0.91154509782791138 0.91154509782791138 0.91154509782791138
0.81294488906860352 0.81294488906860352 0.81294488906860352
0.82182228565216064 0.82182228565216064 0.82182228565216064
0.84162032604217529 0.84162032604217529 0.84162032604217529
0.86972957849502563 0.86972957849502563 0.86972957849502563
0.90823793411254883 0.90823793411254883 0.90823793411254883
0.93760895729064941 0.93760895729064941 0.93760895729064941
0.97208219766616821 0.97208219766616821 0.97208219766616821
0.82552671432495117 0.82552671432495117 0.82552671432495117
0.81618088483810425 0.81618088483810425 0.81618088483810425
0.84050172567367554 0.84050172567367554 0.84050172567367554
0.87182855606079102 0.87182855606079102 0.87182855606079102
0.91735577583312988 0.91735577583312988 0.91735577583312988
0.96156680583953857 0.96156680583953857 0.96156680583953857
0.9847598671913147 0.9847598671913147 0.9847598671913147
