luts/fujixtransiii/fuji_xtrans_iii_mono+ye.cube
# Created by: G'MIC (https://gmic.eu)
TITLE "fuji_xtrans_iii_mono+ye"
# LUT size
LUT_3D_SIZE 13
# Data domain
DOMAIN_MIN 0.0 0.0 0.0
DOMAIN_MAX 1.0 1.0 1.0
# LUT data points
0.011177167296409607 0.011177167296409607 0.011177167296409607
0.024527875706553459 0.024527875706553459 0.024527875706553459
0.051125247031450272 0.051125247031450272 0.051125247031450272
0.10071336477994919 0.10071336477994919 0.10071336477994919
0.16407625377178192 0.16407625377178192 0.16407625377178192
0.24592255055904388 0.24592255055904388 0.24592255055904388
0.323598712682724 0.323598712682724 0.323598712682724
0.41179731488227844 0.41179731488227844 0.41179731488227844
0.46242538094520569 0.46242538094520569 0.46242538094520569
0.50321173667907715 0.50321173667907715 0.50321173667907715
0.51618027687072754 0.51618027687072754 0.51618027687072754
0.52945929765701294 0.52945929765701294 0.52945929765701294
0.55011564493179321 0.55011564493179321 0.55011564493179321
0.022812278941273689 0.022812278941273689 0.022812278941273689
0.039241071790456772 0.039241071790456772 0.039241071790456772
0.07146637886762619 0.07146637886762619 0.07146637886762619
0.11891525983810425 0.11891525983810425 0.11891525983810425
0.1851845383644104 0.1851845383644104 0.1851845383644104
0.26137444376945496 0.26137444376945496 0.26137444376945496
0.33725151419639587 0.33725151419639587 0.33725151419639587
0.41076886653900146 0.41076886653900146 0.41076886653900146
0.46762073040008545 0.46762073040008545 0.46762073040008545
0.51392287015914917 0.51392287015914917 0.51392287015914917
0.52800703048706055 0.52800703048706055 0.52800703048706055
0.54440921545028687 0.54440921545028687 0.54440921545028687
0.57499760389328003 0.57499760389328003 0.57499760389328003
0.044576141983270645 0.044576141983270645 0.044576141983270645
0.063790522515773773 0.063790522515773773 0.063790522515773773
0.096792496740818024 0.096792496740818024 0.096792496740818024
0.15233086049556732 0.15233086049556732 0.15233086049556732
0.2189645916223526 0.2189645916223526 0.2189645916223526
0.28825283050537109 0.28825283050537109 0.28825283050537109
0.36001449823379517 0.36001449823379517 0.36001449823379517
0.42433810234069824 0.42433810234069824 0.42433810234069824
0.48416981101036072 0.48416981101036072 0.48416981101036072
0.52849292755126953 0.52849292755126953 0.52849292755126953
0.55175840854644775 0.55175840854644775 0.55175840854644775
0.57511007785797119 0.57511007785797119 0.57511007785797119
0.59764772653579712 0.59764772653579712 0.59764772653579712
0.093742847442626953 0.093742847442626953 0.093742847442626953
0.11350733786821365 0.11350733786821365 0.11350733786821365
0.13671870529651642 0.13671870529651642 0.13671870529651642
0.19729667901992798 0.19729667901992798 0.19729667901992798
0.26040500402450562 0.26040500402450562 0.26040500402450562
0.32495564222335815 0.32495564222335815 0.32495564222335815
0.39206883311271667 0.39206883311271667 0.39206883311271667
0.45386227965354919 0.45386227965354919 0.45386227965354919
0.50660663843154907 0.50660663843154907 0.50660663843154907
0.5533679723739624 0.5533679723739624 0.5533679723739624
0.59123873710632324 0.59123873710632324 0.59123873710632324
0.59985393285751343 0.59985393285751343 0.59985393285751343
0.60502034425735474 0.60502034425735474 0.60502034425735474
0.14761540293693542 0.14761540293693542 0.14761540293693542
0.17814849317073822 0.17814849317073822 0.17814849317073822
0.20666171610355377 0.20666171610355377 0.20666171610355377
0.26072177290916443 0.26072177290916443 0.26072177290916443
0.31812113523483276 0.31812113523483276 0.31812113523483276
0.37088987231254578 0.37088987231254578 0.37088987231254578
0.43525373935699463 0.43525373935699463 0.43525373935699463
0.48755815625190735 0.48755815625190735 0.48755815625190735
0.53100043535232544 0.53100043535232544 0.53100043535232544
0.57153332233428955 0.57153332233428955 0.57153332233428955
0.605316162109375 0.605316162109375 0.605316162109375
0.6098138689994812 0.6098138689994812 0.6098138689994812
0.62270420789718628 0.62270420789718628 0.62270420789718628
0.20599940419197083 0.20599940419197083 0.20599940419197083
0.2452395111322403 0.2452395111322403 0.2452395111322403
0.27010878920555115 0.27010878920555115 0.27010878920555115
0.30929020047187805 0.30929020047187805 0.30929020047187805
0.3704221248626709 0.3704221248626709 0.3704221248626709
0.42082655429840088 0.42082655429840088 0.42082655429840088
0.47241666913032532 0.47241666913032532 0.47241666913032532
0.51690661907196045 0.51690661907196045 0.51690661907196045
0.55534297227859497 0.55534297227859497 0.55534297227859497
0.58967989683151245 0.58967989683151245 0.58967989683151245
0.61763060092926025 0.61763060092926025 0.61763060092926025
0.63904130458831787 0.63904130458831787 0.63904130458831787
0.67539757490158081 0.67539757490158081 0.67539757490158081
0.25758922100067139 0.25758922100067139 0.25758922100067139
0.2889677882194519 0.2889677882194519 0.2889677882194519
0.31392002105712891 0.31392002105712891 0.31392002105712891
0.35219684243202209 0.35219684243202209 0.35219684243202209
0.41228163242340088 0.41228163242340088 0.41228163242340088
0.45064368844032288 0.45064368844032288 0.45064368844032288
0.50412791967391968 0.50412791967391968 0.50412791967391968
0.55107539892196655 0.55107539892196655 0.55107539892196655
0.58970212936401367 0.58970212936401367 0.58970212936401367
0.62395864725112915 0.62395864725112915 0.62395864725112915
0.65319019556045532 0.65319019556045532 0.65319019556045532
0.67338943481445312 0.67338943481445312 0.67338943481445312
0.70311343669891357 0.70311343669891357 0.70311343669891357
0.28318890929222107 0.28318890929222107 0.28318890929222107
0.31612211465835571 0.31612211465835571 0.31612211465835571
0.36122551560401917 0.36122551560401917 0.36122551560401917
0.38621598482131958 0.38621598482131958 0.38621598482131958
0.44558721780776978 0.44558721780776978 0.44558721780776978
0.47463738918304443 0.47463738918304443 0.47463738918304443
0.53724533319473267 0.53724533319473267 0.53724533319473267
0.58085250854492188 0.58085250854492188 0.58085250854492188
0.623923659324646 0.623923659324646 0.623923659324646
0.66303491592407227 0.66303491592407227 0.66303491592407227
0.68275433778762817 0.68275433778762817 0.68275433778762817
0.70049893856048584 0.70049893856048584 0.70049893856048584
0.72605890035629272 0.72605890035629272 0.72605890035629272
0.32231462001800537 0.32231462001800537 0.32231462001800537
0.3355717658996582 0.3355717658996582 0.3355717658996582
0.38853171467781067 0.38853171467781067 0.38853171467781067
0.39922493696212769 0.39922493696212769 0.39922493696212769
0.4552796483039856 0.4552796483039856 0.4552796483039856
0.50496381521224976 0.50496381521224976 0.50496381521224976
0.57326763868331909 0.57326763868331909 0.57326763868331909
0.60694843530654907 0.60694843530654907 0.60694843530654907
0.65422135591506958 0.65422135591506958 0.65422135591506958
0.68525457382202148 0.68525457382202148 0.68525457382202148
0.69762957096099854 0.69762957096099854 0.69762957096099854
0.72469693422317505 0.72469693422317505 0.72469693422317505
0.74875098466873169 0.74875098466873169 0.74875098466873169
0.35117194056510925 0.35117194056510925 0.35117194056510925
0.33739635348320007 0.33739635348320007 0.33739635348320007
0.38865542411804199 0.38865542411804199 0.38865542411804199
0.43019115924835205 0.43019115924835205 0.43019115924835205
0.48679876327514648 0.48679876327514648 0.48679876327514648
0.52724295854568481 0.52724295854568481 0.52724295854568481
0.57570719718933105 0.57570719718933105 0.57570719718933105
0.61052161455154419 0.61052161455154419 0.61052161455154419
0.65259861946105957 0.65259861946105957 0.65259861946105957
0.688751220703125 0.688751220703125 0.688751220703125
0.71623945236206055 0.71623945236206055 0.71623945236206055
0.75012350082397461 0.75012350082397461 0.75012350082397461
0.77234983444213867 0.77234983444213867 0.77234983444213867
0.35506764054298401 0.35506764054298401 0.35506764054298401
0.35323947668075562 0.35323947668075562 0.35323947668075562
0.45800846815109253 0.45800846815109253 0.45800846815109253
0.4943699836730957 0.4943699836730957 0.4943699836730957
0.52903944253921509 0.52903944253921509 0.52903944253921509
0.55373680591583252 0.55373680591583252 0.55373680591583252
0.60178810358047485 0.60178810358047485 0.60178810358047485
0.62465113401412964 0.62465113401412964 0.62465113401412964
0.65529662370681763 0.65529662370681763 0.65529662370681763
0.69619137048721313 0.69619137048721313 0.69619137048721313
0.74316000938415527 0.74316000938415527 0.74316000938415527
0.77072101831436157 0.77072101831436157 0.77072101831436157
0.78257167339324951 0.78257167339324951 0.78257167339324951
0.38715016841888428 0.38715016841888428 0.38715016841888428
0.38131710886955261 0.38131710886955261 0.38131710886955261
0.47901424765586853 0.47901424765586853 0.47901424765586853
0.51327919960021973 0.51327919960021973 0.51327919960021973
0.54452323913574219 0.54452323913574219 0.54452323913574219
0.57899218797683716 0.57899218797683716 0.57899218797683716
0.62464231252670288 0.62464231252670288 0.62464231252670288
0.64156746864318848 0.64156746864318848 0.64156746864318848
0.67819654941558838 0.67819654941558838 0.67819654941558838
0.71752828359603882 0.71752828359603882 0.71752828359603882
0.75212931632995605 0.75212931632995605 0.75212931632995605
0.78176891803741455 0.78176891803741455 0.78176891803741455
0.79287075996398926 0.79287075996398926 0.79287075996398926
0.38975101709365845 0.38975101709365845 0.38975101709365845
0.38590908050537109 0.38590908050537109 0.38590908050537109
0.48069435358047485 0.48069435358047485 0.48069435358047485
0.51544594764709473 0.51544594764709473 0.51544594764709473
0.54290437698364258 0.54290437698364258 0.54290437698364258
0.5758252739906311 0.5758252739906311 0.5758252739906311
0.62896567583084106 0.62896567583084106 0.62896567583084106
0.65825730562210083 0.65825730562210083 0.65825730562210083
0.70592737197875977 0.70592737197875977 0.70592737197875977
0.74917948246002197 0.74917948246002197 0.74917948246002197
0.77580046653747559 0.77580046653747559 0.77580046653747559
0.79803800582885742 0.79803800582885742 0.79803800582885742
0.80789196491241455 0.80789196491241455 0.80789196491241455
0.012091363780200481 0.012212716042995453 0.012212716042995453
0.025324488058686256 0.025415891781449318 0.025415891781449318
0.062375325709581375 0.062375325709581375 0.062375325709581375
0.10867993533611298 0.10867993533611298 0.10867993533611298
0.15390986204147339 0.15390986204147339 0.15390986204147339
0.24973411858081818 0.24973411858081818 0.24973411858081818
0.34467169642448425 0.34467169642448425 0.34467169642448425
0.4207642674446106 0.4207642674446106 0.4207642674446106
0.48943227529525757 0.48943227529525757 0.48943227529525757
0.52876478433609009 0.52876478433609009 0.52876478433609009
0.54249042272567749 0.54249042272567749 0.54249042272567749
0.55310273170471191 0.55310273170471191 0.55310273170471191
0.59297144412994385 0.59297144412994385 0.59297144412994385
0.028767993673682213 0.028833726420998573 0.028833726420998573
0.050278846174478531 0.050280984491109848 0.050280984491109848
0.080572508275508881 0.080572508275508881 0.080572508275508881
0.13081000745296478 0.13081000745296478 0.13081000745296478
0.18737106025218964 0.18737106025218964 0.18737106025218964
0.26962152123451233 0.26962152123451233 0.26962152123451233
0.34883254766464233 0.34883254766464233 0.34883254766464233
0.42028346657752991 0.42028346657752991 0.42028346657752991
0.4803527295589447 0.4803527295589447 0.4803527295589447
0.52607607841491699 0.52607607841491699 0.52607607841491699
0.54705536365509033 0.54705536365509033 0.54705536365509033
0.57880473136901855 0.57880473136901855 0.57880473136901855
0.61500704288482666 0.61500704288482666 0.61500704288482666
0.058368921279907227 0.058401789516210556 0.058401789516210556
0.079195357859134674 0.079195357859134674 0.079195357859134674
0.11125577986240387 0.11125577986240387 0.11125577986240387
0.16545528173446655 0.16545528173446655 0.16545528173446655
0.22859901189804077 0.22859901189804077 0.22859901189804077
0.29762670397758484 0.29762670397758484 0.29762670397758484
0.36984163522720337 0.36984163522720337 0.36984163522720337
0.43713769316673279 0.43713769316673279 0.43713769316673279
0.4945184588432312 0.4945184588432312 0.4945184588432312
0.54001110792160034 0.54001110792160034 0.54001110792160034
0.57833969593048096 0.57833969593048096 0.57833969593048096
0.60036665201187134 0.60036665201187134 0.60036665201187134
0.62039285898208618 0.62039285898208618 0.62039285898208618
0.10612354427576065 0.10612354427576065 0.10612354427576065
0.12975615262985229 0.12975615262985229 0.12975615262985229
0.15789684653282166 0.15789684653282166 0.15789684653282166
0.21378721296787262 0.21378721296787262 0.21378721296787262
0.27138730883598328 0.27138730883598328 0.27138730883598328
0.33330568671226501 0.33330568671226501 0.33330568671226501
0.40127688646316528 0.40127688646316528 0.40127688646316528
0.4623115062713623 0.4623115062713623 0.4623115062713623
0.51308906078338623 0.51308906078338623 0.51308906078338623
0.55918997526168823 0.55918997526168823 0.55918997526168823
0.59946393966674805 0.59946393966674805 0.59946393966674805
0.61238831281661987 0.61238831281661987 0.61238831281661987
0.62945884466171265 0.62945884466171265 0.62945884466171265
0.17208178341388702 0.17208178341388702 0.17208178341388702
0.19094911217689514 0.19094911217689514 0.19094911217689514
0.22149534523487091 0.22149534523487091 0.22149534523487091
0.26952412724494934 0.26952412724494934 0.26952412724494934
0.32157322764396667 0.32157322764396667 0.32157322764396667
0.37643811106681824 0.37643811106681824 0.37643811106681824
0.44070884585380554 0.44070884585380554 0.44070884585380554
0.49187865853309631 0.49187865853309631 0.49187865853309631
0.53343087434768677 0.53343087434768677 0.53343087434768677
0.57556259632110596 0.57556259632110596 0.57556259632110596
0.61764729022979736 0.61764729022979736 0.61764729022979736
0.63586539030075073 0.63586539030075073 0.63586539030075073
0.65952157974243164 0.65952157974243164 0.65952157974243164
0.23129785060882568 0.23129785060882568 0.23129785060882568
0.25711789727210999 0.25711789727210999 0.25711789727210999
0.28594982624053955 0.28594982624053955 0.28594982624053955
0.31737086176872253 0.31737086176872253 0.31737086176872253
0.37179398536682129 0.37179398536682129 0.37179398536682129
0.41925227642059326 0.41925227642059326 0.41925227642059326
0.47374477982521057 0.47374477982521057 0.47374477982521057
0.51934707164764404 0.51934707164764404 0.51934707164764404
0.55843532085418701 0.55843532085418701 0.55843532085418701
0.59605294466018677 0.59605294466018677 0.59605294466018677
0.64055740833282471 0.64055740833282471 0.64055740833282471
0.67668956518173218 0.67668956518173218 0.67668956518173218
0.69610190391540527 0.69610190391540527 0.69610190391540527
0.2767273485660553 0.2767273485660553 0.2767273485660553
0.3135160505771637 0.3135160505771637 0.3135160505771637
0.34212324023246765 0.34212324023246765 0.34212324023246765
0.36370670795440674 0.36370670795440674 0.36370670795440674
0.41895255446434021 0.41895255446434021 0.41895255446434021
0.44881528615951538 0.44881528615951538 0.44881528615951538
0.49872788786888123 0.49872788786888123 0.49872788786888123
0.54570168256759644 0.54570168256759644 0.54570168256759644
0.58874773979187012 0.58874773979187012 0.58874773979187012
0.63067293167114258 0.63067293167114258 0.63067293167114258
0.67331391572952271 0.67331391572952271 0.67331391572952271
0.70169401168823242 0.70169401168823242 0.70169401168823242
0.71987724304199219 0.71987724304199219 0.71987724304199219
0.33687350153923035 0.33687350153923035 0.33687350153923035
0.36050942540168762 0.36050942540168762 0.36050942540168762
0.38541018962860107 0.38541018962860107 0.38541018962860107
0.40327784419059753 0.40327784419059753 0.40327784419059753
0.45308330655097961 0.45308330655097961 0.45308330655097961
0.48659101128578186 0.48659101128578186 0.48659101128578186
0.53834265470504761 0.53834265470504761 0.53834265470504761
0.5786292552947998 0.5786292552947998 0.5786292552947998
0.62515377998352051 0.62515377998352051 0.62515377998352051
0.6669234037399292 0.6669234037399292 0.6669234037399292
0.70267850160598755 0.70267850160598755 0.70267850160598755
0.72594672441482544 0.72594672441482544 0.72594672441482544
0.74711251258850098 0.74711251258850098 0.74711251258850098
0.37556996941566467 0.37556996941566467 0.37556996941566467
0.39346092939376831 0.39346092939376831 0.39346092939376831
0.41082531213760376 0.41082531213760376 0.41082531213760376
0.43432644009590149 0.43432644009590149 0.43432644009590149
0.48050960898399353 0.48050960898399353 0.48050960898399353
0.51966708898544312 0.51966708898544312 0.51966708898544312
0.57736921310424805 0.57736921310424805 0.57736921310424805
0.6171984076499939 0.6171984076499939 0.6171984076499939
0.65755641460418701 0.65755641460418701 0.65755641460418701
0.69566726684570312 0.69566726684570312 0.69566726684570312
0.72967511415481567 0.72967511415481567 0.72967511415481567
0.75315409898757935 0.75315409898757935 0.75315409898757935
0.77811926603317261 0.77811926603317261 0.77811926603317261
0.38892936706542969 0.38892936706542969 0.38892936706542969
0.40388479828834534 0.40388479828834534 0.40388479828834534
0.455820232629776 0.455820232629776 0.455820232629776
0.48370456695556641 0.48370456695556641 0.48370456695556641
0.52027934789657593 0.52027934789657593 0.52027934789657593
0.55200910568237305 0.55200910568237305 0.55200910568237305
0.60550624132156372 0.60550624132156372 0.60550624132156372
0.63917076587677002 0.63917076587677002 0.63917076587677002
0.67370790243148804 0.67370790243148804 0.67370790243148804
0.71370875835418701 0.71370875835418701 0.71370875835418701
0.74833941459655762 0.74833941459655762 0.74833941459655762
0.77413833141326904 0.77413833141326904 0.77413833141326904
0.78451132774353027 0.78451132774353027 0.78451132774353027
0.39628899097442627 0.39628899097442627 0.39628899097442627
0.40677934885025024 0.40677934885025024 0.40677934885025024
0.47661140561103821 0.47661140561103821 0.47661140561103821
0.50753843784332275 0.50753843784332275 0.50753843784332275
0.54289764165878296 0.54289764165878296 0.54289764165878296
0.57591986656188965 0.57591986656188965 0.57591986656188965
0.62790060043334961 0.62790060043334961 0.62790060043334961
0.65410900115966797 0.65410900115966797 0.65410900115966797
0.69094341993331909 0.69094341993331909 0.69094341993331909
0.73013824224472046 0.73013824224472046 0.73013824224472046
0.7673448920249939 0.7673448920249939 0.7673448920249939
0.7841724157333374 0.7841724157333374 0.7841724157333374
0.79002630710601807 0.79002630710601807 0.79002630710601807
0.41154497861862183 0.41154497861862183 0.41154497861862183
0.40652951598167419 0.40652951598167419 0.40652951598167419
0.4888821542263031 0.4888821542263031 0.4888821542263031
0.52589702606201172 0.52589702606201172 0.52589702606201172
0.55719006061553955 0.55719006061553955 0.55719006061553955
0.58531135320663452 0.58531135320663452 0.58531135320663452
0.63336789608001709 0.63336789608001709 0.63336789608001709
0.66018223762512207 0.66018223762512207 0.66018223762512207
0.70648312568664551 0.70648312568664551 0.70648312568664551
0.74736654758453369 0.74736654758453369 0.74736654758453369
0.77381044626235962 0.77381044626235962 0.77381044626235962
0.7949293851852417 0.7949293851852417 0.7949293851852417
0.80393868684768677 0.80393868684768677 0.80393868684768677
0.42127907276153564 0.42127907276153564 0.42127907276153564
0.41642317175865173 0.41642317175865173 0.41642317175865173
0.50902688503265381 0.50902688503265381 0.50902688503265381
0.54640275239944458 0.54640275239944458 0.54640275239944458
0.57172012329101562 0.57172012329101562 0.57172012329101562
0.59242159128189087 0.59242159128189087 0.59242159128189087
0.63450866937637329 0.63450866937637329 0.63450866937637329
0.66403746604919434 0.66403746604919434 0.66403746604919434
0.70672607421875 0.70672607421875 0.70672607421875
0.74826037883758545 0.74826037883758545 0.74826037883758545
0.78200364112854004 0.78200364112854004 0.78200364112854004
0.8208920955657959 0.8208920955657959 0.8208920955657959
0.83014994859695435 0.83014994859695435 0.83014994859695435
0.016482587903738022 0.017706029117107391 0.017706029117107391
0.040762327611446381 0.041932482272386551 0.041932482272386551
0.082972250878810883 0.083015426993370056 0.083015426993370056
0.14746953547000885 0.14746953547000885 0.14746953547000885
0.1954113245010376 0.1954113245010376 0.1954113245010376
0.2777620255947113 0.2777620255947113 0.2777620255947113
0.36156442761421204 0.36156442761421204 0.36156442761421204
0.43458914756774902 0.43458914756774902 0.43458914756774902
0.50086241960525513 0.50086241960525513 0.50086241960525513
0.53990823030471802 0.53990823030471802 0.53990823030471802
0.55977052450180054 0.55977052450180054 0.55977052450180054
0.59023171663284302 0.59023171663284302 0.59023171663284302
0.6357269287109375 0.6357269287109375 0.6357269287109375
0.040534492582082748 0.040561825037002563 0.040561825037002563
0.067196488380432129 0.067297123372554779 0.067297123372554779
0.10122891515493393 0.10125419497489929 0.10125419497489929
0.15539121627807617 0.15539121627807617 0.15539121627807617
0.2185225784778595 0.2185225784778595 0.2185225784778595
0.29160282015800476 0.29160282015800476 0.29160282015800476
0.36251571774482727 0.36251571774482727 0.36251571774482727
0.43147259950637817 0.43147259950637817 0.43147259950637817
0.48973706364631653 0.48973706364631653 0.48973706364631653
0.53777039051055908 0.53777039051055908 0.53777039051055908
0.57986354827880859 0.57986354827880859 0.57986354827880859
0.61000776290893555 0.61000776290893555 0.61000776290893555
0.6424136757850647 0.6424136757850647 0.6424136757850647
0.076386183500289917 0.076389774680137634 0.076389774680137634
0.096295163035392761 0.096295468509197235 0.096295468509197235
0.1298801600933075 0.1298801600933075 0.1298801600933075
0.18025872111320496 0.18025872111320496 0.18025872111320496
0.24202270805835724 0.24202270805835724 0.24202270805835724
0.31066024303436279 0.31066024303436279 0.31066024303436279
0.38224616646766663 0.38224616646766663 0.38224616646766663
0.44490909576416016 0.44490909576416016 0.44490909576416016
0.49965563416481018 0.49965563416481018 0.49965563416481018
0.55165702104568481 0.55165702104568481 0.55165702104568481
0.59535902738571167 0.59535902738571167 0.59535902738571167
0.62153911590576172 0.62153911590576172 0.62153911590576172
0.65492767095565796 0.65492767095565796 0.65492767095565796
0.12914453446865082 0.12914453446865082 0.12914453446865082
0.14907778799533844 0.14907778799533844 0.14907778799533844
0.1774100661277771 0.1774100661277771 0.1774100661277771
0.22529575228691101 0.22529575228691101 0.22529575228691101
0.28125029802322388 0.28125029802322388 0.28125029802322388
0.34361451864242554 0.34361451864242554 0.34361451864242554
0.41291049122810364 0.41291049122810364 0.41291049122810364
0.4708978533744812 0.4708978533744812 0.4708978533744812
0.52301347255706787 0.52301347255706787 0.52301347255706787
0.57392674684524536 0.57392674684524536 0.57392674684524536
0.61768454313278198 0.61768454313278198 0.61768454313278198
0.6556389331817627 0.6556389331817627 0.6556389331817627
0.67719763517379761 0.67719763517379761 0.67719763517379761
0.18241347372531891 0.18241347372531891 0.18241347372531891
0.2078949362039566 0.2078949362039566 0.2078949362039566
0.23465998470783234 0.23465998470783234 0.23465998470783234
0.27635252475738525 0.27635252475738525 0.27635252475738525
0.32707947492599487 0.32707947492599487 0.32707947492599487
0.38424029946327209 0.38424029946327209 0.38424029946327209
0.44787865877151489 0.44787865877151489 0.44787865877151489
0.50029629468917847 0.50029629468917847 0.50029629468917847
