luts/fujixtransiii/fuji_xtrans_iii_acros.cube
# Created by: G'MIC (https://gmic.eu)
TITLE "fuji_xtrans_iii_acros"
# LUT size
LUT_3D_SIZE 13
# Data domain
DOMAIN_MIN 0.0 0.0 0.0
DOMAIN_MAX 1.0 1.0 1.0
# LUT data points
0.017840411514043808 0.017840411514043808 0.017840411514043808
0.029841164126992226 0.029841164126992226 0.029841164126992226
0.045241590589284897 0.045241590589284897 0.045241590589284897
0.078159257769584656 0.078159257769584656 0.078159257769584656
0.11816789209842682 0.11816789209842682 0.11816789209842682
0.1724076122045517 0.1724076122045517 0.1724076122045517
0.22303798794746399 0.22303798794746399 0.22303798794746399
0.30203267931938171 0.30203267931938171 0.30203267931938171
0.34762081503868103 0.34762081503868103 0.34762081503868103
0.38034269213676453 0.38034269213676453 0.38034269213676453
0.39537933468818665 0.39537933468818665 0.39537933468818665
0.41497188806533813 0.41497188806533813 0.41497188806533813
0.42793750762939453 0.42793750762939453 0.42793750762939453
0.029400844126939774 0.029400844126939774 0.029400844126939774
0.044050808995962143 0.044050808995962143 0.044050808995962143
0.064226619899272919 0.064226619899272919 0.064226619899272919
0.096786722540855408 0.096786722540855408 0.096786722540855408
0.13775546848773956 0.13775546848773956 0.13775546848773956
0.19090551137924194 0.19090551137924194 0.19090551137924194
0.24631944298744202 0.24631944298744202 0.24631944298744202
0.30623006820678711 0.30623006820678711 0.30623006820678711
0.35300776362419128 0.35300776362419128 0.35300776362419128
0.38582035899162292 0.38582035899162292 0.38582035899162292
0.40503999590873718 0.40503999590873718 0.40503999590873718
0.42468303442001343 0.42468303442001343 0.42468303442001343
0.4582027792930603 0.4582027792930603 0.4582027792930603
0.052253767848014832 0.052253767848014832 0.052253767848014832
0.067121975123882294 0.067121975123882294 0.067121975123882294
0.089111477136611938 0.089111477136611938 0.089111477136611938
0.12494285404682159 0.12494285404682159 0.12494285404682159
0.17136712372303009 0.17136712372303009 0.17136712372303009
0.22153070569038391 0.22153070569038391 0.22153070569038391
0.27290302515029907 0.27290302515029907 0.27290302515029907
0.32490947842597961 0.32490947842597961 0.32490947842597961
0.37295371294021606 0.37295371294021606 0.37295371294021606
0.40734922885894775 0.40734922885894775 0.40734922885894775
0.43099567294120789 0.43099567294120789 0.43099567294120789
0.4641735851764679 0.4641735851764679 0.4641735851764679
0.4921385645866394 0.4921385645866394 0.4921385645866394
0.10405313968658447 0.10405313968658447 0.10405313968658447
0.11429097503423691 0.11429097503423691 0.11429097503423691
0.12775488197803497 0.12775488197803497 0.12775488197803497
0.16713741421699524 0.16713741421699524 0.16713741421699524
0.21486394107341766 0.21486394107341766 0.21486394107341766
0.26321208477020264 0.26321208477020264 0.26321208477020264
0.31147801876068115 0.31147801876068115 0.31147801876068115
0.3583548367023468 0.3583548367023468 0.3583548367023468
0.40396475791931152 0.40396475791931152 0.40396475791931152
0.44797667860984802 0.44797667860984802 0.44797667860984802
0.48648813366889954 0.48648813366889954 0.48648813366889954
0.49322241544723511 0.49322241544723511 0.49322241544723511
0.50036799907684326 0.50036799907684326 0.50036799907684326
0.15999755263328552 0.15999755263328552 0.15999755263328552
0.1831919401884079 0.1831919401884079 0.1831919401884079
0.19728346168994904 0.19728346168994904 0.19728346168994904
0.23432031273841858 0.23432031273841858 0.23432031273841858
0.27982094883918762 0.27982094883918762 0.27982094883918762
0.3223051130771637 0.3223051130771637 0.3223051130771637
0.3650454580783844 0.3650454580783844 0.3650454580783844
0.40261667966842651 0.40261667966842651 0.40261667966842651
0.44311758875846863 0.44311758875846863 0.44311758875846863
0.4807279109954834 0.4807279109954834 0.4807279109954834
0.51103442907333374 0.51103442907333374 0.51103442907333374
0.50794678926467896 0.50794678926467896 0.50794678926467896
0.52348905801773071 0.52348905801773071 0.52348905801773071
0.223598912358284 0.223598912358284 0.223598912358284
0.25625017285346985 0.25625017285346985 0.25625017285346985
0.26538312435150146 0.26538312435150146 0.26538312435150146
0.30008807778358459 0.30008807778358459 0.30008807778358459
0.35452863574028015 0.35452863574028015 0.35452863574028015
0.39396679401397705 0.39396679401397705 0.39396679401397705
0.42791607975959778 0.42791607975959778 0.42791607975959778
0.46059343218803406 0.46059343218803406 0.46059343218803406
0.49440068006515503 0.49440068006515503 0.49440068006515503
0.52413547039031982 0.52413547039031982 0.52413547039031982
0.55045098066329956 0.55045098066329956 0.55045098066329956
0.55883842706680298 0.55883842706680298 0.55883842706680298
0.59668612480163574 0.59668612480163574 0.59668612480163574
0.2724306583404541 0.2724306583404541 0.2724306583404541
0.3013344407081604 0.3013344407081604 0.3013344407081604
0.31675511598587036 0.31675511598587036 0.31675511598587036
0.35814958810806274 0.35814958810806274 0.35814958810806274
0.40992730855941772 0.40992730855941772 0.40992730855941772
0.43884792923927307 0.43884792923927307 0.43884792923927307
0.47730109095573425 0.47730109095573425 0.47730109095573425
0.51483690738677979 0.51483690738677979 0.51483690738677979
0.54646497964859009 0.54646497964859009 0.54646497964859009
0.57482022047042847 0.57482022047042847 0.57482022047042847
0.60197287797927856 0.60197287797927856 0.60197287797927856
0.60951787233352661 0.60951787233352661 0.60951787233352661
0.64030814170837402 0.64030814170837402 0.64030814170837402
0.30058160424232483 0.30058160424232483 0.30058160424232483
0.32933488488197327 0.32933488488197327 0.32933488488197327
0.37877145409584045 0.37877145409584045 0.37877145409584045
0.39150822162628174 0.39150822162628174 0.39150822162628174
0.44881981611251831 0.44881981611251831 0.44881981611251831
0.47281062602996826 0.47281062602996826 0.47281062602996826
0.52755081653594971 0.52755081653594971 0.52755081653594971
0.5642704963684082 0.5642704963684082 0.5642704963684082
0.59495174884796143 0.59495174884796143 0.59495174884796143
0.62447655200958252 0.62447655200958252 0.62447655200958252
0.64246189594268799 0.64246189594268799 0.64246189594268799
0.65749740600585938 0.65749740600585938 0.65749740600585938
0.68113625049591064 0.68113625049591064 0.68113625049591064
0.34120392799377441 0.34120392799377441 0.34120392799377441
0.35339677333831787 0.35339677333831787 0.35339677333831787
0.41716626286506653 0.41716626286506653 0.41716626286506653
0.41146653890609741 0.41146653890609741 0.41146653890609741
0.46238306164741516 0.46238306164741516 0.46238306164741516
0.51368021965026855 0.51368021965026855 0.51368021965026855
0.57619833946228027 0.57619833946228027 0.57619833946228027
0.60177874565124512 0.60177874565124512 0.60177874565124512
0.63111573457717896 0.63111573457717896 0.63111573457717896
0.65832740068435669 0.65832740068435669 0.65832740068435669
0.66814470291137695 0.66814470291137695 0.66814470291137695
0.69491535425186157 0.69491535425186157 0.69491535425186157
0.72096425294876099 0.72096425294876099 0.72096425294876099
0.36959794163703918 0.36959794163703918 0.36959794163703918
0.35457721352577209 0.35457721352577209 0.35457721352577209
0.40854072570800781 0.40854072570800781 0.40854072570800781
0.44715291261672974 0.44715291261672974 0.44715291261672974
0.49714839458465576 0.49714839458465576 0.49714839458465576
0.53604245185852051 0.53604245185852051 0.53604245185852051
0.58119291067123413 0.58119291067123413 0.58119291067123413
0.60943686962127686 0.60943686962127686 0.60943686962127686
0.63868457078933716 0.63868457078933716 0.63868457078933716
0.6649516224861145 0.6649516224861145 0.6649516224861145
0.68915748596191406 0.68915748596191406 0.68915748596191406
0.71970266103744507 0.71970266103744507 0.71970266103744507
0.74602657556533813 0.74602657556533813 0.74602657556533813
0.37667214870452881 0.37667214870452881 0.37667214870452881
0.3686644434928894 0.3686644434928894 0.3686644434928894
0.4898315966129303 0.4898315966129303 0.4898315966129303
0.52642160654067993 0.52642160654067993 0.52642160654067993
0.54876446723937988 0.54876446723937988 0.54876446723937988
0.56747007369995117 0.56747007369995117 0.56747007369995117
0.60780686140060425 0.60780686140060425 0.60780686140060425
0.62600570917129517 0.62600570917129517 0.62600570917129517
0.64538067579269409 0.64538067579269409 0.64538067579269409
0.67091643810272217 0.67091643810272217 0.67091643810272217
0.71401911973953247 0.71401911973953247 0.71401911973953247
0.74466222524642944 0.74466222524642944 0.74466222524642944
0.7540053129196167 0.7540053129196167 0.7540053129196167
0.40635311603546143 0.40635311603546143 0.40635311603546143
0.40044263005256653 0.40044263005256653 0.40044263005256653
0.51256453990936279 0.51256453990936279 0.51256453990936279
0.54445719718933105 0.54445719718933105 0.54445719718933105
0.57122975587844849 0.57122975587844849 0.57122975587844849
0.59710347652435303 0.59710347652435303 0.59710347652435303
0.63108247518539429 0.63108247518539429 0.63108247518539429
0.64204716682434082 0.64204716682434082 0.64204716682434082
0.67512971162796021 0.67512971162796021 0.67512971162796021
0.70523542165756226 0.70523542165756226 0.70523542165756226
0.73377829790115356 0.73377829790115356 0.73377829790115356
0.75753730535507202 0.75753730535507202 0.75753730535507202
0.76267141103744507 0.76267141103744507 0.76267141103744507
0.41317251324653625 0.41317251324653625 0.41317251324653625
0.40943127870559692 0.40943127870559692 0.40943127870559692
0.51590955257415771 0.51590955257415771 0.51590955257415771
0.54911881685256958 0.54911881685256958 0.54911881685256958
0.57242661714553833 0.57242661714553833 0.57242661714553833
0.59789752960205078 0.59789752960205078 0.59789752960205078
0.63551944494247437 0.63551944494247437 0.63551944494247437
0.6694832444190979 0.6694832444190979 0.6694832444190979
0.71152549982070923 0.71152549982070923 0.71152549982070923
0.74264705181121826 0.74264705181121826 0.74264705181121826
0.76876306533813477 0.76876306533813477 0.76876306533813477
0.78564959764480591 0.78564959764480591 0.78564959764480591
0.78876292705535889 0.78876292705535889 0.78876292705535889
0.024810910224914551 0.024810910224914551 0.024810910224914551
0.03905772790312767 0.03905772790312767 0.03905772790312767
0.061179067939519882 0.061179067939519882 0.061179067939519882
0.089097373187541962 0.089097373187541962 0.089097373187541962
0.11919917911291122 0.11919917911291122 0.11919917911291122
0.18051639199256897 0.18051639199256897 0.18051639199256897
0.25010642409324646 0.25010642409324646 0.25010642409324646
0.31606027483940125 0.31606027483940125 0.31606027483940125
0.37130916118621826 0.37130916118621826 0.37130916118621826
0.40117922425270081 0.40117922425270081 0.40117922425270081
0.42006203532218933 0.42006203532218933 0.42006203532218933
0.43123531341552734 0.43123531341552734 0.43123531341552734
0.47654238343238831 0.47654238343238831 0.47654238343238831
0.039565082639455795 0.039565082639455795 0.039565082639455795
0.05845743790268898 0.05845743790268898 0.05845743790268898
0.078621916472911835 0.078621916472911835 0.078621916472911835
0.104643814265728 0.104643814265728 0.104643814265728
0.1405409574508667 0.1405409574508667 0.1405409574508667
0.20261918008327484 0.20261918008327484 0.20261918008327484
0.2593892514705658 0.2593892514705658 0.2593892514705658
0.31253841519355774 0.31253841519355774 0.31253841519355774
0.35980364680290222 0.35980364680290222 0.35980364680290222
0.39557188749313354 0.39557188749313354 0.39557188749313354
0.42617312073707581 0.42617312073707581 0.42617312073707581
0.46339213848114014 0.46339213848114014 0.46339213848114014
0.49793529510498047 0.49793529510498047 0.49793529510498047
0.07296442985534668 0.07296442985534668 0.07296442985534668
0.08716931939125061 0.08716931939125061 0.08716931939125061
0.10499296337366104 0.10499296337366104 0.10499296337366104
0.13148960471153259 0.13148960471153259 0.13148960471153259
0.18121808767318726 0.18121808767318726 0.18121808767318726
0.23508825898170471 0.23508825898170471 0.23508825898170471
0.28161430358886719 0.28161430358886719 0.28161430358886719
0.32817655801773071 0.32817655801773071 0.32817655801773071
0.37580686807632446 0.37580686807632446 0.37580686807632446
0.42044126987457275 0.42044126987457275 0.42044126987457275
0.46114766597747803 0.46114766597747803 0.46114766597747803
0.48821568489074707 0.48821568489074707 0.48821568489074707
0.50802820920944214 0.50802820920944214 0.50802820920944214
0.12094490230083466 0.12094490230083466 0.12094490230083466
0.12962885200977325 0.12962885200977325 0.12962885200977325
0.15018358826637268 0.15018358826637268 0.15018358826637268
0.18127211928367615 0.18127211928367615 0.18127211928367615
0.22672733664512634 0.22672733664512634 0.22672733664512634
0.27583420276641846 0.27583420276641846 0.27583420276641846
0.32279333472251892 0.32279333472251892 0.32279333472251892
0.36838454008102417 0.36838454008102417 0.36838454008102417
0.41413339972496033 0.41413339972496033 0.41413339972496033
0.45998856425285339 0.45998856425285339 0.45998856425285339
0.49837407469749451 0.49837407469749451 0.49837407469749451
0.50922262668609619 0.50922262668609619 0.50922262668609619
0.52559810876846313 0.52559810876846313 0.52559810876846313
0.18262943625450134 0.18262943625450134 0.18262943625450134
0.19213269650936127 0.19213269650936127 0.19213269650936127
0.21180571615695953 0.21180571615695953 0.21180571615695953
0.24132999777793884 0.24132999777793884 0.24132999777793884
0.28326836228370667 0.28326836228370667 0.28326836228370667
0.33323553204536438 0.33323553204536438 0.33323553204536438
0.37508669495582581 0.37508669495582581 0.37508669495582581
0.41510182619094849 0.41510182619094849 0.41510182619094849
0.45636942982673645 0.45636942982673645 0.45636942982673645
0.49760407209396362 0.49760407209396362 0.49760407209396362
0.52969694137573242 0.52969694137573242 0.52969694137573242
0.54419612884521484 0.54419612884521484 0.54419612884521484
0.57411599159240723 0.57411599159240723 0.57411599159240723
0.24919259548187256 0.24919259548187256 0.24919259548187256
0.26777422428131104 0.26777422428131104 0.26777422428131104
0.28084787726402283 0.28084787726402283 0.28084787726402283
0.30973905324935913 0.30973905324935913 0.30973905324935913
0.35238036513328552 0.35238036513328552 0.35238036513328552
0.39741048216819763 0.39741048216819763 0.39741048216819763
0.43132328987121582 0.43132328987121582 0.43132328987121582
0.46728414297103882 0.46728414297103882 0.46728414297103882
0.50576519966125488 0.50576519966125488 0.50576519966125488
0.54272782802581787 0.54272782802581787 0.54272782802581787
0.57446640729904175 0.57446640729904175 0.57446640729904175
0.59919548034667969 0.59919548034667969 0.59919548034667969
0.62556743621826172 0.62556743621826172 0.62556743621826172
0.2968410849571228 0.2968410849571228 0.2968410849571228
0.33265626430511475 0.33265626430511475 0.33265626430511475
0.35153850913047791 0.35153850913047791 0.35153850913047791
0.37515348196029663 0.37515348196029663 0.37515348196029663
0.41833466291427612 0.41833466291427612 0.41833466291427612
0.44526374340057373 0.44526374340057373 0.44526374340057373
0.47781947255134583 0.47781947255134583 0.47781947255134583
0.5202445387840271 0.5202445387840271 0.5202445387840271
0.55866736173629761 0.55866736173629761 0.55866736173629761
0.58884787559509277 0.58884787559509277 0.58884787559509277
0.61734861135482788 0.61734861135482788 0.61734861135482788
0.63449877500534058 0.63449877500534058 0.63449877500534058
0.65604233741760254 0.65604233741760254 0.65604233741760254
0.36664614081382751 0.36664614081382751 0.36664614081382751
0.38150295615196228 0.38150295615196228 0.38150295615196228
0.41110137104988098 0.41110137104988098 0.41110137104988098
0.42263448238372803 0.42263448238372803 0.42263448238372803
0.46511843800544739 0.46511843800544739 0.46511843800544739
0.49087324738502502 0.49087324738502502 0.49087324738502502
0.53643006086349487 0.53643006086349487 0.53643006086349487
0.57585841417312622 0.57585841417312622 0.57585841417312622
0.60942405462265015 0.60942405462265015 0.60942405462265015
0.63815736770629883 0.63815736770629883 0.63815736770629883
0.66627073287963867 0.66627073287963867 0.66627073287963867
0.68735271692276001 0.68735271692276001 0.68735271692276001
0.70618331432342529 0.70618331432342529 0.70618331432342529
0.40344306826591492 0.40344306826591492 0.40344306826591492
0.42153444886207581 0.42153444886207581 0.42153444886207581
0.44642889499664307 0.44642889499664307 0.44642889499664307
0.45549759268760681 0.45549759268760681 0.45549759268760681
0.49180668592453003 0.49180668592453003 0.49180668592453003
0.52792888879776001 0.52792888879776001 0.52792888879776001
0.58005273342132568 0.58005273342132568 0.58005273342132568
0.61598902940750122 0.61598902940750122 0.61598902940750122
0.64053094387054443 0.64053094387054443 0.64053094387054443
0.67584335803985596 0.67584335803985596 0.67584335803985596
0.70580852031707764 0.70580852031707764 0.70580852031707764
0.72524851560592651 0.72524851560592651 0.72524851560592651
0.7485697865486145 0.7485697865486145 0.7485697865486145
0.41358360648155212 0.41358360648155212 0.41358360648155212
0.4274878203868866 0.4274878203868866 0.4274878203868866
0.48258623480796814 0.48258623480796814 0.48258623480796814
0.51362711191177368 0.51362711191177368 0.51362711191177368
0.54126179218292236 0.54126179218292236 0.54126179218292236
0.56497585773468018 0.56497585773468018 0.56497585773468018
0.61156511306762695 0.61156511306762695 0.61156511306762695
0.63478273153305054 0.63478273153305054 0.63478273153305054
0.66140908002853394 0.66140908002853394 0.66140908002853394
0.69530540704727173 0.69530540704727173 0.69530540704727173
0.72724586725234985 0.72724586725234985 0.72724586725234985
0.74961721897125244 0.74961721897125244 0.74961721897125244
0.75976109504699707 0.75976109504699707 0.75976109504699707
0.4206489622592926 0.4206489622592926 0.4206489622592926
0.42950573563575745 0.42950573563575745 0.42950573563575745
0.51716643571853638 0.51716643571853638 0.51716643571853638
0.54364585876464844 0.54364585876464844 0.54364585876464844
0.57178127765655518 0.57178127765655518 0.57178127765655518
0.59625953435897827 0.59625953435897827 0.59625953435897827
0.6365014910697937 0.6365014910697937 0.6365014910697937
0.65629249811172485 0.65629249811172485 0.65629249811172485
0.68571120500564575 0.68571120500564575 0.68571120500564575
0.71268987655639648 0.71268987655639648 0.71268987655639648
0.74758714437484741 0.74758714437484741 0.74758714437484741
0.75922733545303345 0.75922733545303345 0.75922733545303345
0.76169300079345703 0.76169300079345703 0.76169300079345703
0.44040623307228088 0.44040623307228088 0.44040623307228088
0.43113821744918823 0.43113821744918823 0.43113821744918823
0.52775156497955322 0.52775156497955322 0.52775156497955322
0.56376320123672485 0.56376320123672485 0.56376320123672485
0.58884334564208984 0.58884334564208984 0.58884334564208984
0.60601484775543213 0.60601484775543213 0.60601484775543213
0.63867646455764771 0.63867646455764771 0.63867646455764771
0.66614258289337158 0.66614258289337158 0.66614258289337158
0.70707076787948608 0.70707076787948608 0.70707076787948608
0.74171572923660278 0.74171572923660278 0.74171572923660278
0.77112764120101929 0.77112764120101929 0.77112764120101929
0.78986990451812744 0.78986990451812744 0.78986990451812744
0.79036307334899902 0.79036307334899902 0.79036307334899902
0.45448547601699829 0.45448547601699829 0.45448547601699829
0.43967333436012268 0.43967333436012268 0.43967333436012268
0.54425919055938721 0.54425919055938721 0.54425919055938721
0.58453941345214844 0.58453941345214844 0.58453941345214844
0.60420817136764526 0.60420817136764526 0.60420817136764526
0.61521941423416138 0.61521941423416138 0.61521941423416138
0.64420515298843384 0.64420515298843384 0.64420515298843384
0.67330765724182129 0.67330765724182129 0.67330765724182129
0.71165889501571655 0.71165889501571655 0.71165889501571655
0.74631994962692261 0.74631994962692261 0.74631994962692261
0.7734406590461731 0.7734406590461731 0.7734406590461731
0.81131142377853394 0.81131142377853394 0.81131142377853394
0.82398056983947754 0.82398056983947754 0.82398056983947754
0.036959510296583176 0.036959510296583176 0.036959510296583176
0.054844427853822708 0.054844427853822708 0.054844427853822708
0.081255309283733368 0.081255309283733368 0.081255309283733368
0.12501712143421173 0.12501712143421173 0.12501712143421173
0.1604171097278595 0.1604171097278595 0.1604171097278595
0.21178194880485535 0.21178194880485535 0.21178194880485535
0.27480632066726685 0.27480632066726685 0.27480632066726685
0.33131641149520874 0.33131641149520874 0.33131641149520874
0.37848475575447083 0.37848475575447083 0.37848475575447083
0.40945661067962646 0.40945661067962646 0.40945661067962646
0.43353527784347534 0.43353527784347534 0.43353527784347534
0.47001686692237854 0.47001686692237854 0.47001686692237854
0.52060532569885254 0.52060532569885254 0.52060532569885254
0.055916145443916321 0.055916145443916321 0.055916145443916321
0.076480716466903687 0.076480716466903687 0.076480716466903687
0.09688732773065567 0.09688732773065567 0.09688732773065567
0.1334385871887207 0.1334385871887207 0.1334385871887207
0.17142102122306824 0.17142102122306824 0.17142102122306824
0.22210116684436798 0.22210116684436798 0.22210116684436798
0.27909755706787109 0.27909755706787109 0.27909755706787109
0.33322501182556152 0.33322501182556152 0.33322501182556152
0.38201546669006348 0.38201546669006348 0.38201546669006348
0.42535099387168884 0.42535099387168884 0.42535099387168884
0.46047911047935486 0.46047911047935486 0.46047911047935486
0.4902784526348114 0.4902784526348114 0.4902784526348114
0.51829487085342407 0.51829487085342407 0.51829487085342407
0.093383684754371643 0.093383684754371643 0.093383684754371643
0.10291521996259689 0.10291521996259689 0.10291521996259689
0.12213453650474548 0.12213453650474548 0.12213453650474548
0.1551671028137207 0.1551671028137207 0.1551671028137207
0.20076017081737518 0.20076017081737518 0.20076017081737518
0.25131171941757202 0.25131171941757202 0.25131171941757202
0.29827886819839478 0.29827886819839478 0.29827886819839478
0.34725722670555115 0.34725722670555115 0.34725722670555115
0.39652708172798157 0.39652708172798157 0.39652708172798157
0.44606360793113708 0.44606360793113708 0.44606360793113708
0.48629811406135559 0.48629811406135559 0.48629811406135559
0.50850462913513184 0.50850462913513184 0.50850462913513184
0.53859525918960571 0.53859525918960571 0.53859525918960571
0.14373405277729034 0.14373405277729034 0.14373405277729034
0.1549379825592041 0.1549379825592041 0.1549379825592041
0.17612685263156891 0.17612685263156891 0.17612685263156891
0.20565776526927948 0.20565776526927948 0.20565776526927948
0.24445785582065582 0.24445785582065582 0.24445785582065582
0.29088616371154785 0.29088616371154785 0.29088616371154785
0.33601659536361694 0.33601659536361694 0.33601659536361694
0.38263234496116638 0.38263234496116638 0.38263234496116638
0.4284365177154541 0.4284365177154541 0.4284365177154541
0.4742857813835144 0.4742857813835144 0.4742857813835144
0.5179256796836853 0.5179256796836853 0.5179256796836853
0.54955846071243286 0.54955846071243286 0.54955846071243286
0.56972044706344604 0.56972044706344604 0.56972044706344604
0.19963529706001282 0.19963529706001282 0.19963529706001282
0.21446719765663147 0.21446719765663147 0.21446719765663147
0.23791138827800751 0.23791138827800751 0.23791138827800751
0.26658850908279419 0.26658850908279419 0.26658850908279419
0.30097821354866028 0.30097821354866028 0.30097821354866028
0.34594243764877319 0.34594243764877319 0.34594243764877319
0.38593506813049316 0.38593506813049316 0.38593506813049316
