luts/fujixtransiii/fuji_xtrans_iii_mono.cube
# Created by: G'MIC (https://gmic.eu)
TITLE "fuji_xtrans_iii_mono"
# LUT size
LUT_3D_SIZE 5
# Data domain
DOMAIN_MIN 0.0 0.0 0.0
DOMAIN_MAX 1.0 1.0 1.0
# LUT data points
0.01070906687527895 0.01070906687527895 0.01070906687527895
0.062093142420053482 0.062093142420053482 0.062093142420053482
0.21743948757648468 0.21743948757648468 0.21743948757648468
0.35409370064735413 0.35409370064735413 0.35409370064735413
0.40158432722091675 0.40158432722091675 0.40158432722091675
0.098921038210391998 0.098921038210391998 0.098921038210391998
0.1814960241317749 0.1814960241317749 0.1814960241317749
0.31371107697486877 0.31371107697486877 0.31371107697486877
0.43561297655105591 0.43561297655105591 0.43561297655105591
0.47685182094573975 0.47685182094573975 0.47685182094573975
0.27886340022087097 0.27886340022087097 0.27886340022087097
0.35820329189300537 0.35820329189300537 0.35820329189300537
0.47792926430702209 0.47792926430702209 0.47792926430702209
0.56440091133117676 0.56440091133117676 0.56440091133117676
0.62170624732971191 0.62170624732971191 0.62170624732971191
0.3661976158618927 0.3661976158618927 0.3661976158618927
0.4413391649723053 0.4413391649723053 0.4413391649723053
0.56464791297912598 0.56464791297912598 0.56464791297912598
0.64828085899353027 0.64828085899353027 0.64828085899353027
0.72588306665420532 0.72588306665420532 0.72588306665420532
0.4091150164604187 0.4091150164604187 0.4091150164604187
0.53752768039703369 0.53752768039703369 0.53752768039703369
0.61745607852935791 0.61745607852935791 0.61745607852935791
0.72619485855102539 0.72619485855102539 0.72619485855102539
0.76884257793426514 0.76884257793426514 0.76884257793426514
0.074253246188163757 0.074253246188163757 0.074253246188163757
0.17489376664161682 0.17489376664161682 0.17489376664161682
0.29888626933097839 0.29888626933097839 0.29888626933097839
0.41473662853240967 0.41473662853240967 0.41473662853240967
0.49189901351928711 0.49189901351928711 0.49189901351928711
0.18441547453403473 0.18441547453403473 0.18441547453403473
0.24603180587291718 0.24603180587291718 0.24603180587291718
0.3612619936466217 0.3612619936466217 0.3612619936466217
0.48134467005729675 0.48134467005729675 0.48134467005729675
0.55515390634536743 0.55515390634536743 0.55515390634536743
0.3753211498260498 0.3753211498260498 0.3753211498260498
0.41821578145027161 0.41821578145027161 0.41821578145027161
0.50660151243209839 0.50660151243209839 0.50660151243209839
0.60271108150482178 0.60271108150482178 0.60271108150482178
0.65822291374206543 0.65822291374206543 0.65822291374206543
0.46903499960899353 0.46903499960899353 0.46903499960899353
0.54717034101486206 0.54717034101486206 0.54717034101486206
0.6266753077507019 0.6266753077507019 0.6266753077507019
0.71374613046646118 0.71374613046646118 0.71374613046646118
0.78260499238967896 0.78260499238967896 0.78260499238967896
0.51710551977157593 0.51710551977157593 0.51710551977157593
0.59972596168518066 0.59972596168518066 0.59972596168518066
0.66686606407165527 0.66686606407165527 0.66686606407165527
0.75841629505157471 0.75841629505157471 0.75841629505157471
0.82210421562194824 0.82210421562194824 0.82210421562194824
0.23157213628292084 0.23157213628292084 0.23157213628292084
0.29693695902824402 0.29693695902824402 0.29693695902824402
0.38484084606170654 0.38484084606170654 0.38484084606170654
0.49042627215385437 0.49042627215385437 0.49042627215385437
0.56357824802398682 0.56357824802398682 0.56357824802398682
0.30975863337516785 0.30975863337516785 0.30975863337516785
0.3582245409488678 0.3582245409488678 0.3582245409488678
0.45738297700881958 0.45738297700881958 0.45738297700881958
0.5452079176902771 0.5452079176902771 0.5452079176902771
0.6160045862197876 0.6160045862197876 0.6160045862197876
0.46413010358810425 0.46413010358810425 0.46413010358810425
0.49771183729171753 0.49771183729171753 0.49771183729171753
0.58119243383407593 0.58119243383407593 0.58119243383407593
0.65542423725128174 0.65542423725128174 0.65542423725128174
0.71598583459854126 0.71598583459854126 0.71598583459854126
0.59373748302459717 0.59373748302459717 0.59373748302459717
0.61292809247970581 0.61292809247970581 0.61292809247970581
0.69010299444198608 0.69010299444198608 0.69010299444198608
0.75619244575500488 0.75619244575500488 0.75619244575500488
0.83844625949859619 0.83844625949859619 0.83844625949859619
0.63811808824539185 0.63811808824539185 0.63811808824539185
0.66759383678436279 0.66759383678436279 0.66759383678436279
0.7184407114982605 0.7184407114982605 0.7184407114982605
0.81888222694396973 0.81888222694396973 0.81888222694396973
0.88963913917541504 0.88963913917541504 0.88963913917541504
0.3784235417842865 0.3784235417842865 0.3784235417842865
0.43533971905708313 0.43533971905708313 0.43533971905708313
0.51066845655441284 0.51066845655441284 0.51066845655441284
0.58976113796234131 0.58976113796234131 0.58976113796234131
0.6550450325012207 0.6550450325012207 0.6550450325012207
0.45664325356483459 0.45664325356483459 0.45664325356483459
0.511116623878479 0.511116623878479 0.511116623878479
0.57026386260986328 0.57026386260986328 0.57026386260986328
0.64072656631469727 0.64072656631469727 0.64072656631469727
0.69299167394638062 0.69299167394638062 0.69299167394638062
0.56321060657501221 0.56321060657501221 0.56321060657501221
0.60361713171005249 0.60361713171005249 0.60361713171005249
0.65178447961807251 0.65178447961807251 0.65178447961807251
0.72243618965148926 0.72243618965148926 0.72243618965148926
0.77866291999816895 0.77866291999816895 0.77866291999816895
0.68359553813934326 0.68359553813934326 0.68359553813934326
0.70175248384475708 0.70175248384475708 0.70175248384475708
0.75108832120895386 0.75108832120895386 0.75108832120895386
0.81565535068511963 0.81565535068511963 0.81565535068511963
0.89449942111968994 0.89449942111968994 0.89449942111968994
0.73541069030761719 0.73541069030761719 0.73541069030761719
0.76967364549636841 0.76967364549636841 0.76967364549636841
0.84060871601104736 0.84060871601104736 0.84060871601104736
0.88752067089080811 0.88752067089080811 0.88752067089080811
0.93600350618362427 0.93600350618362427 0.93600350618362427
0.50348705053329468 0.50348705053329468 0.50348705053329468
0.54880475997924805 0.54880475997924805 0.54880475997924805
0.61434191465377808 0.61434191465377808 0.61434191465377808
0.69302576780319214 0.69302576780319214 0.69302576780319214
0.72886049747467041 0.72886049747467041 0.72886049747467041
0.57375240325927734 0.57375240325927734 0.57375240325927734
0.63111478090286255 0.63111478090286255 0.63111478090286255
0.67673414945602417 0.67673414945602417 0.67673414945602417
0.72508978843688965 0.72508978843688965 0.72508978843688965
0.75687897205352783 0.75687897205352783 0.75687897205352783
0.66086351871490479 0.66086351871490479 0.66086351871490479
0.70865648984909058 0.70865648984909058 0.70865648984909058
0.74942135810852051 0.74942135810852051 0.74942135810852051
0.79260754585266113 0.79260754585266113 0.79260754585266113
0.8371204137802124 0.8371204137802124 0.8371204137802124
0.76287460327148438 0.76287460327148438 0.76287460327148438
0.79306811094284058 0.79306811094284058 0.79306811094284058
0.83233243227005005 0.83233243227005005 0.83233243227005005
0.87671434879302979 0.87671434879302979 0.87671434879302979
0.92667067050933838 0.92667067050933838 0.92667067050933838
0.82179045677185059 0.82179045677185059 0.82179045677185059
0.82166743278503418 0.82166743278503418 0.82166743278503418
0.87864601612091064 0.87864601612091064 0.87864601612091064
0.93299728631973267 0.93299728631973267 0.93299728631973267
0.96525532007217407 0.96525532007217407 0.96525532007217407
