luts/fujixtransiii/fuji_xtrans_iii_mono+ye.cube
# Created by: G'MIC (https://gmic.eu)
TITLE "fuji_xtrans_iii_mono+ye"
# LUT size
LUT_3D_SIZE 5
# Data domain
DOMAIN_MIN 0.0 0.0 0.0
DOMAIN_MAX 1.0 1.0 1.0
# LUT data points
0.011177167296409607 0.011177167296409607 0.011177167296409607
0.10071336477994919 0.10071336477994919 0.10071336477994919
0.323598712682724 0.323598712682724 0.323598712682724
0.50321173667907715 0.50321173667907715 0.50321173667907715
0.55011564493179321 0.55011564493179321 0.55011564493179321
0.093742847442626953 0.093742847442626953 0.093742847442626953
0.19729667901992798 0.19729667901992798 0.19729667901992798
0.39206883311271667 0.39206883311271667 0.39206883311271667
0.5533679723739624 0.5533679723739624 0.5533679723739624
0.60502034425735474 0.60502034425735474 0.60502034425735474
0.25758922100067139 0.25758922100067139 0.25758922100067139
0.35219684243202209 0.35219684243202209 0.35219684243202209
0.50412791967391968 0.50412791967391968 0.50412791967391968
0.62395864725112915 0.62395864725112915 0.62395864725112915
0.70311343669891357 0.70311343669891357 0.70311343669891357
0.35117194056510925 0.35117194056510925 0.35117194056510925
0.43019115924835205 0.43019115924835205 0.43019115924835205
0.57570719718933105 0.57570719718933105 0.57570719718933105
0.688751220703125 0.688751220703125 0.688751220703125
0.77234983444213867 0.77234983444213867 0.77234983444213867
0.38975101709365845 0.38975101709365845 0.38975101709365845
0.51544594764709473 0.51544594764709473 0.51544594764709473
0.62896567583084106 0.62896567583084106 0.62896567583084106
0.74917948246002197 0.74917948246002197 0.74917948246002197
0.80789196491241455 0.80789196491241455 0.80789196491241455
0.040846835821866989 0.043096520006656647 0.043096520006656647
0.19339485466480255 0.19340243935585022 0.19340243935585022
0.37689688801765442 0.37689688801765442 0.37689688801765442
0.55624711513519287 0.55624711513519287 0.55624711513519287
0.65269333124160767 0.65269333124160767 0.65269333124160767
0.15059410035610199 0.15059410035610199 0.15059410035610199
0.24781422317028046 0.24781422317028046 0.24781422317028046
0.42935144901275635 0.42935144901275635 0.42935144901275635
0.58277767896652222 0.58277767896652222 0.58277767896652222
0.70047491788864136 0.70047491788864136 0.70047491788864136
0.34021651744842529 0.34021651744842529 0.34021651744842529
0.39926585555076599 0.39926585555076599 0.39926585555076599
0.52973705530166626 0.52973705530166626 0.52973705530166626
0.66104811429977417 0.66104811429977417 0.66104811429977417
0.75298631191253662 0.75298631191253662 0.75298631191253662
0.4302317202091217 0.4302317202091217 0.4302317202091217
0.5208733081817627 0.5208733081817627 0.5208733081817627
0.62677353620529175 0.62677353620529175 0.62677353620529175
0.7399061918258667 0.7399061918258667 0.7399061918258667
0.82331418991088867 0.82331418991088867 0.82331418991088867
0.47812139987945557 0.47812139987945557 0.47812139987945557
0.57555359601974487 0.57555359601974487 0.57555359601974487
0.66220444440841675 0.66220444440841675 0.66220444440841675
0.77318751811981201 0.77318751811981201 0.77318751811981201
0.85073357820510864 0.85073357820510864 0.85073357820510864
0.16657434403896332 0.16657434403896332 0.16657434403896332
0.2702389657497406 0.2702389657497406 0.2702389657497406
0.41985559463500977 0.41985559463500977 0.41985559463500977
0.59282022714614868 0.59282022714614868 0.59282022714614868
0.70637506246566772 0.70637506246566772 0.70637506246566772
0.23200936615467072 0.23200936615467072 0.23200936615467072
0.33868151903152466 0.33868151903152466 0.33868151903152466
0.4795549213886261 0.4795549213886261 0.4795549213886261
0.63232326507568359 0.63232326507568359 0.63232326507568359
0.74008947610855103 0.74008947610855103 0.74008947610855103
0.41048246622085571 0.41048246622085571 0.41048246622085571
0.45997145771980286 0.45997145771980286 0.45997145771980286
0.57768720388412476 0.57768720388412476 0.57768720388412476
0.70369440317153931 0.70369440317153931 0.70369440317153931
0.79018592834472656 0.79018592834472656 0.79018592834472656
0.5405314564704895 0.5405314564704895 0.5405314564704895
0.57084596157073975 0.57084596157073975 0.57084596157073975
0.67321199178695679 0.67321199178695679 0.67321199178695679
0.77569782733917236 0.77569782733917236 0.77569782733917236
0.87688368558883667 0.87688368558883667 0.87688368558883667
0.58515059947967529 0.58515059947967529 0.58515059947967529
0.62886339426040649 0.62886339426040649 0.62886339426040649
0.70262980461120605 0.70262980461120605 0.70262980461120605
0.83049637079238892 0.83049637079238892 0.83049637079238892
0.91182148456573486 0.91182148456573486 0.91182148456573486
0.30587446689605713 0.30587446689605713 0.30587446689605713
0.37709283828735352 0.37709283828735352 0.37709283828735352
0.5011640191078186 0.5011640191078186 0.5011640191078186
0.64837038516998291 0.64837038516998291 0.64837038516998291
0.74998229742050171 0.74998229742050171 0.74998229742050171
0.33505308628082275 0.33505308628082275 0.33505308628082275
0.43081921339035034 0.43081921339035034 0.43081921339035034
0.54113531112670898 0.54113531112670898 0.54113531112670898
0.66547375917434692 0.66547375917434692 0.66547375917434692
0.7678716778755188 0.7678716778755188 0.7678716778755188
0.47002163529396057 0.47002163529396057 0.47002163529396057
0.53948640823364258 0.53948640823364258 0.53948640823364258
0.63220798969268799 0.63220798969268799 0.63220798969268799
0.74101871252059937 0.74101871252059937 0.74101871252059937
0.83364760875701904 0.83364760875701904 0.83364760875701904
0.60510599613189697 0.60510599613189697 0.60510599613189697
0.65112441778182983 0.65112441778182983 0.65112441778182983
0.72382688522338867 0.72382688522338867 0.72382688522338867
0.81728416681289673 0.81728416681289673 0.81728416681289673
0.9197918176651001 0.9197918176651001 0.9197918176651001
0.67373436689376831 0.67373436689376831 0.67373436689376831
0.70952677726745605 0.70952677726745605 0.70952677726745605
0.80225783586502075 0.80225783586502075 0.80225783586502075
0.88904905319213867 0.88904905319213867 0.88904905319213867
0.95308578014373779 0.95308578014373779 0.95308578014373779
0.46234765648841858 0.46234765648841858 0.46234765648841858
0.50526160001754761 0.50526160001754761 0.50526160001754761
0.58113479614257812 0.58113479614257812 0.58113479614257812
0.7049899697303772 0.7049899697303772 0.7049899697303772
0.76978182792663574 0.76978182792663574 0.76978182792663574
0.44635367393493652 0.44635367393493652 0.44635367393493652
0.52438366413116455 0.52438366413116455 0.52438366413116455
0.62264198064804077 0.62264198064804077 0.62264198064804077
0.72392195463180542 0.72392195463180542 0.72392195463180542
0.78803974390029907 0.78803974390029907 0.78803974390029907
0.51275438070297241 0.51275438070297241 0.51275438070297241
0.60776835680007935 0.60776835680007935 0.60776835680007935
0.69126361608505249 0.69126361608505249 0.69126361608505249
0.77570104598999023 0.77570104598999023 0.77570104598999023
0.8620418906211853 0.8620418906211853 0.8620418906211853
0.66781818866729736 0.66781818866729736 0.66781818866729736
0.71219748258590698 0.71219748258590698 0.71219748258590698
0.78354936838150024 0.78354936838150024 0.78354936838150024
0.8671036958694458 0.8671036958694458 0.8671036958694458
0.93942272663116455 0.93942272663116455 0.93942272663116455
0.7471928596496582 0.7471928596496582 0.7471928596496582
0.75290119647979736 0.75290119647979736 0.75290119647979736
0.8321683406829834 0.8321683406829834 0.8321683406829834
0.91612917184829712 0.91612917184829712 0.91612917184829712
0.97411578893661499 0.97411578893661499 0.97411578893661499
