luts/fujixtransiii/fuji_xtrans_iii_mono+r.cube
# Created by: G'MIC (https://gmic.eu)
TITLE "fuji_xtrans_iii_mono+r"
# LUT size
LUT_3D_SIZE 13
# Data domain
DOMAIN_MIN 0.0 0.0 0.0
DOMAIN_MAX 1.0 1.0 1.0
# LUT data points
0.011329052038490772 0.011329052038490772 0.011329052038490772
0.026272477582097054 0.026272477582097054 0.026272477582097054
0.068507596850395203 0.068507596850395203 0.068507596850395203
0.14020536839962006 0.14020536839962006 0.14020536839962006
0.22343245148658752 0.22343245148658752 0.22343245148658752
0.32443755865097046 0.32443755865097046 0.32443755865097046
0.41009131073951721 0.41009131073951721 0.41009131073951721
0.50567060708999634 0.50567060708999634 0.50567060708999634
0.55983483791351318 0.55986517667770386 0.55986517667770386
0.60546505451202393 0.60546505451202393 0.60546505451202393
0.62780886888504028 0.62780886888504028 0.62780886888504028
0.64985734224319458 0.64985734224319458 0.64985734224319458
0.66147452592849731 0.66147452592849731 0.66147452592849731
0.021071700379252434 0.021071700379252434 0.021071700379252434
0.038858991116285324 0.038858991116285324 0.038858991116285324
0.081686548888683319 0.081686548888683319 0.081686548888683319
0.15530484914779663 0.15530484914779663 0.15530484914779663
0.23960839211940765 0.23960839211940765 0.23960839211940765
0.33566409349441528 0.33566409349441528 0.33566409349441528
0.42671477794647217 0.42671477794647217 0.42671477794647217
0.51090908050537109 0.51090908050537109 0.51090908050537109
0.57060927152633667 0.57060927152633667 0.57060927152633667
0.61547690629959106 0.61547690629959106 0.61547690629959106
0.63881003856658936 0.63881003856658936 0.63881003856658936
0.66041761636734009 0.66041761636734009 0.66041761636734009
0.6846427321434021 0.6846427321434021 0.6846427321434021
0.038863372057676315 0.038863372057676315 0.038863372057676315
0.064281836152076721 0.064281836152076721 0.064281836152076721
0.10659199208021164 0.10659199208021164 0.10659199208021164
0.17916388809680939 0.17916388809680939 0.17916388809680939
0.26277008652687073 0.26277008652687073 0.26277008652687073
0.34778621792793274 0.34778621792793274 0.34778621792793274
0.43249571323394775 0.43249571323394775 0.43249571323394775
0.51549524068832397 0.51549524068832397 0.51549524068832397
0.58238494396209717 0.58238494396209717 0.58238494396209717
0.62590855360031128 0.62590855360031128 0.62590855360031128
0.65671223402023315 0.65671223402023315 0.65671223402023315
0.68436992168426514 0.68436992168426514 0.68436992168426514
0.70491588115692139 0.70491588115692139 0.70491588115692139
0.079211264848709106 0.079211264848709106 0.079211264848709106
0.10697521269321442 0.10697521269321442 0.10697521269321442
0.14155539870262146 0.14155539870262146 0.14155539870262146
0.21422776579856873 0.21422776579856873 0.21422776579856873
0.29978752136230469 0.29978752136230469 0.29978752136230469
0.37715423107147217 0.37715423107147217 0.37715423107147217
0.45006391406059265 0.45006391406059265 0.45006391406059265
0.52716314792633057 0.52716314792633057 0.52716314792633057
0.59436911344528198 0.59436911344528198 0.59436911344528198
0.64785313606262207 0.64785313606262207 0.64785313606262207
0.69369292259216309 0.69369292259216309 0.69369292259216309
0.70471370220184326 0.70471370220184326 0.70471370220184326
0.71032601594924927 0.71032601594924927 0.71032601594924927
0.12869042158126831 0.12869042158126831 0.12869042158126831
0.16428577899932861 0.16428577899932861 0.16428577899932861
0.19999226927757263 0.19999226927757263 0.19999226927757263
0.26641073822975159 0.26641073822975159 0.26641073822975159
0.34620130062103271 0.34620130062103271 0.34620130062103271
0.41166228055953979 0.41166228055953979 0.41166228055953979
0.47654587030410767 0.47654587030410767 0.47654587030410767
0.545765221118927 0.545765221118927 0.545765221118927
0.60693353414535522 0.60693353414535522 0.60693353414535522
0.65627038478851318 0.65627038478851318 0.65627038478851318
0.69748097658157349 0.69748097658157349 0.69748097658157349
0.70778709650039673 0.70778709650039673 0.70778709650039673
0.72299861907958984 0.72299861907958984 0.72299861907958984
0.18572761118412018 0.18572761118412018 0.18572761118412018
0.22686417400836945 0.22686417400836945 0.22686417400836945
0.25694042444229126 0.25694042444229126 0.25694042444229126
0.30896097421646118 0.30896097421646118 0.30896097421646118
0.38286042213439941 0.38286042213439941 0.38286042213439941
0.44342049956321716 0.44342049956321716 0.44342049956321716
0.50847595930099487 0.50847595930099487 0.50847595930099487
0.57028955221176147 0.57028955221176147 0.57028955221176147
0.62282246351242065 0.62282246351242065 0.62282246351242065
0.66955274343490601 0.66955274343490601 0.66955274343490601
0.69542926549911499 0.69542926549911499 0.69542926549911499
0.71981388330459595 0.71981388330459595 0.71981388330459595
0.75535714626312256 0.75535714626312256 0.75535714626312256
0.23649753630161285 0.23649753630161285 0.23649753630161285
0.26432716846466064 0.26432716846466064 0.26432716846466064
0.30280151963233948 0.30280151963233948 0.30280151963233948
0.34658718109130859 0.34658718109130859 0.34658718109130859
0.41917216777801514 0.41917216777801514 0.41917216777801514
0.47096636891365051 0.47096636891365051 0.47096636891365051
0.53869801759719849 0.53869801759719849 0.53869801759719849
0.59353184700012207 0.59353184700012207 0.59353184700012207
0.64671832323074341 0.64671832323074341 0.64671832323074341
0.68866407871246338 0.68866407871246338 0.68866407871246338
0.71865737438201904 0.71865737438201904 0.71865737438201904
0.73638588190078735 0.73638588190078735 0.73638588190078735
0.76802587509155273 0.76802587509155273 0.76802587509155273
0.25897002220153809 0.25897002220153809 0.25897002220153809
0.29016819596290588 0.29016819596290588 0.29016819596290588
0.33857876062393188 0.33857876062393188 0.33857876062393188
0.37440088391304016 0.37440088391304016 0.37440088391304016
0.44680958986282349 0.44680958986282349 0.44680958986282349
0.48236528038978577 0.48236528038978577 0.48236528038978577
0.5617748498916626 0.5617748498916626 0.5617748498916626
0.61263704299926758 0.61263704299926758 0.61263704299926758
0.67065548896789551 0.67065548896789551 0.67065548896789551
0.71246302127838135 0.71246302127838135 0.71246302127838135
0.73719137907028198 0.73719137907028198 0.73719137907028198
0.75447583198547363 0.75447583198547363 0.75447583198547363
0.78496778011322021 0.78496778011322021 0.78496778011322021
0.29735508561134338 0.29735508561134338 0.29735508561134338
0.31470432877540588 0.31470432877540588 0.31470432877540588
0.36766207218170166 0.36766207218170166 0.36766207218170166
0.38331907987594604 0.38331907987594604 0.38331907987594604
0.45483788847923279 0.45483788847923279 0.45483788847923279
0.50456345081329346 0.50456345081329346 0.50456345081329346
0.59094381332397461 0.59094381332397461 0.59094381332397461
0.63680845499038696 0.63680845499038696 0.63680845499038696
0.6920623779296875 0.6920623779296875 0.6920623779296875
0.73159527778625488 0.73159527778625488 0.73159527778625488
0.74703454971313477 0.74703454971313477 0.74703454971313477
0.77110034227371216 0.77110034227371216 0.77110034227371216
0.80052077770233154 0.80052077770233154 0.80052077770233154
0.31789645552635193 0.31789645552635193 0.31789645552635193
0.31404033303260803 0.31404033303260803 0.31404033303260803
0.36299318075180054 0.36299318075180054 0.36299318075180054
0.40816196799278259 0.40816196799278259 0.40816196799278259
0.47437414526939392 0.47437414526939392 0.47437414526939392
0.52909606695175171 0.52909606695175171 0.52909606695175171
0.59331035614013672 0.59331035614013672 0.59331035614013672
0.63655239343643188 0.63655239343643188 0.63655239343643188
0.67969924211502075 0.67969924211502075 0.67969924211502075
0.73260623216629028 0.73260623216629028 0.73260623216629028
0.7671283483505249 0.7671283483505249 0.7671283483505249
0.80203342437744141 0.80203342437744141 0.80203342437744141
0.82691365480422974 0.82691365480422974 0.82691365480422974
0.32542851567268372 0.32542851567268372 0.32542851567268372
0.3276725709438324 0.3276725709438324 0.3276725709438324
0.42866486310958862 0.42866486310958862 0.42866486310958862
0.46580597758293152 0.46580597758293152 0.46580597758293152
0.51439571380615234 0.51439571380615234 0.51439571380615234
0.55113351345062256 0.55113351345062256 0.55113351345062256
0.61500489711761475 0.61500489711761475 0.61500489711761475
0.64687293767929077 0.64687293767929077 0.64687293767929077
0.68942779302597046 0.68942779302597046 0.68942779302597046
0.74326920509338379 0.74326920509338379 0.74326920509338379
0.79229152202606201 0.79229152202606201 0.79229152202606201
0.82375675439834595 0.82375675439834595 0.82375675439834595
0.83366215229034424 0.83366215229034424 0.83366215229034424
0.35687011480331421 0.35687011480331421 0.35687011480331421
0.35074338316917419 0.35074338316917419 0.35074338316917419
0.44701302051544189 0.44701302051544189 0.44701302051544189
0.48227247595787048 0.48227247595787048 0.48227247595787048
0.52648991346359253 0.52648991346359253 0.52648991346359253
0.56855475902557373 0.56855475902557373 0.56855475902557373
0.63727229833602905 0.63727229833602905 0.63727229833602905
0.65931212902069092 0.65931212902069092 0.65931212902069092
0.70946937799453735 0.70946937799453735 0.70946937799453735
0.7566038966178894 0.7566038966178894 0.7566038966178894
0.79050904512405396 0.79050904512405396 0.79050904512405396
0.82652586698532104 0.82652586698532104 0.82652586698532104
0.83664143085479736 0.83664143085479736 0.83664143085479736
0.36214640736579895 0.36214640736579895 0.36214640736579895
0.35585349798202515 0.35585349798202515 0.35585349798202515
0.45154890418052673 0.45154890418052673 0.45154890418052673
0.48640549182891846 0.48640549182891846 0.48640549182891846
0.52978241443634033 0.52978241443634033 0.52978241443634033
0.57072156667709351 0.57072156667709351 0.57072156667709351
0.64276468753814697 0.64276468753814697 0.64276468753814697
0.66730302572250366 0.66730302572250366 0.66730302572250366
0.72729682922363281 0.72729682922363281 0.72729682922363281
0.78437238931655884 0.78437238931655884 0.78437238931655884
0.81539428234100342 0.81539428234100342 0.81539428234100342
0.83461844921112061 0.83461844921112061 0.83461844921112061
0.84656310081481934 0.84656310081481934 0.84656310081481934
0.017117727547883987 0.017117727547883987 0.017117727547883987
0.026845011860132217 0.026845011860132217 0.026845011860132217
0.076009832322597504 0.076009832322597504 0.076009832322597504
0.14708885550498962 0.14708885550498962 0.14708885550498962
0.20114271342754364 0.20114271342754364 0.20114271342754364
0.31744384765625 0.31744384765625 0.31744384765625
0.42308086156845093 0.42308086156845093 0.42308086156845093
0.51112550497055054 0.51112550497055054 0.51112550497055054
0.5859905481338501 0.58599311113357544 0.58599311113357544
0.62910890579223633 0.62910890579223633 0.62910890579223633
0.64995390176773071 0.64995390176773071 0.64995390176773071
0.66311907768249512 0.66311907768249512 0.66311907768249512
0.70158213376998901 0.70158213376998901 0.70158213376998901
0.031320653855800629 0.031320653855800629 0.031320653855800629
0.048808932304382324 0.048808932304382324 0.048808932304382324
0.089200817048549652 0.089200817048549652 0.089200817048549652
0.15678417682647705 0.15678417682647705 0.15678417682647705
0.22761555016040802 0.22761555016040802 0.22761555016040802
0.3354341983795166 0.3354341983795166 0.3354341983795166
0.42361289262771606 0.42361289262771606 0.42361289262771606
0.50655233860015869 0.50655233860015869 0.50655233860015869
0.57770425081253052 0.57770425081253052 0.57770425081253052
0.63205045461654663 0.63205045461654663 0.63205045461654663
0.65564870834350586 0.65564870834350586 0.65564870834350586
0.68662184476852417 0.68662184476852417 0.68662184476852417
0.72248822450637817 0.72248822450637817 0.72248822450637817
0.049592006951570511 0.049592006951570511 0.049592006951570511
0.072388619184494019 0.072388619184494019 0.072388619184494019
0.11937575787305832 0.11937575787305832 0.11937575787305832
0.1883624792098999 0.1883624792098999 0.1883624792098999
0.27061837911605835 0.27061837911605835 0.27061837911605835
0.35737860202789307 0.35737860202789307 0.35737860202789307
0.43597164750099182 0.43597164750099182 0.43597164750099182
0.51568436622619629 0.51568436622619629 0.51568436622619629
0.58568388223648071 0.58568388223648071 0.58568388223648071
0.64058816432952881 0.64058816432952881 0.64058816432952881
0.68427711725234985 0.68427711725234985 0.68427711725234985
0.70526266098022461 0.70526266098022461 0.70526266098022461
0.72681039571762085 0.72681039571762085 0.72681039571762085
0.085054747760295868 0.085054747760295868 0.085054747760295868
0.12006477266550064 0.12006477266550064 0.12006477266550064
0.15993639826774597 0.15993639826774597 0.15993639826774597
0.22747412323951721 0.22747412323951721 0.22747412323951721
0.30661386251449585 0.30661386251449585 0.30661386251449585
0.38292941451072693 0.38292941451072693 0.38292941451072693
0.45583915710449219 0.45583915710449219 0.45583915710449219
0.52950680255889893 0.52950680255889893 0.52950680255889893
0.59780079126358032 0.59780079126358032 0.59780079126358032
0.65457850694656372 0.65457850694656372 0.65457850694656372
0.70190888643264771 0.70190888643264771 0.70190888643264771
0.71724867820739746 0.71724867820739746 0.71724867820739746
0.7302091121673584 0.7302091121673584 0.7302091121673584
0.14643643796443939 0.14643643796443939 0.14643643796443939
0.17299295961856842 0.17299295961856842 0.17299295961856842
0.2121126651763916 0.2121126651763916 0.2121126651763916
0.2757384181022644 0.2757384181022644 0.2757384181022644
0.34455063939094543 0.34455063939094543 0.34455063939094543
0.41288086771965027 0.41288086771965027 0.41288086771965027
0.48026716709136963 0.48026716709136963 0.48026716709136963
0.54695826768875122 0.54695826768875122 0.54695826768875122
0.61248040199279785 0.61248040199279785 0.61248040199279785
0.66979128122329712 0.66979128122329712 0.66979128122329712
0.71082776784896851 0.71082776784896851 0.71082776784896851
0.72757142782211304 0.72757142782211304 0.72757142782211304
0.75391924381256104 0.75391924381256104 0.75391924381256104
0.204593226313591 0.204593226313591 0.204593226313591
0.23019964993000031 0.23019964993000031 0.23019964993000031
0.26553699374198914 0.26553699374198914 0.26553699374198914
0.31419765949249268 0.31419765949249268 0.31419765949249268
0.37938809394836426 0.37938809394836426 0.37938809394836426
0.44251161813735962 0.44251161813735962 0.44251161813735962
0.50829416513442993 0.50829416513442993 0.50829416513442993
0.57145392894744873 0.57145392894744873 0.57145392894744873
0.63198840618133545 0.63198840618133545 0.63198840618133545
0.68081784248352051 0.68081784248352051 0.68081784248352051
0.71990227699279785 0.71990227699279785 0.71990227699279785
0.75569134950637817 0.75569134950637817 0.75569134950637817
0.7726014256477356 0.7726014256477356 0.7726014256477356
0.24583134055137634 0.24583134055137634 0.24583134055137634
0.27848318219184875 0.27848318219184875 0.27848318219184875
0.31750369071960449 0.31750369071960449 0.31750369071960449
0.35587912797927856 0.35587912797927856 0.35587912797927856
0.42273646593093872 0.42273646593093872 0.42273646593093872
0.47291797399520874 0.47291797399520874 0.47291797399520874
0.53680366277694702 0.53680366277694702 0.53680366277694702
0.59701663255691528 0.59701663255691528 0.59701663255691528
0.65291279554367065 0.65291279554367065 0.65291279554367065
0.6972232460975647 0.6972232460975647 0.6972232460975647
0.73623263835906982 0.73623263835906982 0.73623263835906982
0.76385056972503662 0.76385056972503662 0.76385056972503662
0.78669172525405884 0.78669172525405884 0.78669172525405884
0.30772861838340759 0.30772861838340759 0.30772861838340759
0.32437893748283386 0.32437893748283386 0.32437893748283386
0.3602999746799469 0.3602999746799469 0.3602999746799469
0.39006468653678894 0.39006468653678894 0.39006468653678894
0.44760376214981079 0.44760376214981079 0.44760376214981079
0.49574390053749084 0.49574390053749084 0.49574390053749084
0.56803756952285767 0.56803756952285767 0.56803756952285767
0.62297713756561279 0.62297713756561279 0.62297713756561279
0.6727638840675354 0.6727638840675354 0.6727638840675354
0.71724742650985718 0.71724742650985718 0.71724742650985718
0.75985753536224365 0.75985753536224365 0.75985753536224365
0.79060262441635132 0.79060262441635132 0.79060262441635132
0.8091854453086853 0.8091854453086853 0.8091854453086853
0.34633234143257141 0.34633234143257141 0.34633234143257141
0.3680388331413269 0.3680388331413269 0.3680388331413269
0.38568413257598877 0.38568413257598877 0.38568413257598877
0.41108977794647217 0.41108977794647217 0.41108977794647217
0.46894603967666626 0.46894603967666626 0.46894603967666626
0.52053964138031006 0.52053964138031006 0.52053964138031006
0.59599709510803223 0.59599709510803223 0.59599709510803223
0.64341157674789429 0.64341157674789429 0.64341157674789429
0.69266724586486816 0.69266724586486816 0.69266724586486816
0.73726046085357666 0.73726046085357666 0.73726046085357666
0.77676153182983398 0.77676153182983398 0.77676153182983398
0.80782496929168701 0.80782496929168701 0.80782496929168701
0.83236253261566162 0.83236253261566162 0.83236253261566162
0.35964217782020569 0.35964217782020569 0.35964217782020569
0.37350761890411377 0.37350761890411377 0.37350761890411377
0.41925254464149475 0.41925254464149475 0.41925254464149475
0.45563516020774841 0.45563516020774841 0.45563516020774841
0.51051425933837891 0.51051425933837891 0.51051425933837891
0.5477064847946167 0.5477064847946167 0.5477064847946167
0.62039297819137573 0.62039297819137573 0.62039297819137573
0.65377318859100342 0.65377318859100342 0.65377318859100342
0.70166862010955811 0.70166862010955811 0.70166862010955811
0.74994200468063354 0.74994200468063354 0.74994200468063354
0.79370033740997314 0.79370033740997314 0.79370033740997314
0.82741892337799072 0.82741892337799072 0.82741892337799072
0.83715671300888062 0.83715671300888062 0.83715671300888062
0.36731749773025513 0.36731749773025513 0.36731749773025513
0.38003635406494141 0.38003635406494141 0.38003635406494141
0.45020481944084167 0.45020481944084167 0.45020481944084167
0.47765454649925232 0.47765454649925232 0.47765454649925232
0.52608227729797363 0.52608227729797363 0.52608227729797363
0.56723916530609131 0.56723916530609131 0.56723916530609131
0.63882154226303101 0.63882154226303101 0.63882154226303101
0.66907316446304321 0.66907316446304321 0.66907316446304321
0.71834957599639893 0.71834957599639893 0.71834957599639893
0.76819998025894165 0.76819998025894165 0.76819998025894165
0.80976468324661255 0.80976468324661255 0.80976468324661255
0.83039295673370361 0.83039295673370361 0.83039295673370361
0.83847874402999878 0.83847874402999878 0.83847874402999878
0.37237367033958435 0.37237367033958435 0.37237367033958435
0.38187116384506226 0.38187116384506226 0.38187116384506226
0.45874562859535217 0.45874562859535217 0.45874562859535217
0.48929095268249512 0.48929095268249512 0.48929095268249512
0.53305244445800781 0.53305244445800781 0.53305244445800781
0.57433241605758667 0.57433241605758667 0.57433241605758667
0.64366155862808228 0.64366155862808228 0.64366155862808228
0.67238950729370117 0.67238950729370117 0.67238950729370117
0.72991657257080078 0.72991657257080078 0.72991657257080078
0.77896910905838013 0.77896910905838013 0.77896910905838013
0.80866676568984985 0.80866676568984985 0.80866676568984985
0.8328126072883606 0.8328126072883606 0.8328126072883606
0.84343898296356201 0.84343898296356201 0.84343898296356201
0.377227783203125 0.377227783203125 0.377227783203125
0.38598236441612244 0.38598236441612244 0.38598236441612244
0.48038989305496216 0.48038989305496216 0.48038989305496216
0.51583045721054077 0.51583045721054077 0.51583045721054077
0.54770040512084961 0.54770040512084961 0.54770040512084961
0.57824862003326416 0.57824862003326416 0.57824862003326416
0.63900512456893921 0.63900512456893921 0.63900512456893921
0.66982752084732056 0.66982752084732056 0.66982752084732056
0.73102492094039917 0.73102492094039917 0.73102492094039917
0.78444969654083252 0.78444969654083252 0.78444969654083252
0.82222360372543335 0.82222360372543335 0.82222360372543335
0.85551726818084717 0.85551726818084717 0.85551726818084717
0.86268454790115356 0.86268454790115356 0.86268454790115356
0.017141200602054596 0.017141200602054596 0.017141200602054596
0.038271885365247726 0.038271885365247726 0.038271885365247726
0.094098798930644989 0.094098798930644989 0.094098798930644989
0.1822800487279892 0.1822800487279892 0.1822800487279892
0.24416422843933105 0.24416422843933105 0.24416422843933105
0.33611235022544861 0.33611235022544861 0.33611235022544861
0.43439352512359619 0.43439352512359619 0.43439352512359619
0.51974219083786011 0.51974219083786011 0.51974219083786011
0.59549176692962646 0.59549176692962646 0.59549176692962646
0.63983738422393799 0.63983738422393799 0.63983738422393799
0.6627231240272522 0.6627231240272522 0.6627231240272522
0.69547504186630249 0.69547504186630249 0.69547504186630249
0.74343985319137573 0.74343985319137573 0.74343985319137573
0.036333870142698288 0.036333870142698288 0.036333870142698288
0.062441613525152206 0.062441613525152206 0.062441613525152206
0.10224525630474091 0.10224525630474091 0.10224525630474091
0.17662279307842255 0.17662279307842255 0.17662279307842255
0.26075869798660278 0.26075869798660278 0.26075869798660278
0.34957981109619141 0.34957981109619141 0.34957981109619141
0.43266388773918152 0.43266388773918152 0.43266388773918152
0.51482182741165161 0.51482182741165161 0.51482182741165161
0.58564895391464233 0.58564895391464233 0.58564895391464233
0.64499366283416748 0.64499366283416748 0.64499366283416748
0.68631398677825928 0.68631398677825928 0.68631398677825928
0.71350014209747314 0.71350014209747314 0.71350014209747314
0.74678468704223633 0.74678468704223633 0.74678468704223633
0.056497551500797272 0.056497551500797272 0.056497551500797272
0.088010437786579132 0.088010437786579132 0.088010437786579132
0.12877427041530609 0.12877427041530609 0.12877427041530609
0.19838689267635345 0.19838689267635345 0.19838689267635345
0.28266888856887817 0.28266888856887817 0.28266888856887817
0.36730530858039856 0.36730530858039856 0.36730530858039856
0.44319146871566772 0.44319146871566772 0.44319146871566772
0.51868557929992676 0.51868557929992676 0.51868557929992676
0.59020215272903442 0.59020215272903442 0.59020215272903442
0.65300220251083374 0.65300220251083374 0.65300220251083374
0.70116227865219116 0.70116227865219116 0.70116227865219116
0.72961121797561646 0.72961121797561646 0.72961121797561646
0.75815212726593018 0.75815212726593018 0.75815212726593018
0.099071815609931946 0.099071815609931946 0.099071815609931946
0.12863056361675262 0.12863056361675262 0.12863056361675262
0.17312745749950409 0.17312745749950409 0.17312745749950409
0.23894932866096497 0.23894932866096497 0.23894932866096497
0.31301221251487732 0.31301221251487732 0.31301221251487732
0.39112383127212524 0.39112383127212524 0.39112383127212524
0.46441429853439331 0.46441429853439331 0.46441429853439331
0.53329509496688843 0.53329509496688843 0.53329509496688843
0.60223478078842163 0.60223478078842163 0.60223478078842163
0.66525042057037354 0.66525042057037354 0.66525042057037354
0.71827071905136108 0.71827071905136108 0.71827071905136108
0.75810152292251587 0.75810152292251587 0.75810152292251587
0.77967917919158936 0.77967917919158936 0.77967917919158936
0.15171852707862854 0.15171852707862854 0.15171852707862854
0.18313547968864441 0.18313547968864441 0.18313547968864441
0.22100695967674255 0.22100695967674255 0.22100695967674255
0.28197237849235535 0.28197237849235535 0.28197237849235535
0.34690535068511963 0.34690535068511963 0.34690535068511963
0.41907012462615967 0.41907012462615967 0.41907012462615967
0.48809555172920227 0.48809555172920227 0.48809555172920227
