luts/fujixtransiii/fuji_xtrans_iii_velvia.cube
# Created by: G'MIC (https://gmic.eu)
TITLE "fuji_xtrans_iii_velvia"
# LUT size
LUT_3D_SIZE 13
# Data domain
DOMAIN_MIN 0.0 0.0 0.0
DOMAIN_MAX 1.0 1.0 1.0
# LUT data points
0.0072196363471448421 0.0075772753916680813 0.004986871499568224
0.028325937688350677 0.0098778819665312767 0.006699027493596077
0.077997364103794098 0.010213948786258698 0.0040285447612404823
0.18674898147583008 0.014917724765837193 0.0082734497264027596
0.34803208708763123 0.018106512725353241 0.0070408391766250134
0.50695466995239258 0.032252486795186996 0.0061088860966265202
0.64179867506027222 0.065724194049835205 0.0061477660201489925
0.77664667367935181 0.10523881763219833 0.0083498638123273849
0.86309224367141724 0.13120268285274506 0.011467877775430679
0.91197216510772705 0.15317586064338684 0.033311266452074051
0.93579542636871338 0.16891995072364807 0.047291386872529984
0.95271176099777222 0.17970967292785645 0.067743144929409027
0.96349549293518066 0.19746480882167816 0.081859081983566284
0.0068890592083334923 0.02275523729622364 0.0081511698663234711
0.021015660837292671 0.021237391978502274 0.0067408992908895016
0.089743413031101227 0.024979101493954659 0.0045308130793273449
0.20865702629089355 0.042739838361740112 0.0092364894226193428
0.35695847868919373 0.05523865669965744 0.01088186539709568
0.51525783538818359 0.062261871993541718 0.0083933956921100616
0.65876692533493042 0.093547657132148743 0.0079956948757171631
0.77132570743560791 0.12292569875717163 0.0093497931957244873
0.86109966039657593 0.14359207451343536 0.011701606214046478
0.92443031072616577 0.16937637329101562 0.028381362557411194
0.95307141542434692 0.19037787616252899 0.03936564177274704
0.96390962600708008 0.2063266932964325 0.054774757474660873
0.9846271276473999 0.25016877055168152 0.092029154300689697
0.0058276006020605564 0.077949151396751404 0.0052850912325084209
0.018043458461761475 0.072753474116325378 0.004047004971653223
0.083525672554969788 0.080236725509166718 0.0036645028740167618
0.21297155320644379 0.10313912481069565 0.0068091149441897869
0.36438184976577759 0.12233299016952515 0.0078137563541531563
0.51923179626464844 0.12377414852380753 0.0051925810985267162
0.65123128890991211 0.14335526525974274 0.0053221308626234531
0.76678872108459473 0.16832277178764343 0.0051286732777953148
0.85999453067779541 0.19318477809429169 0.0064458060078322887
0.93007016181945801 0.22000706195831299 0.012957285158336163
0.96437358856201172 0.24122174084186554 0.018914645537734032
0.98522919416427612 0.28076872229576111 0.031795129179954529
0.99757969379425049 0.31856104731559753 0.043338071554899216
0.0033366333227604628 0.17751260101795197 0.0013122408417984843
0.013915911316871643 0.18348205089569092 0.0019669625908136368
0.055365931242704391 0.18410927057266235 0.0011582617880776525
0.1837274581193924 0.20341628789901733 0.0022356519475579262
0.35382002592086792 0.21586699783802032 0.0052574905566871166
0.49999228119850159 0.22401222586631775 0.0054160919971764088
0.63004511594772339 0.24373778700828552 0.0050419974140822887
0.7481732964515686 0.26482382416725159 0.0053585278801620007
0.83911597728729248 0.28364205360412598 0.005292810034006834
0.91504430770874023 0.30832949280738831 0.0064574000425636768
0.97713667154312134 0.33610078692436218 0.010849223472177982
0.9957578182220459 0.34244158864021301 0.015007737092673779
0.99867159128189087 0.34985530376434326 0.018809225410223007
0.00039212097181007266 0.29952776432037354 0.0029395308811217546
0.0066651585511863232 0.31944605708122253 0.0015458051348105073
0.029266521334648132 0.32598415017127991 6.2650789914187044e-05
0.12216009944677353 0.34506687521934509 0.00057091808412224054
0.3035428524017334 0.35311612486839294 0.002796367509290576
0.47162535786628723 0.34793427586555481 0.0044681173749268055
0.60425150394439697 0.3649202287197113 0.0044148764573037624
0.72213947772979736 0.37208902835845947 0.0046921223402023315
0.8134276270866394 0.37862136960029602 0.005434761755168438
0.89566034078598022 0.38478446006774902 0.0041852463036775589
0.95826601982116699 0.39574962854385376 0.0025744868908077478
0.99246573448181152 0.37154901027679443 0.0042136847041547298
0.99889457225799561 0.39060401916503906 0.0084103457629680634
0 0.40664234757423401 0.00045358994975686073
0.0081600714474916458 0.44468018412590027 8.6421590822283179e-05
0.025595854967832565 0.44294893741607666 6.4625460254319478e-06
0.072732739150524139 0.46413218975067139 8.0781828728504479e-06
0.23949427902698517 0.47525849938392639 0.0010950873838737607
0.43003040552139282 0.4726598858833313 0.0024659999180585146
0.57574307918548584 0.47398009896278381 0.0025631026364862919
0.69481992721557617 0.47426193952560425 0.0031026504002511501
0.78800266981124878 0.47558969259262085 0.0040381336584687233
0.86258840560913086 0.48029589653015137 0.0024354225024580956
0.91073215007781982 0.48540687561035156 0.00039361690869554877
0.95574706792831421 0.47354012727737427 0.0051417630165815353
0.9904019832611084 0.50394034385681152 0.01477889996021986
0.00051700370386242867 0.48140749335289001 2.8004365958622657e-05
0.0047430898994207382 0.51559239625930786 0
0.014895196072757244 0.52572727203369141 0
0.05387604609131813 0.54651278257369995 0
0.18257881700992584 0.55973082780838013 3.6621095205191523e-05
0.36911153793334961 0.55069619417190552 0.00019962085934821516
0.54038071632385254 0.55283099412918091 0.00022645837452728301
0.65995520353317261 0.5629580020904541 8.643655019113794e-05
0.75798046588897705 0.56475740671157837 0.00043376846588216722
0.84856641292572021 0.56992757320404053 0.00038483564276248217
0.90823262929916382 0.57240903377532959 0.00032909619039855897
0.94280523061752319 0.57188355922698975 0.0059736962430179119
0.98034453392028809 0.59174126386642456 0.011136926710605621
0.0022994545288383961 0.51150810718536377 0.00081348791718482971
0.0036703073419630527 0.55219346284866333 0
0.011259445920586586 0.59280514717102051 0
0.055092126131057739 0.58720654249191284 0
0.15945993363857269 0.60874193906784058 0
0.27011579275131226 0.60658490657806396 0
0.51628273725509644 0.61823058128356934 0
0.63031274080276489 0.62997180223464966 0
0.74746781587600708 0.62500649690628052 0
0.84638422727584839 0.63527846336364746 0
0.90564793348312378 0.63540315628051758 0.00011282528430456296
0.93100553750991821 0.64405292272567749 0.0032152363564819098
0.97292572259902954 0.65734535455703735 0.010528653860092163
0.0020596671383827925 0.54522490501403809 0.002439162228256464
0.0025246564764529467 0.56357157230377197 0.00034486359800212085
0.007405898068100214 0.62602436542510986 0.00015058330609463155
0.037802945822477341 0.6077125072479248 0.00020698098524007946
0.13815668225288391 0.62884479761123657 6.4326268329750746e-05
0.24009944498538971 0.65554928779602051 0
0.4918702244758606 0.68246960639953613 0
0.62365627288818359 0.68185591697692871 0
0.74828135967254639 0.67177695035934448 0
0.84807556867599487 0.67464739084243774 2.7824849894386716e-05
0.89715355634689331 0.67419648170471191 0.00076138367876410484
0.92784661054611206 0.69321763515472412 0.001445141970179975
0.96176552772521973 0.71365553140640259 0.0058009577915072441
0.0014256795402616262 0.57490807771682739 0.0075450222939252853
0.0022889529354870319 0.56307882070541382 0.00095894007245078683
0.0069120968692004681 0.62166345119476318 0.0031637751962989569
0.029324296861886978 0.6529160737991333 0.0046369363553822041
0.13625162839889526 0.6683279275894165 0.0026202481240034103
0.25395482778549194 0.6867443323135376 0
0.48021641373634338 0.69843465089797974 0
0.60157960653305054 0.69938302040100098 0
0.71403098106384277 0.68760871887207031 9.1552738012978807e-06
0.84434020519256592 0.68578863143920898 0.00066422106465324759
0.91591894626617432 0.70052587985992432 0.0031695796642452478
0.95290166139602661 0.71718645095825195 0.0045266393572092056
0.98906964063644409 0.73611718416213989 0.0082469116896390915
0.0018669427372515202 0.5824732780456543 0.013515652157366276
0.003356873756274581 0.58403599262237549 0.0017556434031575918
0.010324201546609402 0.70496553182601929 0.0089856013655662537
0.022195987403392792 0.73515999317169189 0.011801192536950111
0.12036526203155518 0.72746312618255615 0.0066257701255381107
0.23407441377639771 0.72199976444244385 6.0915477661183104e-05
0.48401448130607605 0.72327899932861328 1.4002182979311328e-05
0.58032256364822388 0.71830761432647705 0.00057121727149933577
0.68517142534255981 0.70994389057159424 0.0022454503923654556
0.84080833196640015 0.69746077060699463 0.0048102885484695435
0.93608897924423218 0.72394567728042603 0.010565783828496933
0.98113340139389038 0.7369314432144165 0.010114408098161221
0.99494677782058716 0.74184668064117432 0.011248046532273293
0.0039215688593685627 0.61985218524932861 0.017733525484800339
0.0052373548969626427 0.62641298770904541 0.0034618901554495096
0.012032811529934406 0.7318616509437561 0.010561280883848667
0.023925153538584709 0.75540167093276978 0.01647796668112278
0.1004113107919693 0.75348365306854248 0.011245517991483212
0.21003888547420502 0.75464755296707153 0.0011421652743592858
0.49842572212219238 0.74725121259689331 0.00050060794455930591
0.55734169483184814 0.74880039691925049 0.0039542554877698421
0.67122107744216919 0.754463791847229 0.0079968171194195747
0.81335240602493286 0.74924105405807495 0.023231221362948418
0.89969903230667114 0.7596433162689209 0.034472238272428513
0.97284138202667236 0.75763195753097534 0.025014495477080345
0.98910582065582275 0.75839269161224365 0.029432004317641258
0.0039215688593685627 0.62810617685317993 0.016411485150456429
0.0056123021058738232 0.63516694307327271 0.0058884862810373306
0.012426040135324001 0.73648184537887573 0.014189312234520912
0.025747770443558693 0.76027858257293701 0.021947704255580902
0.096986524760723114 0.75957703590393066 0.014491990208625793
0.20808957517147064 0.76056939363479614 0.0036303950473666191
0.48921138048171997 0.75714224576950073 0.0034639546647667885
0.50234442949295044 0.78662317991256714 0.01177559606730938
0.66873049736022949 0.78937309980392456 0.019495047628879547
0.80957841873168945 0.79194307327270508 0.042256731539964676
0.88463741540908813 0.80261743068695068 0.063711784780025482
0.95407754182815552 0.80316156148910522 0.078524045646190643
0.9832797646522522 0.80400615930557251 0.092060893774032593
0.0054935081861913204 0.0080945780500769615 0.024574071168899536
0.020494213327765465 0.0098630422726273537 0.024039654061198235
0.087880633771419525 0.015448132529854774 0.035324424505233765
0.20434240996837616 0.021136684343218803 0.043231051415205002
0.30421435832977295 0.026938255876302719 0.03904477134346962
0.48596465587615967 0.054124988615512848 0.037185966968536377
0.65913426876068115 0.084050439298152924 0.038632966578006744
0.78113353252410889 0.10827592015266418 0.046973913908004761
0.88649779558181763 0.12682096660137177 0.081598423421382904
0.93745845556259155 0.15342153608798981 0.10285575687885284
0.95291745662689209 0.16471053659915924 0.12033332139253616
0.96323210000991821 0.18128995597362518 0.14254407584667206
0.98339545726776123 0.22766774892807007 0.21971003711223602
0.0061452975496649742 0.02914905920624733 0.0301984753459692
0.023470096290111542 0.029327047988772392 0.027891092002391815
0.088769964873790741 0.037356298416852951 0.032184526324272156
0.2124311625957489 0.048166088759899139 0.035711146891117096
0.34771198034286499 0.057542420923709869 0.035407572984695435
0.5068480372428894 0.076854825019836426 0.036603335291147232
0.66014969348907471 0.093736134469509125 0.034487482160329819
0.77290719747543335 0.12300216406583786 0.038112401962280273
0.86676293611526489 0.14730316400527954 0.052529443055391312
0.93381476402282715 0.17588463425636292 0.076030537486076355
0.95982110500335693 0.1920059472322464 0.094676345586776733
0.98260378837585449 0.22797000408172607 0.14652349054813385
0.99781495332717896 0.26256257295608521 0.22393609583377838
0.0055115493014454842 0.082618162035942078 0.027610493823885918
0.020040310919284821 0.081235371530056 0.027039246633648872
0.080786623060703278 0.092970602214336395 0.024363499134778976
0.20586688816547394 0.10309937596321106 0.024173736572265625
0.36551731824874878 0.1213434711098671 0.026984600350260735
0.52354329824447632 0.1292165070772171 0.022960633039474487
0.65628665685653687 0.14869596064090729 0.021515430882573128
0.76781034469604492 0.17203670740127563 0.023260034620761871
0.8583875298500061 0.1993560791015625 0.031579993665218353
0.93313467502593994 0.22843527793884277 0.047866147011518478
0.97835850715637207 0.25052064657211304 0.095233157277107239
0.99703192710876465 0.28018254041671753 0.12196795642375946
0.99995487928390503 0.28962481021881104 0.18568530678749084
0.0030448166653513908 0.1865750253200531 0.021769804880023003
0.012291492894291878 0.1920580118894577 0.018336530774831772
0.053604587912559509 0.19556239247322083 0.012411798350512981
0.17374762892723083 0.20708376169204712 0.012642893940210342
0.3494773805141449 0.21845938265323639 0.021778421476483345
0.50926023721694946 0.22870433330535889 0.020752565935254097
0.63828551769256592 0.245700404047966 0.013991411775350571
0.75181800127029419 0.26318803429603577 0.014319670386612415
0.8431551456451416 0.28796365857124329 0.021834205836057663
0.92364239692687988 0.30857458710670471 0.024311618879437447
0.98021602630615234 0.32565480470657349 0.043840847909450531
0.99745571613311768 0.33291074633598328 0.054684493690729141
0.99943560361862183 0.34480950236320496 0.12176480889320374
0.00061673932941630483 0.31976726651191711 0.016455991193652153
0.004757316317409277 0.32660126686096191 0.012610970064997673
0.026433264836668968 0.33051761984825134 0.0077719595283269882
0.11762826889753342 0.34077697992324829 0.0056019802577793598
0.29645967483520508 0.34598112106323242 0.010255566798150539
0.47155311703681946 0.35016477108001709 0.013825614936649799
0.60683494806289673 0.36247774958610535 0.010590167716145515
0.72252798080444336 0.37313196063041687 0.01174112968146801
0.82148432731628418 0.38494676351547241 0.013625664636492729
0.90654855966567993 0.39882388710975647 0.016229473054409027
0.97409480810165405 0.40782818198204041 0.021921822801232338
0.9946434497833252 0.4060579240322113 0.033553749322891235
0.99953770637512207 0.44138357043266296 0.06780688464641571
0 0.44261521100997925 0.0041671604849398136
0.005133520346134901 0.4542599618434906 0.0052749784663319588
0.018741533160209656 0.45361459255218506 0.0037118650507181883
0.070116974413394928 0.46357229351997375 0.0013121810043230653
0.23282931745052338 0.46831449866294861 0.0049302941188216209
0.4241715669631958 0.46503531932830811 0.0084387687966227531
0.57381647825241089 0.46915674209594727 0.008701578713953495
0.69416952133178711 0.47707119584083557 0.0091521022841334343
0.79444533586502075 0.48090067505836487 0.0086273644119501114
0.880329430103302 0.48711222410202026 0.008626631461083889
0.95350122451782227 0.49495041370391846 0.0097155701369047165
0.98674494028091431 0.50260674953460693 0.021600445732474327
0.99701321125030518 0.53157323598861694 0.030524624511599541
6.3099578255787492e-05 0.50500297546386719 0.0028270347975194454
0.0048582190647721291 0.54591304063796997 0.0022681441623717546
0.013479165732860565 0.55171245336532593 0.0012650733115151525
0.048484727740287781 0.54953241348266602 0.0010216955561190844
0.17564889788627625 0.56074553728103638 0.0030473745428025723
0.36542865633964539 0.55702668428421021 0.0038051530718803406
0.53646188974380493 0.55614721775054932 0.0089322254061698914
0.66503506898880005 0.56665617227554321 0.0073927189223468304
0.76398313045501709 0.57058805227279663 0.0032205469906330109
0.85411125421524048 0.57279223203659058 0.0029152664355933666
0.93977421522140503 0.57606607675552368 0.0061151091940701008
0.98082083463668823 0.58204942941665649 0.019834451377391815
0.99315917491912842 0.59660333395004272 0.024070724844932556
0.0029460832010954618 0.57901674509048462 0.010089006274938583
0.0046784044243395329 0.60784947872161865 0.0033976684790104628
0.010665773414075375 0.62307173013687134 0.0010352489771321416
0.031636450439691544 0.61662125587463379 0.00085721485083922744
0.12865807116031647 0.62794589996337891 0.0020145790185779333
0.27056682109832764 0.63069432973861694 0.0029623443260788918
0.49348607659339905 0.63052833080291748 0.0042919381521642208
0.62907880544662476 0.63840752840042114 0.0047629112377762794
0.74211382865905762 0.63521510362625122 0.0014535791706293821
0.83954536914825439 0.64165240526199341 0.0014393526362255216
0.93084162473678589 0.64754331111907959 0.0049504446797072887
0.97080689668655396 0.65348923206329346 0.016445713117718697
0.98737865686416626 0.66638076305389404 0.029711779206991196
0.003848835127428174 0.61930853128433228 0.014542912133038044
0.0045142676681280136 0.63800489902496338 0.0050195432268083096
0.0077692070044577122 0.66149634122848511 0.0038362541235983372
0.019858716055750847 0.66558057069778442 0.0029681934975087643
0.096486978232860565 0.67068600654602051 0.0036322800442576408
0.2336544394493103 0.68068057298660278 0.0020988914184272289
0.46299120783805847 0.69302725791931152 0.0011122908908873796
0.60941833257675171 0.69178521633148193 0.0015579522587358952
0.72855442762374878 0.68238097429275513 0.001594603294506669
0.82328879833221436 0.69598174095153809 0.002333667129278183
0.91570043563842773 0.70727658271789551 0.0060624666512012482
0.97171151638031006 0.71408283710479736 0.010048585943877697
0.98701560497283936 0.72421592473983765 0.026377793401479721
0.0039215688593685627 0.62599647045135498 0.011722669005393982
0.0043989443220198154 0.63983166217803955 0.0050896885804831982
0.0092270942404866219 0.70222634077072144 0.0092270495370030403
0.020547410473227501 0.72995048761367798 0.011388516984879971
0.10011672973632812 0.72297549247741699 0.0083837918937206268
0.22297002375125885 0.72040235996246338 0.0020007414277642965
0.48072162270545959 0.72597682476043701 0.00033072676160372794
0.59454631805419922 0.73021203279495239 0.00096320355078205466
0.70662635564804077 0.7158125638961792 0.0028552187141031027
0.81154954433441162 0.73090112209320068 0.01058559026569128
0.91325920820236206 0.74191737174987793 0.016342058777809143
0.97759568691253662 0.74311870336532593 0.014973464421927929
0.99105781316757202 0.74849927425384521 0.017741288989782333
0.0038379444740712643 0.63126808404922485 0.037296026945114136
0.0045896642841398716 0.645699143409729 0.0060836193151772022
0.010662303306162357 0.72758674621582031 0.010895194485783577
0.021169491112232208 0.75151216983795166 0.015701936557888985
0.10269153118133545 0.75373071432113647 0.013846812769770622
0.21190634369850159 0.75531697273254395 0.0051688249222934246
0.49547925591468811 0.74938076734542847 0.002643645042553544
0.56249111890792847 0.76085150241851807 0.0048400429077446461
0.66926199197769165 0.7535286545753479 0.0070246974937617779
0.80415546894073486 0.75852268934249878 0.024525750428438187
0.90834850072860718 0.77180677652359009 0.035868130624294281
0.97646975517272949 0.75976145267486572 0.028334224596619606
0.99417221546173096 0.75667470693588257 0.027001908048987389
0.0024616466835141182 0.64404881000518799 0.1313454657793045
0.0049077202565968037 0.64989852905273438 0.01288185827434063
0.011436941102147102 0.73938238620758057 0.022376565262675285
0.020726356655359268 0.77288705110549927 0.046725433319807053
0.090157933533191681 0.77233791351318359 0.041228514164686203
0.19882398843765259 0.76570963859558105 0.019709253683686256
0.47578513622283936 0.76136338710784912 0.012079127132892609
0.49910756945610046 0.78590130805969238 0.014865261502563953
0.66002744436264038 0.78976082801818848 0.021782161667943001
0.79858070611953735 0.79263347387313843 0.040394127368927002
0.88470911979675293 0.80134779214859009 0.059035744518041611
0.95394361019134521 0.8082965612411499 0.087464034557342529
0.98369693756103516 0.8079649806022644 0.097172021865844727
0.001899225520901382 0.6524890661239624 0.18770001828670502
0.0048550176434218884 0.65590280294418335 0.042039263993501663
0.013697516173124313 0.76412433385848999 0.059068851172924042
0.021954076364636421 0.80065512657165527 0.093972973525524139
0.066228382289409637 0.79521042108535767 0.0898093581199646
0.18939107656478882 0.77975046634674072 0.057162757962942123
0.47002863883972168 0.76514208316802979 0.018805410712957382
0.48193252086639404 0.7953832745552063 0.017416337504982948
0.65403980016708374 0.79880982637405396 0.024957470595836639
0.79345887899398804 0.80050694942474365 0.046572111546993256
0.88493973016738892 0.81542354822158813 0.081010006368160248
0.95925664901733398 0.84495693445205688 0.14119517803192139
0.97875189781188965 0.85892367362976074 0.17056192457675934
0.0081451712176203728 0.011090132407844067 0.14018794894218445
0.036194998770952225 0.017597004771232605 0.1194104477763176
0.1198376789689064 0.023901263251900673 0.12008741497993469
0.2685549259185791 0.030020933598279953 0.13035300374031067
0.36942571401596069 0.040411107242107391 0.15323843061923981
0.51378458738327026 0.069190755486488342 0.16969245672225952
0.66495305299758911 0.091595940291881561 0.17754672467708588
0.78292387723922729 0.1098465695977211 0.1953900158405304
0.88251727819442749 0.1235537976026535 0.18991857767105103
0.94304728507995605 0.14625231921672821 0.19383162260055542
0.96433728933334351 0.16433992981910706 0.21120303869247437
0.9839475154876709 0.20785151422023773 0.28643056750297546
0.99765092134475708 0.25535798072814941 0.38025608658790588
0.0091819614171981812 0.040231622755527496 0.1164817214012146
0.036419946700334549 0.041135285049676895 0.11295522004365921
0.11036239564418793 0.049594368785619736 0.11521292477846146
0.24108162522315979 0.058675054460763931 0.12390987575054169
0.38185647130012512 0.071402892470359802 0.13819496333599091
0.52761578559875488 0.091495946049690247 0.13670806586742401
0.66257643699645996 0.10714417695999146 0.14351168274879456
0.773395836353302 0.13099738955497742 0.15555346012115479
0.86937671899795532 0.15411463379859924 0.160350501537323
0.94044524431228638 0.18849006295204163 0.17545627057552338
0.9797130823135376 0.21902309358119965 0.19917356967926025
0.99593770503997803 0.2475380003452301 0.25049957633018494
0.99987924098968506 0.27248099446296692 0.31843733787536621
0.0058511472307145596 0.10131733864545822 0.11256945878267288
0.029118496924638748 0.09922376275062561 0.10728827118873596
0.10018650442361832 0.11354165524244308 0.10840654373168945
0.22364325821399689 0.12553033232688904 0.10841915756464005
0.37789055705070496 0.13744732737541199 0.10640973597764969
0.52953875064849854 0.14306904375553131 0.10671190917491913
0.65454769134521484 0.16447006165981293 0.11109477281570435
0.76437807083129883 0.18654465675354004 0.1172611340880394
0.85668396949768066 0.21488514542579651 0.1354902982711792
0.93418842554092407 0.24513554573059082 0.156070277094841
0.98566389083862305 0.26955509185791016 0.18538685142993927
0.99919098615646362 0.28217515349388123 0.23360247910022736
1 0.30405580997467041 0.30254644155502319
0.0038011439610272646 0.20581604540348053 0.087086804211139679
0.013706730678677559 0.20508736371994019 0.077450528740882874
0.063710905611515045 0.21299432218074799 0.07093384861946106
0.19418157637119293 0.22056375443935394 0.068906821310520172
0.35879778861999512 0.22650483250617981 0.074891060590744019
0.51653730869293213 0.23713892698287964 0.074005559086799622
0.63855469226837158 0.25766554474830627 0.077594414353370667
0.74778968095779419 0.27240577340126038 0.082234598696231842
0.84404933452606201 0.29475107789039612 0.095493718981742859
0.92876636981964111 0.31751838326454163 0.11090750247240067
0.98131740093231201 0.33759057521820068 0.15015237033367157
0.99806714057922363 0.35621500015258789 0.22352233529090881
0.99996757507324219 0.36928838491439819 0.27081555128097534
0.0014286414952948689 0.33466437458992004 0.051864653825759888
0.0050146961584687233 0.33412209153175354 0.045083183795213699
0.028566218912601471 0.3412262499332428 0.03595835343003273
