luts/fujixtransiii/fuji_xtrans_iii_acros+g.cube
# Created by: G'MIC (https://gmic.eu)
TITLE "fuji_xtrans_iii_acros+g"
# LUT size
LUT_3D_SIZE 5
# Data domain
DOMAIN_MIN 0.0 0.0 0.0
DOMAIN_MAX 1.0 1.0 1.0
# LUT data points
0.017873277887701988 0.017873277887701988 0.017873277887701988
0.059806104749441147 0.059806104749441147 0.059806104749441147
0.1736065149307251 0.1736065149307251 0.1736065149307251
0.28918159008026123 0.28918159008026123 0.28918159008026123
0.33152896165847778 0.33152896165847778 0.33152896165847778
0.12330165505409241 0.12330165505409241 0.12330165505409241
0.16799120604991913 0.16799120604991913 0.16799120604991913
0.2662602961063385 0.2662602961063385 0.2662602961063385
0.363485187292099 0.363485187292099 0.363485187292099
0.41163021326065063 0.41163021326065063 0.41163021326065063
0.31436079740524292 0.31436079740524292 0.31436079740524292
0.39126512408256531 0.39126512408256531 0.39126512408256531
0.46724259853363037 0.46724259853363037 0.46724259853363037
0.52691048383712769 0.52691048383712769 0.52691048383712769
0.57095444202423096 0.57095444202423096 0.57095444202423096
0.41163894534111023 0.41163894534111023 0.41163894534111023
0.48558035492897034 0.48558035492897034 0.48558035492897034
0.59121930599212646 0.59121930599212646 0.59121930599212646
0.61583024263381958 0.61583024263381958 0.61583024263381958
0.68409585952758789 0.68409585952758789 0.68409585952758789
0.4566957950592041 0.4566957950592041 0.4566957950592041
0.60149198770523071 0.60149198770523071 0.60149198770523071
0.6598585844039917 0.6598585844039917 0.6598585844039917
0.72379720211029053 0.72379720211029053 0.72379720211029053
0.74494540691375732 0.74494540691375732 0.74494540691375732
0.07819068431854248 0.07819068431854248 0.07819068431854248
0.14609527587890625 0.14609527587890625 0.14609527587890625
0.2504878044128418 0.2504878044128418 0.2504878044128418
0.33029991388320923 0.33029991388320923 0.33029991388320923
0.41039562225341797 0.41039562225341797 0.41039562225341797
0.19736728072166443 0.19736728072166443 0.19736728072166443
0.23161493241786957 0.23161493241786957 0.23161493241786957
0.31419381499290466 0.31419381499290466 0.31419381499290466
0.40651533007621765 0.40651533007621765 0.40651533007621765
0.47123706340789795 0.47123706340789795 0.47123706340789795
0.40965348482131958 0.40965348482131958 0.40965348482131958
0.4448416531085968 0.4448416531085968 0.4448416531085968
0.51295620203018188 0.51295620203018188 0.51295620203018188
0.56148427724838257 0.56148427724838257 0.56148427724838257
0.59086388349533081 0.59086388349533081 0.59086388349533081
0.52594208717346191 0.52594208717346191 0.52594208717346191
0.61204642057418823 0.61204642057418823 0.61204642057418823
0.67049330472946167 0.67049330472946167 0.67049330472946167
0.71856909990310669 0.71856909990310669 0.71856909990310669
0.75478285551071167 0.75478285551071167 0.75478285551071167
0.57408004999160767 0.57408004999160767 0.57408004999160767
0.6708492636680603 0.6708492636680603 0.6708492636680603
0.71878361701965332 0.71878361701965332 0.71878361701965332
0.77780836820602417 0.77780836820602417 0.77780836820602417
0.81567966938018799 0.81567966938018799 0.81567966938018799
0.21887542307376862 0.21887542307376862 0.21887542307376862
0.28248125314712524 0.28248125314712524 0.28248125314712524
0.35632783174514771 0.35632783174514771 0.35632783174514771
0.4414229691028595 0.4414229691028595 0.4414229691028595
0.48360899090766907 0.48360899090766907 0.48360899090766907
0.31420180201530457 0.31420180201530457 0.31420180201530457
0.36955779790878296 0.36955779790878296 0.36955779790878296
0.43021178245544434 0.43021178245544434 0.43021178245544434
0.49311935901641846 0.49311935901641846 0.49311935901641846
0.53620398044586182 0.53620398044586182 0.53620398044586182
0.49549984931945801 0.49549984931945801 0.49549984931945801
0.51593685150146484 0.51593685150146484 0.51593685150146484
0.58460122346878052 0.58460122346878052 0.58460122346878052
0.63252586126327515 0.63252586126327515 0.63252586126327515
0.66106605529785156 0.66106605529785156 0.66106605529785156
0.64955979585647583 0.64955979585647583 0.64955979585647583
0.67128092050552368 0.67128092050552368 0.67128092050552368
0.71942806243896484 0.71942806243896484 0.71942806243896484
0.77232509851455688 0.77232509851455688 0.77232509851455688
0.82337981462478638 0.82337981462478638 0.82337981462478638
0.69883269071578979 0.69883269071578979 0.69883269071578979
0.72605770826339722 0.72605770826339722 0.72605770826339722
0.76866674423217773 0.76866674423217773 0.76866674423217773
0.8386569619178772 0.8386569619178772 0.8386569619178772
0.89610689878463745 0.89610689878463745 0.89610689878463745
0.34100934863090515 0.34100934863090515 0.34100934863090515
0.40130206942558289 0.40130206942558289 0.40130206942558289
0.4795936644077301 0.4795936644077301 0.4795936644077301
0.56947022676467896 0.56947022676467896 0.56947022676467896
0.65008676052093506 0.65008676052093506 0.65008676052093506
0.45186969637870789 0.45186969637870789 0.45186969637870789
0.50524097681045532 0.50524097681045532 0.50524097681045532
0.55684983730316162 0.55684983730316162 0.55684983730316162
0.61304688453674316 0.61304688453674316 0.61304688453674316
0.65825599431991577 0.65825599431991577 0.65825599431991577
0.59408926963806152 0.59408926963806152 0.59408926963806152
0.61684179306030273 0.61684179306030273 0.61684179306030273
0.66066712141036987 0.66066712141036987 0.66066712141036987
0.70949172973632812 0.70949172973632812 0.70949172973632812
0.75266605615615845 0.75266605615615845 0.75266605615615845
0.72840237617492676 0.72840237617492676 0.72840237617492676
0.73782694339752197 0.73782694339752197 0.73782694339752197
0.77961891889572144 0.77961891889572144 0.77961891889572144
0.8223264217376709 0.8223264217376709 0.8223264217376709
0.89000707864761353 0.89000707864761353 0.89000707864761353
0.78343302011489868 0.78343302011489868 0.78343302011489868
0.81662458181381226 0.81662458181381226 0.81662458181381226
0.86645156145095825 0.86645156145095825 0.86645156145095825
0.90449750423431396 0.90449750423431396 0.90449750423431396
0.94687360525131226 0.94687360525131226 0.94687360525131226
0.46482986211776733 0.46482986211776733 0.46482986211776733
0.51775377988815308 0.51775377988815308 0.51775377988815308
0.58574700355529785 0.58574700355529785 0.58574700355529785
0.67096394300460815 0.67096394300460815 0.67096394300460815
0.72579902410507202 0.72579902410507202 0.72579902410507202
0.57203018665313721 0.57203018665313721 0.57203018665313721
0.62805271148681641 0.62805271148681641 0.62805271148681641
0.67608159780502319 0.67608159780502319 0.67608159780502319
0.73058110475540161 0.73058110475540161 0.73058110475540161
0.75883495807647705 0.75883495807647705 0.75883495807647705
0.68764978647232056 0.68764978647232056 0.68764978647232056
0.72753357887268066 0.72753357887268066 0.72753357887268066
0.76600366830825806 0.76600366830825806 0.76600366830825806
0.80762207508087158 0.80762207508087158 0.80762207508087158
0.82632553577423096 0.82632553577423096 0.82632553577423096
0.80511069297790527 0.80511069297790527 0.80511069297790527
0.82265180349349976 0.82265180349349976 0.82265180349349976
0.85407847166061401 0.85407847166061401 0.85407847166061401
0.90011137723922729 0.90011137723922729 0.90011137723922729
0.93460285663604736 0.93460285663604736 0.93460285663604736
0.85346275568008423 0.85346275568008423 0.85346275568008423
0.85789453983306885 0.85789453983306885 0.85789453983306885
0.89773732423782349 0.89773732423782349 0.89773732423782349
0.94607895612716675 0.94607895612716675 0.94607895612716675
0.98279392719268799 0.98279392719268799 0.98279392719268799
