luts/fujixtransiii/fuji_xtrans_iii_pro_neg_std.cube
# Created by: G'MIC (https://gmic.eu)
TITLE "fuji_xtrans_iii_pro_neg_std"
# LUT size
LUT_3D_SIZE 13
# Data domain
DOMAIN_MIN 0.0 0.0 0.0
DOMAIN_MAX 1.0 1.0 1.0
# LUT data points
0.019616371020674706 0.02780468575656414 0.026512609794735909
0.048919826745986938 0.029286911711096764 0.024301176890730858
0.11042680591344833 0.042192734777927399 0.03619028627872467
0.18822786211967468 0.060518600046634674 0.054603081196546555
0.28524571657180786 0.080437816679477692 0.074079237878322601
0.39214268326759338 0.10964539647102356 0.098391667008399963
0.49925112724304199 0.14991948008537292 0.12913291156291962
0.61972993612289429 0.19099681079387665 0.16880133748054504
0.6890907883644104 0.21197356283664703 0.19750161468982697
0.74357396364212036 0.23121796548366547 0.21798126399517059
0.77219527959823608 0.2446940541267395 0.23334325850009918
0.7911565899848938 0.25512662529945374 0.25127777457237244
0.80815988779067993 0.26906061172485352 0.26101222634315491
0.016400117427110672 0.052804864943027496 0.023759789764881134
0.053525872528553009 0.058889530599117279 0.030439099296927452
0.11913387477397919 0.071696065366268158 0.042722441256046295
0.19659993052482605 0.087490856647491455 0.05561421811580658
0.29117289185523987 0.11406178027391434 0.076293841004371643
0.40231195092201233 0.14264349639415741 0.10029011219739914
0.5133063793182373 0.16674487292766571 0.12813295423984528
0.62205523252487183 0.20317873358726501 0.16365751624107361
0.69859206676483154 0.22718845307826996 0.1944718062877655
0.76001590490341187 0.2458648681640625 0.21943864226341248
0.78597414493560791 0.2567802369594574 0.22923089563846588
0.80266761779785156 0.26965820789337158 0.24284157156944275
0.83782964944839478 0.30397337675094604 0.27252689003944397
0.016632873564958572 0.10898102074861526 0.027390453964471817
0.054796945303678513 0.11756380647420883 0.0295244250446558
0.12168446183204651 0.12270528823137283 0.043862778693437576
0.20652905106544495 0.1408572643995285 0.057436011731624603
0.30526906251907349 0.16615661978721619 0.071733780205249786
0.40969118475914001 0.19026057422161102 0.087980471551418304
0.51894575357437134 0.20697297155857086 0.11840610951185226
0.62146562337875366 0.22865664958953857 0.15129406750202179
0.7066110372543335 0.25733548402786255 0.18113479018211365
0.76891410350799561 0.27935615181922913 0.20373152196407318
0.80463117361068726 0.28704887628555298 0.22320982813835144
0.83649247884750366 0.31924563646316528 0.2449110746383667
0.85959959030151367 0.34643501043319702 0.25906047224998474
0.016665231436491013 0.18626125156879425 0.022072391584515572
0.045231267809867859 0.19666135311126709 0.020471880212426186
0.10881762206554413 0.19570516049861908 0.033653095364570618
0.2050519585609436 0.21246984601020813 0.050252757966518402
0.31100377440452576 0.23127526044845581 0.066207528114318848
0.41626012325286865 0.24942147731781006 0.076954908668994904
0.52115219831466675 0.26852333545684814 0.097834736108779907
0.61464172601699829 0.28537642955780029 0.12411414086818695
0.70034635066986084 0.30517753958702087 0.15536212921142578
0.77968388795852661 0.32860562205314636 0.18268798291683197
0.84421801567077637 0.35376623272895813 0.22621123492717743
0.86067765951156616 0.36356624960899353 0.24107538163661957
0.86647701263427734 0.36900675296783447 0.24856497347354889
0.011655725538730621 0.26320388913154602 0.011328094638884068
0.032861344516277313 0.29435938596725464 0.012003566138446331
0.083992980420589447 0.30106016993522644 0.01848970353603363
0.1863093227148056 0.3123176097869873 0.03116607666015625
0.31146785616874695 0.32363653182983398 0.046452660113573074
0.41515430808067322 0.32937189936637878 0.061056278645992279
0.52106046676635742 0.34375110268592834 0.077370539307594299
0.61475729942321777 0.35732051730155945 0.10354597866535187
0.7012665867805481 0.37185347080230713 0.14313560724258423
0.77544701099395752 0.38646963238716125 0.17291358113288879
0.83172160387039185 0.40381285548210144 0.20741501450538635
0.86206221580505371 0.38516965508460999 0.22666607797145844
0.87515103816986084 0.4074072539806366 0.2427537739276886
0.0058284536935389042 0.353392094373703 0.0027570088859647512
0.020579438656568527 0.39039885997772217 0.0063358680345118046
0.067270524799823761 0.39420214295387268 0.0077406791970133781
0.16725987195968628 0.40566727519035339 0.013951095752418041
0.30120587348937988 0.42025786638259888 0.023943793028593063
0.4110531210899353 0.42300322651863098 0.040433965623378754
0.51772338151931763 0.43226701021194458 0.061230123043060303
0.61615896224975586 0.44247829914093018 0.089813679456710815
0.69858002662658691 0.45534738898277283 0.12638887763023376
0.76126694679260254 0.47217914462089539 0.15755726397037506
0.80088424682617188 0.47839295864105225 0.18145747482776642
0.84333276748657227 0.47073477506637573 0.21097178757190704
0.88781368732452393 0.50239908695220947 0.25220116972923279
0.0052686803974211216 0.41102951765060425 0.0049074511043727398
0.016824804246425629 0.44459736347198486 0.0053700464777648449
0.058495212346315384 0.4585806131362915 0.0064848056063055992
0.14944638311862946 0.48058146238327026 0.0096655450761318207
0.28490740060806274 0.49747192859649658 0.017433255910873413
0.39861020445823669 0.50314390659332275 0.027115480974316597
0.51872903108596802 0.51345515251159668 0.056279245764017105
0.61193293333053589 0.52664190530776978 0.085419565439224243
0.69369149208068848 0.53471356630325317 0.11135569214820862
0.76267856359481812 0.55207192897796631 0.14517125487327576
0.80618518590927124 0.56033098697662354 0.17517045140266418
0.83072811365127563 0.56698131561279297 0.19657681882381439
0.87551665306091309 0.58769696950912476 0.24334344267845154
0.0097681079059839249 0.4428521990776062 0.010510732419788837
0.018674483522772789 0.47222799062728882 0.011514835990965366
0.047255825251340866 0.51682490110397339 0.024397637695074081
0.1470910906791687 0.51783215999603271 0.012560018338263035
0.29068908095359802 0.54369187355041504 0.015234434977173805
0.36986371874809265 0.55601853132247925 0.02481129951775074
0.51579016447067261 0.58244490623474121 0.063638560473918915
0.60511773824691772 0.59774947166442871 0.091391995549201965
0.69513803720474243 0.6067536473274231 0.12612412869930267
0.76452541351318359 0.62002050876617432 0.14816936850547791
0.80745184421539307 0.62364095449447632 0.17034758627414703
0.83415305614471436 0.63810956478118896 0.19946306943893433
0.87220454216003418 0.651214599609375 0.24311032891273499
0.020320607349276543 0.48164153099060059 0.035506319254636765
0.025009827688336372 0.49248319864273071 0.020570777356624603
0.042302209883928299 0.55633211135864258 0.049599234014749527
0.12442706525325775 0.54128998517990112 0.026969999074935913
0.28046342730522156 0.57236891984939575 0.030698992311954498
0.36740320920944214 0.60819214582443237 0.050272129476070404
0.51990050077438354 0.64781534671783447 0.085411041975021362
0.61087691783905029 0.65134555101394653 0.10073426365852356
0.70366954803466797 0.65350967645645142 0.13770905137062073
0.772571861743927 0.66373574733734131 0.15837810933589935
0.80904287099838257 0.6662629246711731 0.17592531442642212
0.8364405632019043 0.68882483243942261 0.2083183228969574
0.86909419298171997 0.70814567804336548 0.24361389875411987
0.023082852363586426 0.50769662857055664 0.050926268100738525
0.026500627398490906 0.49642667174339294 0.021446647122502327
0.04656543955206871 0.55325442552566528 0.052074972540140152
0.11605812609195709 0.58957487344741821 0.081676378846168518
0.26951077580451965 0.61524504423141479 0.075558260083198547
0.37470734119415283 0.64080905914306641 0.076016247272491455
0.5124087929725647 0.66125857830047607 0.0962396040558815
0.59787458181381226 0.66475772857666016 0.1043347492814064
0.68274527788162231 0.66674327850341797 0.1369546502828598
0.77461028099060059 0.66914886236190796 0.1602412611246109
0.82485401630401611 0.68760615587234497 0.19742310047149658
0.86677134037017822 0.71678203344345093 0.24411650002002716
0.8952949047088623 0.73534780740737915 0.27460607886314392
0.024053476750850677 0.51625978946685791 0.057071894407272339
0.029647842049598694 0.51184922456741333 0.032122205942869186
0.06432795524597168 0.65337711572647095 0.14119809865951538
0.10831879079341888 0.68617850542068481 0.16899485886096954
0.25814637541770935 0.68349480628967285 0.13883757591247559
0.37785053253173828 0.68166589736938477 0.11384250223636627
0.52137100696563721 0.68805021047592163 0.12898029386997223
0.59367495775222778 0.68836897611618042 0.13457661867141724
0.66952717304229736 0.6937289834022522 0.16519343852996826
0.77643764019012451 0.68521612882614136 0.17994697391986847
0.84886848926544189 0.71724075078964233 0.23723912239074707
0.89217537641525269 0.74121105670928955 0.27921977639198303
0.90098994970321655 0.74385738372802734 0.28569233417510986
0.035326220095157623 0.552559494972229 0.038147017359733582
0.032390113919973373 0.55247271060943604 0.042531795799732208
0.066957943141460419 0.67995560169219971 0.16096743941307068
0.10810359567403793 0.7072100043296814 0.187196284532547
0.25198903679847717 0.71081411838531494 0.16603967547416687
0.37567782402038574 0.71761596202850342 0.14979198575019836
0.5390087366104126 0.7191922664642334 0.16487348079681396
0.58745968341827393 0.7229192852973938 0.17341363430023193
0.66810023784637451 0.73361653089523315 0.20529516041278839
0.76897025108337402 0.73527157306671143 0.24031567573547363
0.83153510093688965 0.74807608127593994 0.26938602328300476
0.88623553514480591 0.75458627939224243 0.29308420419692993
0.89861345291137695 0.7580682635307312 0.30143222212791443
0.036518514156341553 0.55682790279388428 0.038845989853143692
0.033593554049730301 0.55865716934204102 0.045577958226203918
0.070757113397121429 0.68098980188369751 0.16252720355987549
0.10591059923171997 0.70936906337738037 0.1921049952507019
0.2522788941860199 0.71500164270401001 0.1725783497095108
0.3722444474697113 0.72210896015167236 0.15692375600337982
0.53514355421066284 0.73085618019104004 0.18175627291202545
0.56197971105575562 0.7578473687171936 0.22318308055400848
0.67611831426620483 0.77169948816299438 0.25452390313148499
0.77876019477844238 0.77610653638839722 0.29449367523193359
0.82933944463729858 0.78476262092590332 0.31489503383636475
0.87759166955947876 0.78785073757171631 0.33500835299491882
0.89517545700073242 0.78999060392379761 0.3436913788318634
0.020378068089485168 0.033545877784490585 0.049787439405918121
0.046864170581102371 0.041832402348518372 0.054844185709953308
0.11724545061588287 0.060417670756578445 0.075863674283027649
0.19525797665119171 0.080243892967700958 0.097261764109134674
0.26054075360298157 0.094781331717967987 0.11113788187503815
0.38751226663589478 0.13118715584278107 0.13945949077606201
0.51715189218521118 0.16993004083633423 0.17180009186267853
0.6287381649017334 0.19842627644538879 0.21043317019939423
0.72806727886199951 0.22244778275489807 0.25071579217910767
0.77570897340774536 0.24306291341781616 0.27246877551078796
0.79498821496963501 0.25414478778839111 0.27964943647384644
0.80872982740402222 0.26327860355377197 0.29446813464164734
0.86009818315505981 0.29835876822471619 0.35022810101509094
0.024828143417835236 0.069486312568187714 0.060382544994354248
0.061758961528539658 0.075041525065898895 0.067191928625106812
0.12613141536712646 0.087846092879772186 0.082300134003162384
0.20379206538200378 0.10642454773187637 0.10222113877534866
0.28694331645965576 0.12659084796905518 0.11912351101636887
0.40335926413536072 0.15672892332077026 0.14236864447593689
0.51766711473464966 0.17934469878673553 0.16988827288150787
0.619456946849823 0.20635473728179932 0.2000621110200882
0.70718872547149658 0.23499113321304321 0.23346108198165894
0.77479809522628784 0.2533385157585144 0.26605835556983948
0.80575346946716309 0.26807728409767151 0.28057047724723816
0.83918434381484985 0.29444840550422668 0.3111509382724762
0.8815925121307373 0.32225969433784485 0.35827672481536865
0.025994408875703812 0.1251186728477478 0.070752374827861786
0.067228920757770538 0.13065525889396667 0.070900663733482361
0.13169148564338684 0.13970762491226196 0.0834989994764328
0.21409612894058228 0.15690864622592926 0.10313767194747925
0.31307879090309143 0.17767989635467529 0.12240205705165863
0.41515365242958069 0.19998608529567719 0.14118659496307373
0.52158868312835693 0.21629446744918823 0.16802977025508881
0.62077105045318604 0.23758968710899353 0.19441245496273041
0.70663779973983765 0.26695466041564941 0.22419470548629761
0.78064298629760742 0.28886783123016357 0.25430920720100403
0.83425426483154297 0.30711919069290161 0.28793898224830627
0.85995393991470337 0.32905638217926025 0.30487513542175293
0.88644331693649292 0.34030613303184509 0.34497842192649841
0.019823290407657623 0.2010626494884491 0.065977223217487335
0.060416426509618759 0.20592270791530609 0.063332907855510712
0.12650465965270996 0.21184137463569641 0.075789384543895721
0.21295173466205597 0.2279946506023407 0.093638882040977478
0.31352919340133667 0.24210529029369354 0.11435709893703461
0.4196334183216095 0.25802403688430786 0.1338040679693222
0.52494174242019653 0.27531084418296814 0.15818297863006592
0.62169688940048218 0.29059222340583801 0.17938464879989624
0.70510995388031006 0.31412366032600403 0.20730088651180267
0.78482508659362793 0.33718633651733398 0.23727138340473175
0.84377509355545044 0.35536086559295654 0.26899677515029907
0.86485165357589722 0.36401459574699402 0.28086844086647034
0.88820856809616089 0.3747648298740387 0.31555479764938354
0.010762053541839123 0.29436495900154114 0.042430952191352844
0.045309387147426605 0.30532479286193848 0.046771090477705002
0.10627184063196182 0.31056848168373108 0.06392611563205719
0.19937348365783691 0.31437715888023376 0.079173006117343903
0.30741754174232483 0.32499724626541138 0.096930980682373047
0.41557663679122925 0.3388882577419281 0.11938567459583282
0.52392041683197021 0.35420182347297668 0.14642202854156494
0.62108308076858521 0.36812272667884827 0.16875839233398438
0.70676231384277344 0.38945698738098145 0.19748516380786896
0.78261899948120117 0.40917167067527771 0.22912663221359253
0.84024584293365479 0.41814026236534119 0.25314038991928101
0.8700137734413147 0.42348328232765198 0.2655692994594574
0.89959859848022461 0.45443496108055115 0.29208552837371826
0.0057058893144130707 0.38370791077613831 0.021948765963315964
0.029920915141701698 0.40333917737007141 0.031907293945550919
0.076714381575584412 0.40713289380073547 0.045764099806547165
0.17189577221870422 0.40844511985778809 0.057344891130924225
0.29771921038627625 0.41691997647285461 0.074887745082378387
0.41102364659309387 0.42770886421203613 0.10018199682235718
0.51945143938064575 0.44121357798576355 0.12749019265174866
0.62113559246063232 0.45327189564704895 0.15517702698707581
0.7049565315246582 0.46932092308998108 0.18251648545265198
0.76704853773117065 0.48461771011352539 0.20655465126037598
0.82721412181854248 0.49466383457183838 0.23371952772140503
0.88393700122833252 0.50907605886459351 0.26156884431838989
0.90810441970825195 0.53773206472396851 0.28271758556365967
0.0050673987716436386 0.4426819384098053 0.032102517783641815
0.016503412276506424 0.48131749033927917 0.022982817143201828
0.055017106235027313 0.49134543538093567 0.031377095729112625
0.14222706854343414 0.49169138073921204 0.04044463112950325
0.27723926305770874 0.50141113996505737 0.059166029095649719
0.40006667375564575 0.50971657037734985 0.082799054682254791
0.51349884271621704 0.51984506845474243 0.1157049760222435
0.61431843042373657 0.53758150339126587 0.14547638595104218
0.70043867826461792 0.54839134216308594 0.16878847777843475
0.76933646202087402 0.56011688709259033 0.19343036413192749
0.8299526572227478 0.56921744346618652 0.22634883224964142
0.87704586982727051 0.5780637264251709 0.25073465704917908
0.90529328584671021 0.59753775596618652 0.27654263377189636
0.010061510838568211 0.51198548078536987 0.075860388576984406
0.020497176796197891 0.52561789751052856 0.02966015413403511
0.045812301337718964 0.55245441198348999 0.044592674821615219
0.12449783831834793 0.55548226833343506 0.042038727551698685
0.2643219530582428 0.56781512498855591 0.056358817964792252
0.37514755129814148 0.57902431488037109 0.07440292090177536
0.50503283739089966 0.59300309419631958 0.11023291945457458
0.60677981376647949 0.60756498575210571 0.14531895518302917
0.69489681720733643 0.61832040548324585 0.17433278262615204
0.76809340715408325 0.62882333993911743 0.1891973465681076
0.83665817975997925 0.64102786779403687 0.22479765117168427
0.88362127542495728 0.65110808610916138 0.25688117742538452
0.90575826168060303 0.66434311866760254 0.27672433853149414
0.026512116193771362 0.54705542325973511 0.067020490765571594
0.033341560512781143 0.55791044235229492 0.041153702884912491
0.042796548455953598 0.59011387825012207 0.074052534997463226
0.09967784583568573 0.59839236736297607 0.078039966523647308
0.24506033957004547 0.61474406719207764 0.088382601737976074
0.36440783739089966 0.6310420036315918 0.08460545539855957
0.50429743528366089 0.65688294172286987 0.11505689471960068
0.6044800877571106 0.66905772686004639 0.14547397196292877
0.69288122653961182 0.66642218828201294 0.17752662301063538
0.76439762115478516 0.68713575601577759 0.20556212961673737
0.82811325788497925 0.70347470045089722 0.22679115831851959
0.88112807273864746 0.71141952276229858 0.261045902967453
0.91203963756561279 0.7258526086807251 0.28512963652610779
0.033902604132890701 0.55800735950469971 0.048610012978315353
0.039532367140054703 0.56964367628097534 0.047289501875638962
0.05596243217587471 0.63907718658447266 0.11934241652488708
0.099671080708503723 0.67104840278625488 0.15415720641613007
0.24687805771827698 0.67715215682983398 0.14193637669086456
0.37064346671104431 0.67918092012405396 0.11912907660007477
0.52615606784820557 0.69327807426452637 0.14115612208843231
0.60027486085891724 0.70335376262664795 0.16424199938774109
0.68829095363616943 0.69897294044494629 0.19039273262023926
0.76740121841430664 0.71740639209747314 0.22339539229869843
0.83320438861846924 0.73755013942718506 0.26102942228317261
0.88866138458251953 0.74517422914505005 0.28550803661346436
0.90356540679931641 0.74474871158599854 0.28858533501625061
0.033655114471912384 0.56402677297592163 0.067581683397293091
0.040766652673482895 0.5744437575340271 0.052849773317575455
0.069802947342395782 0.67921066284179688 0.15814606845378876
0.10862435400485992 0.70448261499404907 0.18609683215618134
0.25015312433242798 0.71105414628982544 0.17148992419242859
0.37571075558662415 0.71728599071502686 0.1527525782585144
0.54357504844665527 0.72272270917892456 0.17149792611598969
0.59394806623458862 0.73381036520004272 0.195646733045578
0.67201775312423706 0.74293786287307739 0.22583109140396118
0.76930338144302368 0.7496599555015564 0.26067593693733215
0.84174144268035889 0.76453125476837158 0.29421705007553101
0.88659024238586426 0.75779801607131958 0.29720500111579895
0.90002024173736572 0.75710254907608032 0.2995699942111969
0.028135905042290688 0.58268409967422485 0.15064574778079987
0.040872640907764435 0.57649731636047363 0.060218077152967453
0.076395057141780853 0.68953597545623779 0.17239208519458771
0.11610683053731918 0.72379076480865479 0.21286003291606903
0.24236804246902466 0.72858375310897827 0.20176374912261963
0.37096598744392395 0.7288362979888916 0.17308199405670166
0.53679299354553223 0.73342645168304443 0.19017721712589264
0.56215423345565796 0.75801992416381836 0.22477008402347565
0.67263162136077881 0.77095180749893188 0.2516537606716156
0.7722318172454834 0.77643251419067383 0.29244938492774963
0.83238589763641357 0.78775739669799805 0.3193715512752533
0.87442392110824585 0.79628342390060425 0.34298154711723328
0.89218246936798096 0.79625320434570312 0.35024020075798035
0.023757141083478928 0.59599655866622925 0.21201938390731812
0.040673691779375076 0.58333247900009155 0.087514109909534454
0.10041173547506332 0.71243870258331299 0.20444495975971222
0.13304467499256134 0.75131833553314209 0.25139814615249634
0.2325485497713089 0.75296980142593384 0.24912701547145844
0.36433219909667969 0.74325287342071533 0.21721251308917999
0.53225862979888916 0.7381712794303894 0.20124974846839905
0.55119353532791138 0.76535493135452271 0.2362866997718811
0.66441059112548828 0.7767106294631958 0.25533801317214966
0.77476423978805542 0.78437256813049316 0.30147373676300049
0.83213347196578979 0.79245078563690186 0.32454457879066467
0.87963747978210449 0.82264620065689087 0.38081052899360657
0.89283466339111328 0.83521091938018799 0.40448549389839172
0.029457855969667435 0.058699276298284531 0.13171261548995972
0.0736045241355896 0.069896295666694641 0.13397499918937683
0.14519131183624268 0.08690846711397171 0.14609883725643158
0.24027758836746216 0.10678716748952866 0.16985322535037994
0.31097236275672913 0.1251801997423172 0.19556234776973724
0.41147050261497498 0.15901336073875427 0.22932910919189453
0.53269147872924805 0.19000442326068878 0.25536894798278809
0.64209556579589844 0.21261715888977051 0.28378033638000488
0.7358890175819397 0.22849880158901215 0.3000132143497467
0.78644347190856934 0.24501550197601318 0.31728637218475342
0.81302100419998169 0.26133975386619568 0.33341124653816223
0.85998225212097168 0.29250681400299072 0.3816063404083252
0.919525146484375 0.32810491323471069 0.44396975636482239
0.034507617354393005 0.09055645763874054 0.13213317096233368
0.082145467400550842 0.099890075623989105 0.13628761470317841
0.14769354462623596 0.11374025791883469 0.15108612179756165
0.23013801872730255 0.12943057715892792 0.16921451687812805
0.32191759347915649 0.14829190075397491 0.1928749680519104
0.42184770107269287 0.17241023480892181 0.21674087643623352
0.52929705381393433 0.19905813038349152 0.24033492803573608
0.62957453727722168 0.22162294387817383 0.26758614182472229
0.71894997358322144 0.24368840456008911 0.29140186309814453
0.78802335262298584 0.26752510666847229 0.31435152888298035
0.83802336454391479 0.29109653830528259 0.33644336462020874
0.8786013126373291 0.31618127226829529 0.3748871386051178
0.91459077596664429 0.33736249804496765 0.41306459903717041
0.034640457481145859 0.14477886259555817 0.13954921066761017
0.082041390240192413 0.1495191752910614 0.14030273258686066
0.14828631281852722 0.16199694573879242 0.15066848695278168
0.22659803926944733 0.1799611896276474 0.16564267873764038
0.32424655556678772 0.19542795419692993 0.18786443769931793
0.42579993605613708 0.21249470114707947 0.20878620445728302
0.52811795473098755 0.23296129703521729 0.23312313854694366
0.62672275304794312 0.25375193357467651 0.25806322693824768
0.71418780088424683 0.27886685729026794 0.28623047471046448
0.78950762748718262 0.30394884943962097 0.31120765209197998
0.85029035806655884 0.32478627562522888 0.34031936526298523
0.88908135890960693 0.33915936946868896 0.36577871441841125
0.92527979612350464 0.3607381284236908 0.40869322419166565
0.028003422543406487 0.21611016988754272 0.14053846895694733
0.076159082353115082 0.22228690981864929 0.14174792170524597
0.14649820327758789 0.2314695417881012 0.14846581220626831
0.22772844135761261 0.24813242256641388 0.16027304530143738
0.32358002662658691 0.25839868187904358 0.17937637865543365
0.42718496918678284 0.2687990665435791 0.19819082319736481
0.52807712554931641 0.2860226035118103 0.223711296916008
0.62838125228881836 0.30411377549171448 0.24795049428939819
0.71462488174438477 0.32816892862319946 0.27410227060317993
0.79008370637893677 0.3500179648399353 0.29870647192001343
0.85660797357559204 0.37134581804275513 0.3329254686832428
0.91309887170791626 0.39133313298225403 0.37528747320175171
0.94096565246582031 0.40308627486228943 0.40458306670188904
0.016898853704333305 0.29788830876350403 0.13115221261978149
0.057923950254917145 0.31208017468452454 0.13247799873352051
0.12580610811710358 0.31924384832382202 0.13873367011547089
0.21663683652877808 0.3265596330165863 0.14845000207424164
0.31527197360992432 0.33643597364425659 0.16596174240112305
