luts/fujixtransiii/fuji_xtrans_iii_acros+r.cube
# Created by: G'MIC (https://gmic.eu)
TITLE "fuji_xtrans_iii_acros+r"
# LUT size
LUT_3D_SIZE 13
# Data domain
DOMAIN_MIN 0.0 0.0 0.0
DOMAIN_MAX 1.0 1.0 1.0
# LUT data points
0.016029298305511475 0.016029298305511475 0.016029298305511475
0.042040999978780746 0.042040999978780746 0.042040999978780746
0.086272433400154114 0.086272433400154114 0.086272433400154114
0.14590013027191162 0.14590013027191162 0.14590013027191162
0.22644466161727905 0.22644466161727905 0.22644466161727905
0.31711304187774658 0.31711304187774658 0.31711304187774658
0.39981129765510559 0.39981129765510559 0.39981129765510559
0.50212186574935913 0.50212186574935913 0.50212186574935913
0.5661885142326355 0.5661885142326355 0.5661885142326355
0.61572146415710449 0.61572146415710449 0.61572146415710449
0.6344415545463562 0.6344415545463562 0.6344415545463562
0.6537545919418335 0.6537545919418335 0.6537545919418335
0.6669655442237854 0.6669655442237854 0.6669655442237854
0.02197449654340744 0.02197449654340744 0.02197449654340744
0.049665562808513641 0.049665562808513641 0.049665562808513641
0.097983837127685547 0.097983837127685547 0.097983837127685547
0.15872642397880554 0.15872642397880554 0.15872642397880554
0.242812380194664 0.242812380194664 0.242812380194664
0.32789486646652222 0.32789486646652222 0.32789486646652222
0.41638842225074768 0.41638842225074768 0.41638842225074768
0.50801366567611694 0.50801366567611694 0.50801366567611694
0.57136780023574829 0.57136780023574829 0.57136780023574829
0.62679076194763184 0.62679076194763184 0.62679076194763184
0.64876055717468262 0.64876055717468262 0.64876055717468262
0.6638796329498291 0.6638796329498291 0.6638796329498291
0.6942899227142334 0.6942899227142334 0.6942899227142334
0.034357797354459763 0.034357797354459763 0.034357797354459763
0.065046049654483795 0.065046049654483795 0.065046049654483795
0.11145228892564774 0.11145228892564774 0.11145228892564774
0.1788131445646286 0.1788131445646286 0.1788131445646286
0.26105353236198425 0.26105353236198425 0.26105353236198425
0.3449840247631073 0.3449840247631073 0.3449840247631073
0.43325203657150269 0.43325203657150269 0.43325203657150269
0.51924270391464233 0.51924270391464233 0.51924270391464233
0.58673101663589478 0.58673101663589478 0.58673101663589478
0.63681137561798096 0.63681137561798096 0.63681137561798096
0.66578203439712524 0.66578203439712524 0.66578203439712524
0.69367504119873047 0.69367504119873047 0.69367504119873047
0.71402424573898315 0.71402424573898315 0.71402424573898315
0.07690759003162384 0.07690759003162384 0.07690759003162384
0.10500369966030121 0.10500369966030121 0.10500369966030121
0.13818308711051941 0.13818308711051941 0.13818308711051941
0.20694057643413544 0.20694057643413544 0.20694057643413544
0.28637030720710754 0.28637030720710754 0.28637030720710754
0.36661571264266968 0.36661571264266968 0.36661571264266968
0.44979459047317505 0.44979459047317505 0.44979459047317505
0.53132057189941406 0.53132057189941406 0.53132057189941406
0.60273206233978271 0.60273206233978271 0.60273206233978271
0.65839475393295288 0.65839475393295288 0.65839475393295288
0.70444941520690918 0.70444941520690918 0.70444941520690918
0.71659177541732788 0.71659177541732788 0.71659177541732788
0.72305881977081299 0.72305881977081299 0.72305881977081299
0.12636309862136841 0.12636309862136841 0.12636309862136841
0.16274622082710266 0.16274622082710266 0.16274622082710266
0.19556255638599396 0.19556255638599396 0.19556255638599396
0.25947532057762146 0.25947532057762146 0.25947532057762146
0.33534270524978638 0.33534270524978638 0.33534270524978638
0.40383484959602356 0.40383484959602356 0.40383484959602356
0.47450792789459229 0.47450792789459229 0.47450792789459229
0.55134350061416626 0.55134350061416626 0.55134350061416626
0.61817449331283569 0.61817449331283569 0.61817449331283569
0.66877132654190063 0.66877132654190063 0.66877132654190063
0.70919317007064819 0.70919317007064819 0.70919317007064819
0.71964019536972046 0.71964019536972046 0.71964019536972046
0.73729181289672852 0.73729181289672852 0.73729181289672852
0.18093673884868622 0.18093673884868622 0.18093673884868622
0.22301031649112701 0.22301031649112701 0.22301031649112701
0.25239160656929016 0.25239160656929016 0.25239160656929016
0.30410581827163696 0.30410581827163696 0.30410581827163696
0.37925302982330322 0.37925302982330322 0.37925302982330322
0.44376921653747559 0.44376921653747559 0.44376921653747559
0.50873357057571411 0.50873357057571411 0.50873357057571411
0.57854628562927246 0.57854628562927246 0.57854628562927246
0.63925522565841675 0.63925522565841675 0.63925522565841675
0.67876523733139038 0.67876523733139038 0.67876523733139038
0.70855236053466797 0.70855236053466797 0.70855236053466797
0.73386406898498535 0.73386406898498535 0.73386406898498535
0.77430230379104614 0.77430230379104614 0.77430230379104614
0.22682584822177887 0.22682584822177887 0.22682584822177887
0.25904360413551331 0.25904360413551331 0.25904360413551331
0.29681557416915894 0.29681557416915894 0.29681557416915894
0.34366500377655029 0.34366500377655029 0.34366500377655029
0.41910585761070251 0.41910585761070251 0.41910585761070251
0.47487223148345947 0.47487223148345947 0.47487223148345947
0.5456884503364563 0.5456884503364563 0.5456884503364563
0.60679531097412109 0.60679531097412109 0.60679531097412109
0.66444116830825806 0.66444116830825806 0.66444116830825806
0.70115739107131958 0.70115739107131958 0.70115739107131958
0.73406320810317993 0.73406320810317993 0.73406320810317993
0.7516714334487915 0.7516714334487915 0.7516714334487915
0.78942537307739258 0.78942537307739258 0.78942537307739258
0.25612485408782959 0.25612485408782959 0.25612485408782959
0.2880825400352478 0.2880825400352478 0.2880825400352478
0.33639562129974365 0.33639562129974365 0.33639562129974365
0.3749854564666748 0.3749854564666748 0.3749854564666748
0.45025989413261414 0.45025989413261414 0.45025989413261414
0.48683124780654907 0.48683124780654907 0.48683124780654907
0.57707798480987549 0.57707798480987549 0.57707798480987549
0.62932282686233521 0.62932282686233521 0.62932282686233521
0.68968689441680908 0.68968689441680908 0.68968689441680908
0.73415213823318481 0.73415213823318481 0.73415213823318481
0.75665682554244995 0.75665682554244995 0.75665682554244995
0.77630853652954102 0.77630853652954102 0.77630853652954102
0.80935454368591309 0.80935454368591309 0.80935454368591309
0.28967878222465515 0.28967878222465515 0.28967878222465515
0.31019753217697144 0.31019753217697144 0.31019753217697144
0.36348986625671387 0.36348986625671387 0.36348986625671387
0.38267919421195984 0.38267919421195984 0.38267919421195984
0.45612853765487671 0.45612853765487671 0.45612853765487671
0.51362305879592896 0.51362305879592896 0.51362305879592896
0.60367494821548462 0.60367494821548462 0.60367494821548462
0.64921331405639648 0.64921331405639648 0.64921331405639648
0.70974093675613403 0.70974093675613403 0.70974093675613403
0.74940115213394165 0.74940115213394165 0.74940115213394165
0.77269834280014038 0.77269834280014038 0.77269834280014038
0.79608505964279175 0.79608505964279175 0.79608505964279175
0.82746142148971558 0.82746142148971558 0.82746142148971558
0.31407719850540161 0.31407719850540161 0.31407719850540161
0.31215295195579529 0.31215295195579529 0.31215295195579529
0.35989335179328918 0.35989335179328918 0.35989335179328918
0.41165044903755188 0.41165044903755188 0.41165044903755188
0.48147538304328918 0.48147538304328918 0.48147538304328918
0.53936672210693359 0.53936672210693359 0.53936672210693359
0.60535269975662231 0.60535269975662231 0.60535269975662231
0.65072351694107056 0.65072351694107056 0.65072351694107056
0.69591045379638672 0.69591045379638672 0.69591045379638672
0.74675410985946655 0.74675410985946655 0.74675410985946655
0.79035097360610962 0.79035097360610962 0.79035097360610962
0.82825553417205811 0.82825553417205811 0.82825553417205811
0.85315144062042236 0.85315144062042236 0.85315144062042236
0.32388529181480408 0.32388529181480408 0.32388529181480408
0.32493788003921509 0.32493788003921509 0.32493788003921509
0.42934706807136536 0.42934706807136536 0.42934706807136536
0.4722822904586792 0.4722822904586792 0.4722822904586792
0.52045762538909912 0.52045762538909912 0.52045762538909912
0.56313025951385498 0.56313025951385498 0.56313025951385498
0.63107180595397949 0.63107180595397949 0.63107180595397949
0.66321545839309692 0.66321545839309692 0.66321545839309692
0.70096027851104736 0.70096027851104736 0.70096027851104736
0.75991863012313843 0.75991863012313843 0.75991863012313843
0.81622165441513062 0.81622165441513062 0.81622165441513062
0.85171777009963989 0.85171777009963989 0.85171777009963989
0.86165136098861694 0.86165136098861694 0.86165136098861694
0.35652104020118713 0.35652104020118713 0.35652104020118713
0.35157215595245361 0.35157215595245361 0.35157215595245361
0.44999760389328003 0.44999760389328003 0.44999760389328003
0.4885144829750061 0.4885144829750061 0.4885144829750061
0.53664851188659668 0.53664851188659668 0.53664851188659668
0.58540374040603638 0.58540374040603638 0.58540374040603638
0.65449029207229614 0.65449029207229614 0.65449029207229614
0.67791730165481567 0.67791730165481567 0.67791730165481567
0.72791963815689087 0.72791963815689087 0.72791963815689087
0.77545082569122314 0.77545082569122314 0.77545082569122314
0.81642895936965942 0.81642895936965942 0.81642895936965942
0.85554319620132446 0.85554319620132446 0.85554319620132446
0.86653172969818115 0.86653172969818115 0.86653172969818115
0.36002042889595032 0.36002042889595032 0.36002042889595032
0.35528331995010376 0.35528331995010376 0.35528331995010376
0.4517771303653717 0.4517771303653717 0.4517771303653717
0.48908105492591858 0.48908105492591858 0.48908105492591858
0.54001730680465698 0.54001730680465698 0.54001730680465698
0.58806204795837402 0.58806204795837402 0.58806204795837402
0.65909779071807861 0.65909779071807861 0.65909779071807861
0.68455177545547485 0.68455177545547485 0.68455177545547485
0.74897116422653198 0.74897116422653198 0.74897116422653198
0.80616289377212524 0.80616289377212524 0.80616289377212524
0.84283280372619629 0.84283280372619629 0.84283280372619629
0.86585277318954468 0.86585277318954468 0.86585277318954468
0.87849730253219604 0.87849730253219604 0.87849730253219604
0.017715364694595337 0.017715364694595337 0.017715364694595337
0.033231653273105621 0.033231653273105621 0.033231653273105621
0.084855265915393829 0.084855265915393829 0.084855265915393829
0.15162889659404755 0.15162889659404755 0.15162889659404755
0.20526893436908722 0.20526893436908722 0.20526893436908722
0.30780190229415894 0.30780190229415894 0.30780190229415894
0.41822025179862976 0.41822025179862976 0.41822025179862976
0.50990104675292969 0.50990104675292969 0.50990104675292969
0.59257078170776367 0.59257078170776367 0.59257078170776367
0.63909721374511719 0.63909721374511719 0.63909721374511719
0.6577257513999939 0.6577257513999939 0.6577257513999939
0.67170214653015137 0.67170214653015137 0.67170214653015137
0.71441054344177246 0.71441054344177246 0.71441054344177246
0.027409197762608528 0.027409197762608528 0.027409197762608528
0.052553154528141022 0.052553154528141022 0.052553154528141022
0.10096763074398041 0.10096763074398041 0.10096763074398041
0.16307590901851654 0.16307590901851654 0.16307590901851654
0.23422616720199585 0.23422616720199585 0.23422616720199585
0.32802304625511169 0.32802304625511169 0.32802304625511169
0.42244830727577209 0.42244830727577209 0.42244830727577209
0.5079302191734314 0.5079302191734314 0.5079302191734314
0.5786634087562561 0.5786634087562561 0.5786634087562561
0.63237810134887695 0.63237810134887695 0.63237810134887695
0.66302913427352905 0.66302913427352905 0.66302913427352905
0.69841104745864868 0.69841104745864868 0.69841104745864868
0.73549550771713257 0.73549550771713257 0.73549550771713257
0.041994955390691757 0.041994955390691757 0.041994955390691757
0.073284611105918884 0.073284611105918884 0.073284611105918884
0.11727239936590195 0.11727239936590195 0.11727239936590195
0.18406282365322113 0.18406282365322113 0.18406282365322113
0.26324930787086487 0.26324930787086487 0.26324930787086487
0.34871113300323486 0.34871113300323486 0.34871113300323486
0.4362885057926178 0.4362885057926178 0.4362885057926178
0.51960539817810059 0.51960539817810059 0.51960539817810059
0.58918219804763794 0.58918219804763794 0.58918219804763794
0.64571583271026611 0.64571583271026611 0.64571583271026611
0.69478470087051392 0.69478470087051392 0.69478470087051392
0.7190014123916626 0.7190014123916626 0.7190014123916626
0.73767685890197754 0.73767685890197754 0.73767685890197754
0.082845114171504974 0.082845114171504974 0.082845114171504974
0.11121702194213867 0.11121702194213867 0.11121702194213867
0.150334432721138 0.150334432721138 0.150334432721138
0.21521450579166412 0.21521450579166412 0.21521450579166412
0.28775694966316223 0.28775694966316223 0.28775694966316223
0.36710929870605469 0.36710929870605469 0.36710929870605469
0.45258310437202454 0.45258310437202454 0.45258310437202454
0.53302043676376343 0.53302043676376343 0.53302043676376343
0.60448086261749268 0.60448086261749268 0.60448086261749268
0.66289365291595459 0.66289365291595459 0.66289365291595459
0.71380823850631714 0.71380823850631714 0.71380823850631714
0.73094052076339722 0.73094052076339722 0.73094052076339722
0.74776047468185425 0.74776047468185425 0.74776047468185425
0.13419796526432037 0.13419796526432037 0.13419796526432037
0.16260816156864166 0.16260816156864166 0.16260816156864166
0.20232966542243958 0.20232966542243958 0.20232966542243958
0.26185864210128784 0.26185864210128784 0.26185864210128784
0.32780551910400391 0.32780551910400391 0.32780551910400391
0.39764499664306641 0.39764499664306641 0.39764499664306641
0.47515803575515747 0.47515803575515747 0.47515803575515747
0.54981935024261475 0.54981935024261475 0.54981935024261475
0.62114638090133667 0.62114638090133667 0.62114638090133667
0.67825114727020264 0.67825114727020264 0.67825114727020264
0.72148400545120239 0.72148400545120239 0.72148400545120239
0.74084103107452393 0.74084103107452393 0.74084103107452393
0.77244305610656738 0.77244305610656738 0.77244305610656738
0.19427838921546936 0.19427838921546936 0.19427838921546936
0.22396452724933624 0.22396452724933624 0.22396452724933624
0.25912177562713623 0.25912177562713623 0.25912177562713623
0.3079049289226532 0.3079049289226532 0.3079049289226532
0.37083208560943604 0.37083208560943604 0.37083208560943604
0.43794423341751099 0.43794423341751099 0.43794423341751099
0.50610631704330444 0.50610631704330444 0.50610631704330444
0.57195091247558594 0.57195091247558594 0.57195091247558594
0.64109915494918823 0.64109915494918823 0.64109915494918823
0.68752968311309814 0.68752968311309814 0.68752968311309814
0.7323945164680481 0.7323945164680481 0.7323945164680481
0.77252060174942017 0.77252060174942017 0.77252060174942017
0.79317402839660645 0.79317402839660645 0.79317402839660645
0.23720616102218628 0.23720616102218628 0.23720616102218628
0.27162683010101318 0.27162683010101318 0.27162683010101318
0.31183549761772156 0.31183549761772156 0.31183549761772156
0.35163706541061401 0.35163706541061401 0.35163706541061401
0.41782858967781067 0.41782858967781067 0.41782858967781067
0.47292658686637878 0.47292658686637878 0.47292658686637878
0.54207515716552734 0.54207515716552734 0.54207515716552734
0.60467368364334106 0.60467368364334106 0.60467368364334106
0.6653481125831604 0.6653481125831604 0.6653481125831604
0.70881909132003784 0.70881909132003784 0.70881909132003784
0.75231146812438965 0.75231146812438965 0.75231146812438965
0.78252804279327393 0.78252804279327393 0.78252804279327393
0.80738484859466553 0.80738484859466553 0.80738484859466553
0.30382898449897766 0.30382898449897766 0.30382898449897766
0.32581064105033875 0.32581064105033875 0.32581064105033875
0.35846146941184998 0.35846146941184998 0.35846146941184998
0.38942423462867737 0.38942423462867737 0.38942423462867737
0.45237541198730469 0.45237541198730469 0.45237541198730469
0.50213974714279175 0.50213974714279175 0.50213974714279175
0.57698780298233032 0.57698780298233032 0.57698780298233032
0.63541185855865479 0.63541185855865479 0.63541185855865479
0.68815147876739502 0.68815147876739502 0.68815147876739502
0.73382759094238281 0.73382759094238281 0.73382759094238281
0.77811622619628906 0.77811622619628906 0.77811622619628906
0.8154032826423645 0.8154032826423645 0.8154032826423645
0.83543145656585693 0.83543145656585693 0.83543145656585693
0.34704655408859253 0.34704655408859253 0.34704655408859253
0.36712747812271118 0.36712747812271118 0.36712747812271118
0.38962861895561218 0.38962861895561218 0.38962861895561218
0.4139588475227356 0.4139588475227356 0.4139588475227356
0.4739222526550293 0.4739222526550293 0.4739222526550293
0.53186696767807007 0.53186696767807007 0.53186696767807007
0.60473161935806274 0.60473161935806274 0.60473161935806274
0.66155970096588135 0.66155970096588135 0.66155970096588135
0.7095876932144165 0.7095876932144165 0.7095876932144165
0.75609457492828369 0.75609457492828369 0.75609457492828369
0.80306327342987061 0.80306327342987061 0.80306327342987061
0.83784031867980957 0.83784031867980957 0.83784031867980957
0.8620222806930542 0.8620222806930542 0.8620222806930542
0.35564598441123962 0.35564598441123962 0.35564598441123962
0.37044024467468262 0.37044024467468262 0.37044024467468262
0.42545896768569946 0.42545896768569946 0.42545896768569946
0.45638075470924377 0.45638075470924377 0.45638075470924377
0.51732528209686279 0.51732528209686279 0.51732528209686279
0.56123930215835571 0.56123930215835571 0.56123930215835571
0.63279980421066284 0.63279980421066284 0.63279980421066284
0.67850470542907715 0.67850470542907715 0.67850470542907715
0.72150725126266479 0.72150725126266479 0.72150725126266479
0.76974916458129883 0.76974916458129883 0.76974916458129883
0.82150876522064209 0.82150876522064209 0.82150876522064209
0.85500156879425049 0.85500156879425049 0.85500156879425049
0.86455589532852173 0.86455589532852173 0.86455589532852173
0.36085271835327148 0.36085271835327148 0.36085271835327148
0.37791350483894348 0.37791350483894348 0.37791350483894348
0.4536094069480896 0.4536094069480896 0.4536094069480896
0.48687374591827393 0.48687374591827393 0.48687374591827393
0.53755879402160645 0.53755879402160645 0.53755879402160645
0.58453941345214844 0.58453941345214844 0.58453941345214844
0.65551638603210449 0.65551638603210449 0.65551638603210449
0.68766450881958008 0.68766450881958008 0.68766450881958008
0.7305912971496582 0.7305912971496582 0.7305912971496582
0.78653120994567871 0.78653120994567871 0.78653120994567871
0.83778148889541626 0.83778148889541626 0.83778148889541626
0.85683536529541016 0.85683536529541016 0.85683536529541016
0.86725080013275146 0.86725080013275146 0.86725080013275146
0.3670145571231842 0.3670145571231842 0.3670145571231842
0.37994948029518127 0.37994948029518127 0.37994948029518127
0.4600832462310791 0.4600832462310791 0.4600832462310791
0.5003131628036499 0.5003131628036499 0.5003131628036499
0.54368937015533447 0.54368937015533447 0.54368937015533447
0.58817601203918457 0.58817601203918457 0.58817601203918457
0.65980154275894165 0.65980154275894165 0.65980154275894165
0.68713974952697754 0.68713974952697754 0.68713974952697754
0.74743103981018066 0.74743103981018066 0.74743103981018066
0.80385160446166992 0.80385160446166992 0.80385160446166992
0.83976590633392334 0.83976590633392334 0.83976590633392334
0.86496609449386597 0.86496609449386597 0.86496609449386597
0.87671369314193726 0.87671369314193726 0.87671369314193726
0.37192311882972717 0.37192311882972717 0.37192311882972717
0.38623270392417908 0.38623270392417908 0.38623270392417908
0.48108145594596863 0.48108145594596863 0.48108145594596863
0.51749062538146973 0.51749062538146973 0.51749062538146973
0.55681908130645752 0.55681908130645752 0.55681908130645752
0.59581673145294189 0.59581673145294189 0.59581673145294189
0.66122299432754517 0.66122299432754517 0.66122299432754517
0.68512529134750366 0.68512529134750366 0.68512529134750366
0.74391436576843262 0.74391436576843262 0.74391436576843262
0.8059852123260498 0.8059852123260498 0.8059852123260498
0.85004138946533203 0.85004138946533203 0.85004138946533203
0.88806009292602539 0.88806009292602539 0.88806009292602539
0.89902156591415405 0.89902156591415405 0.89902156591415405
0.0161412563174963 0.0161412563174963 0.0161412563174963
0.041253723204135895 0.041253723204135895 0.041253723204135895
0.098401762545108795 0.098401762545108795 0.098401762545108795
0.17743414640426636 0.17743414640426636 0.17743414640426636
0.23550340533256531 0.23550340533256531 0.23550340533256531
0.32903310656547546 0.32903310656547546 0.32903310656547546
0.43215945363044739 0.43215945363044739 0.43215945363044739
0.51933068037033081 0.51933068037033081 0.51933068037033081
0.59786772727966309 0.59786772727966309 0.59786772727966309
0.64691692590713501 0.64691692590713501 0.64691692590713501
0.67075866460800171 0.67075866460800171 0.67075866460800171
0.7090073823928833 0.7090073823928833 0.7090073823928833
0.76177895069122314 0.76177895069122314 0.76177895069122314
0.032629501074552536 0.032629501074552536 0.032629501074552536
0.060566592961549759 0.060566592961549759 0.060566592961549759
0.10502563416957855 0.10502563416957855 0.10502563416957855
0.17154474556446075 0.17154474556446075 0.17154474556446075
0.25374975800514221 0.25374975800514221 0.25374975800514221
0.34239327907562256 0.34239327907562256 0.34239327907562256
0.43394845724105835 0.43394845724105835 0.43394845724105835
0.51881033182144165 0.51881033182144165 0.51881033182144165
0.58685398101806641 0.58685398101806641 0.58685398101806641
0.64790529012680054 0.64790529012680054 0.64790529012680054
0.69593006372451782 0.69593006372451782 0.69593006372451782
0.72954875230789185 0.72954875230789185 0.72954875230789185
0.76361453533172607 0.76361453533172607 0.76361453533172607
0.052056584507226944 0.052056584507226944 0.052056584507226944
0.079377464950084686 0.079377464950084686 0.079377464950084686
0.12122651934623718 0.12122651934623718 0.12122651934623718
0.18908458948135376 0.18908458948135376 0.18908458948135376
0.27044975757598877 0.27044975757598877 0.27044975757598877
0.35899853706359863 0.35899853706359863 0.35899853706359863
0.44217470288276672 0.44217470288276672 0.44217470288276672
0.52248078584671021 0.52248078584671021 0.52248078584671021
0.5931212306022644 0.5931212306022644 0.5931212306022644
0.65798366069793701 0.65798366069793701 0.65798366069793701
0.71101057529449463 0.71101057529449463 0.71101057529449463
0.74097615480422974 0.74097615480422974 0.74097615480422974
0.77427548170089722 0.77427548170089722 0.77427548170089722
0.093930520117282867 0.093930520117282867 0.093930520117282867
0.12094506621360779 0.12094506621360779 0.12094506621360779
0.15783704817295074 0.15783704817295074 0.15783704817295074
0.22429952025413513 0.22429952025413513 0.22429952025413513
0.30033320188522339 0.30033320188522339 0.30033320188522339
0.37951233983039856 0.37951233983039856 0.37951233983039856
0.46064206957817078 0.46064206957817078 0.46064206957817078
0.53688925504684448 0.53688925504684448 0.53688925504684448
0.60837256908416748 0.60837256908416748 0.60837256908416748
0.67370116710662842 0.67370116710662842 0.67370116710662842
0.73185139894485474 0.73185139894485474 0.73185139894485474
0.77448588609695435 0.77448588609695435 0.77448588609695435
0.79785960912704468 0.79785960912704468 0.79785960912704468
0.14147067070007324 0.14147067070007324 0.14147067070007324
0.17097078263759613 0.17097078263759613 0.17097078263759613
0.20681482553482056 0.20681482553482056 0.20681482553482056
0.26655867695808411 0.26655867695808411 0.26655867695808411
0.33695933222770691 0.33695933222770691 0.33695933222770691
0.40919229388237 0.40919229388237 0.40919229388237
0.48410147428512573 0.48410147428512573 0.48410147428512573
0.55569624900817871 0.55569624900817871 0.55569624900817871
