luts/fujixtransiii/fuji_xtrans_iii_acros+g.cube
# Created by: G'MIC (https://gmic.eu)
TITLE "fuji_xtrans_iii_acros+g"
# LUT size
LUT_3D_SIZE 7
# Data domain
DOMAIN_MIN 0.0 0.0 0.0
DOMAIN_MAX 1.0 1.0 1.0
# LUT data points
0.017873277887701988 0.017873277887701988 0.017873277887701988
0.034711815416812897 0.034711815416812897 0.034711815416812897
0.091286331415176392 0.091286331415176392 0.091286331415176392
0.1736065149307251 0.1736065149307251 0.1736065149307251
0.26090627908706665 0.26090627908706665 0.26090627908706665
0.29914575815200806 0.29914575815200806 0.29914575815200806
0.33152896165847778 0.33152896165847778 0.33152896165847778
0.063441842794418335 0.063441842794418335 0.063441842794418335
0.085885994136333466 0.085885994136333466 0.085885994136333466
0.14764638245105743 0.14764638245105743 0.14764638245105743
0.22084143757820129 0.22084143757820129 0.22084143757820129
0.28979533910751343 0.28979533910751343 0.28979533910751343
0.34108224511146545 0.34108224511146545 0.34108224511146545
0.39381635189056396 0.39381635189056396 0.39381635189056396
0.1905524730682373 0.1905524730682373 0.1905524730682373
0.21939744055271149 0.21939744055271149 0.21939744055271149
0.27398231625556946 0.27398231625556946 0.27398231625556946
0.32191735506057739 0.32191735506057739 0.32191735506057739
0.3787786066532135 0.3787786066532135 0.3787786066532135
0.4300178587436676 0.4300178587436676 0.4300178587436676
0.43941405415534973 0.43941405415534973 0.43941405415534973
0.31436079740524292 0.31436079740524292 0.31436079740524292
0.35901394486427307 0.35901394486427307 0.35901394486427307
0.42571830749511719 0.42571830749511719 0.42571830749511719
0.46724259853363037 0.46724259853363037 0.46724259853363037
0.50444227457046509 0.50444227457046509 0.50444227457046509
0.53626662492752075 0.53626662492752075 0.53626662492752075
0.57095444202423096 0.57095444202423096 0.57095444202423096
0.38717842102050781 0.38717842102050781 0.38717842102050781
0.46501511335372925 0.46501511335372925 0.46501511335372925
0.48993188142776489 0.48993188142776489 0.48993188142776489
0.58468323945999146 0.58468323945999146 0.58468323945999146
0.60067802667617798 0.60067802667617798 0.60067802667617798
0.61427336931228638 0.61427336931228638 0.61427336931228638
0.65958786010742188 0.65958786010742188 0.65958786010742188
0.41505494713783264 0.41505494713783264 0.41505494713783264
0.53720837831497192 0.53720837831497192 0.53720837831497192
0.58549755811691284 0.58549755811691284 0.58549755811691284
0.61738783121109009 0.61738783121109009 0.61738783121109009
0.63242292404174805 0.63242292404174805 0.63242292404174805
0.66252672672271729 0.66252672672271729 0.66252672672271729
0.69083338975906372 0.69083338975906372 0.69083338975906372
0.4566957950592041 0.4566957950592041 0.4566957950592041
0.56947648525238037 0.56947648525238037 0.56947648525238037
0.61571967601776123 0.61571967601776123 0.61571967601776123
0.6598585844039917 0.6598585844039917 0.6598585844039917
0.7028968334197998 0.7028968334197998 0.7028968334197998
0.74434798955917358 0.74434798955917358 0.74434798955917358
0.74494540691375732 0.74494540691375732 0.74494540691375732
0.043450988829135895 0.043450988829135895 0.043450988829135895
0.076174326241016388 0.076174326241016388 0.076174326241016388
0.12516048550605774 0.12516048550605774 0.12516048550605774
0.21940647065639496 0.21940647065639496 0.21940647065639496
0.29401206970214844 0.29401206970214844 0.29401206970214844
0.3251318633556366 0.3251318633556366 0.3251318633556366
0.39604741334915161 0.39604741334915161 0.39604741334915161
0.11030376702547073 0.11030376702547073 0.11030376702547073
0.12247996777296066 0.12247996777296066 0.12247996777296066
0.1757531613111496 0.1757531613111496 0.1757531613111496
0.24608641862869263 0.24608641862869263 0.24608641862869263
0.31696081161499023 0.31696081161499023 0.31696081161499023
0.38140326738357544 0.38140326738357544 0.38140326738357544
0.41741454601287842 0.41741454601287842 0.41741454601287842
0.22552883625030518 0.22552883625030518 0.22552883625030518
0.24920341372489929 0.24920341372489929 0.24920341372489929
0.29820013046264648 0.29820013046264648 0.29820013046264648
0.35570240020751953 0.35570240020751953 0.35570240020751953
0.41196444630622864 0.41196444630622864 0.41196444630622864
0.46706169843673706 0.46706169843673706 0.46706169843673706
0.49418291449546814 0.49418291449546814 0.49418291449546814
0.37764310836791992 0.37764310836791992 0.37764310836791992
0.41326752305030823 0.41326752305030823 0.41326752305030823
0.4430709183216095 0.4430709183216095 0.4430709183216095
0.49775239825248718 0.49775239825248718 0.49775239825248718
0.53533899784088135 0.53533899784088135 0.53533899784088135
0.56263858079910278 0.56263858079910278 0.56263858079910278
0.5815240740776062 0.5815240740776062 0.5815240740776062
0.46327310800552368 0.46327310800552368 0.46327310800552368
0.52047979831695557 0.52047979831695557 0.52047979831695557
0.56798142194747925 0.56798142194747925 0.56798142194747925
0.61011314392089844 0.61011314392089844 0.61011314392089844
0.63741672039031982 0.63741672039031982 0.63741672039031982
0.67109590768814087 0.67109590768814087 0.67109590768814087
0.69791162014007568 0.69791162014007568 0.69791162014007568
0.50132191181182861 0.50132191181182861 0.50132191181182861
0.5926629900932312 0.5926629900932312 0.5926629900932312
0.63815736770629883 0.63815736770629883 0.63815736770629883
0.67002266645431519 0.67002266645431519 0.67002266645431519
0.70489263534545898 0.70489263534545898 0.70489263534545898
0.74656850099563599 0.74656850099563599 0.74656850099563599
0.73782408237457275 0.73782408237457275 0.73782408237457275
0.5345337986946106 0.5345337986946106 0.5345337986946106
0.62812477350234985 0.62812477350234985 0.62812477350234985
0.66841953992843628 0.66841953992843628 0.66841953992843628
0.6869233250617981 0.6869233250617981 0.6869233250617981
0.72076201438903809 0.72076201438903809 0.72076201438903809
0.7664991021156311 0.7664991021156311 0.7664991021156311
0.80842334032058716 0.80842334032058716 0.80842334032058716
0.12496032565832138 0.12496032565832138 0.12496032565832138
0.16679538786411285 0.16679538786411285 0.16679538786411285
0.21536917984485626 0.21536917984485626 0.21536917984485626
0.28361913561820984 0.28361913561820984 0.28361913561820984
0.32794302701950073 0.32794302701950073 0.32794302701950073
0.39296802878379822 0.39296802878379822 0.39296802878379822
0.43145415186882019 0.43145415186882019 0.43145415186882019
0.17516365647315979 0.17516365647315979 0.17516365647315979
0.20006401836872101 0.20006401836872101 0.20006401836872101
0.25198626518249512 0.25198626518249512 0.25198626518249512
0.30875599384307861 0.30875599384307861 0.30875599384307861
0.36398941278457642 0.36398941278457642 0.36398941278457642
0.41817837953567505 0.41817837953567505 0.41817837953567505
0.46675559878349304 0.46675559878349304 0.46675559878349304
0.29226106405258179 0.29226106405258179 0.29226106405258179
0.31271091103553772 0.31271091103553772 0.31271091103553772
0.36110374331474304 0.36110374331474304 0.36110374331474304
0.41305184364318848 0.41305184364318848 0.41305184364318848
0.45340049266815186 0.45340049266815186 0.45340049266815186
0.48421752452850342 0.48421752452850342 0.48421752452850342
0.50877642631530762 0.50877642631530762 0.50877642631530762
0.43748709559440613 0.43748709559440613 0.43748709559440613
0.44941386580467224 0.44941386580467224 0.44941386580467224
0.49083751440048218 0.49083751440048218 0.49083751440048218
0.53431254625320435 0.53431254625320435 0.53431254625320435
0.56781160831451416 0.56781160831451416 0.56781160831451416
0.58871078491210938 0.58871078491210938 0.58871078491210938
0.61163812875747681 0.61163812875747681 0.61163812875747681
0.52141344547271729 0.52141344547271729 0.52141344547271729
0.57640129327774048 0.57640129327774048 0.57640129327774048
0.6055418848991394 0.6055418848991394 0.6055418848991394
0.64162260293960571 0.64162260293960571 0.64162260293960571
0.67564231157302856 0.67564231157302856 0.67564231157302856
0.69906574487686157 0.69906574487686157 0.69906574487686157
0.72013825178146362 0.72013825178146362 0.72013825178146362
0.62825953960418701 0.62825953960418701 0.62825953960418701
0.65009826421737671 0.65009826421737671 0.65009826421737671
0.67540079355239868 0.67540079355239868 0.67540079355239868
0.71343594789505005 0.71343594789505005 0.71343594789505005
0.76065343618392944 0.76065343618392944 0.76065343618392944
0.77316582202911377 0.77316582202911377 0.77316582202911377
0.80317801237106323 0.80317801237106323 0.80317801237106323
0.64651167392730713 0.64651167392730713 0.64651167392730713
0.65692818164825439 0.65692818164825439 0.65692818164825439
0.71266627311706543 0.71266627311706543 0.71266627311706543
0.75167649984359741 0.75167649984359741 0.75167649984359741
0.77526843547821045 0.77526843547821045 0.77526843547821045
0.8190910816192627 0.8190910816192627 0.8190910816192627
0.83799070119857788 0.83799070119857788 0.83799070119857788
0.21887542307376862 0.21887542307376862 0.21887542307376862
0.25863167643547058 0.25863167643547058 0.25863167643547058
0.30621704459190369 0.30621704459190369 0.30621704459190369
0.35632783174514771 0.35632783174514771 0.35632783174514771
0.42178997397422791 0.42178997397422791 0.42178997397422791
0.46610742807388306 0.46610742807388306 0.46610742807388306
0.48360899090766907 0.48360899090766907 0.48360899090766907
0.26470556855201721 0.26470556855201721 0.26470556855201721
0.30028778314590454 0.30028778314590454 0.30028778314590454
0.34846547245979309 0.34846547245979309 0.34846547245979309
0.39522460103034973 0.39522460103034973 0.39522460103034973
0.43615007400512695 0.43615007400512695 0.43615007400512695
0.48139470815658569 0.48139470815658569 0.48139470815658569
0.50501686334609985 0.50501686334609985 0.50501686334609985
0.36604368686676025 0.36604368686676025 0.36604368686676025
0.40062770247459412 0.40062770247459412 0.40062770247459412
0.44285553693771362 0.44285553693771362 0.44285553693771362
0.47997260093688965 0.47997260093688965 0.47997260093688965
0.5147823691368103 0.5147823691368103 0.5147823691368103
0.54527366161346436 0.54527366161346436 0.54527366161346436
0.56903266906738281 0.56903266906738281 0.56903266906738281
0.49549984931945801 0.49549984931945801 0.49549984931945801
0.50136351585388184 0.50136351585388184 0.50136351585388184
0.5398445725440979 0.5398445725440979 0.5398445725440979
0.58460122346878052 0.58460122346878052 0.58460122346878052
0.61992353200912476 0.61992353200912476 0.61992353200912476
0.64234632253646851 0.64234632253646851 0.64234632253646851
0.66106605529785156 0.66106605529785156 0.66106605529785156
0.61070913076400757 0.61070913076400757 0.61070913076400757
0.61868953704833984 0.61868953704833984 0.61868953704833984
0.64261376857757568 0.64261376857757568 0.64261376857757568
0.67727971076965332 0.67727971076965332 0.67727971076965332
0.71505218744277954 0.71505218744277954 0.71505218744277954
0.74423503875732422 0.74423503875732422 0.74423503875732422
0.7674485445022583 0.7674485445022583 0.7674485445022583
0.68281018733978271 0.68281018733978271 0.68281018733978271
0.69851672649383545 0.69851672649383545 0.69851672649383545
0.72380256652832031 0.72380256652832031 0.72380256652832031
0.75422495603561401 0.75422495603561401 0.75422495603561401
0.79127597808837891 0.79127597808837891 0.79127597808837891
0.82915318012237549 0.82915318012237549 0.82915318012237549
0.86356377601623535 0.86356377601623535 0.86356377601623535
0.69883269071578979 0.69883269071578979 0.69883269071578979
0.71515941619873047 0.71515941619873047 0.71515941619873047
0.73502653837203979 0.73502653837203979 0.73502653837203979
0.76866674423217773 0.76866674423217773 0.76866674423217773
0.80363649129867554 0.80363649129867554 0.80363649129867554
0.87168437242507935 0.87168437242507935 0.87168437242507935
0.89610689878463745 0.89610689878463745 0.89610689878463745
0.2980840802192688 0.2980840802192688 0.2980840802192688
0.33624854683876038 0.33624854683876038 0.33624854683876038
0.38348329067230225 0.38348329067230225 0.38348329067230225
0.43778848648071289 0.43778848648071289 0.43778848648071289
0.49868413805961609 0.49868413805961609 0.49868413805961609
0.55971622467041016 0.55971622467041016 0.55971622467041016
0.60241466760635376 0.60241466760635376 0.60241466760635376
0.3605380654335022 0.3605380654335022 0.3605380654335022
0.40194159746170044 0.40194159746170044 0.40194159746170044
0.44284924864768982 0.44284924864768982 0.44284924864768982
0.48299860954284668 0.48299860954284668 0.48299860954284668
0.5256962776184082 0.5256962776184082 0.5256962776184082
0.57127350568771362 0.57127350568771362 0.57127350568771362
0.60032379627227783 0.60032379627227783 0.60032379627227783
0.4527193009853363 0.4527193009853363 0.4527193009853363
0.48335930705070496 0.48335930705070496 0.48335930705070496
0.51691830158233643 0.51691830158233643 0.51691830158233643
0.54891091585159302 0.54891091585159302 0.54891091585159302
0.58251696825027466 0.58251696825027466 0.58251696825027466
0.62287187576293945 0.62287187576293945 0.62287187576293945
0.65887618064880371 0.65887618064880371 0.65887618064880371
0.56245732307434082 0.56245732307434082 0.56245732307434082
0.57070267200469971 0.57070267200469971 0.57070267200469971
0.60027331113815308 0.60027331113815308 0.60027331113815308
0.633098304271698 0.633098304271698 0.633098304271698
0.66859972476959229 0.66859972476959229 0.66859972476959229
0.6968352198600769 0.6968352198600769 0.6968352198600769
0.72398287057876587 0.72398287057876587 0.72398287057876587
0.65769881010055542 0.65769881010055542 0.65769881010055542
0.66791987419128418 0.66791987419128418 0.66791987419128418
0.68536430597305298 0.68536430597305298 0.68536430597305298
0.71961879730224609 0.71961879730224609 0.71961879730224609
0.75389021635055542 0.75389021635055542 0.75389021635055542
0.78773927688598633 0.78773927688598633 0.78773927688598633
0.8150220513343811 0.8150220513343811 0.8150220513343811
0.746440589427948 0.746440589427948 0.746440589427948
0.73802608251571655 0.73802608251571655 0.73802608251571655
0.7519068717956543 0.7519068717956543 0.7519068717956543
0.79687261581420898 0.79687261581420898 0.79687261581420898
0.82728803157806396 0.82728803157806396 0.82728803157806396
0.86316865682601929 0.86316865682601929 0.86316865682601929
0.90291744470596313 0.90291744470596313 0.90291744470596313
0.7531355619430542 0.7531355619430542 0.7531355619430542
0.79084372520446777 0.79084372520446777 0.79084372520446777
0.8067326545715332 0.8067326545715332 0.8067326545715332
0.84464240074157715 0.84464240074157715 0.84464240074157715
0.86998069286346436 0.86998069286346436 0.86998069286346436
0.90183347463607788 0.90183347463607788 0.90183347463607788
0.93370324373245239 0.93370324373245239 0.93370324373245239
0.3824218213558197 0.3824218213558197 0.3824218213558197
0.42457589507102966 0.42457589507102966 0.42457589507102966
0.4685077965259552 0.4685077965259552 0.4685077965259552
0.52111977338790894 0.52111977338790894 0.52111977338790894
0.57662039995193481 0.57662039995193481 0.57662039995193481
0.63840752840042114 0.63840752840042114 0.63840752840042114
0.67443388700485229 0.67443388700485229 0.67443388700485229
0.45386332273483276 0.45386332273483276 0.45386332273483276
0.49672377109527588 0.49672377109527588 0.49672377109527588
0.53292369842529297 0.53292369842529297 0.53292369842529297
0.57210636138916016 0.57210636138916016 0.57210636138916016
0.61552989482879639 0.61552989482879639 0.61552989482879639
0.66160374879837036 0.66160374879837036 0.66160374879837036
0.68095433712005615 0.68095433712005615 0.68095433712005615
0.53577709197998047 0.53577709197998047 0.53577709197998047
0.56907111406326294 0.56907111406326294 0.56907111406326294
0.59969300031661987 0.59969300031661987 0.59969300031661987
0.63063979148864746 0.63063979148864746 0.63063979148864746
0.66320568323135376 0.66320568323135376 0.66320568323135376
0.70105493068695068 0.70105493068695068 0.70105493068695068
0.72168684005737305 0.72168684005737305 0.72168684005737305
0.62318885326385498 0.62318885326385498 0.62318885326385498
0.64046239852905273 0.64046239852905273 0.64046239852905273
0.663443922996521 0.663443922996521 0.663443922996521
0.69292837381362915 0.69292837381362915 0.69292837381362915
0.72422546148300171 0.72422546148300171 0.72422546148300171
0.75452101230621338 0.75452101230621338 0.75452101230621338
0.78098022937774658 0.78098022937774658 0.78098022937774658
0.71035885810852051 0.71035885810852051 0.71035885810852051
0.71878957748413086 0.71878957748413086 0.71878957748413086
0.73756283521652222 0.73756283521652222 0.73756283521652222
0.76596105098724365 0.76596105098724365 0.76596105098724365
0.79526668787002563 0.79526668787002563 0.79526668787002563
0.82946157455444336 0.82946157455444336 0.82946157455444336
0.85965627431869507 0.85965627431869507 0.85965627431869507
0.77572119235992432 0.77572119235992432 0.77572119235992432
0.7978934645652771 0.7978934645652771 0.7978934645652771
0.81174641847610474 0.81174641847610474 0.81174641847610474
0.84237241744995117 0.84237241744995117 0.84237241744995117
0.864787757396698 0.864787757396698 0.864787757396698
0.89698004722595215 0.89698004722595215 0.89698004722595215
0.93677419424057007 0.93677419424057007 0.93677419424057007
0.84237200021743774 0.84237200021743774 0.84237200021743774
0.82565683126449585 0.82565683126449585 0.82565683126449585
0.83977311849594116 0.83977311849594116 0.83977311849594116
0.87191593647003174 0.87191593647003174 0.87191593647003174
0.90228140354156494 0.90228140354156494 0.90228140354156494
0.93151217699050903 0.93151217699050903 0.93151217699050903
0.96064656972885132 0.96064656972885132 0.96064656972885132
0.46482986211776733 0.46482986211776733 0.46482986211776733
0.49901020526885986 0.49901020526885986 0.49901020526885986
0.53220266103744507 0.53220266103744507 0.53220266103744507
0.58574700355529785 0.58574700355529785 0.58574700355529785
0.64475023746490479 0.64475023746490479 0.64475023746490479
0.70220178365707397 0.70220178365707397 0.70220178365707397
0.72579902410507202 0.72579902410507202 0.72579902410507202
0.51569950580596924 0.51569950580596924 0.51569950580596924
0.56086671352386475 0.56086671352386475 0.56086671352386475
0.60147720575332642 0.60147720575332642 0.60147720575332642
0.63818192481994629 0.63818192481994629 0.63818192481994629
0.68594419956207275 0.68594419956207275 0.68594419956207275
0.7288205623626709 0.7288205623626709 0.7288205623626709
0.74120664596557617 0.74120664596557617 0.74120664596557617
0.61554622650146484 0.61554622650146484 0.61554622650146484
0.65328365564346313 0.65328365564346313 0.65328365564346313
0.68292778730392456 0.68292778730392456 0.68292778730392456
0.71171832084655762 0.71171832084655762 0.71171832084655762
0.74231207370758057 0.74231207370758057 0.74231207370758057
0.76697087287902832 0.76697087287902832 0.76697087287902832
0.78773516416549683 0.78773516416549683 0.78773516416549683
0.68764978647232056 0.68764978647232056 0.68764978647232056
0.71381884813308716 0.71381884813308716 0.71381884813308716
0.73959934711456299 0.73959934711456299 0.73959934711456299
0.76600366830825806 0.76600366830825806 0.76600366830825806
0.7938959002494812 0.7938959002494812 0.7938959002494812
0.81928622722625732 0.81928622722625732 0.81928622722625732
0.82632553577423096 0.82632553577423096 0.82632553577423096
0.76489460468292236 0.76489460468292236 0.76489460468292236
0.78187054395675659 0.78187054395675659 0.78187054395675659
0.79839801788330078 0.79839801788330078 0.79839801788330078
0.82369840145111084 0.82369840145111084 0.82369840145111084
0.85371500253677368 0.85371500253677368 0.85371500253677368
0.88267618417739868 0.88267618417739868 0.88267618417739868
0.8966025710105896 0.8966025710105896 0.8966025710105896
0.83706074953079224 0.83706074953079224 0.83706074953079224
0.84683942794799805 0.84683942794799805 0.84683942794799805
0.86005419492721558 0.86005419492721558 0.86005419492721558
0.88002216815948486 0.88002216815948486 0.88002216815948486
0.91679966449737549 0.91679966449737549 0.91679966449737549
0.93852263689041138 0.93852263689041138 0.93852263689041138
0.96540474891662598 0.96540474891662598 0.96540474891662598
0.85346275568008423 0.85346275568008423 0.85346275568008423
0.84931278228759766 0.84931278228759766 0.84931278228759766
0.86935359239578247 0.86935359239578247 0.86935359239578247
0.89773732423782349 0.89773732423782349 0.89773732423782349
0.93122386932373047 0.93122386932373047 0.93122386932373047
0.96196770668029785 0.96196770668029785 0.96196770668029785
0.98279392719268799 0.98279392719268799 0.98279392719268799
