luts/fujixtransiii/fuji_xtrans_iii_acros+r.cube
# Created by: G'MIC (https://gmic.eu)
TITLE "fuji_xtrans_iii_acros+r"
# LUT size
LUT_3D_SIZE 7
# Data domain
DOMAIN_MIN 0.0 0.0 0.0
DOMAIN_MAX 1.0 1.0 1.0
# LUT data points
0.016029298305511475 0.016029298305511475 0.016029298305511475
0.086272433400154114 0.086272433400154114 0.086272433400154114
0.22644466161727905 0.22644466161727905 0.22644466161727905
0.39981129765510559 0.39981129765510559 0.39981129765510559
0.5661885142326355 0.5661885142326355 0.5661885142326355
0.6344415545463562 0.6344415545463562 0.6344415545463562
0.6669655442237854 0.6669655442237854 0.6669655442237854
0.034357797354459763 0.034357797354459763 0.034357797354459763
0.11145228892564774 0.11145228892564774 0.11145228892564774
0.26105353236198425 0.26105353236198425 0.26105353236198425
0.43325203657150269 0.43325203657150269 0.43325203657150269
0.58673101663589478 0.58673101663589478 0.58673101663589478
0.66578203439712524 0.66578203439712524 0.66578203439712524
0.71402424573898315 0.71402424573898315 0.71402424573898315
0.12636309862136841 0.12636309862136841 0.12636309862136841
0.19556255638599396 0.19556255638599396 0.19556255638599396
0.33534270524978638 0.33534270524978638 0.33534270524978638
0.47450792789459229 0.47450792789459229 0.47450792789459229
0.61817449331283569 0.61817449331283569 0.61817449331283569
0.70919317007064819 0.70919317007064819 0.70919317007064819
0.73729181289672852 0.73729181289672852 0.73729181289672852
0.22682584822177887 0.22682584822177887 0.22682584822177887
0.29681557416915894 0.29681557416915894 0.29681557416915894
0.41910585761070251 0.41910585761070251 0.41910585761070251
0.5456884503364563 0.5456884503364563 0.5456884503364563
0.66444116830825806 0.66444116830825806 0.66444116830825806
0.73406320810317993 0.73406320810317993 0.73406320810317993
0.78942537307739258 0.78942537307739258 0.78942537307739258
0.28967878222465515 0.28967878222465515 0.28967878222465515
0.36348986625671387 0.36348986625671387 0.36348986625671387
0.45612853765487671 0.45612853765487671 0.45612853765487671
0.60367494821548462 0.60367494821548462 0.60367494821548462
0.70974093675613403 0.70974093675613403 0.70974093675613403
0.77269834280014038 0.77269834280014038 0.77269834280014038
0.82746142148971558 0.82746142148971558 0.82746142148971558
0.32388529181480408 0.32388529181480408 0.32388529181480408
0.42934706807136536 0.42934706807136536 0.42934706807136536
0.52045762538909912 0.52045762538909912 0.52045762538909912
0.63107180595397949 0.63107180595397949 0.63107180595397949
0.70096027851104736 0.70096027851104736 0.70096027851104736
0.81622165441513062 0.81622165441513062 0.81622165441513062
0.86165136098861694 0.86165136098861694 0.86165136098861694
0.36002042889595032 0.36002042889595032 0.36002042889595032
0.4517771303653717 0.4517771303653717 0.4517771303653717
0.54001730680465698 0.54001730680465698 0.54001730680465698
0.65909779071807861 0.65909779071807861 0.65909779071807861
0.74897116422653198 0.74897116422653198 0.74897116422653198
0.84283280372619629 0.84283280372619629 0.84283280372619629
0.87849730253219604 0.87849730253219604 0.87849730253219604
0.0161412563174963 0.0161412563174963 0.0161412563174963
0.098401762545108795 0.098401762545108795 0.098401762545108795
0.23550340533256531 0.23550340533256531 0.23550340533256531
0.43215945363044739 0.43215945363044739 0.43215945363044739
0.59786772727966309 0.59786772727966309 0.59786772727966309
0.67075866460800171 0.67075866460800171 0.67075866460800171
0.76177895069122314 0.76177895069122314 0.76177895069122314
0.052056584507226944 0.052056584507226944 0.052056584507226944
0.12122651934623718 0.12122651934623718 0.12122651934623718
0.27044975757598877 0.27044975757598877 0.27044975757598877
0.44217470288276672 0.44217470288276672 0.44217470288276672
0.5931212306022644 0.5931212306022644 0.5931212306022644
0.71101057529449463 0.71101057529449463 0.71101057529449463
0.77427548170089722 0.77427548170089722 0.77427548170089722
0.14147067070007324 0.14147067070007324 0.14147067070007324
0.20681482553482056 0.20681482553482056 0.20681482553482056
0.33695933222770691 0.33695933222770691 0.33695933222770691
0.48410147428512573 0.48410147428512573 0.48410147428512573
0.62647849321365356 0.62647849321365356 0.62647849321365356
0.73882865905761719 0.73882865905761719 0.73882865905761719
0.80734968185424805 0.80734968185424805 0.80734968185424805
0.26036658883094788 0.26036658883094788 0.26036658883094788
0.32046294212341309 0.32046294212341309 0.32046294212341309
0.4176061749458313 0.4176061749458313 0.4176061749458313
0.54669910669326782 0.54669910669326782 0.54669910669326782
0.66970658302307129 0.66970658302307129 0.66970658302307129
0.76941394805908203 0.76941394805908203 0.76941394805908203
0.82571935653686523 0.82571935653686523 0.82571935653686523
0.34306231141090393 0.34306231141090393 0.34306231141090393
0.40936297178268433 0.40936297178268433 0.40936297178268433
0.49932563304901123 0.49932563304901123 0.49932563304901123
0.6108018159866333 0.6108018159866333 0.6108018159866333
0.71801722049713135 0.71801722049713135 0.71801722049713135
0.81425684690475464 0.81425684690475464 0.81425684690475464
0.88499444723129272 0.88499444723129272 0.88499444723129272
0.35922896862030029 0.35922896862030029 0.35922896862030029
0.46432772278785706 0.46432772278785706 0.46432772278785706
0.54343479871749878 0.54343479871749878 0.54343479871749878
0.65725117921829224 0.65725117921829224 0.65725117921829224
0.74033677577972412 0.74033677577972412 0.74033677577972412
0.84468680620193481 0.84468680620193481 0.84468680620193481
0.879413902759552 0.879413902759552 0.879413902759552
0.3804614245891571 0.3804614245891571 0.3804614245891571
0.50657457113265991 0.50657457113265991 0.50657457113265991
0.55905258655548096 0.55905258655548096 0.55905258655548096
0.65656167268753052 0.65656167268753052 0.65656167268753052
0.74625289440155029 0.74625289440155029 0.74625289440155029
0.8563152551651001 0.8563152551651001 0.8563152551651001
0.91444981098175049 0.91444981098175049 0.91444981098175049
0.046029709279537201 0.046029709279537201 0.046029709279537201
0.13913579285144806 0.13913579285144806 0.13913579285144806
0.2747892439365387 0.2747892439365387 0.2747892439365387
0.4466860294342041 0.4466860294342041 0.4466860294342041
0.61375784873962402 0.61375784873962402 0.61375784873962402
0.736255943775177 0.736255943775177 0.736255943775177
0.80517739057540894 0.80517739057540894 0.80517739057540894
0.082556508481502533 0.082556508481502533 0.082556508481502533
0.15242570638656616 0.15242570638656616 0.15242570638656616
0.29726323485374451 0.29726323485374451 0.29726323485374451
0.46172749996185303 0.46172749996185303 0.46172749996185303
0.61465215682983398 0.61465215682983398 0.61465215682983398
0.73452889919281006 0.73452889919281006 0.73452889919281006
0.8221392035484314 0.8221392035484314 0.8221392035484314
0.16858552396297455 0.16858552396297455 0.16858552396297455
0.23260614275932312 0.23260614275932312 0.23260614275932312
0.36430814862251282 0.36430814862251282 0.36430814862251282
0.51125121116638184 0.51125121116638184 0.51125121116638184
0.64778178930282593 0.64778178930282593 0.64778178930282593
0.75420171022415161 0.75420171022415161 0.75420171022415161
0.8314170241355896 0.8314170241355896 0.8314170241355896
0.293272465467453 0.293272465467453 0.293272465467453
0.34484201669692993 0.34484201669692993 0.34484201669692993
0.43892717361450195 0.43892717361450195 0.43892717361450195
0.56407231092453003 0.56407231092453003 0.56407231092453003
0.68059700727462769 0.68059700727462769 0.68059700727462769
0.77956420183181763 0.77956420183181763 0.77956420183181763
0.85858350992202759 0.85858350992202759 0.85858350992202759
0.36849269270896912 0.36849269270896912 0.36849269270896912
0.43781840801239014 0.43781840801239014 0.43781840801239014
0.51594209671020508 0.51594209671020508 0.51594209671020508
0.62095195055007935 0.62095195055007935 0.62095195055007935
0.72320222854614258 0.72320222854614258 0.72320222854614258
0.81705832481384277 0.81705832481384277 0.81705832481384277
0.89269059896469116 0.89269059896469116 0.89269059896469116
0.47192767262458801 0.47192767262458801 0.47192767262458801
0.49667844176292419 0.49667844176292419 0.49667844176292419
0.56715214252471924 0.56715214252471924 0.56715214252471924
0.66630381345748901 0.66630381345748901 0.66630381345748901
0.76779234409332275 0.76779234409332275 0.76779234409332275
0.85571134090423584 0.85571134090423584 0.85571134090423584
0.92196762561798096 0.92196762561798096 0.92196762561798096
0.48866099119186401 0.48866099119186401 0.48866099119186401
0.5107075572013855 0.5107075572013855 0.5107075572013855
0.5908883810043335 0.5908883810043335 0.5908883810043335
0.68386745452880859 0.68386745452880859 0.68386745452880859
0.76532196998596191 0.76532196998596191 0.76532196998596191
0.89149653911590576 0.89149653911590576 0.89149653911590576
0.93374156951904297 0.93374156951904297 0.93374156951904297
0.13043224811553955 0.13043224811553955 0.13043224811553955
0.18697839975357056 0.18697839975357056 0.18697839975357056
0.30533811450004578 0.30533811450004578 0.30533811450004578
0.46314325928688049 0.46314325928688049 0.46314325928688049
0.62379825115203857 0.62379825115203857 0.62379825115203857
0.74954283237457275 0.74954283237457275 0.74954283237457275
0.83468908071517944 0.83468908071517944 0.83468908071517944
0.12384971231222153 0.12384971231222153 0.12384971231222153
0.19021126627922058 0.19021126627922058 0.19021126627922058
0.32321998476982117 0.32321998476982117 0.32321998476982117
0.48086509108543396 0.48086509108543396 0.48086509108543396
0.63126146793365479 0.63126146793365479 0.63126146793365479
0.75299608707427979 0.75299608707427979 0.75299608707427979
0.84220761060714722 0.84220761060714722 0.84220761060714722
0.20349320769309998 0.20349320769309998 0.20349320769309998
0.26466512680053711 0.26466512680053711 0.26466512680053711
0.38992846012115479 0.38992846012115479 0.38992846012115479
0.52847719192504883 0.52847719192504883 0.52847719192504883
0.65804374217987061 0.65804374217987061 0.65804374217987061
0.76745235919952393 0.76745235919952393 0.76745235919952393
0.84911209344863892 0.84911209344863892 0.84911209344863892
0.31979241967201233 0.31979241967201233 0.31979241967201233
0.37630614638328552 0.37630614638328552 0.37630614638328552
0.45667430758476257 0.45667430758476257 0.45667430758476257
0.57945007085800171 0.57945007085800171 0.57945007085800171
0.68443864583969116 0.68443864583969116 0.68443864583969116
0.79061967134475708 0.79061967134475708 0.79061967134475708
0.87406462430953979 0.87406462430953979 0.87406462430953979
0.42636033892631531 0.42636033892631531 0.42636033892631531
0.45680296421051025 0.45680296421051025 0.45680296421051025
0.53543627262115479 0.53543627262115479 0.53543627262115479
0.63907384872436523 0.63907384872436523 0.63907384872436523
0.73312294483184814 0.73312294483184814 0.73312294483184814
0.82813084125518799 0.82813084125518799 0.82813084125518799
0.90765011310577393 0.90765011310577393 0.90765011310577393
0.48646119236946106 0.48646119236946106 0.48646119236946106
0.52729541063308716 0.52729541063308716 0.52729541063308716
0.59318166971206665 0.59318166971206665 0.59318166971206665
0.68327111005783081 0.68327111005783081 0.68327111005783081
0.78289902210235596 0.78289902210235596 0.78289902210235596
0.87736326456069946 0.87736326456069946 0.87736326456069946
0.95854473114013672 0.95854473114013672 0.95854473114013672
0.50042140483856201 0.50042140483856201 0.50042140483856201
0.5426667332649231 0.5426667332649231 0.5426667332649231
0.60126423835754395 0.60126423835754395 0.60126423835754395
0.68323981761932373 0.68323981761932373 0.68323981761932373
0.7934577465057373 0.7934577465057373 0.7934577465057373
0.91433048248291016 0.91433048248291016 0.91433048248291016
0.96181535720825195 0.96181535720825195 0.96181535720825195
0.21772769093513489 0.21772769093513489 0.21772769093513489
0.25755184888839722 0.25755184888839722 0.25755184888839722
0.34059059619903564 0.34059059619903564 0.34059059619903564
0.47452202439308167 0.47452202439308167 0.47452202439308167
0.62235361337661743 0.62235361337661743 0.62235361337661743
0.76238542795181274 0.76238542795181274 0.76238542795181274
0.84522664546966553 0.84522664546966553 0.84522664546966553
0.17913644015789032 0.17913644015789032 0.17913644015789032
0.23746038973331451 0.23746038973331451 0.23746038973331451
0.35266029834747314 0.35266029834747314 0.35266029834747314
0.49278834462165833 0.49278834462165833 0.49278834462165833
0.64443284273147583 0.64443284273147583 0.64443284273147583
0.76865184307098389 0.76865184307098389 0.76865184307098389
0.85752815008163452 0.85752815008163452 0.85752815008163452
0.23811885714530945 0.23811885714530945 0.23811885714530945
0.29811796545982361 0.29811796545982361 0.29811796545982361
0.41178742051124573 0.41178742051124573 0.41178742051124573
0.53594326972961426 0.53594326972961426 0.53594326972961426
0.66796392202377319 0.66796392202377319 0.66796392202377319
0.77951622009277344 0.77951622009277344 0.77951622009277344
0.86637198925018311 0.86637198925018311 0.86637198925018311
0.34282168745994568 0.34282168745994568 0.34282168745994568
0.39629283547401428 0.39629283547401428 0.39629283547401428
0.48015314340591431 0.48015314340591431 0.48015314340591431
0.59184366464614868 0.59184366464614868 0.59184366464614868
0.6916082501411438 0.6916082501411438 0.6916082501411438
0.79936999082565308 0.79936999082565308 0.79936999082565308
0.89606559276580811 0.89606559276580811 0.89606559276580811
0.43858188390731812 0.43858188390731812 0.43858188390731812
0.48210036754608154 0.48210036754608154 0.48210036754608154
0.55510443449020386 0.55510443449020386 0.55510443449020386
0.64996802806854248 0.64996802806854248 0.64996802806854248
0.74043166637420654 0.74043166637420654 0.74043166637420654
0.83971250057220459 0.83971250057220459 0.83971250057220459
0.92838150262832642 0.92838150262832642 0.92838150262832642
0.52900904417037964 0.52900904417037964 0.52900904417037964
0.55105704069137573 0.55105704069137573 0.55105704069137573
0.6116025447845459 0.6116025447845459 0.6116025447845459
0.70419460535049438 0.70419460535049438 0.70419460535049438
0.79144161939620972 0.79144161939620972 0.79144161939620972
0.89126843214035034 0.89126843214035034 0.89126843214035034
0.96565878391265869 0.96565878391265869 0.96565878391265869
0.54137736558914185 0.54137736558914185 0.54137736558914185
0.59087222814559937 0.59087222814559937 0.59087222814559937
0.64669102430343628 0.64669102430343628 0.64669102430343628
0.73541456460952759 0.73541456460952759 0.73541456460952759
0.82776111364364624 0.82776111364364624 0.82776111364364624
0.92639172077178955 0.92639172077178955 0.92639172077178955
0.97696959972381592 0.97696959972381592 0.97696959972381592
0.32420608401298523 0.32420608401298523 0.32420608401298523
0.34739610552787781 0.34739610552787781 0.34739610552787781
0.40787261724472046 0.40787261724472046 0.40787261724472046
0.50886768102645874 0.50886768102645874 0.50886768102645874
0.64610671997070312 0.64610671997070312 0.64610671997070312
0.76821285486221313 0.76821285486221313 0.76821285486221313
0.85781174898147583 0.85781174898147583 0.85781174898147583
0.27050900459289551 0.27050900459289551 0.27050900459289551
0.31220307946205139 0.31220307946205139 0.31220307946205139
0.39497378468513489 0.39497378468513489 0.39497378468513489
0.5145689845085144 0.5145689845085144 0.5145689845085144
0.65797704458236694 0.65797704458236694 0.65797704458236694
0.77705389261245728 0.77705389261245728 0.77705389261245728
0.86273634433746338 0.86273634433746338 0.86273634433746338
0.26828452944755554 0.26828452944755554 0.26828452944755554
0.33398047089576721 0.33398047089576721 0.33398047089576721
0.43073123693466187 0.43073123693466187 0.43073123693466187
0.55227577686309814 0.55227577686309814 0.55227577686309814
0.68319272994995117 0.68319272994995117 0.68319272994995117
0.79512166976928711 0.79512166976928711 0.79512166976928711
0.87927103042602539 0.87927103042602539 0.87927103042602539
0.36571243405342102 0.36571243405342102 0.36571243405342102
0.42304709553718567 0.42304709553718567 0.42304709553718567
0.50390970706939697 0.50390970706939697 0.50390970706939697
0.60900098085403442 0.60900098085403442 0.60900098085403442
0.71360892057418823 0.71360892057418823 0.71360892057418823
0.81853741407394409 0.81853741407394409 0.81853741407394409
0.89842301607131958 0.89842301607131958 0.89842301607131958
0.46103516221046448 0.46103516221046448 0.46103516221046448
0.50720906257629395 0.50720906257629395 0.50720906257629395
0.57713955640792847 0.57713955640792847 0.57713955640792847
0.66821730136871338 0.66821730136871338 0.66821730136871338
0.76277261972427368 0.76277261972427368 0.76277261972427368
0.85622882843017578 0.85622882843017578 0.85622882843017578
0.93488699197769165 0.93488699197769165 0.93488699197769165
0.54363560676574707 0.54363560676574707 0.54363560676574707
0.57979798316955566 0.57979798316955566 0.57979798316955566
0.64151203632354736 0.64151203632354736 0.64151203632354736
0.7202146053314209 0.7202146053314209 0.7202146053314209
0.81738221645355225 0.81738221645355225 0.81738221645355225
0.89344078302383423 0.89344078302383423 0.89344078302383423
0.97403013706207275 0.97403013706207275 0.97403013706207275
0.62953454256057739 0.62953454256057739 0.62953454256057739
0.61532354354858398 0.61532354354858398 0.61532354354858398
0.66578137874603271 0.66578137874603271 0.66578137874603271
0.74469196796417236 0.74469196796417236 0.74469196796417236
0.83911114931106567 0.83911114931106567 0.83911114931106567
0.92049598693847656 0.92049598693847656 0.92049598693847656
0.98228871822357178 0.98228871822357178 0.98228871822357178
0.42035269737243652 0.42035269737243652 0.42035269737243652
0.44093650579452515 0.44093650579452515 0.44093650579452515
0.48835664987564087 0.48835664987564087 0.48835664987564087
0.5763242244720459 0.5763242244720459 0.5763242244720459
0.67826712131500244 0.67826712131500244 0.67826712131500244
0.78053528070449829 0.78053528070449829 0.78053528070449829
0.82484710216522217 0.82484710216522217 0.82484710216522217
0.38692393898963928 0.38692393898963928 0.38692393898963928
0.43489962816238403 0.43489962816238403 0.43489962816238403
0.48376363515853882 0.48376363515853882 0.48376363515853882
0.56873124837875366 0.56873124837875366 0.56873124837875366
0.68258082866668701 0.68258082866668701 0.68258082866668701
0.78647220134735107 0.78647220134735107 0.78647220134735107
0.84897750616073608 0.84897750616073608 0.84897750616073608
0.31506916880607605 0.31506916880607605 0.31506916880607605
0.38057598471641541 0.38057598471641541 0.38057598471641541
0.46879476308822632 0.46879476308822632 0.46879476308822632
0.58748465776443481 0.58748465776443481 0.58748465776443481
0.70122021436691284 0.70122021436691284 0.70122021436691284
0.80711227655410767 0.80711227655410767 0.80711227655410767
0.86924129724502563 0.86924129724502563 0.86924129724502563
0.38022124767303467 0.38022124767303467 0.38022124767303467
0.4288252592086792 0.4288252592086792 0.4288252592086792
0.53103345632553101 0.53103345632553101 0.53103345632553101
0.6370471715927124 0.6370471715927124 0.6370471715927124
0.74199384450912476 0.74199384450912476 0.74199384450912476
0.83049362897872925 0.83049362897872925 0.83049362897872925
0.90496814250946045 0.90496814250946045 0.90496814250946045
0.48441818356513977 0.48441818356513977 0.48441818356513977
0.51936882734298706 0.51936882734298706 0.51936882734298706
0.59911775588989258 0.59911775588989258 0.59911775588989258
0.69354259967803955 0.69354259967803955 0.69354259967803955
0.78891026973724365 0.78891026973724365 0.78891026973724365
0.87085568904876709 0.87085568904876709 0.87085568904876709
0.94214868545532227 0.94214868545532227 0.94214868545532227
0.57990247011184692 0.57990247011184692 0.57990247011184692
0.60147666931152344 0.60147666931152344 0.60147666931152344
0.66214495897293091 0.66214495897293091 0.66214495897293091
0.7371857762336731 0.7371857762336731 0.7371857762336731
0.83427268266677856 0.83427268266677856 0.83427268266677856
0.92079693078994751 0.92079693078994751 0.92079693078994751
0.98072606325149536 0.98072606325149536 0.98072606325149536
0.62940186262130737 0.62940186262130737 0.62940186262130737
0.62455779314041138 0.62455779314041138 0.62455779314041138
0.68331217765808105 0.68331217765808105 0.68331217765808105
0.7646183967590332 0.7646183967590332 0.7646183967590332
0.850719153881073 0.850719153881073 0.850719153881073
0.94396299123764038 0.94396299123764038 0.94396299123764038
0.98195236921310425 0.98195236921310425 0.98195236921310425
