luts/fujixtransiii/fuji_xtrans_iii_acros.cube
# Created by: G'MIC (https://gmic.eu)
TITLE "fuji_xtrans_iii_acros"
# LUT size
LUT_3D_SIZE 5
# Data domain
DOMAIN_MIN 0.0 0.0 0.0
DOMAIN_MAX 1.0 1.0 1.0
# LUT data points
0.017840411514043808 0.017840411514043808 0.017840411514043808
0.078159257769584656 0.078159257769584656 0.078159257769584656
0.22303798794746399 0.22303798794746399 0.22303798794746399
0.38034269213676453 0.38034269213676453 0.38034269213676453
0.42793750762939453 0.42793750762939453 0.42793750762939453
0.10405313968658447 0.10405313968658447 0.10405313968658447
0.16713741421699524 0.16713741421699524 0.16713741421699524
0.31147801876068115 0.31147801876068115 0.31147801876068115
0.44797667860984802 0.44797667860984802 0.44797667860984802
0.50036799907684326 0.50036799907684326 0.50036799907684326
0.2724306583404541 0.2724306583404541 0.2724306583404541
0.35814958810806274 0.35814958810806274 0.35814958810806274
0.47730109095573425 0.47730109095573425 0.47730109095573425
0.57482022047042847 0.57482022047042847 0.57482022047042847
0.64030814170837402 0.64030814170837402 0.64030814170837402
0.36959794163703918 0.36959794163703918 0.36959794163703918
0.44715291261672974 0.44715291261672974 0.44715291261672974
0.58119291067123413 0.58119291067123413 0.58119291067123413
0.6649516224861145 0.6649516224861145 0.6649516224861145
0.74602657556533813 0.74602657556533813 0.74602657556533813
0.41317251324653625 0.41317251324653625 0.41317251324653625
0.54911881685256958 0.54911881685256958 0.54911881685256958
0.63551944494247437 0.63551944494247437 0.63551944494247437
0.74264705181121826 0.74264705181121826 0.74264705181121826
0.78876292705535889 0.78876292705535889 0.78876292705535889
0.072705045342445374 0.072705045342445374 0.072705045342445374
0.17358316481113434 0.17358316481113434 0.17358316481113434
0.30713242292404175 0.30713242292404175 0.30713242292404175
0.44501373171806335 0.44501373171806335 0.44501373171806335
0.54062062501907349 0.54062062501907349 0.54062062501907349
0.1764565110206604 0.1764565110206604 0.1764565110206604
0.23500466346740723 0.23500466346740723 0.23500466346740723
0.35502314567565918 0.35502314567565918 0.35502314567565918
0.49492505192756653 0.49492505192756653 0.49492505192756653
0.59443795680999756 0.59443795680999756 0.59443795680999756
0.37172463536262512 0.37172463536262512 0.37172463536262512
0.42186543345451355 0.42186543345451355 0.42186543345451355
0.516795814037323 0.516795814037323 0.516795814037323
0.61248689889907837 0.61248689889907837 0.61248689889907837
0.68496376276016235 0.68496376276016235 0.68496376276016235
0.47687119245529175 0.47687119245529175 0.47687119245529175
0.56063389778137207 0.56063389778137207 0.56063389778137207
0.64527040719985962 0.64527040719985962 0.64527040719985962
0.73426288366317749 0.73426288366317749 0.73426288366317749
0.80424416065216064 0.80424416065216064 0.80424416065216064
0.52635389566421509 0.52635389566421509 0.52635389566421509
0.61266756057739258 0.61266756057739258 0.61266756057739258
0.68273770809173584 0.68273770809173584 0.68273770809173584
0.77312803268432617 0.77312803268432617 0.77312803268432617
0.84641104936599731 0.84641104936599731 0.84641104936599731
0.23455838859081268 0.23455838859081268 0.23455838859081268
0.30060142278671265 0.30060142278671265 0.30060142278671265
0.41122159361839294 0.41122159361839294 0.41122159361839294
0.52728414535522461 0.52728414535522461 0.52728414535522461
0.62033993005752563 0.62033993005752563 0.62033993005752563
0.29728835821151733 0.29728835821151733 0.29728835821151733
0.35952302813529968 0.35952302813529968 0.35952302813529968
0.45854693651199341 0.45854693651199341 0.45854693651199341
0.57561397552490234 0.57561397552490234 0.57561397552490234
0.66434985399246216 0.66434985399246216 0.66434985399246216
0.46444174647331238 0.46444174647331238 0.46444174647331238
0.50941228866577148 0.50941228866577148 0.50941228866577148
0.59118360280990601 0.59118360280990601 0.59118360280990601
0.67501914501190186 0.67501914501190186 0.67501914501190186
0.74226158857345581 0.74226158857345581 0.74226158857345581
0.60343760251998901 0.60343760251998901 0.60343760251998901
0.62361413240432739 0.62361413240432739 0.62361413240432739
0.6995423436164856 0.6995423436164856 0.6995423436164856
0.77451837062835693 0.77451837062835693 0.77451837062835693
0.85993421077728271 0.85993421077728271 0.85993421077728271
0.64853793382644653 0.64853793382644653 0.64853793382644653
0.67992448806762695 0.67992448806762695 0.67992448806762695
0.73349767923355103 0.73349767923355103 0.73349767923355103
0.83644336462020874 0.83644336462020874 0.83644336462020874
0.91590589284896851 0.91590589284896851 0.91590589284896851
0.37725082039833069 0.37725082039833069 0.37725082039833069
0.43679612874984741 0.43679612874984741 0.43679612874984741
0.53582751750946045 0.53582751750946045 0.53582751750946045
0.63562166690826416 0.63562166690826416 0.63562166690826416
0.72648328542709351 0.72648328542709351 0.72648328542709351
0.44614645838737488 0.44614645838737488 0.44614645838737488
0.50479930639266968 0.50479930639266968 0.50479930639266968
0.57827746868133545 0.57827746868133545 0.57827746868133545
0.65437406301498413 0.65437406301498413 0.65437406301498413
0.72476500272750854 0.72476500272750854 0.72476500272750854
0.55710256099700928 0.55710256099700928 0.55710256099700928
0.60845673084259033 0.60845673084259033 0.60845673084259033
0.66976463794708252 0.66976463794708252 0.66976463794708252
0.73411828279495239 0.73411828279495239 0.73411828279495239
0.81218558549880981 0.81218558549880981 0.81218558549880981
0.68848389387130737 0.68848389387130737 0.68848389387130737
0.71097773313522339 0.71097773313522339 0.71097773313522339
0.76756691932678223 0.76756691932678223 0.76756691932678223
0.822884202003479 0.822884202003479 0.822884202003479
0.91130942106246948 0.91130942106246948 0.91130942106246948
0.73973053693771362 0.73973053693771362 0.73973053693771362
0.7754814624786377 0.7754814624786377 0.7754814624786377
0.84603285789489746 0.84603285789489746 0.84603285789489746
0.90075844526290894 0.90075844526290894 0.90075844526290894
0.95704686641693115 0.95704686641693115 0.95704686641693115
0.53481763601303101 0.53481763601303101 0.53481763601303101
0.57193148136138916 0.57193148136138916 0.57193148136138916
0.65047246217727661 0.65047246217727661 0.65047246217727661
0.73930412530899048 0.73930412530899048 0.73930412530899048
0.78634315729141235 0.78634315729141235 0.78634315729141235
0.57595431804656982 0.57595431804656982 0.57595431804656982
0.64121788740158081 0.64121788740158081 0.64121788740158081
0.69394862651824951 0.69394862651824951 0.69394862651824951
0.76074087619781494 0.76074087619781494 0.76074087619781494
0.79628509283065796 0.79628509283065796 0.79628509283065796
0.65830707550048828 0.65830707550048828 0.65830707550048828
0.72148269414901733 0.72148269414901733 0.72148269414901733
0.76396727561950684 0.76396727561950684 0.76396727561950684
0.81395125389099121 0.81395125389099121 0.81395125389099121
0.85919737815856934 0.85919737815856934 0.85919737815856934
0.7734563946723938 0.7734563946723938 0.7734563946723938
0.80598849058151245 0.80598849058151245 0.80598849058151245
0.84435063600540161 0.84435063600540161 0.84435063600540161
0.8962407112121582 0.8962407112121582 0.8962407112121582
0.94179624319076538 0.94179624319076538 0.94179624319076538
0.82552671432495117 0.82552671432495117 0.82552671432495117
0.83100289106369019 0.83100289106369019 0.83100289106369019
0.87182855606079102 0.87182855606079102 0.87182855606079102
0.94211435317993164 0.94211435317993164 0.94211435317993164
0.9847598671913147 0.9847598671913147 0.9847598671913147
