luts/fujixtransiii/fuji_xtrans_iii_mono.cube
# Created by: G'MIC (https://gmic.eu)
TITLE "fuji_xtrans_iii_mono"
# LUT size
LUT_3D_SIZE 7
# Data domain
DOMAIN_MIN 0.0 0.0 0.0
DOMAIN_MAX 1.0 1.0 1.0
# LUT data points
0.01070906687527895 0.01070906687527895 0.01070906687527895
0.03528079017996788 0.03528079017996788 0.03528079017996788
0.10944071412086487 0.10944071412086487 0.10944071412086487
0.21743948757648468 0.21743948757648468 0.21743948757648468
0.32530674338340759 0.32530674338340759 0.32530674338340759
0.36944431066513062 0.36944431066513062 0.36944431066513062
0.40158432722091675 0.40158432722091675 0.40158432722091675
0.049810789525508881 0.049810789525508881 0.049810789525508881
0.085878424346446991 0.085878424346446991 0.085878424346446991
0.17369550466537476 0.17369550466537476 0.17369550466537476
0.26644101738929749 0.26644101738929749 0.26644101738929749
0.36030828952789307 0.36030828952789307 0.36030828952789307
0.41340252757072449 0.41340252757072449 0.41340252757072449
0.46699026226997375 0.46699026226997375 0.46699026226997375
0.15694829821586609 0.15694829821586609 0.15694829821586609
0.21691204607486725 0.21691204607486725 0.21691204607486725
0.29011109471321106 0.29011109471321106 0.29011109471321106
0.374704509973526 0.374704509973526 0.374704509973526
0.44098690152168274 0.44098690152168274 0.44098690152168274
0.49133378267288208 0.49133378267288208 0.49133378267288208
0.49905073642730713 0.49905073642730713 0.49905073642730713
0.27886340022087097 0.27886340022087097 0.27886340022087097
0.32718434929847717 0.32718434929847717 0.32718434929847717
0.40923100709915161 0.40923100709915161 0.40923100709915161
0.47792926430702209 0.47792926430702209 0.47792926430702209
0.54105788469314575 0.54105788469314575 0.54105788469314575
0.57806748151779175 0.57806748151779175 0.57806748151779175
0.62170624732971191 0.62170624732971191 0.62170624732971191
0.3428339958190918 0.3428339958190918 0.3428339958190918
0.41151538491249084 0.41151538491249084 0.41151538491249084
0.45619192719459534 0.45619192719459534 0.45619192719459534
0.55911403894424438 0.55911403894424438 0.55911403894424438
0.61847579479217529 0.61847579479217529 0.61847579479217529
0.65402472019195557 0.65402472019195557 0.65402472019195557
0.70350956916809082 0.70350956916809082 0.70350956916809082
0.37640401721000671 0.37640401721000671 0.37640401721000671
0.48341035842895508 0.48341035842895508 0.48341035842895508
0.53523379564285278 0.53523379564285278 0.53523379564285278
0.59286296367645264 0.59286296367645264 0.59286296367645264
0.63450044393539429 0.63450044393539429 0.63450044393539429
0.69672250747680664 0.69672250747680664 0.69672250747680664
0.73356127738952637 0.73356127738952637 0.73356127738952637
0.4091150164604187 0.4091150164604187 0.4091150164604187
0.50570213794708252 0.50570213794708252 0.50570213794708252
0.55515474081039429 0.55515474081039429 0.55515474081039429
0.61745607852935791 0.61745607852935791 0.61745607852935791
0.69187432527542114 0.69187432527542114 0.69187432527542114
0.74630153179168701 0.74630153179168701 0.74630153179168701
0.76884257793426514 0.76884257793426514 0.76884257793426514
0.033651389181613922 0.033651389181613922 0.033651389181613922
0.07483527809381485 0.07483527809381485 0.07483527809381485
0.15051896870136261 0.15051896870136261 0.15051896870136261
0.27424442768096924 0.27424442768096924 0.27424442768096924
0.35816523432731628 0.35816523432731628 0.35816523432731628
0.40256673097610474 0.40256673097610474 0.40256673097610474
0.48102137446403503 0.48102137446403503 0.48102137446403503
0.089811883866786957 0.089811883866786957 0.089811883866786957
0.12952855229377747 0.12952855229377747 0.12952855229377747
0.20738121867179871 0.20738121867179871 0.20738121867179871
0.29807668924331665 0.29807668924331665 0.29807668924331665
0.38472804427146912 0.38472804427146912 0.38472804427146912
0.45500838756561279 0.45500838756561279 0.45500838756561279
0.50330692529678345 0.50330692529678345 0.50330692529678345
0.21114569902420044 0.21114569902420044 0.21114569902420044
0.2474689781665802 0.2474689781665802 0.2474689781665802
0.31233066320419312 0.31233066320419312 0.31233066320419312
0.38616406917572021 0.38616406917572021 0.38616406917572021
0.46671903133392334 0.46671903133392334 0.46671903133392334
0.53002220392227173 0.53002220392227173 0.53002220392227173
0.56762850284576416 0.56762850284576416 0.56762850284576416
0.34204334020614624 0.34204334020614624 0.34204334020614624
0.37487456202507019 0.37487456202507019 0.37487456202507019
0.42256313562393188 0.42256313562393188 0.42256313562393188
0.48866355419158936 0.48866355419158936 0.48866355419158936
0.56137204170227051 0.56137204170227051 0.56137204170227051
0.61606037616729736 0.61606037616729736 0.61606037616729736
0.6461372971534729 0.6461372971534729 0.6461372971534729
0.41457054018974304 0.41457054018974304 0.41457054018974304
0.46368101239204407 0.46368101239204407 0.46368101239204407
0.52058738470077515 0.52058738470077515 0.52058738470077515
0.57888376712799072 0.57888376712799072 0.57888376712799072
0.63860148191452026 0.63860148191452026 0.63860148191452026
0.7009468674659729 0.7009468674659729 0.7009468674659729
0.74412053823471069 0.74412053823471069 0.74412053823471069
0.44697564840316772 0.44697564840316772 0.44697564840316772
0.52637737989425659 0.52637737989425659 0.52637737989425659
0.57796561717987061 0.57796561717987061 0.57796561717987061
0.63280689716339111 0.63280689716339111 0.63280689716339111
0.68870943784713745 0.68870943784713745 0.68870943784713745
0.75364655256271362 0.75364655256271362 0.75364655256271362
0.76525998115539551 0.76525998115539551 0.76525998115539551
0.48369547724723816 0.48369547724723816 0.48369547724723816
0.55941164493560791 0.55941164493560791 0.55941164493560791
0.59921741485595703 0.59921741485595703 0.59921741485595703
0.64346075057983398 0.64346075057983398 0.64346075057983398
0.70013046264648438 0.70013046264648438 0.70013046264648438
0.76651573181152344 0.76651573181152344 0.76651573181152344
0.81398063898086548 0.81398063898086548 0.81398063898086548
0.12711568176746368 0.12711568176746368 0.12711568176746368
0.17728757858276367 0.17728757858276367 0.17728757858276367
0.23938006162643433 0.23938006162643433 0.23938006162643433
0.31836014986038208 0.31836014986038208 0.31836014986038208
0.4048677384853363 0.4048677384853363 0.4048677384853363
0.47564399242401123 0.47564399242401123 0.47564399242401123
0.51307874917984009 0.51307874917984009 0.51307874917984009
0.17458008229732513 0.17458008229732513 0.17458008229732513
0.20840123295783997 0.20840123295783997 0.20840123295783997
0.27937549352645874 0.27937549352645874 0.27937549352645874
0.35415756702423096 0.35415756702423096 0.35415756702423096
0.43785616755485535 0.43785616755485535 0.43785616755485535
0.49976664781570435 0.49976664781570435 0.49976664781570435
0.54884904623031616 0.54884904623031616 0.54884904623031616
0.28235709667205811 0.28235709667205811 0.28235709667205811
0.31097441911697388 0.31097441911697388 0.31097441911697388
0.36777296662330627 0.36777296662330627 0.36777296662330627
0.43395480513572693 0.43395480513572693 0.43395480513572693
0.5113065242767334 0.5113065242767334 0.5113065242767334
0.56407696008682251 0.56407696008682251 0.56407696008682251
0.59767717123031616 0.59767717123031616 0.59767717123031616
0.40234851837158203 0.40234851837158203 0.40234851837158203
0.42187803983688354 0.42187803983688354 0.42187803983688354
0.46877753734588623 0.46877753734588623 0.46877753734588623
0.52818626165390015 0.52818626165390015 0.52818626165390015
0.59093368053436279 0.59093368053436279 0.59093368053436279
0.64256006479263306 0.64256006479263306 0.64256006479263306
0.67985886335372925 0.67985886335372925 0.67985886335372925
0.47028505802154541 0.47028505802154541 0.47028505802154541
0.51846110820770264 0.51846110820770264 0.51846110820770264
0.56223499774932861 0.56223499774932861 0.56223499774932861
0.60931897163391113 0.60931897163391113 0.60931897163391113
0.6658511757850647 0.6658511757850647 0.6658511757850647
0.71868705749511719 0.71868705749511719 0.71868705749511719
0.76416569948196411 0.76416569948196411 0.76416569948196411
0.56322234869003296 0.56322234869003296 0.56322234869003296
0.5746186375617981 0.5746186375617981 0.5746186375617981
0.61099505424499512 0.61099505424499512 0.61099505424499512
0.6685975193977356 0.6685975193977356 0.6685975193977356
0.73466503620147705 0.73466503620147705 0.73466503620147705
0.77071619033813477 0.77071619033813477 0.77071619033813477
0.81972658634185791 0.81972658634185791 0.81972658634185791
0.57325637340545654 0.57325637340545654 0.57325637340545654
0.58740413188934326 0.58740413188934326 0.58740413188934326
0.65193021297454834 0.65193021297454834 0.65193021297454834
0.70640766620635986 0.70640766620635986 0.70640766620635986
0.74755382537841797 0.74755382537841797 0.74755382537841797
0.81298977136611938 0.81298977136611938 0.81298977136611938
0.83739614486694336 0.83739614486694336 0.83739614486694336
0.23157213628292084 0.23157213628292084 0.23157213628292084
0.2754109799861908 0.2754109799861908 0.2754109799861908
0.32389834523200989 0.32389834523200989 0.32389834523200989
0.38484084606170654 0.38484084606170654 0.38484084606170654
0.45676726102828979 0.45676726102828979 0.45676726102828979
0.52482038736343384 0.52482038736343384 0.52482038736343384
0.56357824802398682 0.56357824802398682 0.56357824802398682
0.26740288734436035 0.26740288734436035 0.26740288734436035
0.30409076809883118 0.30409076809883118 0.30409076809883118
0.35942497849464417 0.35942497849464417 0.35942497849464417
0.42519304156303406 0.42519304156303406 0.42519304156303406
0.48903802037239075 0.48903802037239075 0.48903802037239075
0.54286664724349976 0.54286664724349976 0.54286664724349976
0.58554315567016602 0.58554315567016602 0.58554315567016602
0.36141803860664368 0.36141803860664368 0.36141803860664368
0.38518267869949341 0.38518267869949341 0.38518267869949341
0.43039038777351379 0.43039038777351379 0.43039038777351379
0.49721193313598633 0.49721193313598633 0.49721193313598633
0.55485677719116211 0.55485677719116211 0.55485677719116211
0.60694766044616699 0.60694766044616699 0.60694766044616699
0.64812147617340088 0.64812147617340088 0.64812147617340088
0.46413010358810425 0.46413010358810425 0.46413010358810425
0.47824805974960327 0.47824805974960327 0.47824805974960327
0.52286249399185181 0.52286249399185181 0.52286249399185181
0.58119243383407593 0.58119243383407593 0.58119243383407593
0.63129144906997681 0.63129144906997681 0.63129144906997681
0.67962169647216797 0.67962169647216797 0.67962169647216797
0.71598583459854126 0.71598583459854126 0.71598583459854126
0.56433361768722534 0.56433361768722534 0.56433361768722534
0.56647664308547974 0.56647664308547974 0.56647664308547974
0.60859543085098267 0.60859543085098267 0.60859543085098267
0.65948879718780518 0.65948879718780518 0.65948879718780518
0.70316725969314575 0.70316725969314575 0.70316725969314575
0.75312566757202148 0.75312566757202148 0.75312566757202148
0.79422199726104736 0.79422199726104736 0.79422199726104736
0.62745696306228638 0.62745696306228638 0.62745696306228638
0.6371762752532959 0.6371762752532959 0.6371762752532959
0.66982591152191162 0.66982591152191162 0.66982591152191162
0.71202129125595093 0.71202129125595093 0.71202129125595093
0.75972479581832886 0.75972479581832886 0.75972479581832886
0.81677472591400146 0.81677472591400146 0.81677472591400146
0.86762142181396484 0.86762142181396484 0.86762142181396484
0.63811808824539185 0.63811808824539185 0.63811808824539185
0.65927779674530029 0.65927779674530029 0.65927779674530029
0.67931121587753296 0.67931121587753296 0.67931121587753296
0.7184407114982605 0.7184407114982605 0.7184407114982605
0.77660918235778809 0.77660918235778809 0.77660918235778809
0.85753536224365234 0.85753536224365234 0.85753536224365234
0.88963913917541504 0.88963913917541504 0.88963913917541504
0.33048123121261597 0.33048123121261597 0.33048123121261597
0.37108838558197021 0.37108838558197021 0.37108838558197021
0.41353166103363037 0.41353166103363037 0.41353166103363037
0.46860316395759583 0.46860316395759583 0.46860316395759583
0.5303533673286438 0.5303533673286438 0.5303533673286438
0.58035755157470703 0.58035755157470703 0.58035755157470703
0.62442189455032349 0.62442189455032349 0.62442189455032349
0.37604412436485291 0.37604412436485291 0.37604412436485291
0.41359084844589233 0.41359084844589233 0.41359084844589233
0.45333078503608704 0.45333078503608704 0.45333078503608704
0.50837761163711548 0.50837761163711548 0.50837761163711548
0.55691522359848022 0.55691522359848022 0.55691522359848022
0.60766381025314331 0.60766381025314331 0.60766381025314331
0.64889788627624512 0.64889788627624512 0.64889788627624512
0.44186520576477051 0.44186520576477051 0.44186520576477051
0.47703272104263306 0.47703272104263306 0.47703272104263306
0.50452858209609985 0.50452858209609985 0.50452858209609985
0.55813556909561157 0.55813556909561157 0.55813556909561157
0.60733872652053833 0.60733872652053833 0.60733872652053833
0.65585523843765259 0.65585523843765259 0.65585523843765259
0.6922992467880249 0.6922992467880249 0.6922992467880249
0.52973967790603638 0.52973967790603638 0.52973967790603638
0.55742770433425903 0.55742770433425903 0.55742770433425903
0.58263969421386719 0.58263969421386719 0.58263969421386719
0.62863564491271973 0.62863564491271973 0.62863564491271973
0.67671716213226318 0.67671716213226318 0.67671716213226318
0.72377538681030273 0.72377538681030273 0.72377538681030273
0.76496237516403198 0.76496237516403198 0.76496237516403198
0.60860484838485718 0.60860484838485718 0.60860484838485718
0.62999480962753296 0.62999480962753296 0.62999480962753296
0.65561997890472412 0.65561997890472412 0.65561997890472412
0.69921964406967163 0.69921964406967163 0.69921964406967163
0.74349105358123779 0.74349105358123779 0.74349105358123779
0.79211485385894775 0.79211485385894775 0.79211485385894775
0.83173483610153198 0.83173483610153198 0.83173483610153198
0.6888311505317688 0.6888311505317688 0.6888311505317688
0.69278222322463989 0.69278222322463989 0.69278222322463989
0.71088886260986328 0.71088886260986328 0.71088886260986328
0.76040148735046387 0.76040148735046387 0.76040148735046387
0.80165481567382812 0.80165481567382812 0.80165481567382812
0.85312432050704956 0.85312432050704956 0.85312432050704956
0.9008527398109436 0.9008527398109436 0.9008527398109436
0.69743210077285767 0.69743210077285767 0.69743210077285767
0.7389417290687561 0.7389417290687561 0.7389417290687561
0.76062595844268799 0.76062595844268799 0.76062595844268799
0.80868422985076904 0.80868422985076904 0.80868422985076904
0.8446999192237854 0.8446999192237854 0.8446999192237854
0.88859325647354126 0.88859325647354126 0.88859325647354126
0.92267191410064697 0.92267191410064697 0.92267191410064697
0.42557910084724426 0.42557910084724426 0.42557910084724426
0.45622280240058899 0.45622280240058899 0.45622280240058899
0.49851569533348083 0.49851569533348083 0.49851569533348083
0.55124908685684204 0.55124908685684204 0.55124908685684204
0.60798466205596924 0.60798466205596924 0.60798466205596924
0.64542108774185181 0.64542108774185181 0.64542108774185181
0.67440879344940186 0.67440879344940186 0.67440879344940186
0.47084793448448181 0.47084793448448181 0.47084793448448181
0.51109689474105835 0.51109689474105835 0.51109689474105835
0.54414147138595581 0.54414147138595581 0.54414147138595581
0.58750063180923462 0.58750063180923462 0.58750063180923462
0.63344603776931763 0.63344603776931763 0.63344603776931763
0.67150312662124634 0.67150312662124634 0.67150312662124634
0.69060558080673218 0.69060558080673218 0.69060558080673218
0.5258370041847229 0.5258370041847229 0.5258370041847229
0.56689906120300293 0.56689906120300293 0.56689906120300293
0.59319627285003662 0.59319627285003662 0.59319627285003662
0.62880486249923706 0.62880486249923706 0.62880486249923706
0.67485731840133667 0.67485731840133667 0.67485731840133667
0.71947872638702393 0.71947872638702393 0.71947872638702393
0.74051761627197266 0.74051761627197266 0.74051761627197266
0.59669893980026245 0.59669893980026245 0.59669893980026245
0.63256490230560303 0.63256490230560303 0.63256490230560303
0.64877021312713623 0.64877021312713623 0.64877021312713623
0.68289327621459961 0.68289327621459961 0.68289327621459961
0.72855299711227417 0.72855299711227417 0.72855299711227417
0.77033400535583496 0.77033400535583496 0.77033400535583496
0.80021339654922485 0.80021339654922485 0.80021339654922485
0.67198818922042847 0.67198818922042847 0.67198818922042847
0.69508975744247437 0.69508975744247437 0.69508975744247437
0.71539455652236938 0.71539455652236938 0.71539455652236938
0.74866044521331787 0.74866044521331787 0.74866044521331787
0.79465305805206299 0.79465305805206299 0.79465305805206299
0.83240091800689697 0.83240091800689697 0.83240091800689697
0.86849546432495117 0.86849546432495117 0.86849546432495117
0.73179537057876587 0.73179537057876587 0.73179537057876587
0.74901711940765381 0.74901711940765381 0.74901711940765381
0.784717857837677 0.784717857837677 0.784717857837677
0.81113851070404053 0.81113851070404053 0.81113851070404053
0.85632926225662231 0.85632926225662231 0.85632926225662231
0.88560706377029419 0.88560706377029419 0.88560706377029419
0.92881655693054199 0.92881655693054199 0.92881655693054199
0.80354422330856323 0.80354422330856323 0.80354422330856323
0.78420418500900269 0.78420418500900269 0.78420418500900269
0.80350017547607422 0.80350017547607422 0.80350017547607422
0.85269492864608765 0.85269492864608765 0.85269492864608765
0.88963115215301514 0.88963115215301514 0.88963115215301514
0.91927087306976318 0.91927087306976318 0.91927087306976318
0.95127779245376587 0.95127779245376587 0.95127779245376587
0.50348705053329468 0.50348705053329468 0.50348705053329468
0.52946937084197998 0.52946937084197998 0.52946937084197998
0.56845772266387939 0.56845772266387939 0.56845772266387939
0.61434191465377808 0.61434191465377808 0.61434191465377808
0.67056190967559814 0.67056190967559814 0.67056190967559814
0.71558153629302979 0.71558153629302979 0.71558153629302979
0.72886049747467041 0.72886049747467041 0.72886049747467041
0.53944665193557739 0.53944665193557739 0.53944665193557739
0.58671277761459351 0.58671277761459351 0.58671277761459351
0.61822044849395752 0.61822044849395752 0.61822044849395752
0.65468317270278931 0.65468317270278931 0.65468317270278931
0.69025075435638428 0.69025075435638428 0.69025075435638428
0.72746151685714722 0.72746151685714722 0.72746151685714722
0.73797810077667236 0.73797810077667236 0.73797810077667236
0.59765994548797607 0.59765994548797607 0.59765994548797607
0.64300769567489624 0.64300769567489624 0.64300769567489624
0.66723227500915527 0.66723227500915527 0.66723227500915527
0.69813388586044312 0.69813388586044312 0.69813388586044312
0.73076313734054565 0.73076313734054565 0.73076313734054565
0.76458209753036499 0.76458209753036499 0.76458209753036499
0.79147279262542725 0.79147279262542725 0.79147279262542725
0.66086351871490479 0.66086351871490479 0.66086351871490479
0.69658702611923218 0.69658702611923218 0.69658702611923218
0.72147959470748901 0.72147959470748901 0.72147959470748901
0.74942135810852051 0.74942135810852051 0.74942135810852051
0.77766561508178711 0.77766561508178711 0.77766561508178711
0.80725598335266113 0.80725598335266113 0.80725598335266113
0.8371204137802124 0.8371204137802124 0.8371204137802124
0.72375690937042236 0.72375690937042236 0.72375690937042236
0.75361645221710205 0.75361645221710205 0.75361645221710205
0.77529573440551758 0.77529573440551758 0.77529573440551758
0.80469489097595215 0.80469489097595215 0.80469489097595215
0.83317708969116211 0.83317708969116211 0.83317708969116211
0.8644402027130127 0.8644402027130127 0.8644402027130127
0.89495325088500977 0.89495325088500977 0.89495325088500977
0.80049818754196167 0.80049818754196167 0.80049818754196167
0.80920207500457764 0.80920207500457764 0.80920207500457764
0.82911825180053711 0.82911825180053711 0.82911825180053711
0.85844308137893677 0.85844308137893677 0.85844308137893677
0.88965880870819092 0.88965880870819092 0.88965880870819092
0.92162048816680908 0.92162048816680908 0.92162048816680908
0.9546278715133667 0.9546278715133667 0.9546278715133667
0.82179045677185059 0.82179045677185059 0.82179045677185059
0.81090420484542847 0.81090420484542847 0.81090420484542847
0.82774025201797485 0.82774025201797485 0.82774025201797485
0.87864601612091064 0.87864601612091064 0.87864601612091064
0.91559982299804688 0.91559982299804688 0.91559982299804688
0.9444584846496582 0.9444584846496582 0.9444584846496582
0.96525532007217407 0.96525532007217407 0.96525532007217407
