luts/fujixtransiii/fuji_xtrans_iii_acros+g.cube
# Created by: G'MIC (https://gmic.eu)
TITLE "fuji_xtrans_iii_acros+g"
# LUT size
LUT_3D_SIZE 13
# Data domain
DOMAIN_MIN 0.0 0.0 0.0
DOMAIN_MAX 1.0 1.0 1.0
# LUT data points
0.017873277887701988 0.017873277887701988 0.017873277887701988
0.025148713961243629 0.025148713961243629 0.025148713961243629
0.034711815416812897 0.034711815416812897 0.034711815416812897
0.059806104749441147 0.059806104749441147 0.059806104749441147
0.091286331415176392 0.091286331415176392 0.091286331415176392
0.12743519246578217 0.12743519246578217 0.12743519246578217
0.1736065149307251 0.1736065149307251 0.1736065149307251
0.23255032300949097 0.23255032300949097 0.23255032300949097
0.26090627908706665 0.26090627908706665 0.26090627908706665
0.28918159008026123 0.28918159008026123 0.28918159008026123
0.29914575815200806 0.29914575815200806 0.29914575815200806
0.31363788247108459 0.31363788247108459 0.31363788247108459
0.33152896165847778 0.33152896165847778 0.33152896165847778
0.034363031387329102 0.034363031387329102 0.034363031387329102
0.04430057480931282 0.04430057480931282 0.04430057480931282
0.057215087115764618 0.057215087115764618 0.057215087115764618
0.081006862223148346 0.081006862223148346 0.081006862223148346
0.10939566045999527 0.10939566045999527 0.10939566045999527
0.14704713225364685 0.14704713225364685 0.14704713225364685
0.19078940153121948 0.19078940153121948 0.19078940153121948
0.23199760913848877 0.23199760913848877 0.23199760913848877
0.2680145800113678 0.2680145800113678 0.2680145800113678
0.29540541768074036 0.29540541768074036 0.29540541768074036
0.31011921167373657 0.31011921167373657 0.31011921167373657
0.32639017701148987 0.32639017701148987 0.32639017701148987
0.35964486002922058 0.35964486002922058 0.35964486002922058
0.063441842794418335 0.063441842794418335 0.063441842794418335
0.07351163774728775 0.07351163774728775 0.07351163774728775
0.085885994136333466 0.085885994136333466 0.085885994136333466
0.11372780799865723 0.11372780799865723 0.11372780799865723
0.14764638245105743 0.14764638245105743 0.14764638245105743
0.18255022168159485 0.18255022168159485 0.18255022168159485
0.22084143757820129 0.22084143757820129 0.22084143757820129
0.25491613149642944 0.25491613149642944 0.25491613149642944
0.28979533910751343 0.28979533910751343 0.28979533910751343
0.32213476300239563 0.32213476300239563 0.32213476300239563
0.34108224511146545 0.34108224511146545 0.34108224511146545
0.36653271317481995 0.36653271317481995 0.36653271317481995
0.39381635189056396 0.39381635189056396 0.39381635189056396
0.12330165505409241 0.12330165505409241 0.12330165505409241
0.13103117048740387 0.13103117048740387 0.13103117048740387
0.13781240582466125 0.13781240582466125 0.13781240582466125
0.16799120604991913 0.16799120604991913 0.16799120604991913
0.20003077387809753 0.20003077387809753 0.20003077387809753
0.23019345104694366 0.23019345104694366 0.23019345104694366
0.2662602961063385 0.2662602961063385 0.2662602961063385
0.29935014247894287 0.29935014247894287 0.29935014247894287
0.32721132040023804 0.32721132040023804 0.32721132040023804
0.363485187292099 0.363485187292099 0.363485187292099
0.40010926127433777 0.40010926127433777 0.40010926127433777
0.40825611352920532 0.40825611352920532 0.40825611352920532
0.41163021326065063 0.41163021326065063 0.41163021326065063
0.1905524730682373 0.1905524730682373 0.1905524730682373
0.21050156652927399 0.21050156652927399 0.21050156652927399
0.21939744055271149 0.21939744055271149 0.21939744055271149
0.245011106133461 0.245011106133461 0.245011106133461
0.27398231625556946 0.27398231625556946 0.27398231625556946
0.29375892877578735 0.29375892877578735 0.29375892877578735
0.32191735506057739 0.32191735506057739 0.32191735506057739
0.3516998291015625 0.3516998291015625 0.3516998291015625
0.3787786066532135 0.3787786066532135 0.3787786066532135
0.40749582648277283 0.40749582648277283 0.40749582648277283
0.4300178587436676 0.4300178587436676 0.4300178587436676
0.42246705293655396 0.42246705293655396 0.42246705293655396
0.43941405415534973 0.43941405415534973 0.43941405415534973
0.25759512186050415 0.25759512186050415 0.25759512186050415
0.29238611459732056 0.29238611459732056 0.29238611459732056
0.2956574559211731 0.2956574559211731 0.2956574559211731
0.32305288314819336 0.32305288314819336 0.32305288314819336
0.35827988386154175 0.35827988386154175 0.35827988386154175
0.3769376277923584 0.3769376277923584 0.3769376277923584
0.39587187767028809 0.39587187767028809 0.39587187767028809
0.41136816143989563 0.41136816143989563 0.41136816143989563
0.43927839398384094 0.43927839398384094 0.43927839398384094
0.47037884593009949 0.47037884593009949 0.47037884593009949
0.48571562767028809 0.48571562767028809 0.48571562767028809
0.48410782217979431 0.48410782217979431 0.48410782217979431
0.51351934671401978 0.51351934671401978 0.51351934671401978
0.31436079740524292 0.31436079740524292 0.31436079740524292
0.3472156822681427 0.3472156822681427 0.3472156822681427
0.35901394486427307 0.35901394486427307 0.35901394486427307
0.39126512408256531 0.39126512408256531 0.39126512408256531
0.42571830749511719 0.42571830749511719 0.42571830749511719
0.43869149684906006 0.43869149684906006 0.43869149684906006
0.46724259853363037 0.46724259853363037 0.46724259853363037
0.48398947715759277 0.48398947715759277 0.48398947715759277
0.50444227457046509 0.50444227457046509 0.50444227457046509
0.52691048383712769 0.52691048383712769 0.52691048383712769
0.53626662492752075 0.53626662492752075 0.53626662492752075
0.54659992456436157 0.54659992456436157 0.54659992456436157
0.57095444202423096 0.57095444202423096 0.57095444202423096
0.34340572357177734 0.34340572357177734 0.34340572357177734
0.37562495470046997 0.37562495470046997 0.37562495470046997
0.42103826999664307 0.42103826999664307 0.42103826999664307
0.42746633291244507 0.42746633291244507 0.42746633291244507
0.47327783703804016 0.47327783703804016 0.47327783703804016
0.48570543527603149 0.48570543527603149 0.48570543527603149
0.52360761165618896 0.52360761165618896 0.52360761165618896
0.54764670133590698 0.54764670133590698 0.54764670133590698
0.564167320728302 0.564167320728302 0.564167320728302
0.57748138904571533 0.57748138904571533 0.57748138904571533
0.58381944894790649 0.58381944894790649 0.58381944894790649
0.59435003995895386 0.59435003995895386 0.59435003995895386
0.61361539363861084 0.61361539363861084 0.61361539363861084
0.38717842102050781 0.38717842102050781 0.38717842102050781
0.39375722408294678 0.39375722408294678 0.39375722408294678
0.46501511335372925 0.46501511335372925 0.46501511335372925
0.4489721953868866 0.4489721953868866 0.4489721953868866
0.48993188142776489 0.48993188142776489 0.48993188142776489
0.5325896143913269 0.5325896143913269 0.5325896143913269
0.58468323945999146 0.58468323945999146 0.58468323945999146
0.59107071161270142 0.59107071161270142 0.59107071161270142
0.60067802667617798 0.60067802667617798 0.60067802667617798
0.60561537742614746 0.60561537742614746 0.60561537742614746
0.61427336931228638 0.61427336931228638 0.61427336931228638
0.64229732751846313 0.64229732751846313 0.64229732751846313
0.65958786010742188 0.65958786010742188 0.65958786010742188
0.41163894534111023 0.41163894534111023 0.41163894534111023
0.39305844902992249 0.39305844902992249 0.39305844902992249
0.45174333453178406 0.45174333453178406 0.45174333453178406
0.48558035492897034 0.48558035492897034 0.48558035492897034
0.52533328533172607 0.52533328533172607 0.52533328533172607
0.5595393180847168 0.5595393180847168 0.5595393180847168
0.59121930599212646 0.59121930599212646 0.59121930599212646
0.60294598340988159 0.60294598340988159 0.60294598340988159
0.61183702945709229 0.61183702945709229 0.61183702945709229
0.61583024263381958 0.61583024263381958 0.61583024263381958
0.63646113872528076 0.63646113872528076 0.63646113872528076
0.66545909643173218 0.66545909643173218 0.66545909643173218
0.68409585952758789 0.68409585952758789 0.68409585952758789
0.41505494713783264 0.41505494713783264 0.41505494713783264
0.41342636942863464 0.41342636942863464 0.41342636942863464
0.53720837831497192 0.53720837831497192 0.53720837831497192
0.56963431835174561 0.56963431835174561 0.56963431835174561
0.58549755811691284 0.58549755811691284 0.58549755811691284
0.59378421306610107 0.59378421306610107 0.59378421306610107
0.61738783121109009 0.61738783121109009 0.61738783121109009
0.62570774555206299 0.62570774555206299 0.62570774555206299
0.63242292404174805 0.63242292404174805 0.63242292404174805
0.63007205724716187 0.63007205724716187 0.63007205724716187
0.66252672672271729 0.66252672672271729 0.66252672672271729
0.68579375743865967 0.68579375743865967 0.68579375743865967
0.69083338975906372 0.69083338975906372 0.69083338975906372
0.45465052127838135 0.45465052127838135 0.45465052127838135
0.45165783166885376 0.45165783166885376 0.45165783166885376
0.56308078765869141 0.56308078765869141 0.56308078765869141
0.59470677375793457 0.59470677375793457 0.59470677375793457
0.61455631256103516 0.61455631256103516 0.61455631256103516
0.62940144538879395 0.62940144538879395 0.62940144538879395
0.64834946393966675 0.64834946393966675 0.64834946393966675
0.65486985445022583 0.65486985445022583 0.65486985445022583
0.6731647253036499 0.6731647253036499 0.6731647253036499
0.67952907085418701 0.67952907085418701 0.67952907085418701
0.69507288932800293 0.69507288932800293 0.69507288932800293
0.70362120866775513 0.70362120866775513 0.70362120866775513
0.70300942659378052 0.70300942659378052 0.70300942659378052
0.4566957950592041 0.4566957950592041 0.4566957950592041
0.4549717903137207 0.4549717903137207 0.4549717903137207
0.56947648525238037 0.56947648525238037 0.56947648525238037
0.60149198770523071 0.60149198770523071 0.60149198770523071
0.61571967601776123 0.61571967601776123 0.61571967601776123
0.63384532928466797 0.63384532928466797 0.63384532928466797
0.6598585844039917 0.6598585844039917 0.6598585844039917
0.68315267562866211 0.68315267562866211 0.68315267562866211
0.7028968334197998 0.7028968334197998 0.7028968334197998
0.72379720211029053 0.72379720211029053 0.72379720211029053
0.74434798955917358 0.74434798955917358 0.74434798955917358
0.74484390020370483 0.74484390020370483 0.74484390020370483
0.74494540691375732 0.74494540691375732 0.74494540691375732
0.026180597022175789 0.026180597022175789 0.026180597022175789
0.031955927610397339 0.031955927610397339 0.031955927610397339
0.050737001001834869 0.050737001001834869 0.050737001001834869
0.074029676616191864 0.074029676616191864 0.074029676616191864
0.092683665454387665 0.092683665454387665 0.092683665454387665
0.138792484998703 0.138792484998703 0.138792484998703
0.19627843797206879 0.19627843797206879 0.19627843797206879
0.24271290004253387 0.24271290004253387 0.24271290004253387
0.27748125791549683 0.27748125791549683 0.27748125791549683
0.307230144739151 0.307230144739151 0.307230144739151
0.3152334988117218 0.3152334988117218 0.3152334988117218
0.32740998268127441 0.32740998268127441 0.32740998268127441
0.36473605036735535 0.36473605036735535 0.36473605036735535
0.045744292438030243 0.045744292438030243 0.045744292438030243
0.055048353970050812 0.055048353970050812 0.055048353970050812
0.071883231401443481 0.071883231401443481 0.071883231401443481
0.093178920447826385 0.093178920447826385 0.093178920447826385
0.11576443910598755 0.11576443910598755 0.11576443910598755
0.15869814157485962 0.15869814157485962 0.15869814157485962
0.20739118754863739 0.20739118754863739 0.20739118754863739
0.24404750764369965 0.24404750764369965 0.24404750764369965
0.27986198663711548 0.27986198663711548 0.27986198663711548
0.30876395106315613 0.30876395106315613 0.30876395106315613
0.32403433322906494 0.32403433322906494 0.32403433322906494
0.35124069452285767 0.35124069452285767 0.35124069452285767
0.38465413451194763 0.38465413451194763 0.38465413451194763
0.083296529948711395 0.083296529948711395 0.083296529948711395
0.084445774555206299 0.084445774555206299 0.084445774555206299
0.1011510044336319 0.1011510044336319 0.1011510044336319
0.12269212305545807 0.12269212305545807 0.12269212305545807
0.15206189453601837 0.15206189453601837 0.15206189453601837
0.19008660316467285 0.19008660316467285 0.19008660316467285
0.22878348827362061 0.22878348827362061 0.22878348827362061
0.26577657461166382 0.26577657461166382 0.26577657461166382
0.30195289850234985 0.30195289850234985 0.30195289850234985
0.33316913247108459 0.33316913247108459 0.33316913247108459
0.35685139894485474 0.35685139894485474 0.35685139894485474
0.37953031063079834 0.37953031063079834 0.37953031063079834
0.39445263147354126 0.39445263147354126 0.39445263147354126
0.13697883486747742 0.13697883486747742 0.13697883486747742
0.14127674698829651 0.14127674698829651 0.14127674698829651
0.15715581178665161 0.15715581178665161 0.15715581178665161
0.1814773827791214 0.1814773827791214 0.1814773827791214
0.20902909338474274 0.20902909338474274 0.20902909338474274
0.23766617476940155 0.23766617476940155 0.23766617476940155
0.27042901515960693 0.27042901515960693 0.27042901515960693
0.30599835515022278 0.30599835515022278 0.30599835515022278
0.34019133448600769 0.34019133448600769 0.34019133448600769
0.37562495470046997 0.37562495470046997 0.37562495470046997
0.40513885021209717 0.40513885021209717 0.40513885021209717
0.41211444139480591 0.41211444139480591 0.41211444139480591
0.42844447493553162 0.42844447493553162 0.42844447493553162
0.21149758994579315 0.21149758994579315 0.21149758994579315
0.21621112525463104 0.21621112525463104 0.21621112525463104
0.22982767224311829 0.22982767224311829 0.22982767224311829
0.25205713510513306 0.25205713510513306 0.25205713510513306
0.27828741073608398 0.27828741073608398 0.27828741073608398
0.31027349829673767 0.31027349829673767 0.31027349829673767
0.33814013004302979 0.33814013004302979 0.33814013004302979
0.36482322216033936 0.36482322216033936 0.36482322216033936
0.39419054985046387 0.39419054985046387 0.39419054985046387
0.42533648014068604 0.42533648014068604 0.42533648014068604
0.45032426714897156 0.45032426714897156 0.45032426714897156
0.45548874139785767 0.45548874139785767 0.45548874139785767
0.48394763469696045 0.48394763469696045 0.48394763469696045
0.28695455193519592 0.28695455193519592 0.28695455193519592
0.30547192692756653 0.30547192692756653 0.30547192692756653
0.31723549962043762 0.31723549962043762 0.31723549962043762
0.33202502131462097 0.33202502131462097 0.33202502131462097
0.35711517930030823 0.35711517930030823 0.35711517930030823
0.38682457804679871 0.38682457804679871 0.38682457804679871
0.41529273986816406 0.41529273986816406 0.41529273986816406
0.43467527627944946 0.43467527627944946 0.43467527627944946
0.45686686038970947 0.45686686038970947 0.45686686038970947
0.48437583446502686 0.48437583446502686 0.48437583446502686
0.50068551301956177 0.50068551301956177 0.50068551301956177
0.51904761791229248 0.51904761791229248 0.51904761791229248
0.54498749971389771 0.54498749971389771 0.54498749971389771
0.34018367528915405 0.34018367528915405 0.34018367528915405
0.37595966458320618 0.37595966458320618 0.37595966458320618
0.39632442593574524 0.39632442593574524 0.39632442593574524
0.40526899695396423 0.40526899695396423 0.40526899695396423
0.43275678157806396 0.43275678157806396 0.43275678157806396
0.45578134059906006 0.45578134059906006 0.45578134059906006
0.4801756739616394 0.4801756739616394 0.4801756739616394
0.50175720453262329 0.50175720453262329 0.50175720453262329
0.5219045877456665 0.5219045877456665 0.5219045877456665
0.53971338272094727 0.53971338272094727 0.53971338272094727
0.55285447835922241 0.55285447835922241 0.55285447835922241
0.56441718339920044 0.56441718339920044 0.56441718339920044
0.58313900232315063 0.58313900232315063 0.58313900232315063
0.41088750958442688 0.41088750958442688 0.41088750958442688
0.42551663517951965 0.42551663517951965 0.42551663517951965
0.45264372229576111 0.45264372229576111 0.45264372229576111
0.4620259702205658 0.4620259702205658 0.4620259702205658
0.49048730731010437 0.49048730731010437 0.49048730731010437
0.51044774055480957 0.51044774055480957 0.51044774055480957
0.53855758905410767 0.53855758905410767 0.53855758905410767
0.56316149234771729 0.56316149234771729 0.56316149234771729
0.58022230863571167 0.58022230863571167 0.58022230863571167
0.5902830958366394 0.5902830958366394 0.5902830958366394
0.60715305805206299 0.60715305805206299 0.60715305805206299
0.61361712217330933 0.61361712217330933 0.61361712217330933
0.63030606508255005 0.63030606508255005 0.63030606508255005
0.45004943013191223 0.45004943013191223 0.45004943013191223
0.46788614988327026 0.46788614988327026 0.46788614988327026
0.49427244067192078 0.49427244067192078 0.49427244067192078
0.50272965431213379 0.50272965431213379 0.50272965431213379
0.52894687652587891 0.52894687652587891 0.52894687652587891
0.55038464069366455 0.55038464069366455 0.55038464069366455
0.59440821409225464 0.59440821409225464 0.59440821409225464
0.61413842439651489 0.61413842439651489 0.61413842439651489
0.61997658014297485 0.61997658014297485 0.61997658014297485
0.63521271944046021 0.63521271944046021 0.63521271944046021
0.65181535482406616 0.65181535482406616 0.65181535482406616
0.66417163610458374 0.66417163610458374 0.66417163610458374
0.67925357818603516 0.67925357818603516 0.67925357818603516
0.4622265100479126 0.4622265100479126 0.4622265100479126
0.47397130727767944 0.47397130727767944 0.47397130727767944
0.5331730842590332 0.5331730842590332 0.5331730842590332
0.56533759832382202 0.56533759832382202 0.56533759832382202
0.58393901586532593 0.58393901586532593 0.58393901586532593
0.59120100736618042 0.59120100736618042 0.59120100736618042
0.62524151802062988 0.62524151802062988 0.62524151802062988
0.63855421543121338 0.63855421543121338 0.63855421543121338
0.64321058988571167 0.64321058988571167 0.64321058988571167
0.66494584083557129 0.66494584083557129 0.66494584083557129
0.68083906173706055 0.68083906173706055 0.68083906173706055
0.6900562047958374 0.6900562047958374 0.6900562047958374
0.69605451822280884 0.69605451822280884 0.69605451822280884
0.46635705232620239 0.46635705232620239 0.46635705232620239
0.47430211305618286 0.47430211305618286 0.47430211305618286
0.56574636697769165 0.56574636697769165 0.56574636697769165
0.59377515316009521 0.59377515316009521 0.59377515316009521
0.61616683006286621 0.61616683006286621 0.61616683006286621
0.62663298845291138 0.62663298845291138 0.62663298845291138
0.65188467502593994 0.65188467502593994 0.65188467502593994
0.66965121030807495 0.66965121030807495 0.66965121030807495
0.68026149272918701 0.68026149272918701 0.68026149272918701
0.69059062004089355 0.69059062004089355 0.69059062004089355
0.71416676044464111 0.71416676044464111 0.71416676044464111
0.70227634906768799 0.70227634906768799 0.70227634906768799
0.70133358240127563 0.70133358240127563 0.70133358240127563
0.49031251668930054 0.49031251668930054 0.49031251668930054
0.47883182764053345 0.47883182764053345 0.47883182764053345
0.57583928108215332 0.57583928108215332 0.57583928108215332
0.6121971607208252 0.6121971607208252 0.6121971607208252
0.63032013177871704 0.63032013177871704 0.63032013177871704
0.63919633626937866 0.63919633626937866 0.63919633626937866
0.66183304786682129 0.66183304786682129 0.66183304786682129
0.68530333042144775 0.68530333042144775 0.68530333042144775
0.70315134525299072 0.70315134525299072 0.70315134525299072
0.72108978033065796 0.72108978033065796 0.72108978033065796
0.73986291885375977 0.73986291885375977 0.73986291885375977
0.74886530637741089 0.74886530637741089 0.74886530637741089
0.74621224403381348 0.74621224403381348 0.74621224403381348
0.50060635805130005 0.50060635805130005 0.50060635805130005
0.48818978667259216 0.48818978667259216 0.48818978667259216
0.59989827871322632 0.59989827871322632 0.59989827871322632
0.63743430376052856 0.63743430376052856 0.63743430376052856
0.64918333292007446 0.64918333292007446 0.64918333292007446
0.65155011415481567 0.65155011415481567 0.65155011415481567
0.66350489854812622 0.66350489854812622 0.66350489854812622
0.68603509664535522 0.68603509664535522 0.68603509664535522
0.70904767513275146 0.70904767513275146 0.70904767513275146
0.73170512914657593 0.73170512914657593 0.73170512914657593
0.74913233518600464 0.74913233518600464 0.74913233518600464
0.7818184494972229 0.7818184494972229 0.7818184494972229
0.79383611679077148 0.79383611679077148 0.79383611679077148
0.043450988829135895 0.043450988829135895 0.043450988829135895
0.057669308036565781 0.057669308036565781 0.057669308036565781
0.076174326241016388 0.076174326241016388 0.076174326241016388
0.10097977519035339 0.10097977519035339 0.10097977519035339
0.12516048550605774 0.12516048550605774 0.12516048550605774
0.16990359127521515 0.16990359127521515 0.16990359127521515
0.21940647065639496 0.21940647065639496 0.21940647065639496
0.26310849189758301 0.26310849189758301 0.26310849189758301
0.29401206970214844 0.29401206970214844 0.29401206970214844
0.31302967667579651 0.31302967667579651 0.31302967667579651
0.3251318633556366 0.3251318633556366 0.3251318633556366
0.35629546642303467 0.35629546642303467 0.35629546642303467
0.39604741334915161 0.39604741334915161 0.39604741334915161
0.066873125731945038 0.066873125731945038 0.066873125731945038
0.077937103807926178 0.077937103807926178 0.077937103807926178
0.092752434313297272 0.092752434313297272 0.092752434313297272
0.11484422534704208 0.11484422534704208 0.11484422534704208
0.14298895001411438 0.14298895001411438 0.14298895001411438
0.18235448002815247 0.18235448002815247 0.18235448002815247
0.22473643720149994 0.22473643720149994 0.22473643720149994
0.25860476493835449 0.25860476493835449 0.25860476493835449
0.29100179672241211 0.29100179672241211 0.29100179672241211
0.31914767622947693 0.31914767622947693 0.31914767622947693
0.3499259352684021 0.3499259352684021 0.3499259352684021
0.37908151745796204 0.37908151745796204 0.37908151745796204
0.39920690655708313 0.39920690655708313 0.39920690655708313
0.11030376702547073 0.11030376702547073 0.11030376702547073
0.11057516187429428 0.11057516187429428 0.11057516187429428
0.12247996777296066 0.12247996777296066 0.12247996777296066
0.1467365026473999 0.1467365026473999 0.1467365026473999
0.1757531613111496 0.1757531613111496 0.1757531613111496
0.2094724029302597 0.2094724029302597 0.2094724029302597
0.24608641862869263 0.24608641862869263 0.24608641862869263
0.28320622444152832 0.28320622444152832 0.28320622444152832
0.31696081161499023 0.31696081161499023 0.31696081161499023
0.34957641363143921 0.34957641363143921 0.34957641363143921
0.38140326738357544 0.38140326738357544 0.38140326738357544
0.39943039417266846 0.39943039417266846 0.39943039417266846
0.41741454601287842 0.41741454601287842 0.41741454601287842
0.1666782945394516 0.1666782945394516 0.1666782945394516
0.16695129871368408 0.16695129871368408 0.16695129871368408
0.17933762073516846 0.17933762073516846 0.17933762073516846
0.20397607982158661 0.20397607982158661 0.20397607982158661
0.23069395124912262 0.23069395124912262 0.23069395124912262
0.257648766040802 0.257648766040802 0.257648766040802
0.28862902522087097 0.28862902522087097 0.28862902522087097
0.32571372389793396 0.32571372389793396 0.32571372389793396
0.3592570424079895 0.3592570424079895 0.3592570424079895
0.39053916931152344 0.39053916931152344 0.39053916931152344
0.42368999123573303 0.42368999123573303 0.42368999123573303
0.44328063726425171 0.44328063726425171 0.44328063726425171
0.45745307207107544 0.45745307207107544 0.45745307207107544
0.22552883625030518 0.22552883625030518 0.22552883625030518
0.23231613636016846 0.23231613636016846 0.23231613636016846
0.24920341372489929 0.24920341372489929 0.24920341372489929
0.27324214577674866 0.27324214577674866 0.27324214577674866
0.29820013046264648 0.29820013046264648 0.29820013046264648
0.32750412821769714 0.32750412821769714 0.32750412821769714
0.35570240020751953 0.35570240020751953 0.35570240020751953
0.38291212916374207 0.38291212916374207 0.38291212916374207
