luts/fujixtransiii/fuji_xtrans_iii_mono.cube
# Created by: G'MIC (https://gmic.eu)
TITLE "fuji_xtrans_iii_mono"
# LUT size
LUT_3D_SIZE 13
# Data domain
DOMAIN_MIN 0.0 0.0 0.0
DOMAIN_MAX 1.0 1.0 1.0
# LUT data points
0.01070906687527895 0.01070906687527895 0.01070906687527895
0.019890131428837776 0.019890131428837776 0.019890131428837776
0.03528079017996788 0.03528079017996788 0.03528079017996788
0.062093142420053482 0.062093142420053482 0.062093142420053482
0.10944071412086487 0.10944071412086487 0.10944071412086487
0.16620014607906342 0.16620014607906342 0.16620014607906342
0.21743948757648468 0.21743948757648468 0.21743948757648468
0.28591489791870117 0.28591489791870117 0.28591489791870117
0.32530674338340759 0.32530674338340759 0.32530674338340759
0.35409370064735413 0.35409370064735413 0.35409370064735413
0.36944431066513062 0.36944431066513062 0.36944431066513062
0.39021337032318115 0.39021337032318115 0.39021337032318115
0.40158432722091675 0.40158432722091675 0.40158432722091675
0.023241035640239716 0.023241035640239716 0.023241035640239716
0.033159937709569931 0.033159937709569931 0.033159937709569931
0.053914401680231094 0.053914401680231094 0.053914401680231094
0.085537120699882507 0.085537120699882507 0.085537120699882507
0.13259577751159668 0.13259577751159668 0.13259577751159668
0.18331222236156464 0.18331222236156464 0.18331222236156464
0.2360389232635498 0.2360389232635498 0.2360389232635498
0.29208219051361084 0.29208219051361084 0.29208219051361084
0.33751845359802246 0.33751845359802246 0.33751845359802246
0.37275546789169312 0.37275546789169312 0.37275546789169312
0.38375458121299744 0.38375458121299744 0.38375458121299744
0.40068516135215759 0.40068516135215759 0.40068516135215759
0.43239393830299377 0.43239393830299377 0.43239393830299377
0.049810789525508881 0.049810789525508881 0.049810789525508881
0.064833097159862518 0.064833097159862518 0.064833097159862518
0.085878424346446991 0.085878424346446991 0.085878424346446991
0.12732617557048798 0.12732617557048798 0.12732617557048798
0.17369550466537476 0.17369550466537476 0.17369550466537476
0.22207646071910858 0.22207646071910858 0.22207646071910858
0.26644101738929749 0.26644101738929749 0.26644101738929749
0.31267276406288147 0.31267276406288147 0.31267276406288147
0.36030828952789307 0.36030828952789307 0.36030828952789307
0.39585715532302856 0.39585715532302856 0.39585715532302856
0.41340252757072449 0.41340252757072449 0.41340252757072449
0.43931519985198975 0.43931519985198975 0.43931519985198975
0.46699026226997375 0.46699026226997375 0.46699026226997375
0.098921038210391998 0.098921038210391998 0.098921038210391998
0.11653915047645569 0.11653915047645569 0.11653915047645569
0.1391909122467041 0.1391909122467041 0.1391909122467041
0.1814960241317749 0.1814960241317749 0.1814960241317749
0.22338259220123291 0.22338259220123291 0.22338259220123291
0.26800328493118286 0.26800328493118286 0.26800328493118286
0.31371107697486877 0.31371107697486877 0.31371107697486877
0.35569563508033752 0.35569563508033752 0.35569563508033752
0.39875122904777527 0.39875122904777527 0.39875122904777527
0.43561297655105591 0.43561297655105591 0.43561297655105591
0.46508967876434326 0.46508967876434326 0.46508967876434326
0.46972516179084778 0.46972516179084778 0.46972516179084778
0.47685182094573975 0.47685182094573975 0.47685182094573975
0.15694829821586609 0.15694829821586609 0.15694829821586609
0.19612319767475128 0.19612319767475128 0.19612319767475128
0.21691204607486725 0.21691204607486725 0.21691204607486725
0.25031003355979919 0.25031003355979919 0.25031003355979919
0.29011109471321106 0.29011109471321106 0.29011109471321106
0.32991120219230652 0.32991120219230652 0.32991120219230652
0.374704509973526 0.374704509973526 0.374704509973526
0.40875634551048279 0.40875634551048279 0.40875634551048279
0.44098690152168274 0.44098690152168274 0.44098690152168274
0.46997955441474915 0.46997955441474915 0.46997955441474915
0.49133378267288208 0.49133378267288208 0.49133378267288208
0.48378589749336243 0.48378589749336243 0.48378589749336243
0.49905073642730713 0.49905073642730713 0.49905073642730713
0.22857838869094849 0.22857838869094849 0.22857838869094849
0.27097827196121216 0.27097827196121216 0.27097827196121216
0.28239500522613525 0.28239500522613525 0.28239500522613525
0.31093773245811462 0.31093773245811462 0.31093773245811462
0.36008390784263611 0.36008390784263611 0.36008390784263611
0.39754375815391541 0.39754375815391541 0.39754375815391541
0.43272703886032104 0.43272703886032104 0.43272703886032104
0.4630577564239502 0.4630577564239502 0.4630577564239502
0.49104708433151245 0.49104708433151245 0.49104708433151245
0.51922565698623657 0.51922565698623657 0.51922565698623657
0.53777503967285156 0.53777503967285156 0.53777503967285156
0.54144597053527832 0.54144597053527832 0.54144597053527832
0.57462984323501587 0.57462984323501587 0.57462984323501587
0.27886340022087097 0.27886340022087097 0.27886340022087097
0.31001561880111694 0.31001561880111694 0.31001561880111694
0.32718434929847717 0.32718434929847717 0.32718434929847717
0.35820329189300537 0.35820329189300537 0.35820329189300537
0.40923100709915161 0.40923100709915161 0.40923100709915161
0.43773388862609863 0.43773388862609863 0.43773388862609863
0.47792926430702209 0.47792926430702209 0.47792926430702209
0.51471364498138428 0.51471364498138428 0.51471364498138428
0.54105788469314575 0.54105788469314575 0.54105788469314575
0.56440091133117676 0.56440091133117676 0.56440091133117676
0.57806748151779175 0.57806748151779175 0.57806748151779175
0.5921701192855835 0.5921701192855835 0.5921701192855835
0.62170624732971191 0.62170624732971191 0.62170624732971191
0.30417218804359436 0.30417218804359436 0.30417218804359436
0.33126485347747803 0.33126485347747803 0.33126485347747803
0.38090187311172485 0.38090187311172485 0.38090187311172485
0.39229196310043335 0.39229196310043335 0.39229196310043335
0.44319057464599609 0.44319057464599609 0.44319057464599609
0.46693983674049377 0.46693983674049377 0.46693983674049377
0.51949363946914673 0.51949363946914673 0.51949363946914673
0.55558699369430542 0.55558699369430542 0.55558699369430542
0.58436816930770874 0.58436816930770874 0.58436816930770874
0.61112672090530396 0.61112672090530396 0.61112672090530396
0.62610167264938354 0.62610167264938354 0.62610167264938354
0.64015078544616699 0.64015078544616699 0.64015078544616699
0.6641155481338501 0.6641155481338501 0.6641155481338501
0.3428339958190918 0.3428339958190918 0.3428339958190918
0.35244899988174438 0.35244899988174438 0.35244899988174438
0.41151538491249084 0.41151538491249084 0.41151538491249084
0.40533733367919922 0.40533733367919922 0.40533733367919922
0.45619192719459534 0.45619192719459534 0.45619192719459534
0.49702444672584534 0.49702444672584534 0.49702444672584534
0.55911403894424438 0.55911403894424438 0.55911403894424438
0.59443515539169312 0.59443515539169312 0.59443515539169312
0.61847579479217529 0.61847579479217529 0.61847579479217529
0.64391899108886719 0.64391899108886719 0.64391899108886719
0.65402472019195557 0.65402472019195557 0.65402472019195557
0.68021523952484131 0.68021523952484131 0.68021523952484131
0.70350956916809082 0.70350956916809082 0.70350956916809082
0.3661976158618927 0.3661976158618927 0.3661976158618927
0.35364609956741333 0.35364609956741333 0.35364609956741333
0.40667083859443665 0.40667083859443665 0.40667083859443665
0.4413391649723053 0.4413391649723053 0.4413391649723053
0.48801812529563904 0.48801812529563904 0.48801812529563904
0.5220986008644104 0.5220986008644104 0.5220986008644104
0.56464791297912598 0.56464791297912598 0.56464791297912598
0.59794831275939941 0.59794831275939941 0.59794831275939941
0.62199634313583374 0.62199634313583374 0.62199634313583374
0.64828085899353027 0.64828085899353027 0.64828085899353027
0.67220473289489746 0.67220473289489746 0.67220473289489746
0.70380347967147827 0.70380347967147827 0.70380347967147827
0.72588306665420532 0.72588306665420532 0.72588306665420532
0.37640401721000671 0.37640401721000671 0.37640401721000671
0.3692052960395813 0.3692052960395813 0.3692052960395813
0.48341035842895508 0.48341035842895508 0.48341035842895508
0.51600295305252075 0.51600295305252075 0.51600295305252075
0.53523379564285278 0.53523379564285278 0.53523379564285278
0.55459815263748169 0.55459815263748169 0.55459815263748169
0.59286296367645264 0.59286296367645264 0.59286296367645264
0.60821306705474854 0.60821306705474854 0.60821306705474854
0.63450044393539429 0.63450044393539429 0.63450044393539429
0.66121119260787964 0.66121119260787964 0.66121119260787964
0.69672250747680664 0.69672250747680664 0.69672250747680664
0.72732645273208618 0.72732645273208618 0.72732645273208618
0.73356127738952637 0.73356127738952637 0.73356127738952637
0.40318411588668823 0.40318411588668823 0.40318411588668823
0.40073889493942261 0.40073889493942261 0.40073889493942261
0.50299495458602905 0.50299495458602905 0.50299495458602905
0.53335177898406982 0.53335177898406982 0.53335177898406982
0.55685049295425415 0.55685049295425415 0.55685049295425415
0.57882612943649292 0.57882612943649292 0.57882612943649292
0.61433631181716919 0.61433631181716919 0.61433631181716919
0.63063371181488037 0.63063371181488037 0.63063371181488037
0.66383630037307739 0.66383630037307739 0.66383630037307739
0.69470953941345215 0.69470953941345215 0.69470953941345215
0.71289438009262085 0.71289438009262085 0.71289438009262085
0.73400980234146118 0.73400980234146118 0.73400980234146118
0.74388676881790161 0.74388676881790161 0.74388676881790161
0.4091150164604187 0.4091150164604187 0.4091150164604187
0.40301364660263062 0.40301364660263062 0.40301364660263062
0.50570213794708252 0.50570213794708252 0.50570213794708252
0.53752768039703369 0.53752768039703369 0.53752768039703369
0.55515474081039429 0.55515474081039429 0.55515474081039429
0.57861709594726562 0.57861709594726562 0.57861709594726562
0.61745607852935791 0.61745607852935791 0.61745607852935791
0.65176993608474731 0.65176993608474731 0.65176993608474731
0.69187432527542114 0.69187432527542114 0.69187432527542114
0.72619485855102539 0.72619485855102539 0.72619485855102539
0.74630153179168701 0.74630153179168701 0.74630153179168701
0.76019805669784546 0.76019805669784546 0.76019805669784546
0.76884257793426514 0.76884257793426514 0.76884257793426514
0.015589515678584576 0.015589515678584576 0.015589515678584576
0.024908343330025673 0.024908343330025673 0.024908343330025673
0.050638701766729355 0.050638701766729355 0.050638701766729355
0.080031149089336395 0.080031149089336395 0.080031149089336395
0.11069635301828384 0.11069635301828384 0.11069635301828384
0.17950163781642914 0.17950163781642914 0.17950163781642914
0.24495245516300201 0.24495245516300201 0.24495245516300201
0.29811406135559082 0.29811406135559082 0.29811406135559082
0.34571599960327148 0.34571599960327148 0.34571599960327148
0.37558397650718689 0.37558397650718689 0.37558397650718689
0.38783484697341919 0.38783484697341919 0.38783484697341919
0.40271294116973877 0.40271294116973877 0.40271294116973877
0.44205868244171143 0.44205868244171143 0.44205868244171143
0.034256655722856522 0.034256655722856522 0.034256655722856522
0.049910616129636765 0.049910616129636765 0.049910616129636765
0.071539245545864105 0.071539245545864105 0.071539245545864105
0.1042703241109848 0.1042703241109848 0.1042703241109848
0.14108274877071381 0.14108274877071381 0.14108274877071381
0.19764710962772369 0.19764710962772369 0.19764710962772369
0.25192028284072876 0.25192028284072876 0.25192028284072876
0.30189797282218933 0.30189797282218933 0.30189797282218933
0.34710574150085449 0.34710574150085449 0.34710574150085449
0.38128185272216797 0.38128185272216797 0.38128185272216797
0.39817488193511963 0.39817488193511963 0.39817488193511963
0.43149253726005554 0.43149253726005554 0.43149253726005554
0.46291196346282959 0.46291196346282959 0.46291196346282959
0.066879779100418091 0.066879779100418091 0.066879779100418091
0.081698216497898102 0.081698216497898102 0.081698216497898102
0.10146432369947433 0.10146432369947433 0.10146432369947433
0.13761232793331146 0.13761232793331146 0.13761232793331146
0.18250514566898346 0.18250514566898346 0.18250514566898346
0.23313601315021515 0.23313601315021515 0.23313601315021515
0.27887207269668579 0.27887207269668579 0.27887207269668579
0.32702505588531494 0.32702505588531494 0.32702505588531494
0.37246131896972656 0.37246131896972656 0.37246131896972656
0.40595266222953796 0.40595266222953796 0.40595266222953796
0.43050333857536316 0.43050333857536316 0.43050333857536316
0.4553145170211792 0.4553145170211792 0.4553145170211792
0.47608616948127747 0.47608616948127747 0.47608616948127747
0.11894574761390686 0.11894574761390686 0.11894574761390686
0.13126376271247864 0.13126376271247864 0.13126376271247864
0.15794193744659424 0.15794193744659424 0.15794193744659424
0.19379101693630219 0.19379101693630219 0.19379101693630219
0.23445841670036316 0.23445841670036316 0.23445841670036316
0.28054553270339966 0.28054553270339966 0.28054553270339966
0.32322749495506287 0.32322749495506287 0.32322749495506287
0.36634713411331177 0.36634713411331177 0.36634713411331177
0.40974462032318115 0.40974462032318115 0.40974462032318115
0.44376844167709351 0.44376844167709351 0.44376844167709351
0.46764472126960754 0.46764472126960754 0.46764472126960754
0.47991481423377991 0.47991481423377991 0.47991481423377991
0.4973081648349762 0.4973081648349762 0.4973081648349762
0.19019061326980591 0.19019061326980591 0.19019061326980591
0.20501939952373505 0.20501939952373505 0.20501939952373505
0.22553850710391998 0.22553850710391998 0.22553850710391998
0.25658997893333435 0.25658997893333435 0.25658997893333435
0.29352554678916931 0.29352554678916931 0.29352554678916931
0.33880847692489624 0.33880847692489624 0.33880847692489624
0.37949958443641663 0.37949958443641663 0.37949958443641663
0.41604754328727722 0.41604754328727722 0.41604754328727722
0.45090141892433167 0.45090141892433167 0.45090141892433167
0.4829266369342804 0.4829266369342804 0.4829266369342804
0.50733578205108643 0.50733578205108643 0.50733578205108643
0.51638782024383545 0.51638782024383545 0.51638782024383545
0.54441362619400024 0.54441362619400024 0.54441362619400024
0.25617578625679016 0.25617578625679016 0.25617578625679016
0.27846008539199829 0.27846008539199829 0.27846008539199829
0.29312947392463684 0.29312947392463684 0.29312947392463684
0.32065582275390625 0.32065582275390625 0.32065582275390625
0.35901418328285217 0.35901418328285217 0.35901418328285217
0.3982938826084137 0.3982938826084137 0.3982938826084137
0.43398803472518921 0.43398803472518921 0.43398803472518921
0.46905684471130371 0.46905684471130371 0.46905684471130371
0.50055497884750366 0.50055497884750366 0.50055497884750366
0.52975481748580933 0.52975481748580933 0.52975481748580933
0.55696219205856323 0.55696219205856323 0.55696219205856323
0.5776602029800415 0.5776602029800415 0.5776602029800415
0.60086047649383545 0.60086047649383545 0.60086047649383545
0.29909992218017578 0.29909992218017578 0.29909992218017578
0.33519479632377625 0.33519479632377625 0.33519479632377625
0.35793468356132507 0.35793468356132507 0.35793468356132507
0.37519332766532898 0.37519332766532898 0.37519332766532898
0.41841322183609009 0.41841322183609009 0.41841322183609009
0.44478723406791687 0.44478723406791687 0.44478723406791687
0.47668954730033875 0.47668954730033875 0.47668954730033875
0.51967340707778931 0.51967340707778931 0.51967340707778931
0.55009359121322632 0.55009359121322632 0.55009359121322632
0.57721614837646484 0.57721614837646484 0.57721614837646484
0.60447120666503906 0.60447120666503906 0.60447120666503906
0.61914271116256714 0.61914271116256714 0.61914271116256714
0.63564044237136841 0.63564044237136841 0.63564044237136841
0.36612120270729065 0.36612120270729065 0.36612120270729065
0.3760865330696106 0.3760865330696106 0.3760865330696106
0.40850177407264709 0.40850177407264709 0.40850177407264709
0.41558218002319336 0.41558218002319336 0.41558218002319336
0.4564184844493866 0.4564184844493866 0.4564184844493866
0.48205333948135376 0.48205333948135376 0.48205333948135376
0.52381694316864014 0.52381694316864014 0.52381694316864014
0.55841606855392456 0.55841606855392456 0.55841606855392456
0.58916300535202026 0.58916300535202026 0.58916300535202026
0.62216687202453613 0.62216687202453613 0.62216687202453613
0.65100228786468506 0.65100228786468506 0.65100228786468506
0.6665346622467041 0.6665346622467041 0.6665346622467041
0.68520438671112061 0.68520438671112061 0.68520438671112061
0.40191012620925903 0.40191012620925903 0.40191012620925903
0.410218745470047 0.410218745470047 0.410218745470047
0.43911054730415344 0.43911054730415344 0.43911054730415344
0.45065408945083618 0.45065408945083618 0.45065408945083618
0.4878736138343811 0.4878736138343811 0.4878736138343811
0.51428967714309692 0.51428967714309692 0.51428967714309692
0.56552612781524658 0.56552612781524658 0.56552612781524658
0.60159707069396973 0.60159707069396973 0.60159707069396973
0.62418609857559204 0.62418609857559204 0.62418609857559204
0.66120797395706177 0.66120797395706177 0.66120797395706177
0.68831568956375122 0.68831568956375122 0.68831568956375122
0.70962584018707275 0.70962584018707275 0.70962584018707275
0.72800999879837036 0.72800999879837036 0.72800999879837036
0.40877348184585571 0.40877348184585571 0.40877348184585571
0.42026558518409729 0.42026558518409729 0.42026558518409729
0.47844046354293823 0.47844046354293823 0.47844046354293823
0.50773060321807861 0.50773060321807861 0.50773060321807861
0.53350579738616943 0.53350579738616943 0.53350579738616943
0.55170053243637085 0.55170053243637085 0.55170053243637085
0.59334176778793335 0.59334176778793335 0.59334176778793335
0.62116110324859619 0.62116110324859619 0.62116110324859619
0.64693146944046021 0.64693146944046021 0.64693146944046021
0.68116152286529541 0.68116152286529541 0.68116152286529541
0.70872789621353149 0.70872789621353149 0.70872789621353149
0.73018801212310791 0.73018801212310791 0.73018801212310791
0.73809635639190674 0.73809635639190674 0.73809635639190674
0.41739118099212646 0.41739118099212646 0.41739118099212646
0.42518612742424011 0.42518612742424011 0.42518612742424011
0.502480149269104 0.502480149269104 0.502480149269104
0.52847951650619507 0.52847951650619507 0.52847951650619507
0.55653518438339233 0.55653518438339233 0.55653518438339233
0.5812218189239502 0.5812218189239502 0.5812218189239502
0.62216901779174805 0.62216901779174805 0.62216901779174805
0.6453852653503418 0.6453852653503418 0.6453852653503418
0.67289644479751587 0.67289644479751587 0.67289644479751587
0.7014349102973938 0.7014349102973938 0.7014349102973938
0.73174679279327393 0.73174679279327393 0.73174679279327393
0.74229472875595093 0.74229472875595093 0.74229472875595093
0.74134302139282227 0.74134302139282227 0.74134302139282227
0.43519121408462524 0.43519121408462524 0.43519121408462524
0.42686864733695984 0.42686864733695984 0.42686864733695984
0.51251316070556641 0.51251316070556641 0.51251316070556641
0.54509854316711426 0.54509854316711426 0.54509854316711426
0.57035374641418457 0.57035374641418457 0.57035374641418457
0.58759236335754395 0.58759236335754395 0.58759236335754395
0.6269347071647644 0.6269347071647644 0.6269347071647644
0.65672910213470459 0.65672910213470459 0.65672910213470459
0.69254881143569946 0.69254881143569946 0.69254881143569946
0.72429287433624268 0.72429287433624268 0.72429287433624268
0.75052362680435181 0.75052362680435181 0.75052362680435181
0.76738214492797852 0.76738214492797852 0.76738214492797852
0.76779943704605103 0.76779943704605103 0.76779943704605103
0.44982883334159851 0.44982883334159851 0.44982883334159851
0.43420052528381348 0.43420052528381348 0.43420052528381348
0.53302609920501709 0.53302609920501709 0.53302609920501709
0.56800496578216553 0.56800496578216553 0.56800496578216553
0.58363562822341919 0.58363562822341919 0.58363562822341919
0.59831631183624268 0.59831631183624268 0.59831631183624268
0.63006013631820679 0.63006013631820679 0.63006013631820679
0.65667271614074707 0.65667271614074707 0.65667271614074707
0.69319421052932739 0.69319421052932739 0.69319421052932739
0.72875362634658813 0.72875362634658813 0.72875362634658813
0.75390589237213135 0.75390589237213135 0.75390589237213135
0.78864282369613647 0.78864282369613647 0.78864282369613647
0.80009651184082031 0.80009651184082031 0.80009651184082031
0.033651389181613922 0.033651389181613922 0.033651389181613922
0.050283588469028473 0.050283588469028473 0.050283588469028473
0.07483527809381485 0.07483527809381485 0.07483527809381485
0.11822044849395752 0.11822044849395752 0.11822044849395752
0.15051896870136261 0.15051896870136261 0.15051896870136261
0.21712988615036011 0.21712988615036011 0.21712988615036011
0.27424442768096924 0.27424442768096924 0.27424442768096924
0.32088446617126465 0.32088446617126465 0.32088446617126465
0.35816523432731628 0.35816523432731628 0.35816523432731628
0.38267242908477783 0.38267242908477783 0.38267242908477783
0.40256673097610474 0.40256673097610474 0.40256673097610474
0.43643143773078918 0.43643143773078918 0.43643143773078918
0.48102137446403503 0.48102137446403503 0.48102137446403503
0.054994158446788788 0.054994158446788788 0.054994158446788788
0.075233176350593567 0.075233176350593567 0.075233176350593567
0.096404999494552612 0.096404999494552612 0.096404999494552612
0.13483461737632751 0.13483461737632751 0.13483461737632751
0.17454357445240021 0.17454357445240021 0.17454357445240021
0.22328720986843109 0.22328720986843109 0.22328720986843109
0.27293282747268677 0.27293282747268677 0.27293282747268677
0.31955906748771667 0.31955906748771667 0.31955906748771667
0.36048471927642822 0.36048471927642822 0.36048471927642822
0.39330977201461792 0.39330977201461792 0.39330977201461792
0.4285627007484436 0.4285627007484436 0.4285627007484436
0.4588075578212738 0.4588075578212738 0.4588075578212738
0.48455190658569336 0.48455190658569336 0.48455190658569336
0.089811883866786957 0.089811883866786957 0.089811883866786957
0.10813069343566895 0.10813069343566895 0.10813069343566895
0.12952855229377747 0.12952855229377747 0.12952855229377747
0.16602936387062073 0.16602936387062073 0.16602936387062073
0.20738121867179871 0.20738121867179871 0.20738121867179871
0.25084072351455688 0.25084072351455688 0.25084072351455688
0.29807668924331665 0.29807668924331665 0.29807668924331665
0.34503063559532166 0.34503063559532166 0.34503063559532166
0.38472804427146912 0.38472804427146912 0.38472804427146912
0.42339083552360535 0.42339083552360535 0.42339083552360535
0.45500838756561279 0.45500838756561279 0.45500838756561279
0.47646394371986389 0.47646394371986389 0.47646394371986389
0.50330692529678345 0.50330692529678345 0.50330692529678345
0.14752043783664703 0.14752043783664703 0.14752043783664703
0.15855179727077484 0.15855179727077484 0.15855179727077484
0.18326061964035034 0.18326061964035034 0.18326061964035034
0.21838922798633575 0.21838922798633575 0.21838922798633575
0.25513729453086853 0.25513729453086853 0.25513729453086853
0.2941109836101532 0.2941109836101532 0.2941109836101532
0.33746802806854248 0.33746802806854248 0.33746802806854248
0.38390499353408813 0.38390499353408813 0.38390499353408813
0.42326578497886658 0.42326578497886658 0.42326578497886658
0.45814862847328186 0.45814862847328186 0.45814862847328186
0.49383464455604553 0.49383464455604553 0.49383464455604553
0.51979994773864746 0.51979994773864746 0.51979994773864746
0.53748130798339844 0.53748130798339844 0.53748130798339844
0.21114569902420044 0.21114569902420044 0.21114569902420044
0.22307328879833221 0.22307328879833221 0.22307328879833221
0.2474689781665802 0.2474689781665802 0.2474689781665802
0.27978575229644775 0.27978575229644775 0.27978575229644775
0.31233066320419312 0.31233066320419312 0.31233066320419312
0.34721970558166504 0.34721970558166504 0.34721970558166504
0.38616406917572021 0.38616406917572021 0.38616406917572021
