luts/fujixtransiii/fuji_xtrans_iii_acros+ye.cube
# Created by: G'MIC (https://gmic.eu)
TITLE "fuji_xtrans_iii_acros+ye"
# LUT size
LUT_3D_SIZE 13
# Data domain
DOMAIN_MIN 0.0 0.0 0.0
DOMAIN_MAX 1.0 1.0 1.0
# LUT data points
0.014691311866044998 0.014691311866044998 0.014691311866044998
0.031982243061065674 0.031982243061065674 0.031982243061065674
0.064414069056510925 0.064414069056510925 0.064414069056510925
0.10969851911067963 0.10969851911067963 0.10969851911067963
0.1685357391834259 0.1685357391834259 0.1685357391834259
0.25022771954536438 0.25022771954536438 0.25022771954536438
0.32424843311309814 0.32424843311309814 0.32424843311309814
0.41517680883407593 0.41517680883407593 0.41517680883407593
0.46910309791564941 0.46910309791564941 0.46910309791564941
0.51284569501876831 0.51284569501876831 0.51284569501876831
0.52749049663543701 0.52749049663543701 0.52749049663543701
0.54227453470230103 0.54227453470230103 0.54227453470230103
0.56505477428436279 0.56505477428436279 0.56505477428436279
0.024579260498285294 0.024579260498285294 0.024579260498285294
0.047095220535993576 0.047095220535993576 0.047095220535993576
0.081755787134170532 0.081755787134170532 0.081755787134170532
0.12909449636936188 0.12909449636936188 0.12909449636936188
0.19355940818786621 0.19355940818786621 0.19355940818786621
0.26645597815513611 0.26645597815513611 0.26645597815513611
0.3375231921672821 0.3375231921672821 0.3375231921672821
0.41724053025245667 0.41724053025245667 0.41724053025245667
0.47407758235931396 0.47407758235931396 0.47407758235931396
0.52301859855651855 0.52301859855651855 0.52301859855651855
0.54166519641876221 0.54166519641876221 0.54166519641876221
0.55948245525360107 0.55948245525360107 0.55948245525360107
0.59085512161254883 0.59085512161254883 0.59085512161254883
0.044717557728290558 0.044717557728290558 0.044717557728290558
0.06736978143453598 0.06736978143453598 0.06736978143453598
0.10009898990392685 0.10009898990392685 0.10009898990392685
0.15407291054725647 0.15407291054725647 0.15407291054725647
0.22043666243553162 0.22043666243553162 0.22043666243553162
0.28643313050270081 0.28643313050270081 0.28643313050270081
0.35836440324783325 0.35836440324783325 0.35836440324783325
0.43446207046508789 0.43446207046508789 0.43446207046508789
0.48990693688392639 0.48990693688392639 0.48990693688392639
0.53177541494369507 0.53177541494369507 0.53177541494369507
0.56112021207809448 0.56112021207809448 0.56112021207809448
0.59082925319671631 0.59082925319671631 0.59082925319671631
0.61476552486419678 0.61476552486419678 0.61476552486419678
0.090672992169857025 0.090672992169857025 0.090672992169857025
0.10884076356887817 0.10884076356887817 0.10884076356887817
0.13157159090042114 0.13157159090042114 0.13157159090042114
0.1871931403875351 0.1871931403875351 0.1871931403875351
0.25088414549827576 0.25088414549827576 0.25088414549827576
0.31736269593238831 0.31736269593238831 0.31736269593238831
0.38938835263252258 0.38938835263252258 0.38938835263252258
0.4564507007598877 0.4564507007598877 0.4564507007598877
0.50898677110671997 0.50898677110671997 0.50898677110671997
0.55674207210540771 0.55674207210540771 0.55674207210540771
0.60602962970733643 0.60602962970733643 0.60602962970733643
0.62055259943008423 0.62055259943008423 0.62055259943008423
0.62431138753890991 0.62431138753890991 0.62431138753890991
0.14439284801483154 0.14439284801483154 0.14439284801483154
0.17189303040504456 0.17189303040504456 0.17189303040504456
0.19670329988002777 0.19670329988002777 0.19670329988002777
0.24919670820236206 0.24919670820236206 0.24919670820236206
0.30563217401504517 0.30563217401504517 0.30563217401504517
0.35975682735443115 0.35975682735443115 0.35975682735443115
0.42808237671852112 0.42808237671852112 0.42808237671852112
0.4835658073425293 0.4835658073425293 0.4835658073425293
0.53420615196228027 0.53420615196228027 0.53420615196228027
0.58130872249603271 0.58130872249603271 0.58130872249603271
0.61991029977798462 0.61991029977798462 0.61991029977798462
0.62908405065536499 0.62908405065536499 0.62908405065536499
0.64114606380462646 0.64114606380462646 0.64114606380462646
0.20409879088401794 0.20409879088401794 0.20409879088401794
0.24060723185539246 0.24060723185539246 0.24060723185539246
0.26238733530044556 0.26238733530044556 0.26238733530044556
0.30401706695556641 0.30401706695556641 0.30399936437606812
0.36705121397972107 0.36705121397972107 0.36705121397972107
0.41791155934333801 0.41791155934333801 0.41791155934333801
0.47032076120376587 0.47032076120376587 0.47032076120376587
0.52036875486373901 0.52036875486373901 0.52036875486373901
0.56527870893478394 0.56527870893478394 0.56527870893478394
0.60745298862457275 0.60745298862457275 0.60745298862457275
0.6329072117805481 0.6329072117805481 0.6329072117805481
0.65554136037826538 0.65554136037826538 0.65554136037826538
0.69262075424194336 0.69262075424194336 0.69262075424194336
0.25404414534568787 0.25404414534568787 0.25404414534568787
0.28521561622619629 0.28521561622619629 0.28521561622619629
0.30963626503944397 0.30963626503944397 0.30941978096961975
0.34953010082244873 0.34953010082244873 0.34902817010879517
0.41319119930267334 0.41319119930267334 0.41315364837646484
0.45213750004768372 0.45213750004768372 0.45213750004768372
0.50794869661331177 0.50794869661331177 0.50794869661331177
0.55932509899139404 0.55932509899139404 0.55932509899139404
0.60259145498275757 0.60259145498275757 0.60259145498275757
0.63921177387237549 0.63921177387237549 0.63921177387237549
0.66766268014907837 0.66766268014907837 0.66766268014907837
0.68368411064147949 0.68368411064147949 0.68368411064147949
0.71693062782287598 0.71693062782287598 0.71693062782287598
0.28069040179252625 0.28069040179252625 0.28069040179252625
0.3128218948841095 0.3128218948841095 0.31278902292251587
0.35854402184486389 0.35854402184486389 0.35822451114654541
0.38244682550430298 0.38244682550430298 0.38197541236877441
0.44828197360038757 0.44828197360038757 0.44821083545684814
0.47901734709739685 0.47901734709739685 0.47901734709739685
0.54725295305252075 0.54725295305252075 0.54725295305252075
0.59933686256408691 0.59933686256408691 0.59933686256408691
0.64132952690124512 0.64132952690124512 0.64132952690124512
0.67591601610183716 0.67591601610183716 0.67591601610183716
0.69980204105377197 0.69980204105377197 0.69980204105377197
0.72237694263458252 0.72237694263458252 0.72237694263458252
0.74523937702178955 0.74523937702178955 0.74523937702178955
0.31969839334487915 0.31969839334487915 0.31969839334487915
0.33432766795158386 0.33432766795158386 0.33432766795158386
0.39301243424415588 0.39301243424415588 0.39299219846725464
0.3968302309513092 0.3968302309513092 0.3968302309513092
0.45881643891334534 0.45881643891334534 0.45879620313644409
0.5065690279006958 0.5065690279006958 0.5065690279006958
0.58872121572494507 0.58872121572494507 0.58872121572494507
0.63458973169326782 0.63458973169326782 0.63458973169326782
0.67100268602371216 0.67100268602371216 0.67100268602371216
0.70347058773040771 0.70347058773040771 0.70347058773040771
0.72004526853561401 0.72004526853561401 0.72004526853561401
0.74731695652008057 0.74731695652008057 0.74731695652008057
0.7703784704208374 0.7703784704208374 0.7703784704208374
0.34880095720291138 0.34880095720291138 0.34880095720291138
0.33561164140701294 0.33561164140701294 0.33561164140701294
0.38728952407836914 0.38728952407836914 0.38728952407836914
0.43154895305633545 0.43154895305633545 0.43154895305633545
0.49240076541900635 0.49240076541900635 0.49240076541900635
0.5348813533782959 0.5348813533782959 0.5348813533782959
0.58853566646575928 0.58853566646575928 0.58853566646575928
0.6284908652305603 0.6284908652305603 0.6284908652305603
0.66574543714523315 0.66574543714523315 0.66574543714523315
0.7078586220741272 0.7078586220741272 0.7078586220741272
0.73991847038269043 0.73991847038269043 0.73991847038269043
0.77190315723419189 0.77190315723419189 0.77190315723419189
0.80056613683700562 0.80056613683700562 0.80056613683700562
0.35354530811309814 0.35354530811309814 0.35354530811309814
0.35192698240280151 0.35192698240280151 0.35192698240280151
0.46164184808731079 0.46164184808731079 0.46164184808731079
0.50190693140029907 0.50190693140029907 0.50190693140029907
0.54273408651351929 0.54273408651351929 0.54273408651351929
0.56360256671905518 0.56360256671905518 0.56360256671905518
0.6173827052116394 0.6173827052116394 0.6173827052116394
0.64312440156936646 0.64312440156936646 0.64312440156936646
0.67006677389144897 0.67006677389144897 0.67006677389144897
0.71366065740585327 0.71366065740585327 0.71366065740585327
0.76371711492538452 0.76371711492538452 0.76371711492538452
0.79918015003204346 0.79918015003204346 0.79918015003204346
0.80856215953826904 0.80856215953826904 0.80856215953826904
0.38882008194923401 0.38882008194923401 0.38882008194923401
0.38275101780891418 0.38275101780891418 0.38275101780891418
0.48756599426269531 0.48756599426269531 0.48756599426269531
0.52673602104187012 0.52673602104187012 0.52673602104187012
0.56051576137542725 0.56051576137542725 0.56051576137542725
0.58945274353027344 0.58945274353027344 0.58945274353027344
0.64362418651580811 0.64362418651580811 0.64362418651580811
0.65986484289169312 0.65986484289169312 0.65986484289169312
0.70045483112335205 0.70045483112335205 0.70045483112335205
0.74059027433395386 0.74059027433395386 0.74059027433395386
0.77528899908065796 0.77528899908065796 0.77528899908065796
0.80714637041091919 0.80714637041091919 0.80714637041091919
0.81825882196426392 0.81825882196426392 0.81825882196426392
0.39312922954559326 0.39312922954559326 0.39312922954559326
0.38217729330062866 0.38217729330062866 0.38217729330062866
0.48846933245658875 0.48846933245658875 0.48846933245658875
0.52530211210250854 0.52530211210250854 0.52530211210250854
0.56012129783630371 0.56012129783630371 0.56012129783630371
0.59473520517349243 0.59473520517349243 0.59473520517349243
0.65068995952606201 0.65068995952606201 0.65068995952606201
0.68033128976821899 0.68033128976821899 0.68033128976821899
0.72686111927032471 0.72686111927032471 0.72686111927032471
0.77390915155410767 0.77390915155410767 0.77390915155410767
0.80627530813217163 0.80627530813217163 0.80627530813217163
0.8240659236907959 0.8240659236907959 0.8240659236907959
0.83529490232467651 0.83529490232467651 0.83529490232467651
0.01407985296100378 0.01407985296100378 0.01407985296100378
0.030145533382892609 0.030145533382892609 0.030145533382892609
0.070896342396736145 0.070896342396736145 0.070896342396736145
0.11524445563554764 0.11524445563554764 0.11524445563554764
0.15439103543758392 0.15439103543758392 0.15439103543758392
0.2465871274471283 0.2465871274471283 0.2465871274471283
0.3425891101360321 0.3425891101360321 0.3425891101360321
0.42589446902275085 0.42589446902275085 0.42589446902275085
0.50191295146942139 0.50191295146942139 0.50191295146942139
0.53850859403610229 0.53850859403610229 0.53850859403610229
0.55510979890823364 0.55510979890823364 0.55510979890823364
0.56412017345428467 0.56412017345428467 0.56412017345428467
0.61085730791091919 0.61085730791091919 0.61085730791091919
0.029990701004862785 0.029990701004862785 0.029990701004862785
0.053335152566432953 0.053335152566432953 0.053335152566432953
0.090310640633106232 0.090310640633106232 0.090310640633106232
0.13635362684726715 0.13635362684726715 0.13635362684726715
0.18610261380672455 0.18610261380672455 0.18610261380672455
0.26372244954109192 0.26372244954109192 0.26372244954109192
0.34608879685401917 0.34608879685401917 0.34608879685401917
0.41919949650764465 0.41919949650764465 0.41919949650764465
0.48323878645896912 0.48323878645896912 0.48323878645896912
0.53577476739883423 0.53577476739883423 0.53577476739883423
0.56268620491027832 0.56268620491027832 0.56268620491027832
0.59521394968032837 0.59521394968032837 0.59521394968032837
0.63468390703201294 0.63468390703201294 0.63468390703201294
0.057889990508556366 0.057889990508556366 0.057889990508556366
0.079786501824855804 0.079786501824855804 0.079786501824855804
0.11030666530132294 0.11030666530132294 0.11030666530132294
0.1594855934381485 0.1594855934381485 0.1594855934381485
0.2208997905254364 0.2208997905254364 0.2208997905254364
0.29332047700881958 0.29332047700881958 0.29332047700881958
0.36642169952392578 0.36642169952392578 0.36642169952392578
0.43678763508796692 0.43678763508796692 0.43678763508796692
0.49639371037483215 0.49639371037483215 0.49639371037483215
0.55051612854003906 0.55051612854003906 0.55051612854003906
0.59266018867492676 0.59266018867492676 0.59266018867492676
0.61776924133300781 0.61776924133300781 0.61776924133300781
0.64162534475326538 0.64162534475326538 0.64162534475326538
0.10070885717868805 0.10070885717868805 0.10070885717868805
0.11977006494998932 0.11977006494998932 0.11977006494998932
0.14936037361621857 0.14936037361621857 0.14936037361621857
0.19842801988124847 0.19842801988124847 0.19842801988124847
0.25658422708511353 0.25658422708511353 0.25658422708511353
0.32402965426445007 0.32402965426445007 0.32402965426445007
0.39493373036384583 0.39493373036384583 0.39493373036384583
0.45998817682266235 0.45998817682266235 0.45998817682266235
0.51700234413146973 0.51700234413146973 0.51700234413146973
0.57075273990631104 0.57075273990631104 0.57075273990631104
0.61117208003997803 0.61117208003997803 0.61117208003997803
0.62884116172790527 0.62884116172790527 0.62884116172790527
0.64968156814575195 0.64968156814575195 0.64968156814575195
0.16107854247093201 0.16107854247093201 0.16107854247093201
0.17755512893199921 0.17755512893199921 0.17755512893199921
0.2062203586101532 0.2062203586101532 0.2062203586101532
0.25403749942779541 0.25403749942779541 0.25403749942779541
0.30685868859291077 0.30685868859291077 0.30684155225753784
0.3620753288269043 0.3620753288269043 0.3620753288269043
0.42599314451217651 0.42599314451217651 0.42599314451217651
0.48393207788467407 0.48393207788467407 0.48393207788467407
0.53986239433288574 0.53986239433288574 0.53986239433288574
0.59437155723571777 0.59437155723571777 0.59437155723571777
0.6404571533203125 0.6404571533203125 0.6404571533203125
0.65551382303237915 0.65551382303237915 0.65551382303237915
0.67871534824371338 0.67871534824371338 0.67871534824371338
0.22511261701583862 0.22511261701583862 0.22511261701583862
0.24747548997402191 0.24747548997402191 0.24747548997402191
0.26997947692871094 0.26997947692871094 0.26997947692871094
0.31075659394264221 0.31075659394264221 0.31075659394264221
0.36455485224723816 0.36455485224723816 0.36454418301582336
0.41469764709472656 0.41469764709472656 0.41469764709472656
0.46468409895896912 0.46468409895896912 0.46468409895896912
0.51980531215667725 0.51980531215667725 0.51980531215667725
0.56977593898773193 0.56977593898773193 0.56977593898773193
0.61273276805877686 0.61273276805877686 0.61273276805877686
0.65924185514450073 0.65924185514450073 0.65924185514450073
0.69623667001724243 0.69623667001724243 0.69623667001724243
0.71669787168502808 0.71669787168502808 0.71669787168502808
0.26975318789482117 0.26975318789482117 0.26975318789482117
0.3053341805934906 0.3053341805934906 0.3053341805934906
0.33369919657707214 0.33369919657707214 0.33369919657707214
0.36188095808029175 0.36188095808029175 0.36184805631637573
0.42151504755020142 0.42151504755020142 0.42151504755020142
0.45781177282333374 0.45781177282333374 0.45781177282333374
0.50808441638946533 0.50808441638946533 0.50808441638946533
0.56316685676574707 0.56316685676574707 0.56316685676574707
0.60660409927368164 0.60660409927368164 0.60660409927368164
0.64508801698684692 0.64508801698684692 0.64508801698684692
0.68847537040710449 0.68847537040710449 0.68847537040710449
0.71665185689926147 0.71665185689926147 0.71665185689926147
0.73414134979248047 0.73414134979248047 0.73414134979248047
0.3391893208026886 0.3391893208026886 0.3391893208026886
0.35481441020965576 0.35481441020965576 0.35481441020965576
0.38499197363853455 0.38499197363853455 0.38495910167694092
0.40420082211494446 0.40420082211494446 0.40420082211494446
0.4586237370967865 0.4586237370967865 0.4586237370967865
0.49609416723251343 0.49609416723251343 0.49609416723251343
0.55360925197601318 0.55360925197601318 0.55360925197601318
0.60219860076904297 0.60219860076904297 0.60219860076904297
0.64554661512374878 0.64554661512374878 0.64554661512374878
0.6837773323059082 0.6837773323059082 0.6837773323059082
0.72231215238571167 0.72231215238571167 0.72231215238571167
0.7469974160194397 0.7469974160194397 0.7469974160194397
0.7684783935546875 0.7684783935546875 0.7684783935546875
0.37662255764007568 0.37662255764007568 0.37662255764007568
0.39591792225837708 0.39591792225837708 0.39591792225837708
0.4179861843585968 0.4179861843585968 0.4179861843585968
0.43744248151779175 0.43744248151779175 0.43744248151779175
0.48893776535987854 0.48893776535987854 0.48893776535987854
0.52712112665176392 0.52712112665176392 0.52712112665176392
0.5919983983039856 0.5919983983039856 0.5919983983039856
0.63920140266418457 0.63920140266418457 0.63920140266418457
0.66970211267471313 0.66970211267471313 0.66970211267471313
0.71166396141052246 0.71166396141052246 0.71166396141052246
0.75258457660675049 0.75258457660675049 0.75258457660675049
0.7781795859336853 0.7781795859336853 0.7781795859336853
0.80413162708282471 0.80413162708282471 0.80413162708282471
0.39277905225753784 0.39277905225753784 0.39277905225753784
0.4027218222618103 0.4027218222618103 0.4027218222618103
0.45749610662460327 0.45749610662460327 0.45749610662460327
0.48846256732940674 0.48846256732940674 0.48846256732940674
0.52981007099151611 0.52981007099151611 0.52981007099151611
0.56718844175338745 0.56718844175338745 0.56718844175338745
0.62131285667419434 0.62131285667419434 0.62131285667419434
0.65286767482757568 0.65286767482757568 0.65286767482757568
0.6849743127822876 0.6849743127822876 0.6849743127822876
0.72978836297988892 0.72978836297988892 0.72978836297988892
0.77089607715606689 0.77089607715606689 0.77089607715606689
0.79901158809661865 0.79901158809661865 0.79901158809661865
0.81268852949142456 0.81268852949142456 0.81268852949142456
0.3966011106967926 0.3966011106967926 0.3966011106967926
0.41038703918457031 0.41038703918457031 0.41038703918457031
0.48697906732559204 0.48697906732559204 0.48697906732559204
0.51723223924636841 0.51723223924636841 0.51723223924636841
0.55500757694244385 0.55500757694244385 0.55500757694244385
0.59219050407409668 0.59219050407409668 0.59219050407409668
0.64386814832687378 0.64386814832687378 0.64386814832687378
0.66894596815109253 0.66894596815109253 0.66894596815109253
0.70995080471038818 0.70995080471038818 0.70995080471038818
0.74927222728729248 0.74927222728729248 0.74927222728729248
0.79025685787200928 0.79025685787200928 0.79025685787200928
0.80793142318725586 0.80793142318725586 0.80793142318725586
0.8139527440071106 0.8139527440071106 0.8139527440071106
0.41182243824005127 0.41182243824005127 0.41182243824005127
0.41009071469306946 0.41009071469306946 0.41009071469306946
0.5003783106803894 0.5003783106803894 0.5003783106803894
0.53754186630249023 0.53754186630249023 0.53754186630249023
0.56685161590576172 0.56685161590576172 0.56685161590576172
0.59553861618041992 0.59553861618041992 0.59553861618041992
0.65081232786178589 0.65081232786178589 0.65081232786178589
0.68118888139724731 0.68118888139724731 0.68118888139724731
0.72847002744674683 0.72847002744674683 0.72847002744674683
0.77089160680770874 0.77089160680770874 0.77089160680770874
0.80040425062179565 0.80040425062179565 0.80040425062179565
0.82485395669937134 0.82485395669937134 0.82485395669937134
0.8361440896987915 0.8361440896987915 0.8361440896987915
0.41846898198127747 0.41846898198127747 0.41846898198127747
0.41425380110740662 0.41425380110740662 0.41425380110740662
0.51778495311737061 0.51778495311737061 0.51778495311737061
0.55791705846786499 0.55791705846786499 0.55791705846786499
0.58172929286956787 0.58172929286956787 0.58172929286956787
0.60612213611602783 0.60612213611602783 0.60612213611602783
0.65355199575424194 0.65355199575424194 0.65355199575424194
0.68306553363800049 0.68306553363800049 0.68306553363800049
0.72781503200531006 0.72781503200531006 0.72781503200531006
0.77615183591842651 0.77615183591842651 0.77615183591842651
0.8120836615562439 0.8120836615562439 0.8120836615562439
0.85237276554107666 0.85237276554107666 0.85237276554107666
0.86256849765777588 0.86256849765777588 0.86256849765777588
0.018877141177654266 0.018877141177654266 0.018877141177654266
0.048922967165708542 0.048922967165708542 0.048922967165708542
0.090784616768360138 0.090784616768360138 0.090784616768360138
0.14719857275485992 0.14719857275485992 0.14719857275485992
0.19438526034355164 0.19438526034355164 0.19438526034355164
0.27526363730430603 0.27526363730430603 0.27526363730430603
0.35932284593582153 0.35932284593582153 0.35932284593582153
0.43716448545455933 0.43716448545455933 0.43716448545455933
0.50808215141296387 0.50808215141296387 0.50808215141296387
0.54186534881591797 0.54186534881591797 0.54186534881591797
0.56659716367721558 0.56659716367721558 0.56659716367721558
0.60983842611312866 0.60983842611312866 0.60983842611312866
0.65979355573654175 0.65979355573654175 0.65979355573654175
0.040403537452220917 0.040403537452220917 0.040403537452220917
0.068765513598918915 0.068765513598918915 0.068765513598918915
0.10146229714155197 0.10146229714155197 0.10146229714155197
0.15050755441188812 0.15050755441188812 0.15050755441188812
0.21570160984992981 0.21570160984992981 0.21570160984992981
0.28544324636459351 0.28544324636459351 0.28544324636459351
0.36037811636924744 0.36037811636924744 0.36037811636924744
0.43450090289115906 0.43450090289115906 0.43450090289115906
0.49462884664535522 0.49462884664535522 0.49462884664535522
0.54786980152130127 0.54786980152130127 0.54786980152130127
0.59379541873931885 0.59379541873931885 0.59379541873931885
0.62698078155517578 0.62698078155517578 0.62698078155517578
0.66077041625976562 0.66077041625976562 0.66077041625976562
0.071152299642562866 0.071152299642562866 0.071152299642562866
0.092950232326984406 0.092950232326984406 0.092950232326984406
0.12194684892892838 0.12194684892892838 0.12194684892892838
0.17451423406600952 0.17451423406600952 0.17451423406600952
0.23691132664680481 0.23691132664680481 0.23691132664680481
0.30559778213500977 0.30559778213500977 0.30559778213500977
0.37523829936981201 0.37523829936981201 0.37523829936981201
0.44467383623123169 0.44467383623123169 0.44467383623123169
0.5085485577583313 0.5085485577583313 0.5085485577583313
0.56597661972045898 0.56597661972045898 0.56597661972045898
0.61249136924743652 0.61249136924743652 0.61249136924743652
0.63968884944915771 0.63968884944915771 0.63968884944915771
0.67472583055496216 0.67472583055496216 0.67472583055496216
0.11648143827915192 0.11648143827915192 0.11648143827915192
0.1330142468214035 0.1330142468214035 0.1330142468214035
0.16449765861034393 0.16449765861034393 0.16449765861034393
0.21198667585849762 0.21198667585849762 0.21198667585849762
0.27089127898216248 0.27089127898216248 0.27089127898216248
0.33527323603630066 0.33527323603630066 0.33527323603630066
0.40226125717163086 0.40226125717163086 0.40226125717163086
0.46839433908462524 0.46839433908462524 0.46839433908462524
0.5295061469078064 0.5295061469078064 0.5295061469078064
0.58534121513366699 0.58534121513366699 0.58534121513366699
0.63533848524093628 0.63533848524093628 0.63533848524093628
0.67551320791244507 0.67551320791244507 0.67551320791244507
0.69873028993606567 0.69873028993606567 0.69873028993606567
0.17241059243679047 0.17241059243679047 0.17241059243679047
0.19144405424594879 0.19144405424594879 0.19144405424594879
0.22093614935874939 0.22093614935874939 0.22093614935874939
0.26127099990844727 0.26127099990844727 0.26127099990844727
0.31516814231872559 0.31516814231872559 0.31516501307487488
0.37299573421478271 0.37299573421478271 0.37299573421478271
0.43368005752563477 0.43368005752563477 0.43368005752563477
0.49365693330764771 0.49365693330764771 0.49365693330764771
