luts/fujixtransiii/fuji_xtrans_iii_provia.cube
# Created by: G'MIC (https://gmic.eu)
TITLE "fuji_xtrans_iii_provia"
# LUT size
LUT_3D_SIZE 7
# Data domain
DOMAIN_MIN 0.0 0.0 0.0
DOMAIN_MAX 1.0 1.0 1.0
# LUT data points
0.0061420663259923458 0.011740964837372303 0.011889333836734295
0.10050717741250992 0.017459720373153687 0.012214017100632191
0.33717134594917297 0.036929111927747726 0.012959604151546955
0.57586705684661865 0.10539426654577255 0.040306899696588516
0.78728842735290527 0.16954962909221649 0.093118168413639069
0.87524044513702393 0.20466913282871246 0.13417188823223114
0.91340166330337524 0.23359829187393188 0.17910660803318024
0.0096466811373829842 0.090385422110557556 0.012057480402290821
0.095262162387371063 0.095965318381786346 0.010601342655718327
0.35222360491752625 0.13390915095806122 0.018356144428253174
0.59533506631851196 0.17967630922794342 0.033248975872993469
0.79433375597000122 0.22735230624675751 0.069453835487365723
0.9115327000617981 0.25766009092330933 0.11910030990839005
0.97391432523727417 0.32412239909172058 0.16129997372627258
0.0043827281333506107 0.27315250039100647 0.0012351690093055367
0.04134286567568779 0.30779376626014709 0.0022077222820371389
0.31401601433753967 0.33167228102684021 0.0043398239649832249
0.56686341762542725 0.34130319952964783 0.016555022448301315
0.78479218482971191 0.37220883369445801 0.026379110291600227
0.94026046991348267 0.39003384113311768 0.086117714643478394
0.9911004900932312 0.38536909222602844 0.1251232773065567
0.00056756712729111314 0.43908989429473877 0.0012682597152888775
0.019669461995363235 0.4806729257106781 0
0.22783289849758148 0.51756554841995239 3.6621095205191523e-05
0.53249263763427734 0.51932454109191895 0.0040836557745933533
0.75210148096084595 0.54244095087051392 0.0084012644365429878
0.87949180603027344 0.55902183055877686 0.036657296121120453
0.95276308059692383 0.58297181129455566 0.12259035557508469
0.0018311594612896442 0.49945893883705139 0.015631208196282387
0.010820216499269009 0.58729970455169678 0.0049003004096448421
0.18482254445552826 0.58929598331451416 0.001160356099717319
0.4998379647731781 0.66145259141921997 0.0013287712354212999
0.74470090866088867 0.65898078680038452 0.0062163257971405983
0.87108784914016724 0.67382287979125977 0.021379956975579262
0.93105399608612061 0.71350592374801636 0.10025331377983093
0.0024742875248193741 0.53645342588424683 0.028292158618569374
0.014177958481013775 0.67104083299636841 0.048517100512981415
0.14982880651950836 0.70203483104705811 0.034712277352809906
0.50291746854782104 0.70943111181259155 0.010156893171370029
0.68740665912628174 0.7012670636177063 0.02921561524271965
0.90559715032577515 0.71953189373016357 0.08977363258600235
0.96645963191986084 0.74509656429290771 0.1636539101600647
0.0039215688593685627 0.58050942420959473 0.013285692781209946
0.016167644411325455 0.70640194416046143 0.062998034060001373
0.12864910066127777 0.73830997943878174 0.049903914332389832
0.51258903741836548 0.74298512935638428 0.0296491589397192
0.68234485387802124 0.77710217237472534 0.11160004884004593
0.86667841672897339 0.79721486568450928 0.20430025458335876
0.94513404369354248 0.79387682676315308 0.23982459306716919
0.010060867294669151 0.022454893216490746 0.13142126798629761
0.13625301420688629 0.043622873723506927 0.12582798302173615
0.35324794054031372 0.079796962440013885 0.15903237462043762
0.60690867900848389 0.14353732764720917 0.20434996485710144
0.82870978116989136 0.1777852475643158 0.24243780970573425
0.91341447830200195 0.21762576699256897 0.2748752236366272
0.98982924222946167 0.29093867540359497 0.40310570597648621
0.0099167618900537491 0.11917084455490112 0.12810297310352325
0.11179453879594803 0.13952900469303131 0.12297620624303818
0.35361126065254211 0.16331645846366882 0.14382894337177277
0.59989732503890991 0.20019626617431641 0.17214676737785339
0.80515092611312866 0.24668596684932709 0.21157371997833252
0.94901430606842041 0.29675528407096863 0.27121695876121521
0.99433845281600952 0.32341751456260681 0.35386818647384644
0.0050492379814386368 0.31159994006156921 0.096600659191608429
0.045214064419269562 0.32342284917831421 0.070247605443000793
0.30874267220497131 0.33903852105140686 0.097104378044605255
0.56638628244400024 0.36142075061798096 0.11962471902370453
0.78685063123703003 0.3891543447971344 0.16423921287059784
0.93772763013839722 0.41608479619026184 0.23222881555557251
0.99517226219177246 0.44451424479484558 0.31181186437606812
0.00054565130267292261 0.50027197599411011 0.0591873899102211
0.019607529044151306 0.51531261205673218 0.039794519543647766
0.19916506111621857 0.53222256898880005 0.041352558881044388
0.52093756198883057 0.5436023473739624 0.059241544455289841
0.74765080213546753 0.55903232097625732 0.098164953291416168
0.91606986522674561 0.5760384202003479 0.17178450524806976
0.99429720640182495 0.59243553876876831 0.21930029988288879
0.0027656105812638998 0.58851498365402222 0.14064468443393707
0.0098822200670838356 0.64979249238967896 0.03771350160241127
0.11156640201807022 0.68178039789199829 0.053264454007148743
0.45566016435623169 0.6937795877456665 0.05815448984503746
0.71097230911254883 0.6965680718421936 0.088989570736885071
0.88990515470504761 0.71605247259140015 0.15241865813732147
0.98212736845016479 0.74942803382873535 0.20653457939624786
0.0021914313547313213 0.62136375904083252 0.20520375669002533
0.014227219857275486 0.72666877508163452 0.10684441775083542
0.093328036367893219 0.75958609580993652 0.13527257740497589
0.46902996301651001 0.75662827491760254 0.080021500587463379
0.67137759923934937 0.77630245685577393 0.11194902658462524
0.86637836694717407 0.79875868558883667 0.21880465745925903
0.94747829437255859 0.79969316720962524 0.23684689402580261
4.1647519537946209e-05 0.65313464403152466 0.3481641411781311
0.019691690802574158 0.7614632248878479 0.18421053886413574
0.087438039481639862 0.79064363241195679 0.20372538268566132
0.39936056733131409 0.78305155038833618 0.1786271333694458
0.65437203645706177 0.79586166143417358 0.15329894423484802
0.87432020902633667 0.8171800971031189 0.24944798648357391
0.93408787250518799 0.84727966785430908 0.33116450905799866
0.058081936091184616 0.088914446532726288 0.4207853376865387
0.23000012338161469 0.099459223449230194 0.43813082575798035
0.41377732157707214 0.13213515281677246 0.43628108501434326
0.62722933292388916 0.1728556752204895 0.46809133887290955
0.8257136344909668 0.21268677711486816 0.46014523506164551
0.95409125089645386 0.26427245140075684 0.49844545125961304
0.99860942363739014 0.30239102244377136 0.5608101487159729
0.03385557234287262 0.17374710738658905 0.37128171324729919
0.182066410779953 0.18563619256019592 0.38301733136177063
0.40057295560836792 0.21629412472248077 0.39371153712272644
0.61749088764190674 0.24827340245246887 0.41194158792495728
0.81253963708877563 0.28710055351257324 0.43275314569473267
0.9527776837348938 0.32524892687797546 0.45929327607154846
0.99994361400604248 0.37463298439979553 0.46815267205238342
0.01030832901597023 0.34874165058135986 0.35024678707122803
0.10179990530014038 0.36081936955451965 0.34908679127693176
0.3549187183380127 0.37237271666526794 0.3607889711856842
0.59407949447631836 0.38692277669906616 0.37989088892936707
0.79591447114944458 0.41226500272750854 0.40219742059707642
0.94475686550140381 0.43634992837905884 0.42849618196487427
0.99749362468719482 0.44119721651077271 0.45147141814231873
0.007876317948102951 0.53633850812911987 0.33815446496009827
0.032742071896791458 0.54016023874282837 0.30555287003517151
0.2403922975063324 0.55244296789169312 0.30908605456352234
0.53652828931808472 0.55557370185852051 0.33500587940216064
0.75057590007781982 0.56534147262573242 0.3544096052646637
0.91240507364273071 0.58771723508834839 0.3847554624080658
0.99182367324829102 0.60418707132339478 0.41890695691108704
0.00043807685142382979 0.63369840383529663 0.3683411180973053
0.012687054462730885 0.69310939311981201 0.30364140868186951
0.12252824008464813 0.70756053924560547 0.26994621753692627
0.44523021578788757 0.70521032810211182 0.2832222580909729
0.70682483911514282 0.71200668811798096 0.3099365234375
0.8733333945274353 0.73041552305221558 0.34068608283996582
0.98403686285018921 0.75411456823348999 0.35475713014602661
0.0049035465344786644 0.76626777648925781 0.34361773729324341
0.010445479303598404 0.78710407018661499 0.30730521678924561
0.080861471593379974 0.79680770635604858 0.27703395485877991
0.38058513402938843 0.80321317911148071 0.2854786217212677
0.6573900580406189 0.82249295711517334 0.33927655220031738
0.86881643533706665 0.82897841930389404 0.3429158627986908
0.96626991033554077 0.83996307849884033 0.3757692277431488
0.0060015362687408924 0.78263789415359497 0.32889524102210999
0.014268403872847557 0.79519057273864746 0.31334277987480164
0.070883087813854218 0.83309805393218994 0.38291656970977783
0.34701743721961975 0.84701168537139893 0.3938104510307312
0.62916594743728638 0.84311574697494507 0.36830252408981323
0.88124316930770874 0.85961043834686279 0.38842421770095825
0.9578397274017334 0.87490761280059814 0.42738175392150879
0.19599926471710205 0.12716658413410187 0.6771169900894165
0.34888187050819397 0.1401362270116806 0.6835286021232605
0.50716924667358398 0.1743762344121933 0.68122148513793945
0.67389011383056641 0.21848307549953461 0.67732781171798706
0.83391177654266357 0.26328453421592712 0.68535429239273071
0.95560675859451294 0.30515682697296143 0.68298459053039551
0.99811017513275146 0.35084754228591919 0.70159673690795898
0.11362358182668686 0.23682831227779388 0.63752573728561401
0.27791070938110352 0.26023009419441223 0.6366075873374939
0.45859429240226746 0.28565183281898499 0.64410907030105591
0.64979261159896851 0.30724555253982544 0.64437758922576904
0.81993824243545532 0.34287017583847046 0.65036851167678833
0.95620119571685791 0.37646105885505676 0.65868997573852539
0.99732726812362671 0.40232977271080017 0.6792340874671936
0.040721368044614792 0.39133048057556152 0.60494709014892578
0.19760811328887939 0.41070988774299622 0.61076825857162476
0.41725403070449829 0.41470226645469666 0.61425602436065674
0.61284142732620239 0.42841184139251709 0.60922408103942871
0.80634212493896484 0.4498024582862854 0.62560904026031494
0.93809634447097778 0.47503122687339783 0.63953918218612671
0.99601846933364868 0.49119079113006592 0.65421450138092041
0.013165672309696674 0.56190049648284912 0.57059299945831299
0.073913589119911194 0.5675356388092041 0.56486696004867554
0.31283912062644958 0.57218366861343384 0.56265747547149658
0.56017398834228516 0.57539659738540649 0.57276207208633423
0.75491297245025635 0.58764421939849854 0.59082508087158203
0.91425818204879761 0.60532599687576294 0.6022605299949646
0.99093413352966309 0.6229250431060791 0.6065937876701355
0.0044327680952847004 0.69599699974060059 0.58017003536224365
0.028940806165337563 0.71209442615509033 0.53118801116943359
0.1871630996465683 0.71971696615219116 0.52086836099624634
0.49241301417350769 0.71820366382598877 0.53562802076339722
0.71763819456100464 0.72159457206726074 0.54819554090499878
0.88241970539093018 0.73727023601531982 0.55853331089019775
0.98307549953460693 0.76518875360488892 0.56996011734008789
0.00012700697698164731 0.79863470792770386 0.62470537424087524
0.015978779643774033 0.81541168689727783 0.53960007429122925
0.10648611932992935 0.83281791210174561 0.51097792387008667
0.37124320864677429 0.83817583322525024 0.50455260276794434
0.67484372854232788 0.83092290163040161 0.51032739877700806
0.86721611022949219 0.84962213039398193 0.53816056251525879
0.97408568859100342 0.87921541929244995 0.56641280651092529
0.0012977151200175285 0.81260472536087036 0.63828855752944946
0.020484520122408867 0.83846133947372437 0.57615441083908081
0.099479854106903076 0.84902524948120117 0.51884573698043823
0.36370849609375 0.85070580244064331 0.50325989723205566
0.67781704664230347 0.85207593441009521 0.52116793394088745
0.88504648208618164 0.89899122714996338 0.57094275951385498
0.96419441699981689 0.91260677576065063 0.57622045278549194
0.3562159538269043 0.11396235972642899 0.84871339797973633
0.46259275078773499 0.15132719278335571 0.85335415601730347
0.59266418218612671 0.19996377825737 0.8548470139503479
0.72789663076400757 0.25934544205665588 0.85085153579711914
0.86358553171157837 0.30761373043060303 0.84666824340820312
0.9628530740737915 0.35003602504730225 0.85639864206314087
0.99525177478790283 0.38563999533653259 0.89232981204986572
0.22802601754665375 0.29307758808135986 0.84592252969741821
0.39525118470191956 0.32792016863822937 0.85067802667617798
0.53119611740112305 0.34948304295539856 0.84508389234542847
0.690590500831604 0.36709246039390564 0.84358268976211548
0.83617538213729858 0.40203124284744263 0.83802735805511475
0.9625319242477417 0.43164405226707458 0.83879941701889038
0.99472063779830933 0.45402765274047852 0.85057282447814941
0.14824752509593964 0.44110000133514404 0.81474214792251587
0.33043393492698669 0.46070387959480286 0.82107770442962646
0.48627600073814392 0.46550437808036804 0.81476461887359619
0.65476667881011963 0.48192909359931946 0.81139487028121948
0.81915271282196045 0.49959361553192139 0.81116414070129395
0.93800699710845947 0.52425497770309448 0.8150714635848999
0.99483919143676758 0.54394173622131348 0.83131343126296997
0.066818520426750183 0.59503227472305298 0.77446550130844116
0.21618597209453583 0.60139679908752441 0.77480036020278931
0.41878858208656311 0.59948533773422241 0.77950119972229004
0.61514014005661011 0.60722142457962036 0.77771306037902832
0.77708089351654053 0.61998462677001953 0.7788856029510498
0.90991467237472534 0.63927924633026123 0.78339982032775879
0.99415749311447144 0.66140681505203247 0.79888820648193359
0.016665380448102951 0.72661972045898438 0.74490243196487427
0.090736404061317444 0.73606359958648682 0.73849010467529297
0.31061530113220215 0.73384130001068115 0.73904752731323242
0.55735200643539429 0.73437756299972534 0.74457859992980957
0.74164384603500366 0.74431437253952026 0.7430073618888855
0.88566535711288452 0.76289558410644531 0.75174319744110107
0.98983341455459595 0.79644531011581421 0.7683531641960144
0.0059148450382053852 0.84768062829971313 0.74518686532974243
0.053077980875968933 0.83882462978363037 0.7260587215423584
0.20761224627494812 0.84363865852355957 0.71459090709686279
0.47221919894218445 0.84566152095794678 0.71958553791046143
0.71138119697570801 0.83814412355422974 0.73114871978759766
0.87777280807495117 0.85817551612854004 0.73108369112014771
0.97615015506744385 0.8972894549369812 0.75483447313308716
0.0096512138843536377 0.86039310693740845 0.74499058723449707
0.09098159521818161 0.88363754749298096 0.7810634970664978
0.23219072818756104 0.8883901834487915 0.77386182546615601
0.50742369890213013 0.89480757713317871 0.78865760564804077
0.72154146432876587 0.89554083347320557 0.7629692554473877
0.89681088924407959 0.90936577320098877 0.73922663927078247
0.97566723823547363 0.93709671497344971 0.75252169370651245
0.52043133974075317 0.070308700203895569 0.95681190490722656
0.57925593852996826 0.14532312750816345 0.95255786180496216
0.68266755342483521 0.21969711780548096 0.9513288140296936
0.79617214202880859 0.28400415182113647 0.95465332269668579
0.902396559715271 0.34329265356063843 0.95171087980270386
0.97452092170715332 0.39582926034927368 0.9572749137878418
0.99855715036392212 0.460640549659729 0.99017024040222168
0.39312514662742615 0.32416561245918274 0.95985311269760132
0.51520371437072754 0.37734046578407288 0.96582376956939697
0.61850881576538086 0.4088299572467804 0.96708887815475464
0.74980366230010986 0.43192940950393677 0.95944607257843018
0.86856472492218018 0.46105217933654785 0.96692633628845215
0.97103506326675415 0.49078509211540222 0.97084265947341919
0.9952051043510437 0.51256281137466431 0.96821737289428711
0.23340632021427155 0.49851179122924805 0.95609587430953979
0.44507694244384766 0.52134209871292114 0.9636039137840271
0.56732678413391113 0.52948331832885742 0.94593530893325806
0.70577812194824219 0.54312360286712646 0.95172476768493652
0.83544790744781494 0.55961006879806519 0.95018362998962402
0.95194506645202637 0.57783997058868408 0.95045822858810425
0.99784702062606812 0.59912288188934326 0.95638346672058105
0.1883080005645752 0.63330358266830444 0.92989790439605713
0.37134119868278503 0.64662474393844604 0.9198269248008728
0.52058178186416626 0.64480686187744141 0.92824840545654297
0.67354834079742432 0.65293735265731812 0.92246699333190918
0.80613929033279419 0.66401451826095581 0.92443251609802246
0.92011487483978271 0.67330765724182129 0.92979472875595093
0.9954218864440918 0.69547116756439209 0.94356065988540649
0.11110612750053406 0.75559157133102417 0.90342622995376587
0.26421815156936646 0.76299053430557251 0.89104759693145752
0.44326284527778625 0.75839436054229736 0.89867228269577026
0.6199411153793335 0.76790761947631836 0.88938802480697632
0.77086228132247925 0.77675586938858032 0.89635741710662842
0.89803993701934814 0.79260504245758057 0.9057384729385376
0.99157238006591797 0.82037210464477539 0.92490309476852417
0.064480692148208618 0.85961401462554932 0.89074677228927612
0.16756299138069153 0.86344379186630249 0.88597077131271362
0.34121733903884888 0.8687252402305603 0.88560676574707031
0.56317824125289917 0.87051928043365479 0.88722437620162964
0.75143945217132568 0.8731200098991394 0.89212316274642944
0.88389462232589722 0.88831359148025513 0.89251899719238281
0.9814528226852417 0.91529059410095215 0.9178282618522644
0.22284109890460968 0.92429220676422119 0.92703354358673096
0.146847203373909 0.90674257278442383 0.88953667879104614
0.303466796875 0.91513705253601074 0.88679337501525879
0.54877835512161255 0.92026495933532715 0.90389585494995117
0.75200384855270386 0.91899740695953369 0.87875223159790039
0.88883286714553833 0.93023216724395752 0.8917689323425293
0.97676545381546021 0.95245027542114258 0.91460293531417847
0.63979113101959229 0.15272288024425507 0.99932289123535156
0.68533402681350708 0.20718355476856232 0.99848860502243042
0.753623366355896 0.27569854259490967 0.99721711874008179
0.84812921285629272 0.35920524597167969 0.99492055177688599
0.93383991718292236 0.45170170068740845 0.99571329355239868
0.98736679553985596 0.51147180795669556 0.99802905321121216
0.99986213445663452 0.54044419527053833 0.9986223578453064
0.56691205501556396 0.3242945671081543 0.99557781219482422
0.64951807260513306 0.39995107054710388 0.99207693338394165
0.7262769341468811 0.45792129635810852 0.99205738306045532
0.82552820444107056 0.49803054332733154 0.99274748563766479
0.90735834836959839 0.56047660112380981 0.99355649948120117
0.98371928930282593 0.58495438098907471 0.99511116743087769
0.9988517165184021 0.56690627336502075 0.99927908182144165
0.29111430048942566 0.55116766691207886 0.99904352426528931
0.53720849752426147 0.58626794815063477 0.99839502573013306
0.66550534963607788 0.60647827386856079 0.99365156888961792
0.7718961238861084 0.62094372510910034 0.99419963359832764
0.87589901685714722 0.63837087154388428 0.9920651912689209
0.96275961399078369 0.65385937690734863 0.99332010746002197
0.9997524619102478 0.65866291522979736 0.99899649620056152
0.21991755068302155 0.67626577615737915 0.99658691883087158
0.4280153214931488 0.69876867532730103 0.99801051616668701
0.61102426052093506 0.7125810980796814 0.99301552772521973
0.73252826929092407 0.72119122743606567 0.99145668745040894
0.85353344678878784 0.73202121257781982 0.99314934015274048
0.94421064853668213 0.73251831531524658 0.99380373954772949
0.99501961469650269 0.72343438863754272 0.99742090702056885
0.21121911704540253 0.79511022567749023 0.99623316526412964
0.37050366401672363 0.80427432060241699 0.99675893783569336
0.56579405069351196 0.81497704982757568 0.98833847045898438
0.70012128353118896 0.82128256559371948 0.98718708753585815
0.82388764619827271 0.82574552297592163 0.98177403211593628
0.93500036001205444 0.83576309680938721 0.98450720310211182
0.99511033296585083 0.82987415790557861 0.99510771036148071
0.24672801792621613 0.90362191200256348 0.9927058219909668
0.34668788313865662 0.90846115350723267 0.99051475524902344
0.49635526537895203 0.90802395343780518 0.98924881219863892
0.66182875633239746 0.90152472257614136 0.99216294288635254
0.80600082874298096 0.91149985790252686 0.98304826021194458
0.92976677417755127 0.91609025001525879 0.98581075668334961
0.99102413654327393 0.93253391981124878 0.9931185245513916
0.26772350072860718 0.93334132432937622 0.97086137533187866
0.25434461236000061 0.92719334363937378 0.95409458875656128
0.42349311709403992 0.9276849627494812 0.9558722972869873
0.63798564672470093 0.93214559555053711 0.9806143045425415
0.80235779285430908 0.94164681434631348 0.98308366537094116
0.93375301361083984 0.95049124956130981 0.98985719680786133
0.98639500141143799 0.96309655904769897 0.98536932468414307
