luts/fujixtransiii/fuji_xtrans_iii_sepia.cube
# Created by: G'MIC (https://gmic.eu)
TITLE "fuji_xtrans_iii_sepia"
# LUT size
LUT_3D_SIZE 7
# Data domain
DOMAIN_MIN 0.0 0.0 0.0
DOMAIN_MAX 1.0 1.0 1.0
# LUT data points
0.064660392701625824 0.0047428207471966743 0
0.11551927775144577 0.022736897692084312 0.001823919010348618
0.20073504745960236 0.090720966458320618 0.02342071570456028
0.32042661309242249 0.20271150767803192 0.12080672383308411
0.42782753705978394 0.30832397937774658 0.22253064811229706
0.47176867723464966 0.3494507372379303 0.26566126942634583
0.50566643476486206 0.37774884700775146 0.29774746298789978
0.13512915372848511 0.033934753388166428 0.0064065819606184959
0.17349429428577423 0.067171193659305573 0.013713701628148556
0.27010086178779602 0.15513293445110321 0.081826545298099518
0.36302083730697632 0.24414560198783875 0.16320843994617462
0.4555763304233551 0.33411210775375366 0.25088268518447876
0.51743292808532715 0.38865157961845398 0.31007805466651917
0.57660055160522461 0.44706138968467712 0.37119376659393311
0.25233668088912964 0.13612669706344604 0.061870094388723373
0.31101313233375549 0.19435854256153107 0.11724723130464554
0.39255607128143311 0.27227321267127991 0.19133363664150238
0.46715494990348816 0.3461051881313324 0.26636612415313721
0.54119443893432617 0.41781225800514221 0.34094718098640442
0.59767740964889526 0.47225716710090637 0.39602962136268616
0.6096150279045105 0.4805334210395813 0.40525919198989868
0.38411441445350647 0.25960949063301086 0.17423421144485474
0.42941483855247498 0.30663913488388062 0.22263070940971375
0.51182651519775391 0.38902586698532104 0.3097413182258606
0.57471591234207153 0.45560666918754578 0.38003399968147278
0.6412922739982605 0.52099859714508057 0.44477346539497375
0.68407762050628662 0.56238859891891479 0.48510774970054626
0.72753125429153442 0.60340827703475952 0.52460366487503052
0.44781386852264404 0.32450345158576965 0.24110756814479828
0.51615893840789795 0.3910057544708252 0.30925685167312622
0.56145548820495605 0.43604671955108643 0.35782298445701599
0.66484403610229492 0.54649490118026733 0.47006306052207947
0.7191307544708252 0.59968876838684082 0.52323508262634277
0.76139044761657715 0.63560312986373901 0.55664503574371338
0.81003862619400024 0.68269133567810059 0.60086894035339355
0.47816312313079834 0.35600993037223816 0.27114805579185486
0.5826343297958374 0.45624342560768127 0.37502577900886536
0.64057707786560059 0.51552379131317139 0.43647187948226929
0.69659423828125 0.57527583837509155 0.49676156044006348
0.73156344890594482 0.61281502246856689 0.53520625829696655
0.80688643455505371 0.67952436208724976 0.5980679988861084
0.84292405843734741 0.71354013681411743 0.63129919767379761
0.51030957698822021 0.38855850696563721 0.30581894516944885
0.61136829853057861 0.48407867550849915 0.40308660268783569
0.66263508796691895 0.53421938419342041 0.45441797375679016
0.72925353050231934 0.60167461633682251 0.51968598365783691
0.80204892158508301 0.67608118057250977 0.59441179037094116
0.85962402820587158 0.73191863298416138 0.64962637424468994
0.88178211450576782 0.75070106983184814 0.66691285371780396
0.11122774332761765 0.016932349652051926 0.0012509663356468081
0.16749323904514313 0.061079047620296478 0.014633612707257271
0.24683919548988342 0.1314106285572052 0.055862907320261002
0.37254816293716431 0.25615021586418152 0.17193391919136047
0.4569118320941925 0.33746078610420227 0.25353717803955078
0.50894761085510254 0.38274934887886047 0.30312809348106384
0.58425813913345337 0.45872324705123901 0.38092425465583801
0.18414679169654846 0.078221641480922699 0.02142709493637085
0.22029784321784973 0.1099247932434082 0.040633212774991989
0.30415293574333191 0.18729741871356964 0.10784855484962463
0.39432099461555481 0.27427995204925537 0.19164209067821503
0.48437854647636414 0.35972470045089722 0.27893221378326416
0.5672793984413147 0.43889197707176208 0.36268487572669983
0.60575491189956665 0.48010021448135376 0.40332800149917603
0.3132627010345459 0.19668024778366089 0.11742653697729111
0.34327805042266846 0.22613267600536346 0.14686833322048187
0.41251647472381592 0.29386928677558899 0.2108532041311264
0.48887905478477478 0.36880958080291748 0.28717291355133057
0.56023573875427246 0.43782716989517212 0.35754227638244629
0.63211297988891602 0.50880151987075806 0.42972835898399353
0.67527300119400024 0.55075454711914062 0.47080644965171814
0.4372771680355072 0.31808251142501831 0.23314106464385986
0.47514238953590393 0.35310187935829163 0.27170780301094055
0.5329902172088623 0.40994861721992493 0.33130946755409241
0.60504001379013062 0.48375064134597778 0.40640562772750854
0.66518962383270264 0.54348433017730713 0.46547612547874451
0.72299164533615112 0.59928488731384277 0.51848721504211426
0.75081425905227661 0.62508386373519897 0.5448417067527771
0.51493614912033081 0.3948667049407959 0.31214818358421326
0.56648701429367065 0.4409153163433075 0.36131188273429871
0.63181471824645996 0.50613391399383545 0.42550036311149597
0.68457800149917603 0.56116294860839844 0.48191630840301514
0.74803996086120605 0.62468850612640381 0.54506891965866089
0.81260043382644653 0.68486374616622925 0.60330665111541748
0.85738492012023926 0.72484344244003296 0.64265233278274536
0.54949647188186646 0.42671462893486023 0.34609201550483704
0.63211023807525635 0.50357484817504883 0.42373019456863403
0.68596673011779785 0.55735296010971069 0.47612601518630981
0.74008315801620483 0.61218398809432983 0.52905046939849854
0.79671066999435425 0.66933774948120117 0.5885695219039917
0.86572718620300293 0.73683768510818481 0.65556412935256958
0.87837624549865723 0.74652135372161865 0.66404443979263306
0.58406025171279907 0.46100687980651855 0.38293567299842834
0.67277354001998901 0.54375791549682617 0.46119138598442078
0.71254241466522217 0.58298075199127197 0.49915409088134766
0.75614452362060547 0.62517678737640381 0.54147648811340332
0.81217682361602783 0.681415855884552 0.59792602062225342
0.88384830951690674 0.75285142660140991 0.66910916566848755
0.93000799417495728 0.79522460699081421 0.71107220649719238
0.21590621769428253 0.10968329012393951 0.038075286895036697
0.26923313736915588 0.15780152380466461 0.079870127141475677
0.33550074696540833 0.21786323189735413 0.13552016019821167
0.41614297032356262 0.29584500193595886 0.21070973575115204
0.5040515661239624 0.38265526294708252 0.3000621497631073
0.57840836048126221 0.45520380139350891 0.37629058957099915
0.62073194980621338 0.49578994512557983 0.41725316643714905
0.26762723922729492 0.15316043794155121 0.07691548764705658
0.30905145406723022 0.19080135226249695 0.11097042262554169
0.37792682647705078 0.26002538204193115 0.17647221684455872
0.45828977227210999 0.33678475022315979 0.25445783138275146
0.53477722406387329 0.41082483530044556 0.32993912696838379
0.60589325428009033 0.48124682903289795 0.40308555960655212
0.65218436717987061 0.52993381023406982 0.45087125897407532
0.38400492072105408 0.26613104343414307 0.18278211355209351
0.40906533598899841 0.29135456681251526 0.20680560171604156
0.46854123473167419 0.34988242387771606 0.26574715971946716
0.53601038455963135 0.41551101207733154 0.33415597677230835
0.60961538553237915 0.48634794354438782 0.40687152743339539
0.6705162525177002 0.54661649465560913 0.46662971377372742
0.70563161373138428 0.58051878213882446 0.4996178150177002
0.50491106510162354 0.38415431976318359 0.30335325002670288
0.51767557859420776 0.39725437760353088 0.31625449657440186
0.5714830756187439 0.44930633902549744 0.3680509626865387
0.63707047700881958 0.51597136259078979 0.43609881401062012
0.69883352518081665 0.57630592584609985 0.49709019064903259
0.74739348888397217 0.62290513515472412 0.54229569435119629
0.79040658473968506 0.66328638792037964 0.58127415180206299
0.57362276315689087 0.45302110910415649 0.37331011891365051
0.62243503332138062 0.49848458170890808 0.41972339153289795
0.66618037223815918 0.54011529684066772 0.45871791243553162
0.72450143098831177 0.59948712587356567 0.51866358518600464
0.78488355875015259 0.66028094291687012 0.58009260892868042
0.83650660514831543 0.70813250541687012 0.62696868181228638
0.87763684988021851 0.74366593360900879 0.66134583950042725
0.67445957660675049 0.5469592809677124 0.46400284767150879
0.68986362218856812 0.55922466516494751 0.47579199075698853
0.72181951999664307 0.59243923425674438 0.51010638475418091
0.78044414520263672 0.64826685190200806 0.56504994630813599
0.85011047124862671 0.71904128789901733 0.63548445701599121
0.8906559944152832 0.75932544469833374 0.67804092168807983
0.93609237670898438 0.8007999062538147 0.71743398904800415
0.68707716464996338 0.55829405784606934 0.47380572557449341
0.70004034042358398 0.56973016262054443 0.48496726155281067
0.76336812973022461 0.63300544023513794 0.54747086763381958
0.82387059926986694 0.6884998083114624 0.60440009832382202
0.86503231525421143 0.73096823692321777 0.64764058589935303
0.93398201465606689 0.79543328285217285 0.71038323640823364
0.95801293849945068 0.82144272327423096 0.73842376470565796
0.31255519390106201 0.22025600075721741 0.15789888799190521
0.36345237493515015 0.26081207394599915 0.19144918024539948
0.42569407820701599 0.31124177575111389 0.23022989928722382
0.48982474207878113 0.37196260690689087 0.28944337368011475
0.56015950441360474 0.43931162357330322 0.35862073302268982
0.63137799501419067 0.50852036476135254 0.42854318022727966
0.67518091201782227 0.55101650953292847 0.46998199820518494
0.36416831612586975 0.25160014629364014 0.17218941450119019
0.40977826714515686 0.29239079356193542 0.20974886417388916
0.46232461929321289 0.34426921606063843 0.2604929506778717
0.53486484289169312 0.4151681661605835 0.33407112956047058
0.60557287931442261 0.48351049423217773 0.40446829795837402
0.661548912525177 0.53894859552383423 0.46046137809753418
0.69658875465393066 0.57318532466888428 0.49296578764915466
0.45686942338943481 0.33783665299415588 0.2542317807674408
0.49238672852516174 0.37314325571060181 0.29122078418731689
0.53826916217803955 0.41834267973899841 0.33675569295883179
0.59433650970458984 0.4737682044506073 0.39502894878387451
0.65985393524169922 0.53750103712081909 0.46093890070915222
0.71613168716430664 0.59230136871337891 0.5136789083480835
0.75557982921600342 0.62959545850753784 0.54963165521621704
0.57202816009521484 0.45051121711730957 0.37130507826805115
0.59094393253326416 0.46908760070800781 0.38882958889007568
0.63173204660415649 0.50903081893920898 0.4285186231136322
0.6850583553314209 0.56232255697250366 0.48384937644004822
0.73706686496734619 0.61389529705047607 0.53643739223480225
0.79139769077301025 0.6660541296005249 0.5859302282333374
0.82865339517593384 0.70181608200073242 0.62065303325653076
0.66527295112609863 0.54515701532363892 0.46682679653167725
0.67467719316482544 0.55057662725448608 0.47051161527633667
0.72168737649917603 0.59493482112884521 0.51337933540344238
0.77400714159011841 0.6461518406867981 0.56474512815475464
0.81726324558258057 0.6908528208732605 0.61043465137481689
0.86723881959915161 0.73873871564865112 0.65700143575668335
0.90937000513076782 0.77807402610778809 0.69569814205169678
0.73404353857040405 0.60843807458877563 0.52733117341995239
0.748249351978302 0.61727017164230347 0.53331726789474487
0.7831609845161438 0.65220409631729126 0.56732571125030518
0.83519333600997925 0.69968134164810181 0.61409914493560791
0.87719333171844482 0.74386453628540039 0.66074120998382568
0.93597710132598877 0.79930859804153442 0.71624869108200073
0.98039120435714722 0.8466992974281311 0.76075202226638794
0.74840015172958374 0.62188994884490967 0.54057055711746216
0.76882058382034302 0.63561856746673584 0.55293112993240356
0.7977064847946167 0.66414690017700195 0.57849675416946411
0.83919990062713623 0.70276814699172974 0.61740916967391968
0.89805775880813599 0.75933200120925903 0.67664146423339844
0.97801941633224487 0.8373417854309082 0.7529296875
0.99215143918991089 0.86549174785614014 0.7804485559463501
0.41074153780937195 0.32067766785621643 0.26728042960166931
0.45134630799293518 0.3528175950050354 0.29432544112205505
0.50742632150650024 0.40000149607658386 0.33401772379875183
0.56878602504730225 0.45281979441642761 0.3816283643245697
0.62938404083251953 0.5100167989730835 0.43390858173370361
0.68287575244903564 0.5621565580368042 0.48364678025245667
0.72795432806015015 0.60521471500396729 0.52567994594573975
0.4674033522605896 0.35426288843154907 0.28254485130310059
0.51527613401412964 0.40138876438140869 0.33013904094696045
0.55483675003051758 0.43974238634109497 0.36530983448028564
0.60562115907669067 0.48554113507270813 0.40740099549293518
0.6638636589050293 0.54185622930526733 0.46338632702827454
0.71527731418609619 0.59165394306182861 0.51299387216567993
0.75379645824432373 0.62845921516418457 0.54975485801696777
0.54706591367721558 0.42340189218521118 0.34572485089302063
0.58505207300186157 0.46309959888458252 0.38593402504920959
0.61612087488174438 0.49526789784431458 0.41698536276817322
0.66436058282852173 0.54246366024017334 0.46467441320419312
0.71354067325592041 0.59062677621841431 0.51354503631591797
0.76209527254104614 0.63672184944152832 0.55862599611282349
0.80474162101745605 0.67639237642288208 0.59708845615386963
0.63552212715148926 0.51262551546096802 0.43389666080474854
0.66350942850112915 0.54057544469833374 0.46168583631515503
0.69198298454284668 0.56692618131637573 0.48669719696044922
0.73381960391998291 0.60824114084243774 0.52849286794662476
0.77647584676742554 0.65114361047744751 0.5726659893989563
0.82827746868133545 0.69982028007507324 0.62027150392532349
0.87489008903503418 0.74276959896087646 0.66175675392150879
0.71299558877944946 0.59189373254776001 0.51247102022171021
0.74434041976928711 0.61803865432739258 0.53661417961120605
0.77115309238433838 0.64122051000595093 0.55835163593292236
0.81424272060394287 0.68232744932174683 0.59890460968017578
0.85231322050094604 0.72218263149261475 0.64063435792922974
0.89751994609832764 0.76838928461074829 0.68665599822998047
0.93806684017181396 0.809864342212677 0.72769653797149658
0.80072176456451416 0.67145687341690063 0.58934599161148071
0.80000370740890503 0.66831827163696289 0.58582574129104614
0.82951533794403076 0.69628989696502686 0.61078721284866333
0.88781577348709106 0.74844890832901001 0.66206669807434082
0.91824245452880859 0.78131282329559326 0.69775563478469849
0.96042764186859131 0.83039742708206177 0.74749201536178589
0.99076491594314575 0.87939029932022095 0.79419934749603271
0.80784839391708374 0.67635589838027954 0.59454166889190674
0.85459613800048828 0.71887463331222534 0.63380199670791626
0.88556927442550659 0.74539214372634888 0.65801322460174561
0.93291759490966797 0.78863990306854248 0.70095235109329224
0.96429646015167236 0.82220357656478882 0.7361028790473938
0.99281901121139526 0.86947089433670044 0.78585439920425415
0.99607843160629272 0.89706695079803467 0.81397056579589844
0.51135122776031494 0.40814614295959473 0.34915748238563538
0.55027729272842407 0.44186708331108093 0.37629282474517822
0.59711861610412598 0.48425346612930298 0.41386842727661133
0.65377473831176758 0.53462624549865723 0.46295398473739624
0.70786190032958984 0.5859687328338623 0.5099644660949707
0.75140661001205444 0.62887179851531982 0.55053627490997314
0.78134924173355103 0.65786004066467285 0.57752645015716553
0.56805932521820068 0.45319360494613647 0.3843039870262146
0.6107257604598999 0.49380704760551453 0.42175000905990601
0.64408785104751587 0.52556878328323364 0.4504169225692749
0.68402433395385742 0.56184893846511841 0.48450106382369995
0.72822797298431396 0.60517400503158569 0.52635234594345093
0.7805483341217041 0.65592086315155029 0.5762297511100769
0.80382192134857178 0.67804694175720215 0.59754472970962524
0.62981498241424561 0.50827336311340332 0.43228250741958618
0.66924023628234863 0.54674512147903442 0.46901202201843262
0.69622695446014404 0.57333827018737793 0.49390462040901184
0.73048233985900879 0.60661762952804565 0.52644985914230347
0.77396142482757568 0.64950484037399292 0.56991434097290039
0.81630939245223999 0.69092375040054321 0.61200398206710815
0.84940952062606812 0.72072380781173706 0.63899046182632446
0.7098928689956665 0.58684766292572021 0.50765049457550049
0.73609787225723267 0.61253702640533447 0.53219884634017944
0.75189167261123657 0.62529033422470093 0.54262709617614746
0.7940254807472229 0.66678273677825928 0.58436733484268188
0.83589053153991699 0.70904862880706787 0.62764483690261841
0.87439024448394775 0.74663418531417847 0.66613131761550903
0.90993595123291016 0.77811533212661743 0.69784665107727051
0.78398615121841431 0.65833228826522827 0.5779263973236084
0.80918711423873901 0.6804395318031311 0.59764343500137329
0.8242260217666626 0.69144386053085327 0.60633820295333862
0.86067080497741699 0.72880536317825317 0.64340120553970337
0.89574235677719116 0.76731014251708984 0.68319356441497803
0.93722200393676758 0.80658197402954102 0.72385334968566895
0.97577732801437378 0.84637022018432617 0.76415586471557617
0.84989553689956665 0.71826988458633423 0.63587778806686401
0.87365138530731201 0.73623824119567871 0.65218228101730347
0.90192151069641113 0.76165270805358887 0.67477160692214966
0.9312407374382019 0.79252630472183228 0.70429843664169312
0.96185469627380371 0.82955795526504517 0.7429841160774231
0.97828280925750732 0.86304306983947754 0.78015077114105225
0.99416589736938477 0.90675407648086548 0.82606607675552368
0.92677372694015503 0.78225791454315186 0.6960945725440979
0.90227144956588745 0.76295828819274902 0.67881298065185547
0.92656594514846802 0.78273606300354004 0.69622588157653809
0.96874934434890747 0.82531887292861938 0.73661124706268311
0.99539124965667725 0.86540126800537109 0.77768212556838989
0.99782681465148926 0.8976324200630188 0.81490182876586914
1 0.92658847570419312 0.84662431478500366
0.60257208347320557 0.48650902509689331 0.41656920313835144
0.63549411296844482 0.51670175790786743 0.44288778305053711
0.6693037748336792 0.55092912912368774 0.47331321239471436
0.72623991966247559 0.6027408242225647 0.52705115079879761
0.77509206533432007 0.649910569190979 0.57230311632156372
0.82101720571517944 0.69595539569854736 0.6151314377784729
0.83887028694152832 0.71149629354476929 0.6293632984161377
0.64421790838241577 0.52608835697174072 0.45307180285453796
0.68794947862625122 0.56623166799545288 0.48956960439682007
0.72402721643447876 0.6016114354133606 0.52268999814987183
0.76205670833587646 0.63752597570419312 0.55946218967437744
0.79639363288879395 0.67125743627548218 0.59226959943771362
0.8335149884223938 0.70837432146072388 0.62733167409896851
0.84750223159790039 0.7203558087348938 0.63816940784454346
0.70267009735107422 0.58145970106124878 0.50427210330963135
0.74762523174285889 0.62408661842346191 0.54377532005310059
0.7746502161026001 0.64944922924041748 0.56745213270187378
0.80172455310821533 0.67670494318008423 0.59485906362533569
0.83714860677719116 0.7115214467048645 0.62941193580627441
0.87160849571228027 0.74435603618621826 0.66128969192504883
0.90858733654022217 0.77385246753692627 0.68864762783050537
0.76716369390487671 0.64530020952224731 0.5652955174446106
0.79920905828475952 0.67346251010894775 0.59087717533111572
0.82403886318206787 0.69510936737060547 0.61015689373016357
0.8527674674987793 0.72433102130889893 0.63948017358779907
0.88454753160476685 0.75848138332366943 0.67425918579101562
0.92008739709854126 0.79161858558654785 0.70641994476318359
0.95269006490707397 0.81789791584014893 0.73405736684799194
0.83383285999298096 0.70695364475250244 0.62534826993942261
0.8652229905128479 0.73337739706039429 0.64771860837936401
0.88318872451782227 0.74965500831604004 0.66138821840286255
0.90940970182418823 0.77871829271316528 0.69017046689987183
0.93530988693237305 0.81057584285736084 0.72380763292312622
0.97040921449661255 0.84574919939041138 0.7597658634185791
0.99237537384033203 0.87061887979507446 0.78797876834869385
0.91596496105194092 0.77601999044418335 0.68814146518707275
0.93234968185424805 0.78949576616287231 0.70090115070343018
0.94775611162185669 0.80795753002166748 0.71722280979156494
0.97063714265823364 0.83668476343154907 0.74525350332260132
0.99009513854980469 0.86877620220184326 0.78006017208099365
0.99068289995193481 0.89839929342269897 0.81715095043182373
0.99783802032470703 0.93382495641708374 0.85738569498062134
0.93865299224853516 0.79495608806610107 0.70529347658157349
0.92593258619308472 0.78403544425964355 0.69745087623596191
0.95113897323608398 0.80911040306091309 0.72213649749755859
0.99449223279953003 0.85631740093231201 0.76956427097320557
0.99607843160629272 0.87982451915740967 0.79224026203155518
0.99850201606750488 0.92070686817169189 0.84124851226806641
1 0.94429486989974976 0.86891847848892212
