luts/fujixtransiii/fuji_xtrans_iii_mono+ye.cube
# Created by: G'MIC (https://gmic.eu)
TITLE "fuji_xtrans_iii_mono+ye"
# LUT size
LUT_3D_SIZE 7
# Data domain
DOMAIN_MIN 0.0 0.0 0.0
DOMAIN_MAX 1.0 1.0 1.0
# LUT data points
0.011177167296409607 0.011177167296409607 0.011177167296409607
0.051125247031450272 0.051125247031450272 0.051125247031450272
0.16407625377178192 0.16407625377178192 0.16407625377178192
0.323598712682724 0.323598712682724 0.323598712682724
0.46242538094520569 0.46242538094520569 0.46242538094520569
0.51618027687072754 0.51618027687072754 0.51618027687072754
0.55011564493179321 0.55011564493179321 0.55011564493179321
0.044576141983270645 0.044576141983270645 0.044576141983270645
0.096792496740818024 0.096792496740818024 0.096792496740818024
0.2189645916223526 0.2189645916223526 0.2189645916223526
0.36001449823379517 0.36001449823379517 0.36001449823379517
0.48416981101036072 0.48416981101036072 0.48416981101036072
0.55175840854644775 0.55175840854644775 0.55175840854644775
0.59764772653579712 0.59764772653579712 0.59764772653579712
0.14761540293693542 0.14761540293693542 0.14761540293693542
0.20666171610355377 0.20666171610355377 0.20666171610355377
0.31812113523483276 0.31812113523483276 0.31812113523483276
0.43525373935699463 0.43525373935699463 0.43525373935699463
0.53100043535232544 0.53100043535232544 0.53100043535232544
0.605316162109375 0.605316162109375 0.605316162109375
0.62270420789718628 0.62270420789718628 0.62270420789718628
0.25758922100067139 0.25758922100067139 0.25758922100067139
0.31392002105712891 0.31392002105712891 0.31392002105712891
0.41228163242340088 0.41228163242340088 0.41228163242340088
0.50412791967391968 0.50412791967391968 0.50412791967391968
0.58970212936401367 0.58970212936401367 0.58970212936401367
0.65319019556045532 0.65319019556045532 0.65319019556045532
0.70311343669891357 0.70311343669891357 0.70311343669891357
0.32231462001800537 0.32231462001800537 0.32231462001800537
0.38853171467781067 0.38853171467781067 0.38853171467781067
0.4552796483039856 0.4552796483039856 0.4552796483039856
0.57326763868331909 0.57326763868331909 0.57326763868331909
0.65422135591506958 0.65422135591506958 0.65422135591506958
0.69762957096099854 0.69762957096099854 0.69762957096099854
0.74875098466873169 0.74875098466873169 0.74875098466873169
0.35506764054298401 0.35506764054298401 0.35506764054298401
0.45800846815109253 0.45800846815109253 0.45800846815109253
0.52903944253921509 0.52903944253921509 0.52903944253921509
0.60178810358047485 0.60178810358047485 0.60178810358047485
0.65529662370681763 0.65529662370681763 0.65529662370681763
0.74316000938415527 0.74316000938415527 0.74316000938415527
0.78257167339324951 0.78257167339324951 0.78257167339324951
0.38975101709365845 0.38975101709365845 0.38975101709365845
0.48069435358047485 0.48069435358047485 0.48069435358047485
0.54290437698364258 0.54290437698364258 0.54290437698364258
0.62896567583084106 0.62896567583084106 0.62896567583084106
0.70592737197875977 0.70592737197875977 0.70592737197875977
0.77580046653747559 0.77580046653747559 0.77580046653747559
0.80789196491241455 0.80789196491241455 0.80789196491241455
0.016482587903738022 0.017706029117107391 0.017706029117107391
0.082972250878810883 0.083015426993370056 0.083015426993370056
0.1954113245010376 0.1954113245010376 0.1954113245010376
0.36156442761421204 0.36156442761421204 0.36156442761421204
0.50086241960525513 0.50086241960525513 0.50086241960525513
0.55977052450180054 0.55977052450180054 0.55977052450180054
0.6357269287109375 0.6357269287109375 0.6357269287109375
0.076386183500289917 0.076389774680137634 0.076389774680137634
0.1298801600933075 0.1298801600933075 0.1298801600933075
0.24202270805835724 0.24202270805835724 0.24202270805835724
0.38224616646766663 0.38224616646766663 0.38224616646766663
0.49965563416481018 0.49965563416481018 0.49965563416481018
0.59535902738571167 0.59535902738571167 0.59535902738571167
0.65492767095565796 0.65492767095565796 0.65492767095565796
0.18241347372531891 0.18241347372531891 0.18241347372531891
0.23465998470783234 0.23465998470783234 0.23465998470783234
0.32707947492599487 0.32707947492599487 0.32707947492599487
0.44787865877151489 0.44787865877151489 0.44787865877151489
0.54637372493743896 0.54637372493743896 0.54637372493743896
0.63861715793609619 0.63861715793609619 0.63861715793609619
0.6878851056098938 0.6878851056098938 0.6878851056098938
0.30943465232849121 0.30943465232849121 0.30943465232849121
0.35456979274749756 0.35456979274749756 0.35456979274749756
0.42256385087966919 0.42256385087966919 0.42256385087966919
0.51274210214614868 0.51274210214614868 0.51274210214614868
0.60252398252487183 0.60252398252487183 0.60252398252487183
0.68536674976348877 0.68536674976348877 0.68536674976348877
0.72951602935791016 0.72951602935791016 0.72951602935791016
0.37813934683799744 0.37813934683799744 0.37813934683799744
0.43227219581604004 0.43227219581604004 0.43227219581604004
0.50716221332550049 0.50716221332550049 0.50716221332550049
0.58290570974349976 0.58290570974349976 0.58290570974349976
0.66718828678131104 0.66718828678131104 0.66718828678131104
0.74307656288146973 0.74307656288146973 0.74307656288146973
0.79744821786880493 0.79744821786880493 0.79744821786880493
0.41389176249504089 0.41389176249504089 0.41389176249504089
0.50044238567352295 0.50044238567352295 0.50044238567352295
0.56265920400619507 0.56265920400619507 0.56265920400619507
0.63593870401382446 0.63593870401382446 0.63593870401382446
0.70547634363174438 0.70547634363174438 0.70547634363174438
0.78351545333862305 0.78351545333862305 0.78351545333862305
0.80552297830581665 0.80552297830581665 0.80552297830581665
0.44452536106109619 0.44452536106109619 0.44452536106109619
0.53544324636459351 0.53544324636459351 0.53544324636459351
0.57934921979904175 0.57934921979904175 0.57934921979904175
0.64264744520187378 0.64264744520187378 0.64264744520187378
0.71373158693313599 0.71373158693313599 0.71373158693313599
0.79244863986968994 0.79244863986968994 0.79244863986968994
0.84391301870346069 0.84391301870346069 0.84391301870346069
0.080138713121414185 0.080976508557796478 0.080976508557796478
0.1562986820936203 0.15640895068645477 0.15640895068645477
0.25523847341537476 0.25523847341537476 0.25523847341537476
0.37952485680580139 0.37952485680580139 0.37952485680580139
0.51694124937057495 0.51694124937057495 0.51694124937057495
0.61269134283065796 0.61269134283065796 0.61269134283065796
0.6750408411026001 0.6750408411026001 0.6750408411026001
0.12483899295330048 0.12483899295330048 0.12483899295330048
0.1882539838552475 0.1882539838552475 0.1882539838552475
0.29754865169525146 0.29754865169525146 0.29754865169525146
0.41718015074729919 0.41718015074729919 0.41718015074729919
0.53167974948883057 0.53167974948883057 0.53167974948883057
0.62763106822967529 0.62763106822967529 0.62763106822967529
0.69953435659408569 0.69953435659408569 0.69953435659408569
0.23278163373470306 0.23278163373470306 0.23278163373470306
0.28213685750961304 0.28213685750961304 0.28213685750961304
0.37182939052581787 0.37182939052581787 0.37182939052581787
0.4804726243019104 0.4804726243019104 0.4804726243019104
0.57671254873275757 0.57671254873275757 0.57671254873275757
0.65802925825119019 0.65802925825119019 0.65802925825119019
0.72164392471313477 0.72164392471313477 0.72164392471313477
0.35805636644363403 0.35805636644363403 0.35805636644363403
0.38958185911178589 0.38958185911178589 0.38958185911178589
0.45765137672424316 0.45765137672424316 0.45765137672424316
0.54538655281066895 0.54538655281066895 0.54538655281066895
0.63489902019500732 0.63489902019500732 0.63489902019500732
0.71079170703887939 0.71079170703887939 0.71079170703887939
0.77088284492492676 0.77088284492492676 0.77088284492492676
0.43016484379768372 0.43016484379768372 0.43016484379768372
0.48480683565139771 0.48480683565139771 0.48480683565139771
0.53753036260604858 0.53753036260604858 0.53753036260604858
0.61182886362075806 0.61182886362075806 0.61182886362075806
0.69299477338790894 0.69299477338790894 0.69299477338790894
0.75843709707260132 0.75843209028244019 0.75843209028244019
0.81779909133911133 0.81779909133911133 0.81779909133911133
0.5277751088142395 0.5277751088142395 0.5277751088142395
0.54135257005691528 0.54135257005691528 0.54135257005691528
0.59397965669631958 0.59397965669631958 0.59397965669631958
0.66398942470550537 0.66398942470550537 0.66398942470550537
0.74279952049255371 0.74279952049255371 0.74279952049255371
0.80140906572341919 0.80140906572341919 0.80140906572341919
0.85618263483047485 0.85618263483047485 0.85618263483047485
0.54106986522674561 0.54106986522674561 0.54106986522674561
0.55578726530075073 0.55578726530075073 0.55578726530075073
0.62586671113967896 0.62586671113967896 0.62586671113967896
0.69754964113235474 0.69754964113235474 0.69754964113235474
0.75102990865707397 0.75102990865707397 0.75102990865707397
0.83838897943496704 0.83838897943496704 0.83838897943496704
0.86874377727508545 0.86874377727508545 0.86874377727508545
0.16657434403896332 0.16657434403896332 0.16657434403896332
0.22653575241565704 0.22653575241565704 0.22653575241565704
0.32440626621246338 0.32440626621246338 0.32440626621246338
0.41985559463500977 0.41985559463500977 0.41985559463500977
0.54107308387756348 0.54107308387756348 0.54107308387756348
0.6432756781578064 0.6432756781578064 0.6432756781578064
0.70637506246566772 0.70637506246566772 0.70637506246566772
0.1854146271944046 0.1854146271944046 0.1854146271944046
0.25931492447853088 0.25931492447853088 0.25931492447853088
0.34788310527801514 0.34788310527801514 0.34788310527801514
0.44770336151123047 0.44770336151123047 0.44770336151123047
0.5692673921585083 0.5692673921585083 0.5692673921585083
0.66026598215103149 0.66026598215103149 0.66026598215103149
0.72002393007278442 0.72002393007278442 0.72002393007278442
0.28424108028411865 0.28424108028411865 0.28424108028411865
0.34157273173332214 0.34157273173332214 0.34157273173332214
0.42226788401603699 0.42226788401603699 0.42226788401603699
0.51365065574645996 0.51365065574645996 0.51365065574645996
0.60730463266372681 0.60730463266372681 0.60730463266372681
0.6911664605140686 0.6911664605140686 0.6911664605140686
0.75611031055450439 0.75611031055450439 0.75611031055450439
0.41048246622085571 0.41048246622085571 0.41048246622085571
0.4411289393901825 0.4411289393901825 0.4411289393901825
0.49117752909660339 0.49117752909660339 0.49117752909660339
0.57768720388412476 0.57768720388412476 0.57768720388412476
0.66617321968078613 0.66617321968078613 0.66617321968078613
0.7392088770866394 0.7392088770866394 0.7392088770866394
0.79018592834472656 0.79018592834472656 0.79018592834472656
0.50811362266540527 0.50811362266540527 0.50811362266540527
0.51944327354431152 0.51944327354431152 0.51944327354431152
0.56699460744857788 0.56699460744857788 0.56699460744857788
0.64538133144378662 0.64538133144378662 0.64538133144378662
0.71995478868484497 0.71995478868484497 0.71995478868484497
0.78443878889083862 0.78443878889083862 0.78443878889083862
0.8425602912902832 0.8425602912902832 0.8425602912902832
0.56723129749298096 0.56723129749298096 0.56723129749298096
0.59281164407730103 0.59281164407730103 0.59281164407730103
0.63456600904464722 0.63456600904464722 0.63456600904464722
0.6922907829284668 0.6922907829284668 0.6922907829284668
0.76791495084762573 0.76791495084762573 0.76791495084762573
0.83757948875427246 0.83757948875427246 0.83757948875427246
0.89895975589752197 0.89895975589752197 0.89895975589752197
0.58515059947967529 0.58515059947967529 0.58515059947967529
0.61556923389434814 0.61556923389434814 0.61556923389434814
0.64542680978775024 0.64542680978775024 0.64542680978775024
0.70262980461120605 0.70262980461120605 0.70262980461120605
0.77964901924133301 0.77964901924133301 0.77964901924133301
0.87686985731124878 0.87686985731124878 0.87686985731124878
0.91182148456573486 0.91182148456573486 0.91182148456573486
0.25542160868644714 0.25542160868644714 0.25542160868644714
0.30459186434745789 0.30459186434745789 0.30459186434745789
0.37597674131393433 0.37597674131393433 0.37597674131393433
0.47560688853263855 0.47560688853263855 0.47560688853263855
0.58033663034439087 0.58033663034439087 0.58033663034439087
0.67290806770324707 0.67290806770324707 0.67290806770324707
0.73404014110565186 0.73404014110565186 0.73404014110565186
0.27213576436042786 0.27213576436042786 0.27213576436042786
0.33300295472145081 0.33300295472145081 0.33300295472145081
0.41006562113761902 0.41006562113761902 0.41006562113761902
0.49108010530471802 0.49108010530471802 0.49108010530471802
0.59501665830612183 0.59501665830612183 0.59501665830612183
0.68576079607009888 0.68576079607009888 0.68576079607009888
0.75268906354904175 0.75268906354904175 0.75268906354904175
0.34402346611022949 0.34402346611022949 0.34402346611022949
0.4101998507976532 0.4101998507976532 0.4101998507976532
0.46898934245109558 0.46898934245109558 0.46898934245109558
0.55046218633651733 0.55046218633651733 0.55046218633651733
0.63634979724884033 0.63634979724884033 0.63634979724884033
0.71340513229370117 0.71340513229370117 0.71340513229370117
0.77089661359786987 0.77089661359786987 0.77089661359786987
0.44959434866905212 0.44959434866905212 0.44959434866905212
0.49546429514884949 0.49546429514884949 0.49546429514884949
0.5358462929725647 0.5358462929725647 0.5358462929725647
0.61214053630828857 0.61214053630828857 0.61214053630828857
0.69359272718429565 0.69359272718429565 0.69359272718429565
0.7631385326385498 0.7631385326385498 0.7631385326385498
0.81746858358383179 0.81746858358383179 0.81746858358383179
0.54217493534088135 0.54217493534088135 0.54217493534088135
0.57187145948410034 0.57187145948410034 0.57187145948410034
0.61001050472259521 0.61001050472259521 0.61001050472259521
0.67688828706741333 0.67688828706741333 0.67688828706741333
0.74680203199386597 0.74680203199386597 0.74680203199386597
0.81109857559204102 0.81109857559204102 0.81109857559204102
0.86735403537750244 0.86735403537750244 0.86735403537750244
0.62211459875106812 0.62211459875106812 0.62211459875106812
0.64109545946121216 0.64109545946121216 0.64109545946121216
0.67038333415985107 0.67038333415985107 0.67038333415985107
0.73262453079223633 0.73262453079223633 0.73262453079223633
0.79620599746704102 0.79620599746704102 0.79620599746704102
0.86742293834686279 0.86742293834686279 0.86742293834686279
0.92823481559753418 0.92823481559753418 0.92823481559753418
0.64095228910446167 0.64095228910446167 0.64095228910446167
0.68255293369293213 0.68255293369293213 0.68255293369293213
0.7212335467338562 0.7212335467338562 0.7212335467338562
0.77628391981124878 0.77628391981124878 0.77628391981124878
0.83500444889068604 0.83500444889068604 0.83500444889068604
0.90297597646713257 0.90297597646713257 0.90297597646713257
0.94258642196655273 0.94258642196655273 0.94258642196655273
0.35806447267532349 0.35806447267532349 0.35806447267532349
0.40020191669464111 0.40020191669464111 0.40020191669464111
0.44775888323783875 0.44775888323783875 0.44775888323783875
0.52496850490570068 0.52496850490570068 0.52496850490570068
0.62355631589889526 0.62355631589889526 0.62355631589889526
0.70805299282073975 0.70805299282073975 0.70805299282073975
0.75538867712020874 0.75538867712020874 0.75538867712020874
0.35950002074241638 0.35950002074241638 0.35950002074241638
0.41598320007324219 0.41598320007324219 0.41598320007324219
0.47189325094223022 0.47189325094223022 0.47189325094223022
0.54382216930389404 0.54382216930389404 0.54382216930389404
0.62452691793441772 0.62452691793441772 0.62452691793441772
0.70777177810668945 0.70777177810668945 0.70777177810668945
0.76337206363677979 0.76337206363677979 0.76337206363677979
0.40417125821113586 0.40417125821113586 0.40417125821113586
0.47256666421890259 0.47256666421890259 0.47256666421890259
0.51837074756622314 0.51837074756622314 0.51837074756622314
0.59292960166931152 0.59292960166931152 0.59292960166931152
0.66356086730957031 0.66356086730957031 0.66356086730957031
0.73839700222015381 0.73839700222015381 0.73839700222015381
0.80137449502944946 0.80137449502944946 0.80137449502944946
0.491912841796875 0.491912841796875 0.491912841796875
0.54693615436553955 0.54693615436553955 0.54693615436553955
0.59007042646408081 0.59007042646408081 0.59007042646408081
0.65562289953231812 0.65562289953231812 0.65562289953231812
0.71960455179214478 0.71960455179214478 0.71960455179214478
0.78553539514541626 0.78553539514541626 0.78553539514541626
0.83761584758758545 0.83761584758758545 0.83761584758758545
0.58649700880050659 0.58649700880050659 0.58649700880050659
0.62297362089157104 0.62297362089157104 0.62297362089157104
0.66534578800201416 0.66534578800201416 0.66534578800201416
0.71757400035858154 0.71757400035858154 0.71757400035858154
0.77845007181167603 0.77845007181167603 0.77845007181167603
0.83949291706085205 0.83949291706085205 0.83949291706085205
0.88607454299926758 0.88607454299926758 0.88607454299926758
0.66031563282012939 0.66031563282012939 0.66031563282012939
0.69218891859054565 0.69218891859054565 0.69218891859054565
0.72921574115753174 0.72921574115753174 0.72921574115753174
0.77517938613891602 0.77517938613891602 0.77517938613891602
0.83731585741043091 0.83731585741043091 0.83731585741043091
0.89640486240386963 0.89640486240386963 0.89640486240386963
0.94851601123809814 0.94851601123809814 0.94851601123809814
0.74133706092834473 0.74133706092834473 0.74133706092834473
0.72203463315963745 0.72203463315963745 0.72203463315963745
0.75353562831878662 0.75353562831878662 0.75353562831878662
0.80788642168045044 0.80788642168045044 0.80788642168045044
0.86944842338562012 0.86944842338562012 0.86944842338562012
0.92517000436782837 0.92519533634185791 0.92519533634185791
0.96278417110443115 0.96278417110443115 0.96278417110443115
0.46234765648841858 0.46234765648841858 0.46234765648841858
0.49278014898300171 0.49278014898300171 0.49278014898300171
0.52184122800827026 0.52184122800827026 0.52184122800827026
0.58113479614257812 0.58113479614257812 0.58113479614257812
0.67067849636077881 0.67067849636077881 0.67067849636077881
0.73501509428024292 0.73501509428024292 0.73501509428024292
0.76978182792663574 0.76978182792663574 0.76978182792663574
0.45942568778991699 0.45942568778991699 0.45942568778991699
0.50056982040405273 0.50056982040405273 0.50056982040405273
0.54116582870483398 0.54116582870483398 0.54116582870483398
0.60638469457626343 0.60638469457626343 0.60638469457626343
0.68132692575454712 0.68132692575454712 0.68132692575454712
0.74500292539596558 0.74500292539596558 0.74500292539596558
0.77801835536956787 0.77801835536956787 0.77801835536956787
0.45253863930702209 0.45253863930702209 0.45253863930702209
0.52417230606079102 0.52417230606079102 0.52417230606079102
0.57341629266738892 0.57341629266738892 0.57341629266738892
0.64013129472732544 0.64013129472732544 0.64013129472732544
0.70855271816253662 0.70855271816253662 0.70855271816253662
0.76826190948486328 0.76826190948486328 0.76826190948486328
0.81703591346740723 0.81703591346740723 0.81703591346740723
0.51275438070297241 0.51275438070297241 0.51275438070297241
0.56690341234207153 0.56690341234207153 0.56690341234207153
0.63717019557952881 0.63717019557952881 0.63717019557952881
0.69126361608505249 0.69126361608505249 0.69126361608505249
0.74796152114868164 0.74796152114868164 0.74796152114868164
0.80534946918487549 0.80534946918487549 0.80534946918487549
0.8620418906211853 0.8620418906211853 0.8620418906211853
0.61723172664642334 0.61723172664642334 0.61723172664642334
0.64883679151535034 0.64883679151535034 0.64883679151535034
0.70319634675979614 0.70319634675979614 0.70319634675979614
0.75317573547363281 0.75317573547363281 0.75317573547363281
0.8096662163734436 0.8096662163734436 0.8096662163734436
0.86717259883880615 0.86717259883880615 0.86717259883880615
0.91137176752090454 0.91137176752090454 0.91137176752090454
0.70867693424224854 0.70867693424224854 0.70867693424224854
0.7240709662437439 0.7240709662437439 0.7240709662437439
0.76392513513565063 0.76392513513565063 0.76392513513565063
0.81072825193405151 0.81072825193405151 0.81072825193405151
0.86735665798187256 0.86735665798187256 0.86735665798187256
0.92118740081787109 0.92118740081787109 0.92118740081787109
0.96359503269195557 0.96359503269195557 0.96359503269195557
0.7471928596496582 0.7471928596496582 0.7471928596496582
0.73508095741271973 0.73508095741271973 0.73508095741271973
0.77832883596420288 0.77832883596420288 0.77832883596420288
0.8321683406829834 0.8321683406829834 0.8321683406829834
0.88769155740737915 0.88769155740737915 0.88769155740737915
0.93799018859863281 0.93799018859863281 0.93799018859863281
0.97411578893661499 0.97411578893661499 0.97411578893661499
