luts/fujixtransiii/fuji_xtrans_iii_mono+g.cube
# Created by: G'MIC (https://gmic.eu)
TITLE "fuji_xtrans_iii_mono+g"
# LUT size
LUT_3D_SIZE 13
# Data domain
DOMAIN_MIN 0.0 0.0 0.0
DOMAIN_MAX 1.0 1.0 1.0
# LUT data points
0.011997641995549202 0.011997641995549202 0.011997641995549202
0.018569108098745346 0.018569108098745346 0.018569108098745346
0.029853880405426025 0.029853880405426025 0.029853880405426025
0.042447004467248917 0.042447004467248917 0.042447004467248917
0.073980830609798431 0.073980830609798431 0.073980830609798431
0.12101298570632935 0.12101298570632935 0.12101298570632935
0.15994809567928314 0.15994809567928314 0.15994809567928314
0.2122809886932373 0.2122809886932373 0.2122809886932373
0.23576758801937103 0.23576758801937103 0.23576758801937103
0.25225082039833069 0.25225082039833069 0.25225082039833069
0.2646537721157074 0.2646537721157074 0.2646537721157074
0.27403301000595093 0.27403301000595093 0.27403301000595093
0.28431537747383118 0.28431537747383118 0.28431537747383118
0.027767255902290344 0.027767255902290344 0.027767255902290344
0.033808272331953049 0.033808272331953049 0.033808272331953049
0.044999364763498306 0.044999364763498306 0.044999364763498306
0.067280083894729614 0.067280083894729614 0.067280083894729614
0.10073219984769821 0.10073219984769821 0.10073219984769821
0.14108015596866608 0.14108015596866608 0.14108015596866608
0.18373027443885803 0.18373027443885803 0.18373027443885803
0.22240276634693146 0.22240276634693146 0.22240276634693146
0.24812823534011841 0.24812823534011841 0.24812823534011841
0.26457226276397705 0.26457226276397705 0.26457226276397705
0.27274990081787109 0.27274990081787109 0.27274990081787109
0.28647255897521973 0.28647255897521973 0.28647255897521973
0.30872341990470886 0.30872341990470886 0.30872341990470886
0.057016722857952118 0.057016722857952118 0.057016722857952118
0.068735577166080475 0.068735577166080475 0.068735577166080475
0.081677846610546112 0.081677846610546112 0.081677846610546112
0.11578909307718277 0.11578909307718277 0.11578909307718277
0.15100699663162231 0.15100699663162231 0.15100699663162231
0.17940953373908997 0.17940953373908997 0.17940953373908997
0.21147693693637848 0.21147693693637848 0.21147693693637848
0.24175228178501129 0.24175228178501129 0.24175228178501129
0.26772856712341309 0.26772856712341309 0.26772856712341309
0.28670129179954529 0.28670129179954529 0.28670129179954529
0.30432003736495972 0.30432003736495972 0.30432003736495972
0.32951641082763672 0.32951641082763672 0.32951641082763672
0.35231298208236694 0.35231298208236694 0.35231298208236694
0.12574233114719391 0.12574233114719391 0.12574233114719391
0.13842637836933136 0.13842637836933136 0.13842637836933136
0.14679449796676636 0.14679449796676636 0.14679449796676636
0.1804797500371933 0.1804797500371933 0.1804797500371933
0.20993064343929291 0.20993064343929291 0.20993064343929291
0.23353029787540436 0.23353029787540436 0.23353029787540436
0.26356244087219238 0.26356244087219238 0.26356244087219238
0.29172852635383606 0.29172852635383606 0.29172852635383606
0.31612488627433777 0.31612488627433777 0.31612488627433777
0.33594432473182678 0.33594432473182678 0.33594432473182678
0.36388495564460754 0.36388495564460754 0.36388495564460754
0.36474120616912842 0.36474120616912842 0.36474120616912842
0.36725002527236938 0.36725002527236938 0.36725002527236938
0.20157304406166077 0.20157304406166077 0.20157304406166077
0.22483369708061218 0.22483369708061218 0.22483369708061218
0.23944516479969025 0.23944516479969025 0.23944516479969025
0.26788234710693359 0.26788234710693359 0.26788234710693359
0.2893100380897522 0.2893100380897522 0.2893100380897522
0.30205735564231873 0.30205735564231873 0.30205735564231873
0.32793369889259338 0.32793369889259338 0.32793369889259338
0.35538899898529053 0.35538899898529053 0.35538899898529053
0.37982028722763062 0.37982028722763062 0.37982028722763062
0.39691036939620972 0.39691036939620972 0.39691036939620972
0.40294182300567627 0.40294182300567627 0.40294182300567627
0.3832601010799408 0.3832601010799408 0.3832601010799408
0.40138107538223267 0.40138107538223267 0.40138107538223267
0.27360919117927551 0.27360919117927551 0.27360919117927551
0.30611270666122437 0.30611270666122437 0.30611270666122437
0.31582948565483093 0.31582948565483093 0.31582948565483093
0.34657773375511169 0.34657773375511169 0.34657773375511169
0.37030047178268433 0.37030047178268433 0.37030047178268433
0.38185018301010132 0.38185018301010132 0.38185018301010132
0.40010446310043335 0.40010446310043335 0.40010446310043335
0.42425692081451416 0.42425692081451416 0.42425692081451416
0.44669702649116516 0.44669702649116516 0.44669702649116516
0.46247556805610657 0.46247556805610657 0.46247556805610657
0.47098299860954285 0.47098299860954285 0.47098299860954285
0.46465429663658142 0.46465429663658142 0.46465429663658142
0.48857811093330383 0.48857811093330383 0.48857811093330383
0.33015045523643494 0.33015045523643494 0.33015045523643494
0.35897952318191528 0.35897952318191528 0.35897952318191528
0.37112075090408325 0.37112075090408325 0.37112075090408325
0.40122807025909424 0.40122807025909424 0.40122807025909424
0.43402913212776184 0.43402913212776184 0.43402913212776184
0.44635319709777832 0.44635319709777832 0.44635319709777832
0.46544995903968811 0.46544995903968811 0.46544995903968811
0.48956891894340515 0.48956891894340515 0.48956891894340515
0.50499039888381958 0.50499039888381958 0.50499039888381958
0.51766782999038696 0.51766782999038696 0.51766782999038696
0.52781558036804199 0.52781558036804199 0.52781558036804199
0.53544032573699951 0.53544032573699951 0.53544032573699951
0.55100244283676147 0.55100244283676147 0.55100244283676147
0.35768839716911316 0.35768839716911316 0.35768839716911316
0.3880041241645813 0.3880041241645813 0.3880041241645813
0.43331167101860046 0.43331167101860046 0.43331167101860046
0.43481895327568054 0.43481895327568054 0.43481895327568054
0.47533765435218811 0.47533765435218811 0.47533765435218811
0.49113783240318298 0.49113783240318298 0.49113783240318298
0.52085310220718384 0.52085310220718384 0.52085310220718384
0.54282742738723755 0.54282742738723755 0.54282742738723755
0.55610501766204834 0.55610501766204834 0.55610501766204834
0.57140564918518066 0.57140564918518066 0.57140564918518066
0.57878726720809937 0.57878726720809937 0.57878726720809937
0.59110802412033081 0.59110802412033081 0.59110802412033081
0.60084718465805054 0.60084718465805054 0.60084718465805054
0.39945229887962341 0.39945229887962341 0.39945229887962341
0.40601536631584167 0.40601536631584167 0.40601536631584167
0.47037103772163391 0.47037103772163391 0.47037103772163391
0.4569912850856781 0.4569912850856781 0.4569912850856781
0.49688199162483215 0.49688199162483215 0.49688199162483215
0.53060340881347656 0.53060340881347656 0.53060340881347656
0.57472735643386841 0.57472735643386841 0.57472735643386841
0.58822554349899292 0.58822554349899292 0.58822554349899292
0.59429681301116943 0.59429681301116943 0.59429681301116943
0.60441076755523682 0.60441076755523682 0.60441076755523682
0.60736119747161865 0.60736119747161865 0.60736119747161865
0.63093608617782593 0.63093608617782593 0.63093608617782593
0.64630264043807983 0.64630264043807983 0.64630264043807983
0.42200717329978943 0.42200717329978943 0.42200717329978943
0.40698674321174622 0.40698674321174622 0.40698674321174622
0.46231791377067566 0.46231791377067566 0.46231791377067566
0.49497941136360168 0.49497941136360168 0.49497941136360168
0.5262189507484436 0.5262189507484436 0.5262189507484436
0.55520009994506836 0.55520009994506836 0.55520009994506836
0.58402246236801147 0.58402246236801147 0.58402246236801147
0.59689265489578247 0.59689265489578247 0.59689265489578247
0.60417240858078003 0.60417240858078003 0.60417240858078003
0.60933452844619751 0.60933452844619751 0.60933452844619751
0.62549763917922974 0.62549763917922974 0.62549763917922974
0.6494452953338623 0.6494452953338623 0.6494452953338623
0.66865456104278564 0.66865456104278564 0.66865456104278564
0.43240725994110107 0.43240725994110107 0.43240725994110107
0.42415079474449158 0.42415079474449158 0.42415079474449158
0.54416877031326294 0.54416877031326294 0.54416877031326294
0.57607781887054443 0.57607781887054443 0.57607781887054443
0.58555102348327637 0.58555102348327637 0.58555102348327637
0.59329956769943237 0.59329956769943237 0.59329956769943237
0.61433941125869751 0.61433941125869751 0.61433941125869751
0.6172904372215271 0.6172904372215271 0.6172904372215271
0.62096840143203735 0.62096840143203735 0.62096840143203735
0.62081241607666016 0.62081241607666016 0.62081241607666016
0.64463621377944946 0.64463621377944946 0.64463621377944946
0.66886651515960693 0.66886651515960693 0.66886651515960693
0.67551290988922119 0.67551290988922119 0.67551290988922119
0.46335664391517639 0.46335664391517639 0.46335664391517639
0.4599459171295166 0.4599459171295166 0.4599459171295166
0.57034355401992798 0.57034355401992798 0.57034355401992798
0.60187828540802002 0.60187828540802002 0.60187828540802002
0.61512655019760132 0.61512655019760132 0.61512655019760132
0.6261519193649292 0.6261519193649292 0.6261519193649292
0.64208507537841797 0.64208507537841797 0.64208507537841797
0.64969724416732788 0.64969724416732788 0.64969724416732788
0.66298747062683105 0.66298747062683105 0.66298747062683105
0.66956794261932373 0.66956794261932373 0.66956794261932373
0.6805185079574585 0.6805185079574585 0.6805185079574585
0.6872178316116333 0.6872178316116333 0.6872178316116333
0.68727236986160278 0.68727236986160278 0.68727236986160278
0.4658263623714447 0.4658263623714447 0.4658263623714447
0.46455025672912598 0.46455025672912598 0.46455025672912598
0.57127243280410767 0.57127243280410767 0.57127243280410767
0.60301733016967773 0.60301733016967773 0.60301733016967773
0.61512935161590576 0.61512935161590576 0.61512935161590576
0.63372594118118286 0.63372594118118286 0.63372594118118286
0.65266633033752441 0.65266633033752441 0.65266633033752441
0.67505496740341187 0.67505496740341187 0.67505496740341187
0.69165724515914917 0.69165724515914917 0.69165724515914917
0.70895242691040039 0.70895242691040039 0.70895242691040039
0.72417974472045898 0.72417974472045898 0.72417974472045898
0.72637897729873657 0.72637897729873657 0.72637897729873657
0.72490459680557251 0.72490459680557251 0.72490459680557251
0.019138500094413757 0.019138500094413757 0.019138500094413757
0.024721991270780563 0.024721991270780563 0.024721991270780563
0.041866302490234375 0.041866302490234375 0.041866302490234375
0.061615258455276489 0.061615258455276489 0.061615258455276489
0.079234391450881958 0.079234391450881958 0.079234391450881958
0.13585245609283447 0.13585245609283447 0.13585245609283447
0.18697160482406616 0.18697160482406616 0.18697160482406616
0.21718078851699829 0.21718078851699829 0.21718078851699829
0.23797181248664856 0.23797181248664856 0.23797181248664856
0.25472056865692139 0.25472056865692139 0.25472056865692139
0.2677234411239624 0.2677234411239624 0.2677234411239624
0.28054642677307129 0.28054642677307129 0.28054642677307129
0.30584189295768738 0.30584189295768738 0.30584189295768738
0.035910259932279587 0.035910259932279587 0.035910259932279587
0.050340838730335236 0.050340838730335236 0.050340838730335236
0.066005468368530273 0.066005468368530273 0.066005468368530273
0.083188645541667938 0.083188645541667938 0.083188645541667938
0.1054302304983139 0.1054302304983139 0.1054302304983139
0.15143422782421112 0.15143422782421112 0.15143422782421112
0.19671548902988434 0.19671548902988434 0.19671548902988434
0.22694988548755646 0.22694988548755646 0.22694988548755646
0.24995088577270508 0.24995088577270508 0.24995088577270508
0.26847934722900391 0.26847934722900391 0.26847934722900391
0.28453457355499268 0.28453457355499268 0.28453457355499268
0.30231651663780212 0.30231651663780212 0.30231651663780212
0.32499974966049194 0.32499974966049194 0.32499974966049194
0.076247990131378174 0.076247990131378174 0.076247990131378174
0.083462148904800415 0.083462148904800415 0.083462148904800415
0.099254399538040161 0.099254399538040161 0.099254399538040161
0.12214530259370804 0.12214530259370804 0.12214530259370804
0.1528642326593399 0.1528642326593399 0.1528642326593399
0.18502776324748993 0.18502776324748993 0.18502776324748993
0.2219076007604599 0.2219076007604599 0.2219076007604599
0.25030422210693359 0.25030422210693359 0.25030422210693359
0.27533265948295593 0.27533265948295593 0.27533265948295593
0.29842576384544373 0.29842576384544373 0.29842576384544373
0.31665989756584167 0.31665989756584167 0.31665989756584167
0.33272787928581238 0.33272787928581238 0.33272787928581238
0.33939722180366516 0.33939722180366516 0.33939722180366516
0.1477944403886795 0.1477944403886795 0.1477944403886795
0.14978927373886108 0.14978927373886108 0.14978927373886108
0.16817983984947205 0.16817983984947205 0.16817983984947205
0.19105851650238037 0.19105851650238037 0.19105851650238037
0.21693210303783417 0.21693210303783417 0.21693210303783417
0.24134941399097443 0.24134941399097443 0.24134941399097443
0.26517185568809509 0.26517185568809509 0.26517185568809509
0.29087600111961365 0.29087600111961365 0.29087600111961365
0.31819251179695129 0.31819251179695129 0.31819251179695129
0.34293052554130554 0.34293052554130554 0.34293052554130554
0.36473485827445984 0.36473485827445984 0.36473485827445984
0.36884638667106628 0.36884638667106628 0.36884638667106628
0.37665188312530518 0.37665188312530518 0.37665188312530518
0.22806595265865326 0.22806595265865326 0.22806595265865326
0.23356513679027557 0.23356513679027557 0.23356513679027557
0.25275164842605591 0.25275164842605591 0.25275164842605591
0.271860271692276 0.271860271692276 0.271860271692276
0.29288563132286072 0.29288563132286072 0.29288563132286072
0.31309610605239868 0.31309610605239868 0.31309610605239868
0.3333914577960968 0.3333914577960968 0.3333914577960968
0.35539683699607849 0.35539683699607849 0.35539683699607849
0.3803463876247406 0.3803463876247406 0.3803463876247406
0.40141206979751587 0.40141206979751587 0.40141206979751587
0.4190680980682373 0.4190680980682373 0.4190680980682373
0.42376542091369629 0.42376542091369629 0.42376542091369629
0.44680672883987427 0.44680672883987427 0.44680672883987427
0.30245259404182434 0.30245259404182434 0.30245259404182434
0.32254061102867126 0.32254061102867126 0.32254061102867126
0.33859977126121521 0.33859977126121521 0.33859977126121521
0.35057377815246582 0.35057377815246582 0.35059145092964172
0.37041625380516052 0.37041625380516052 0.37041625380516052
0.38781648874282837 0.38781648874282837 0.38781648874282837
0.40735745429992676 0.40735745429992676 0.40735745429992676
0.42765867710113525 0.42765867710113525 0.42765867710113525
0.44915321469306946 0.44915321469306946 0.44915321469306946
0.46588188409805298 0.46588188409805298 0.46588188409805298
0.47992727160453796 0.47992727160453796 0.47992727160453796
0.49412655830383301 0.49412655830383301 0.49412655830383301
0.51075953245162964 0.51075953245162964 0.51075953245162964
0.35393598675727844 0.35393598675727844 0.35393598675727844
0.39004194736480713 0.39004194736480713 0.39004194736480713
0.4116722047328949 0.4116722047328949 0.4116722047328949
0.41926005482673645 0.41926005482673645 0.4192751944065094
0.43966242671012878 0.43966242671012878 0.43966242671012878
0.45751577615737915 0.45751577615737915 0.45751577615737915
0.47537285089492798 0.47537285089492798 0.47537285089492798
0.49719312787055969 0.49719312787055969 0.49719312787055969
0.51206785440444946 0.51206785440444946 0.51206785440444946
0.52443873882293701 0.52443873882293701 0.52443873882293701
0.53440165519714355 0.53440165519714355 0.53440165519714355
0.54260349273681641 0.54260349273681641 0.54260349273681641
0.55786871910095215 0.55786871910095215 0.55790162086486816
0.42563241720199585 0.42563241720199585 0.42563241720199585
0.43608728051185608 0.43608728051185608 0.43608728051185608
0.46153357625007629 0.46153357625007629 0.46153357625007629
0.46730479598045349 0.46730479598045349 0.46730479598045349
0.49394398927688599 0.49394398927688599 0.49394398927688599
0.51255851984024048 0.51255851984024048 0.51255851984024048
0.53307688236236572 0.53307688236236572 0.53307688236236572
0.55343931913375854 0.55343931913375854 0.55343931913375854
0.56862354278564453 0.56862354278564453 0.56862354278564453
0.58106529712677002 0.58106529712677002 0.58106529712677002
0.59144985675811768 0.59144985675811768 0.59144985675811768
0.59815585613250732 0.59815585613250732 0.59815585613250732
0.61322265863418579 0.61322265863418579 0.61322265863418579
0.46132123470306396 0.46132123470306396 0.46132123470306396
0.47118854522705078 0.47118854522705078 0.47118854522705078
0.4977010190486908 0.4977010190486908 0.4977010190486908
0.50664865970611572 0.50664865970611572 0.50664865970611572
0.53303712606430054 0.53303712606430054 0.53303712606430054
0.55067366361618042 0.55067366361618042 0.55067366361618042
0.58669829368591309 0.58669829368591309 0.58669829368591309
0.60261076688766479 0.60261076688766479 0.60261076688766479
0.61054986715316772 0.61054986715316772 0.61054986715316772
0.63164383172988892 0.63164383172988892 0.63164383172988892
0.64222812652587891 0.64222812652587891 0.64222812652587891
0.64948421716690063 0.64948421716690063 0.64948421716690063
0.6629784107208252 0.6629784107208252 0.6629784107208252
0.4729408323764801 0.4729408323764801 0.4729408323764801
0.48094606399536133 0.48094606399536133 0.48094606399536133
0.53825360536575317 0.53825360536575317 0.53825360536575317
0.56917464733123779 0.56917464733123779 0.56917464733123779
0.5804561972618103 0.5804561972618103 0.5804561972618103
0.5961717963218689 0.5961717963218689 0.5961717963218689
0.61806184053421021 0.61806184053421021 0.61806184053421021
0.62863576412200928 0.62863576412200928 0.62863576412200928
0.63327652215957642 0.63327652215957642 0.63327652215957642
0.65419596433639526 0.65419596433639526 0.65419596433639526
0.67300820350646973 0.67300820350646973 0.67300820350646973
0.67794829607009888 0.67794829607009888 0.67794829607009888
0.68020975589752197 0.68020975589752197 0.68020975589752197
0.47848120331764221 0.47848120331764221 0.47848120331764221
0.48853814601898193 0.48853814601898193 0.48853814601898193
0.57035857439041138 0.57035857439041138 0.57035857439041138
0.5959736704826355 0.5959736704826355 0.5959736704826355
0.61125856637954712 0.61125856637954712 0.61125856637954712
0.62581527233123779 0.62581527233123779 0.62581527233123779
0.646290123462677 0.646290123462677 0.646290123462677
0.66322994232177734 0.66322994232177734 0.66322994232177734
0.66626918315887451 0.66626918315887451 0.66626918315887451
0.6792980432510376 0.6792980432510376 0.6792980432510376
0.70055693387985229 0.70055693387985229 0.70055693387985229
0.68864434957504272 0.68864434957504272 0.68864434957504272
0.68655562400817871 0.68655562400817871 0.68655562400817871
0.49811381101608276 0.49811381101608276 0.49811381101608276
0.49009817838668823 0.49009817838668823 0.49009817838668823
0.58190292119979858 0.58190292119979858 0.58190292119979858
0.61708348989486694 0.61708348989486694 0.61708348989486694
0.62813252210617065 0.62813252210617065 0.62813252210617065
0.63727235794067383 0.63727235794067383 0.63727235794067383
0.65777361392974854 0.65777361392974854 0.65777361392974854
0.6799963116645813 0.6799963116645813 0.6799963116645813
0.69504046440124512 0.69504046440124512 0.69504046440124512
0.70899540185928345 0.70899540185928345 0.70899540185928345
0.72596269845962524 0.72596269845962524 0.72596269845962524
0.72859698534011841 0.72859698534011841 0.72859698534011841
0.72725760936737061 0.72725760936737061 0.72725760936737061
0.50793206691741943 0.50793206691741943 0.50793206691741943
0.49662590026855469 0.49662590026855469 0.49662590026855469
0.60170501470565796 0.60170501470565796 0.60170501470565796
0.63694965839385986 0.63694965839385986 0.63694965839385986
0.64659851789474487 0.64659851789474487 0.64659851789474487
0.65189599990844727 0.65189599990844727 0.65189599990844727
0.65939843654632568 0.65939843654632568 0.65939843654632568
0.68042069673538208 0.68042069673538208 0.68042069673538208
0.69956636428833008 0.69956636428833008 0.69956636428833008
0.71321326494216919 0.71321326494216919 0.71321326494216919
0.7295222282409668 0.7295222282409668 0.7295222282409668
0.75555419921875 0.75555419921875 0.75555419921875
0.76974087953567505 0.76974087953567505 0.76974087953567505
0.035432823002338409 0.035432823002338409 0.035432823002338409
0.052179478108882904 0.052179478108882904 0.052179478108882904
0.066078290343284607 0.066078290343284607 0.066078290343284607
0.093409940600395203 0.093409940600395203 0.093409940600395203
0.12115379422903061 0.12115379422903061 0.12115379422903061
0.16614794731140137 0.16614794731140137 0.16614794731140137
0.21183286607265472 0.21183286607265472 0.21183286607265472
0.22941642999649048 0.22941642999649048 0.22941642999649048
0.24525661766529083 0.24525661766529083 0.24525661766529083
0.26002934575080872 0.26002934575080872 0.26002934575080872
0.27489742636680603 0.27489742636680603 0.27489742636680603
0.30090945959091187 0.30090945959091187 0.30090945959091187
0.33173412084579468 0.33173412084579468 0.33173412084579468
0.058678258210420609 0.058678258210420609 0.058678258210420609
0.074845604598522186 0.074845604598522186 0.074845604598522186
0.090251818299293518 0.090251818299293518 0.090251818299293518
0.11321374028921127 0.11321374028921127 0.11321374028921127
0.13696593046188354 0.13696593046188354 0.13696593046188354
0.17084860801696777 0.17084860801696777 0.17084860801696777
0.21312835812568665 0.21312835812568665 0.21312835812568665
0.23781216144561768 0.23781216144561768 0.23781216144561768
0.25682500004768372 0.25682500004768372 0.25682500004768372
0.27734866738319397 0.27734866738319397 0.27734866738319397
0.30324259400367737 0.30324259400367737 0.30324259400367737
0.31979584693908691 0.31979584693908691 0.31979584693908691
0.33973893523216248 0.33973893523216248 0.33973893523216248
0.10511677712202072 0.10511677712202072 0.10511677712202072
0.1143842488527298 0.1143842488527298 0.1143842488527298
0.12612670660018921 0.12612670660018921 0.12612670660018921
0.14785274863243103 0.14785274863243103 0.14785274863243103
0.17309673130512238 0.17309673130512238 0.17309673130512238
0.20265209674835205 0.20265209674835205 0.20265209674835205
0.23531049489974976 0.23531049489974976 0.23531049489974976
0.26198136806488037 0.26198136806488037 0.26198136806488037
0.28718239068984985 0.28718239068984985 0.28718239068984985
0.31362324953079224 0.31362324953079224 0.31362324953079224
0.33064872026443481 0.33064872026443481 0.33064872026443481
0.33890464901924133 0.33890464901924133 0.33890464901924133
0.35581415891647339 0.35581415891647339 0.35581415891647339
0.17331859469413757 0.17331859469413757 0.17331859469413757
0.17989556491374969 0.17989556491374969 0.17992083728313446
0.19140858948230743 0.19140858948230743 0.19140858948230743
0.20826420187950134 0.20826420187950134 0.20826420187950134
0.23254361748695374 0.23254361748695374 0.23254361748695374
0.25837695598602295 0.25837695598602295 0.25837695598602295
0.28311443328857422 0.28311443328857422 0.28311443328857422
0.30368828773498535 0.30368828773498535 0.30368828773498535
0.32873719930648804 0.32873719930648804 0.32873719930648804
0.35357955098152161 0.35357955098152161 0.35357955098152161
0.37550365924835205 0.37550365924835205 0.37550365924835205
0.39304691553115845 0.39304691553115845 0.39304691553115845
0.39997941255569458 0.39997941255569458 0.39997941255569458
0.25025525689125061 0.25025525689125061 0.25025525689125061
0.25684857368469238 0.25684857368469238 0.25684857368469238
0.26965081691741943 0.26965081691741943 0.26965081691741943
0.2879520058631897 0.2879520058631897 0.2879520058631897
0.3094501793384552 0.3094501793384552 0.3094501793384552
0.32947352528572083 0.32947352528572083 0.32947352528572083
0.34852659702301025 0.34852659702301025 0.34852659702301025
