luts/fujixtransiii/fuji_xtrans_iii_pro_neg_hi.cube
# Created by: G'MIC (https://gmic.eu)
TITLE "fuji_xtrans_iii_pro_neg_hi"
# LUT size
LUT_3D_SIZE 13
# Data domain
DOMAIN_MIN 0.0 0.0 0.0
DOMAIN_MAX 1.0 1.0 1.0
# LUT data points
0.0067676766775548458 0.008514823392033577 0.0066762738861143589
0.021597109735012054 0.011195208877325058 0.0080906292423605919
0.073248274624347687 0.017416052520275116 0.012131650000810623
0.16128964722156525 0.029495524242520332 0.019424602389335632
0.2814088761806488 0.049236282706260681 0.027907159179449081
0.4075838029384613 0.081909641623497009 0.048053622245788574
0.52167922258377075 0.11967634409666061 0.078849717974662781
0.64779770374298096 0.16488486528396606 0.12233609706163406
0.72654068470001221 0.1925264298915863 0.15785205364227295
0.7801395058631897 0.21664535999298096 0.18186502158641815
0.80995285511016846 0.23540407419204712 0.19474112987518311
0.82701593637466431 0.24806097149848938 0.22385871410369873
0.840748131275177 0.2596774697303772 0.23414605855941772
0.0072357775643467903 0.025294315069913864 0.0085093630477786064
0.024446554481983185 0.036072764545679092 0.011605401523411274
0.079358011484146118 0.044568229466676712 0.015732364729046822
0.16832393407821655 0.061642710119485855 0.022915095090866089
0.28585577011108398 0.084731400012969971 0.031588580459356308
0.41385024785995483 0.11130610108375549 0.047839220613241196
0.53567594289779663 0.13639847934246063 0.076367080211639404
0.64536404609680176 0.1757798045873642 0.11359772086143494
0.73120415210723877 0.20264863967895508 0.1474260687828064
0.79747885465621948 0.23201484978199005 0.18068429827690125
0.82571989297866821 0.25151902437210083 0.19085001945495605
0.84101098775863647 0.2651694118976593 0.2121758908033371
0.87856549024581909 0.30455321073532104 0.24861973524093628
0.0055510429665446281 0.06709396094083786 0.0086027253419160843
0.021488100290298462 0.080441631376743317 0.0091976840049028397
0.084454663097858429 0.084223397076129913 0.011983743868768215
0.17816343903541565 0.10482538491487503 0.020405668765306473
0.29697445034980774 0.12565760314464569 0.032156806439161301
0.42742866277694702 0.15394555032253265 0.03993002325296402
0.54371064901351929 0.17981113493442535 0.062198206782341003
0.64775824546813965 0.211506187915802 0.098832100629806519
0.73984068632125854 0.24114042520523071 0.13206939399242401
0.80888444185256958 0.26783132553100586 0.16271963715553284
0.84633320569992065 0.28707796335220337 0.18695200979709625
0.87774282693862915 0.32006865739822388 0.21262450516223907
0.90768992900848389 0.35859370231628418 0.23334477841854095
0.0061834747903048992 0.15825106203556061 0.0060781738720834255
0.023311944678425789 0.16289559006690979 0.0064461203292012215
0.073858432471752167 0.15798787772655487 0.0060530267655849457
0.18140734732151031 0.18643586337566376 0.013241307809948921
0.3031822144985199 0.20438775420188904 0.021284859627485275
0.43314126133918762 0.22750204801559448 0.028371848165988922
0.54879754781723022 0.25200465321540833 0.043800383806228638
0.64642316102981567 0.28349879384040833 0.07417723536491394
0.73756837844848633 0.30822166800498962 0.10788560658693314
0.81943327188491821 0.32661211490631104 0.14338284730911255
0.89041012525558472 0.36354991793632507 0.1922374963760376
0.90916305780410767 0.37596943974494934 0.20298224687576294
0.91731297969818115 0.38039976358413696 0.21109472215175629
0.0060262195765972137 0.24642275273799896 0.0030391020700335503
0.020539406687021255 0.2694341242313385 0.0029321408364921808
0.053614776581525803 0.27691212296485901 0.0021468517370522022
0.16460245847702026 0.29518100619316101 0.004418062511831522
0.30511704087257385 0.30770000815391541 0.0063866111449897289
0.43927755951881409 0.32150787115097046 0.012224160134792328
0.55005174875259399 0.34479144215583801 0.030350120738148689
0.64274871349334717 0.36570608615875244 0.047687262296676636
0.72957545518875122 0.38354867696762085 0.079824693500995636
0.81288886070251465 0.39913263916969299 0.1224483847618103
0.87902325391769409 0.41581061482429504 0.16818293929100037
0.91208463907241821 0.39956510066986084 0.18769460916519165
0.92906945943832397 0.41422301530838013 0.20235580205917358
0.0019706725142896175 0.33732086420059204 0.00020835726172663271
0.012471592053771019 0.3793368935585022 0.00027136708376929164
0.037544339895248413 0.38048878312110901 0.00024880800629034638
0.12750521302223206 0.40169060230255127 0.00035713045508600771
0.29473596811294556 0.41634246706962585 0.0026325450744479895
0.43557086586952209 0.41778483986854553 0.0073809307068586349
0.54890692234039307 0.4286123514175415 0.013795441016554832
0.64234477281570435 0.44444090127944946 0.022142581641674042
0.72566366195678711 0.46074369549751282 0.054428655654191971
0.8044700026512146 0.47835627198219299 0.10248610377311707
0.84780275821685791 0.48646414279937744 0.13244011998176575
0.89353954792022705 0.48017776012420654 0.17446240782737732
0.94541341066360474 0.51216369867324829 0.23160390555858612
0.0025124943349510431 0.40939939022064209 0.0010203043930232525
0.0086518079042434692 0.44364750385284424 0.00020214903634041548
0.037100400775671005 0.45715871453285217 0.00010483685764484107
0.11773984134197235 0.47898757457733154 0
0.27849739789962769 0.49594250321388245 0.00045188455260358751
0.41665247082710266 0.49744436144828796 0.0048188450746238232
0.54573643207550049 0.5091862678527832 0.0067440406419336796
0.63805520534515381 0.52394449710845947 0.01195627823472023
0.72714024782180786 0.53957545757293701 0.039536137133836746
0.80546891689300537 0.55284196138381958 0.080600455403327942
0.85543280839920044 0.5632317066192627 0.12609405815601349
0.88037216663360596 0.5703158974647522 0.15376468002796173
0.92959719896316528 0.58981192111968994 0.21896329522132874
0.0056591406464576721 0.43792328238487244 0.0036757525522261858
0.0091402539983391762 0.47380885481834412 0.0025374467950314283
0.028452061116695404 0.5210837721824646 0.0042807185091078281
0.12323913723230362 0.51833277940750122 0.00087829289259389043
0.290708988904953 0.54814106225967407 0.00048762303777039051
0.37684887647628784 0.55607110261917114 0.00082110235234722495
0.53533738851547241 0.57924985885620117 0.0040129120461642742
0.63181048631668091 0.59681218862533569 0.014969440177083015
0.7338288426399231 0.6077200174331665 0.041970003396272659
0.81451261043548584 0.62092041969299316 0.087046317756175995
0.85901850461959839 0.62039417028427124 0.12602151930332184
0.88951581716537476 0.63786089420318604 0.16556377708911896
0.93061745166778564 0.65467017889022827 0.22208742797374725
0.009308280423283577 0.47793659567832947 0.013310675509274006
0.011566835455596447 0.49269101023674011 0.004073677584528923
0.025547761470079422 0.5654914379119873 0.011054708622395992
0.097592927515506744 0.54028666019439697 0.003980719018727541
0.26200711727142334 0.56810617446899414 0.0037178487982600927
0.371307373046875 0.60244238376617432 0.0054501700215041637
0.54476273059844971 0.64276063442230225 0.0099665923044085503
0.64008665084838867 0.64825010299682617 0.026654232293367386
0.74440914392471313 0.65137535333633423 0.05854593962430954
0.8217015266418457 0.66112500429153442 0.097773879766464233
0.86356472969055176 0.66731506586074829 0.13653509318828583
0.89281338453292847 0.68912136554718018 0.17933745682239532
0.92917680740356445 0.71130222082138062 0.2196105569601059
0.011322110891342163 0.50483345985412598 0.022927960380911827
0.012648593634366989 0.49515172839164734 0.0052741705439984798
0.027729364112019539 0.55472040176391602 0.023797802627086639
0.088402800261974335 0.58934199810028076 0.052454181015491486
0.26050826907157898 0.61190915107727051 0.029432961717247963
0.3864503800868988 0.63984578847885132 0.013593681156635284
0.5315479040145874 0.65523785352706909 0.017479287460446358
0.62425839900970459 0.65997898578643799 0.029838008806109428
0.72285908460617065 0.66516327857971191 0.063607223331928253
0.82319539785385132 0.66995656490325928 0.1072579026222229
0.87837660312652588 0.68854975700378418 0.16109755635261536
0.92882168292999268 0.71777242422103882 0.21786762773990631
0.96249735355377197 0.73708969354629517 0.25130939483642578
0.01141750905662775 0.51166969537734985 0.028936708346009254
0.014843076467514038 0.50614738464355469 0.014675858430564404
0.044074501842260361 0.64852088689804077 0.095686905086040497
0.087137795984745026 0.68130892515182495 0.11705027520656586
0.24118001759052277 0.6768718957901001 0.077501945197582245
0.38380593061447144 0.67584854364395142 0.038340877741575241
0.54550564289093018 0.68494725227355957 0.056679055094718933
0.61927688121795654 0.68633532524108887 0.072683550417423248
0.70674973726272583 0.6904950737953186 0.10416097939014435
0.82603907585144043 0.68243467807769775 0.13100562989711761
0.90748131275177002 0.71522718667984009 0.20490285754203796
0.95668786764144897 0.74135273694992065 0.25517669320106506
0.9698445200920105 0.74575930833816528 0.26499059796333313
0.015628919005393982 0.54308182001113892 0.017185047268867493
0.018166141584515572 0.54841947555541992 0.021914329379796982
0.049540441483259201 0.67427092790603638 0.11148586124181747
0.088923826813697815 0.70425218343734741 0.13394588232040405
0.23595637083053589 0.70453822612762451 0.095833703875541687
0.37722352147102356 0.71137303113937378 0.067368738353252411
0.5631212592124939 0.71719259023666382 0.098958976566791534
0.60938578844070435 0.72137939929962158 0.11930309981107712
0.69795924425125122 0.73176604509353638 0.15673576295375824
0.81399106979370117 0.73069411516189575 0.19380089640617371
0.8800310492515564 0.74561190605163574 0.23340724408626556
0.94399374723434448 0.75697636604309082 0.27049574255943298
0.96378451585769653 0.75921624898910522 0.28058382868766785
0.016598151996731758 0.55826431512832642 0.023037854582071304
0.019131289795041084 0.56031018495559692 0.024150833487510681
0.051280573010444641 0.67846548557281494 0.11535539478063583
0.089046075940132141 0.7071724534034729 0.13782624900341034
0.23857386410236359 0.71162724494934082 0.10315287113189697
0.37423259019851685 0.71824163198471069 0.075364820659160614
0.55624055862426758 0.72696214914321899 0.1144360676407814
0.57918256521224976 0.75458776950836182 0.16620473563671112
0.70404881238937378 0.7666008472442627 0.20999813079833984
0.81666111946105957 0.77526140213012695 0.26153546571731567
0.8723529577255249 0.78599560260772705 0.28641393780708313
0.93120801448822021 0.78862351179122925 0.30689805746078491
0.95434170961380005 0.7922406792640686 0.31973320245742798
0.006698997225612402 0.01167322788387537 0.025202028453350067
0.020595729351043701 0.015531742013990879 0.026805143803358078
0.079272821545600891 0.027365440502762794 0.039596244692802429
0.16386705636978149 0.043030399829149246 0.057914271950721741
0.23970781266689301 0.055483382195234299 0.065593928098678589
0.390737384557724 0.095738068222999573 0.090939722955226898
0.53571015596389771 0.13651858270168304 0.12674686312675476
0.65340733528137207 0.17124003171920776 0.16848099231719971
0.76218587160110474 0.20296448469161987 0.22379016876220703
0.81059837341308594 0.22892583906650543 0.25611674785614014
0.82834047079086304 0.24371621012687683 0.26087424159049988
0.84113216400146484 0.25499498844146729 0.27589523792266846
0.89579480886459351 0.29884004592895508 0.34446218609809875
0.010004679672420025 0.036477211862802505 0.033111229538917542
0.029430359601974487 0.037049431353807449 0.034477680921554565
0.085890643298625946 0.049668405205011368 0.04461422935128212
0.16571205854415894 0.066316477954387665 0.05789642408490181
0.2570950984954834 0.085422635078430176 0.073111787438392639
0.40544977784156799 0.11960558593273163 0.097301110625267029
0.5367700457572937 0.14361557364463806 0.12165709584951401
0.64310169219970703 0.17957620322704315 0.15811087191104889
0.73976689577102661 0.21004378795623779 0.19360935688018799
0.81054782867431641 0.24059173464775085 0.23568515479564667
0.83957082033157349 0.26059773564338684 0.25491076707839966
0.87837493419647217 0.29488155245780945 0.30001351237297058
0.91998469829559326 0.32661899924278259 0.35583263635635376
0.0082928230985999107 0.079325310885906219 0.037523817270994186
0.030605137348175049 0.092473886907100677 0.038093086332082748
0.085554860532283783 0.097929082810878754 0.044499985873699188
0.17893654108047485 0.11404938250780106 0.056492075324058533
0.29560253024101257 0.13397312164306641 0.07982470840215683
0.42351517081260681 0.16092583537101746 0.097386106848716736
0.54536467790603638 0.18678689002990723 0.11419863253831863
0.64786243438720703 0.21326306462287903 0.14351567625999451
0.73897689580917358 0.24662764370441437 0.17695118486881256
0.81394559144973755 0.27648183703422546 0.21540611982345581
0.8699144721031189 0.30639025568962097 0.26522660255432129
0.90321964025497437 0.33574420213699341 0.29097768664360046
0.92878001928329468 0.35026872158050537 0.33747762441635132
0.0066951229237020016 0.16075350344181061 0.029734548181295395
0.024352548643946648 0.16668672859668732 0.028672385960817337
0.072300106287002563 0.17742367088794708 0.02946186438202858
0.17665630578994751 0.19709397852420807 0.041946996003389359
0.29972165822982788 0.21504935622215271 0.057744808495044708
0.43415310978889465 0.23480567336082458 0.076827391982078552
0.55294060707092285 0.2575545608997345 0.094945080578327179
0.64527231454849243 0.28832307457923889 0.12057770043611526
0.73333686590194702 0.31652569770812988 0.15558727085590363
0.81675726175308228 0.34031900763511658 0.19905340671539307
0.88519412279129028 0.36319428682327271 0.23968186974525452
0.91033494472503662 0.37415796518325806 0.25523146986961365
0.93715739250183105 0.38768896460533142 0.30583342909812927
0.0049970587715506554 0.26470786333084106 0.016274036839604378
0.01745503768324852 0.27192801237106323 0.016621055081486702
0.053062994033098221 0.28247302770614624 0.014582240954041481
0.16328416764736176 0.29673326015472412 0.019336685538291931
0.29849866032600403 0.31293615698814392 0.029410433024168015
0.43649357557296753 0.33106186985969543 0.047513850033283234
0.55123382806777954 0.35113480687141418 0.06219150498509407
0.64318466186523438 0.37478390336036682 0.091931842267513275
0.72670900821685791 0.39502227306365967 0.13434684276580811
0.81167703866958618 0.41390836238861084 0.18045221269130707
0.88548362255096436 0.42832142114639282 0.22133269906044006
0.91985678672790527 0.43523800373077393 0.24004843831062317
0.95400106906890869 0.46530446410179138 0.27870789170265198
0.002785910852253437 0.37548315525054932 0.0081014297902584076
0.014522776938974857 0.39241513609886169 0.0099614914506673813
0.04112866148352623 0.39833703637123108 0.0090876705944538116
0.12565502524375916 0.4045739471912384 0.0077160405926406384
0.28512817621231079 0.41275018453598022 0.014882540330290794
0.42673027515411377 0.42562884092330933 0.029854344204068184
0.5431978702545166 0.4415648877620697 0.042131699621677399
0.64172005653381348 0.45890185236930847 0.067713536322116852
0.7233613133430481 0.47271847724914551 0.11164630204439163
0.80051833391189575 0.48712354898452759 0.15537531673908234
0.87144631147384644 0.50212186574935913 0.19679155945777893
0.93989807367324829 0.51976561546325684 0.24319764971733093
0.96534049510955811 0.54554063081741333 0.26452207565307617
0.0037668563891202211 0.43632042407989502 0.011303845793008804
0.01120319776237011 0.47619432210922241 0.0077213961631059647
0.03900311142206192 0.48901456594467163 0.006949316244572401
0.10910788178443909 0.49020242691040039 0.0054495567455887794
0.26566007733345032 0.50297373533248901 0.011082039214670658
0.4101698100566864 0.51165080070495605 0.01926746778190136
0.53551596403121948 0.51864975690841675 0.030980354174971581
0.63874143362045288 0.53465306758880615 0.053121604025363922
0.72505837678909302 0.54698514938354492 0.095520466566085815
0.80661523342132568 0.5588756799697876 0.1430307924747467
0.87905508279800415 0.57152539491653442 0.19410112500190735
0.93084454536437988 0.58421629667282104 0.22718954086303711
0.96247220039367676 0.60159772634506226 0.25983306765556335
0.006422888021916151 0.51136332750320435 0.038883764296770096
0.012729494832456112 0.53336310386657715 0.0098777022212743759
0.030616626143455505 0.55525630712509155 0.011074754409492016
0.09900994598865509 0.55381149053573608 0.010645952075719833
0.25667276978492737 0.56471079587936401 0.011108159087598324
0.38425755500793457 0.57856214046478271 0.012799222022294998
0.52484512329101562 0.59121406078338623 0.025747127830982208
0.63324612379074097 0.60531920194625854 0.054322291165590286
0.72671300172805786 0.61675512790679932 0.094566613435745239
0.80635529756546021 0.62975907325744629 0.13594540953636169
0.88397645950317383 0.64161449670791626 0.19188342988491058
0.94076371192932129 0.65446430444717407 0.23860481381416321
0.96328753232955933 0.67030149698257446 0.26311817765235901
0.012599525973200798 0.54663282632827759 0.029334677383303642
0.016596192494034767 0.56371098756790161 0.011801431886851788
0.027389451861381531 0.59451580047607422 0.022945418953895569
0.071771018207073212 0.59889024496078491 0.02374705858528614
0.22937946021556854 0.61268550157546997 0.026420893147587776
0.37192365527153015 0.62921255826950073 0.021476760506629944
0.52536815404891968 0.65578389167785645 0.033908244222402573
0.63297826051712036 0.66481244564056396 0.071680717170238495
0.72691828012466431 0.66664785146713257 0.11205592751502991
0.80652308464050293 0.68546819686889648 0.15219084918498993
0.88144069910049438 0.70120084285736084 0.19597682356834412
0.94125145673751831 0.71331137418746948 0.23999495804309845
0.9656912088394165 0.73017817735671997 0.26952865719795227
0.016141105443239212 0.55701702833175659 0.021505542099475861
0.019204024225473404 0.56902170181274414 0.014149550348520279
0.037445276975631714 0.64042752981185913 0.07283782958984375
0.076460249722003937 0.67211884260177612 0.096794202923774719
0.2333378791809082 0.67409753799438477 0.072836436331272125
0.37531459331512451 0.67758637666702271 0.046063635498285294
0.54760980606079102 0.69257479906082153 0.069030597805976868
0.62763655185699463 0.7003180980682373 0.095983587205410004
0.71856284141540527 0.69938176870346069 0.13185332715511322
0.80870503187179565 0.71721464395523071 0.18096502125263214
0.88197898864746094 0.73140871524810791 0.22108860313892365
0.95229953527450562 0.74377608299255371 0.25901666283607483
0.96916729211807251 0.74687367677688599 0.26940515637397766
0.016314217820763588 0.5631256103515625 0.040216319262981415
0.021975737065076828 0.57622087001800537 0.022708399221301079
0.047801762819290161 0.67587321996688843 0.10622470080852509
0.086342021822929382 0.70227175951004028 0.13101959228515625
0.2324652224779129 0.70627987384796143 0.10313696414232254
0.37364095449447632 0.71111571788787842 0.070037052035331726
0.55957663059234619 0.72036707401275635 0.10433869063854218
0.60998380184173584 0.73425799608230591 0.13885082304477692
0.69891345500946045 0.74092036485671997 0.17624618113040924
0.81012064218521118 0.74664247035980225 0.22023701667785645
0.89571768045425415 0.76107317209243774 0.26278567314147949
0.9539979100227356 0.757110595703125 0.27476140856742859
0.97065550088882446 0.75682592391967773 0.27897185087203979
0.012934666126966476 0.58195394277572632 0.13283361494541168
0.022414188832044601 0.57689774036407471 0.029012463986873627
0.053560264408588409 0.6854482889175415 0.11971659958362579
0.089425660669803619 0.72202414274215698 0.16129033267498016
0.22310425341129303 0.72440594434738159 0.1352992057800293
0.37134090065956116 0.72385603189468384 0.093408890068531036
0.548065185546875 0.73128926753997803 0.12682004272937775
0.57485491037368774 0.75644195079803467 0.17479334771633148
0.70140302181243896 0.76733994483947754 0.20919086039066315
0.81718045473098755 0.77551943063735962 0.25891256332397461
0.87875849008560181 0.78572463989257812 0.28610199689865112
0.93168079853057861 0.79623913764953613 0.31707009673118591
0.95785588026046753 0.79613357782363892 0.32758298516273499
0.010608194395899773 0.59517484903335571 0.19970355927944183
0.021965835243463516 0.58351129293441772 0.058133203536272049
0.070895418524742126 0.70818960666656494 0.15560741722583771
0.10606644302606583 0.74829059839248657 0.20580437779426575
0.20388035476207733 0.7493249773979187 0.19530782103538513
0.36034289002418518 0.74130713939666748 0.1557978093624115
0.54717212915420532 0.73611652851104736 0.1407870352268219
0.56526505947113037 0.76498663425445557 0.18746279180049896
0.69873034954071045 0.77473855018615723 0.21672447025775909
0.81367307901382446 0.78405600786209106 0.26726394891738892
0.87944871187210083 0.79614901542663574 0.29928487539291382
0.932941734790802 0.82305139303207397 0.35248419642448425
0.95089763402938843 0.83502990007400513 0.37645220756530762
0.0089977635070681572 0.01986256055533886 0.10094288736581802
0.038447748869657516 0.029348395764827728 0.099600851535797119
0.10200107097625732 0.044584043323993683 0.10602521896362305
0.20708096027374268 0.064196117222309113 0.13117516040802002
0.29032695293426514 0.087531745433807373 0.16166239976882935
0.41741296648979187 0.12122171372175217 0.19385777413845062
0.54381376504898071 0.15296992659568787 0.22481644153594971
0.65943819284439087 0.18346567451953888 0.26258078217506409
0.75991106033325195 0.2087472677230835 0.28964143991470337
0.81483554840087891 0.23173049092292786 0.30504578351974487
0.8427308201789856 0.2502838671207428 0.3198397159576416
0.89225202798843384 0.28983423113822937 0.37964531779289246
0.96011883020401001 0.33759656548500061 0.45512217283248901
0.015771709382534027 0.052369765937328339 0.093259505927562714
0.045412641018629074 0.057778555899858475 0.10011292994022369
0.10234370827674866 0.067774787545204163 0.10837486386299133
0.19973798096179962 0.086578294634819031 0.1296563595533371
0.30679768323898315 0.1133006364107132 0.16123025119304657
0.42603671550750732 0.13673675060272217 0.1816025972366333
0.54221034049987793 0.16031847894191742 0.20377323031425476
0.64814317226409912 0.19717729091644287 0.23869040608406067
0.7467503547668457 0.22675572335720062 0.26708638668060303
0.82182186841964722 0.26111114025115967 0.29602393507957458
0.87490063905715942 0.29216566681861877 0.32730582356452942
0.9142419695854187 0.32009777426719666 0.3737090528011322
0.95545452833175659 0.34787198901176453 0.41905790567398071
0.014255224727094173 0.098909236490726471 0.10571842640638351
0.044968698173761368 0.10990545153617859 0.10743743181228638
0.1011781245470047 0.1206565722823143 0.11075535416603088
0.19460076093673706 0.13191665709018707 0.12730030715465546
0.31280243396759033 0.1550130695104599 0.15479347109794617
0.43329587578773499 0.17839138209819794 0.17294833064079285
0.54691237211227417 0.20159967243671417 0.19219879806041718
0.64644163846969604 0.23134468495845795 0.22932595014572144
0.73818165063858032 0.26502415537834167 0.26021352410316467
0.81999105215072632 0.29891252517700195 0.29138687252998352
0.88632023334503174 0.32954460382461548 0.33101150393486023
0.93031257390975952 0.34574118256568909 0.36520254611968994
0.96492689847946167 0.37029415369033813 0.41456738114356995
0.011366870254278183 0.17778678238391876 0.10212233662605286
0.036588974297046661 0.18573325872421265 0.10057869553565979
0.085649468004703522 0.19322769343852997 0.096180453896522522
0.18820510804653168 0.21135905385017395 0.10833822190761566
0.31036019325256348 0.23176568746566772 0.12750469148159027
0.43743571639060974 0.2482207715511322 0.14946381747722626
0.55212235450744629 0.26677772402763367 0.17178927361965179
0.64384680986404419 0.29868641495704651 0.20496907830238342
0.73195850849151611 0.32867011427879333 0.23849152028560638
0.81574815511703491 0.35207909345626831 0.27300956845283508
0.89383423328399658 0.37768217921257019 0.31707984209060669
0.95802122354507446 0.40452617406845093 0.37498962879180908
0.97789913415908813 0.42007219791412354 0.41502851247787476
0.0071453619748353958 0.28556323051452637 0.077706418931484222
0.023939095437526703 0.2892782986164093 0.079072482883930206
