luts/fujixtransiii/fuji_xtrans_iii_pro_neg_std.cube
# Created by: G'MIC (https://gmic.eu)
TITLE "fuji_xtrans_iii_pro_neg_std"
# LUT size
LUT_3D_SIZE 5
# Data domain
DOMAIN_MIN 0.0 0.0 0.0
DOMAIN_MAX 1.0 1.0 1.0
# LUT data points
0.019616371020674706 0.02780468575656414 0.026512609794735909
0.18822786211967468 0.060518600046634674 0.054603081196546555
0.49925112724304199 0.14991948008537292 0.12913291156291962
0.74357396364212036 0.23121796548366547 0.21798126399517059
0.80815988779067993 0.26906061172485352 0.26101222634315491
0.016665231436491013 0.18626125156879425 0.022072391584515572
0.2050519585609436 0.21246984601020813 0.050252757966518402
0.52115219831466675 0.26852333545684814 0.097834736108779907
0.77968388795852661 0.32860562205314636 0.18268798291683197
0.86647701263427734 0.36900675296783447 0.24856497347354889
0.0052686803974211216 0.41102951765060425 0.0049074511043727398
0.14944638311862946 0.48058146238327026 0.0096655450761318207
0.51872903108596802 0.51345515251159668 0.056279245764017105
0.76267856359481812 0.55207192897796631 0.14517125487327576
0.87551665306091309 0.58769696950912476 0.24334344267845154
0.023082852363586426 0.50769662857055664 0.050926268100738525
0.11605812609195709 0.58957487344741821 0.081676378846168518
0.5124087929725647 0.66125857830047607 0.0962396040558815
0.77461028099060059 0.66914886236190796 0.1602412611246109
0.8952949047088623 0.73534780740737915 0.27460607886314392
0.036518514156341553 0.55682790279388428 0.038845989853143692
0.10591059923171997 0.70936906337738037 0.1921049952507019
0.53514355421066284 0.73085618019104004 0.18175627291202545
0.77876019477844238 0.77610653638839722 0.29449367523193359
0.89517545700073242 0.78999060392379761 0.3436913788318634
0.053439226001501083 0.094408921897411346 0.25168237090110779
0.29640048742294312 0.13974905014038086 0.28703740239143372
0.55106538534164429 0.20572121441364288 0.37192359566688538
0.80573517084121704 0.26544854044914246 0.42133736610412598
0.95100224018096924 0.33211156725883484 0.52692592144012451
0.043665613979101181 0.24294957518577576 0.2318633645772934
0.25084757804870605 0.26684302091598511 0.25505819916725159
0.54123103618621826 0.3065219521522522 0.30980846285820007
0.79686415195465088 0.36445373296737671 0.37611117959022522
0.97021758556365967 0.41780576109886169 0.44587802886962891
0.011165618896484375 0.50419360399246216 0.22480231523513794
0.17043186724185944 0.51775223016738892 0.21195824444293976
0.51869887113571167 0.5437389612197876 0.27361857891082764
0.786751389503479 0.57816183567047119 0.32855752110481262
0.95202374458312988 0.59539026021957397 0.4028257429599762
0.0099691208451986313 0.61654067039489746 0.34710314869880676
0.10966642946004868 0.72076499462127686 0.23200495541095734
0.47758656740188599 0.74724924564361572 0.27985724806785583
0.76263761520385742 0.76487976312637329 0.32388985157012939
0.9188392162322998 0.79901516437530518 0.38104158639907837
0.024627476930618286 0.68014097213745117 0.36012905836105347
0.15080907940864563 0.77774280309677124 0.30604803562164307
0.47248151898384094 0.79522347450256348 0.3457605242729187
0.75611907243728638 0.82800436019897461 0.40194371342658997
0.91011351346969604 0.85141152143478394 0.44304579496383667
0.20461614429950714 0.16913504898548126 0.63033336400985718
0.3945833146572113 0.20883409678936005 0.64677685499191284
0.62632006406784058 0.27109435200691223 0.67574751377105713
0.8413199782371521 0.3399638831615448 0.69670587778091431
0.99040859937667847 0.39480143785476685 0.733967125415802
0.13446009159088135 0.32712218165397644 0.57345998287200928
0.34570538997650146 0.35571900010108948 0.59301078319549561
0.59606277942657471 0.39428442716598511 0.62942332029342651
0.82697653770446777 0.4335499107837677 0.66079103946685791
0.98860257863998413 0.47806787490844727 0.6982874870300293
0.068505078554153442 0.54885244369506836 0.53490746021270752
0.28793832659721375 0.56583100557327271 0.54649466276168823
0.57595729827880859 0.5839308500289917 0.57804912328720093
0.81359058618545532 0.60644412040710449 0.61688637733459473
0.9783744215965271 0.63487082719802856 0.63867175579071045
0.06036580353975296 0.73707109689712524 0.57346224784851074
0.21018964052200317 0.76014941930770874 0.50320398807525635
0.52146810293197632 0.77373826503753662 0.53484940528869629
0.78271239995956421 0.78523963689804077 0.5664861798286438
0.96314305067062378 0.82901167869567871 0.60866475105285645
0.082828164100646973 0.79218065738677979 0.61378055810928345
0.22693000733852386 0.82717776298522949 0.51549267768859863
0.47713389992713928 0.83704870939254761 0.52854412794113159
0.80627286434173584 0.86619985103607178 0.5843166708946228
0.95187610387802124 0.90820908546447754 0.62744033336639404
0.42608878016471863 0.18800120055675507 0.88618993759155273
0.54514867067337036 0.26837965846061707 0.88429206609725952
0.71265441179275513 0.34638327360153198 0.90444266796112061
0.88466572761535645 0.42027750611305237 0.92472946643829346
0.99538582563400269 0.49203324317932129 0.96819192171096802
0.24988369643688202 0.43157625198364258 0.85951083898544312
0.46986722946166992 0.47364991903305054 0.86947762966156006
0.66646391153335571 0.4975760281085968 0.88689476251602173
0.85922783613204956 0.53474396467208862 0.90559917688369751
0.99246817827224731 0.56979674100875854 0.92894423007965088
0.22913317382335663 0.61626416444778442 0.80904775857925415
0.42738643288612366 0.63534766435623169 0.81457638740539551
0.63639044761657715 0.64893823862075806 0.83572113513946533
0.8442157506942749 0.66884928941726685 0.85738837718963623
0.98893463611602783 0.69772768020629883 0.88975650072097778
0.22285053133964539 0.79216158390045166 0.78368639945983887
0.37019366025924683 0.8011174201965332 0.77771478891372681
0.59862762689590454 0.80678510665893555 0.79494798183441162
0.82086783647537231 0.81524699926376343 0.82221275568008423
0.9804532527923584 0.86387354135513306 0.86029219627380371
0.26425361633300781 0.86741495132446289 0.79786330461502075
0.35618060827255249 0.89249002933502197 0.80678820610046387
0.62154144048690796 0.90459233522415161 0.8353729248046875
0.84714329242706299 0.90950018167495728 0.83266854286193848
0.97978276014328003 0.94109636545181274 0.85589879751205444
0.62452644109725952 0.24407395720481873 0.99316364526748657
0.69601118564605713 0.31684917211532593 0.99590790271759033
0.82108896970748901 0.42288678884506226 0.99526304006576538
0.93958151340484619 0.55101257562637329 0.99473452568054199
0.99610644578933716 0.61450016498565674 1
0.44257447123527527 0.50601476430892944 0.99241763353347778
0.61313670873641968 0.58824723958969116 0.99329876899719238
0.763935387134552 0.61460810899734497 0.99360746145248413
0.91382932662963867 0.65787994861602783 0.99350243806838989
0.9965747594833374 0.65625625848770142 1
0.22751353681087494 0.69614535570144653 0.98505330085754395
0.54787349700927734 0.73266881704330444 0.99074631929397583
0.72629165649414062 0.74365067481994629 0.9898034930229187
0.88732999563217163 0.75959545373916626 0.98884838819503784
0.99410301446914673 0.76918488740921021 0.99871087074279785
0.38232401013374329 0.85505592823028564 0.97666740417480469
0.52499586343765259 0.86988562345504761 0.98157936334609985
0.71257567405700684 0.87083512544631958 0.98524326086044312
0.87663131952285767 0.87973302602767944 0.99115675687789917
0.99165582656860352 0.90175598859786987 0.99327248334884644
0.43822839856147766 0.92823952436447144 0.94107592105865479
0.48219999670982361 0.92654669284820557 0.93870121240615845
0.69193214178085327 0.93290251493453979 0.95933049917221069
0.88916081190109253 0.94623363018035889 0.99195170402526855
0.9830288290977478 0.96429479122161865 0.98357647657394409
