luts/fujixtransiii/fuji_xtrans_iii_acros+ye.cube
# Created by: G'MIC (https://gmic.eu)
TITLE "fuji_xtrans_iii_acros+ye"
# LUT size
LUT_3D_SIZE 7
# Data domain
DOMAIN_MIN 0.0 0.0 0.0
DOMAIN_MAX 1.0 1.0 1.0
# LUT data points
0.014691311866044998 0.014691311866044998 0.014691311866044998
0.064414069056510925 0.064414069056510925 0.064414069056510925
0.1685357391834259 0.1685357391834259 0.1685357391834259
0.32424843311309814 0.32424843311309814 0.32424843311309814
0.46910309791564941 0.46910309791564941 0.46910309791564941
0.52749049663543701 0.52749049663543701 0.52749049663543701
0.56505477428436279 0.56505477428436279 0.56505477428436279
0.044717557728290558 0.044717557728290558 0.044717557728290558
0.10009898990392685 0.10009898990392685 0.10009898990392685
0.22043666243553162 0.22043666243553162 0.22043666243553162
0.35836440324783325 0.35836440324783325 0.35836440324783325
0.48990693688392639 0.48990693688392639 0.48990693688392639
0.56112021207809448 0.56112021207809448 0.56112021207809448
0.61476552486419678 0.61476552486419678 0.61476552486419678
0.14439284801483154 0.14439284801483154 0.14439284801483154
0.19670329988002777 0.19670329988002777 0.19670329988002777
0.30563217401504517 0.30563217401504517 0.30563217401504517
0.42808237671852112 0.42808237671852112 0.42808237671852112
0.53420615196228027 0.53420615196228027 0.53420615196228027
0.61991029977798462 0.61991029977798462 0.61991029977798462
0.64114606380462646 0.64114606380462646 0.64114606380462646
0.25404414534568787 0.25404414534568787 0.25404414534568787
0.30963626503944397 0.30963626503944397 0.30941978096961975
0.41319119930267334 0.41319119930267334 0.41315364837646484
0.50794869661331177 0.50794869661331177 0.50794869661331177
0.60259145498275757 0.60259145498275757 0.60259145498275757
0.66766268014907837 0.66766268014907837 0.66766268014907837
0.71693062782287598 0.71693062782287598 0.71693062782287598
0.31969839334487915 0.31969839334487915 0.31969839334487915
0.39301243424415588 0.39301243424415588 0.39299219846725464
0.45881643891334534 0.45881643891334534 0.45879620313644409
0.58872121572494507 0.58872121572494507 0.58872121572494507
0.67100268602371216 0.67100268602371216 0.67100268602371216
0.72004526853561401 0.72004526853561401 0.72004526853561401
0.7703784704208374 0.7703784704208374 0.7703784704208374
0.35354530811309814 0.35354530811309814 0.35354530811309814
0.46164184808731079 0.46164184808731079 0.46164184808731079
0.54273408651351929 0.54273408651351929 0.54273408651351929
0.6173827052116394 0.6173827052116394 0.6173827052116394
0.67006677389144897 0.67006677389144897 0.67006677389144897
0.76371711492538452 0.76371711492538452 0.76371711492538452
0.80856215953826904 0.80856215953826904 0.80856215953826904
0.39312922954559326 0.39312922954559326 0.39312922954559326
0.48846933245658875 0.48846933245658875 0.48846933245658875
0.56012129783630371 0.56012129783630371 0.56012129783630371
0.65068995952606201 0.65068995952606201 0.65068995952606201
0.72686111927032471 0.72686111927032471 0.72686111927032471
0.80627530813217163 0.80627530813217163 0.80627530813217163
0.83529490232467651 0.83529490232467651 0.83529490232467651
0.018877141177654266 0.018877141177654266 0.018877141177654266
0.090784616768360138 0.090784616768360138 0.090784616768360138
0.19438526034355164 0.19438526034355164 0.19438526034355164
0.35932284593582153 0.35932284593582153 0.35932284593582153
0.50808215141296387 0.50808215141296387 0.50808215141296387
0.56659716367721558 0.56659716367721558 0.56659716367721558
0.65979355573654175 0.65979355573654175 0.65979355573654175
0.071152299642562866 0.071152299642562866 0.071152299642562866
0.12194684892892838 0.12194684892892838 0.12194684892892838
0.23691132664680481 0.23691132664680481 0.23691132664680481
0.37523829936981201 0.37523829936981201 0.37523829936981201
0.5085485577583313 0.5085485577583313 0.5085485577583313
0.61249136924743652 0.61249136924743652 0.61249136924743652
0.67472583055496216 0.67472583055496216 0.67472583055496216
0.17241059243679047 0.17241059243679047 0.17241059243679047
0.22093614935874939 0.22093614935874939 0.22093614935874939
0.31516814231872559 0.31516814231872559 0.31516501307487488
0.43368005752563477 0.43368005752563477 0.43368005752563477
0.55152791738510132 0.55152791738510132 0.55152791738510132
0.65542006492614746 0.65542006492614746 0.65542006492614746
0.70957744121551514 0.70957744121551514 0.70957744121551514
0.30632054805755615 0.30632054805755615 0.30632054805755615
0.35085520148277283 0.35085520148277283 0.35085520148277283
0.42455661296844482 0.42455661296844482 0.42455661296844482
0.52198398113250732 0.52198398113250732 0.52198398113250732
0.61575996875762939 0.61575996875762939 0.61575996875762939
0.69919997453689575 0.69919997453689575 0.69919997453689575
0.74941080808639526 0.74941080808639526 0.74941080808639526
0.38166061043739319 0.38166061043739319 0.38166061043739319
0.44072410464286804 0.44072410464286804 0.44072410464286804
0.51933223009109497 0.51933223009109497 0.51933223009109497
0.60365587472915649 0.60365587472915649 0.60365587472915649
0.67602121829986572 0.67602121829986572 0.67602121829986572
0.76401543617248535 0.76401543617248535 0.76401543617248535
0.82582396268844604 0.82582396268844604 0.82582396268844604
0.41225558519363403 0.41225558519363403 0.41225558519363403
0.50677913427352905 0.50677913427352905 0.50677913427352905
0.56872445344924927 0.56872445344924927 0.56872445344924927
0.6473010778427124 0.6473010778427124 0.6473010778427124
0.72243523597717285 0.72243523597717285 0.72243523597717285
0.80531501770019531 0.80531501770019531 0.80531501770019531
0.83408504724502563 0.83408504724502563 0.83408504724502563
0.44235613942146301 0.44235613942146301 0.44235613942146301
0.54297858476638794 0.54297858476638794 0.54297858476638794
0.59175121784210205 0.59175121784210205 0.59175121784210205
0.6573905348777771 0.6573905348777771 0.6573905348777771
0.72652637958526611 0.72652637958526611 0.72652637958526611
0.81913608312606812 0.81913608312606812 0.81913608312606812
0.87684285640716553 0.87684285640716553 0.87684285640716553
0.087206803262233734 0.087206803262233734 0.087206803262233734
0.15757840871810913 0.15757840871810913 0.15757840871810913
0.2575279176235199 0.2575279176235199 0.2575279176235199
0.39209476113319397 0.39209476113319397 0.39209476113319397
0.53409689664840698 0.53409689664840698 0.53409689664840698
0.63622301816940308 0.63622301816940308 0.63622301816940308
0.69912159442901611 0.69912159442901611 0.69912159442901611
0.12480148673057556 0.12480148673057556 0.12480148673057556
0.17181394994258881 0.17181394994258881 0.17181394994258881
0.2866910994052887 0.2866910994052887 0.2866910994052887
0.4127766489982605 0.4127766489982605 0.4127766489982605
0.54258924722671509 0.54258924722671509 0.54258924722671509
0.64613944292068481 0.64613944292068481 0.64613944292068481
0.72537648677825928 0.72537648677825928 0.72537648677825928
0.22291877865791321 0.22291877865791321 0.22291877865791321
0.26949360966682434 0.26949360966682434 0.26949360966682434
0.35883006453514099 0.35883006453514099 0.35883006453514099
0.46555793285369873 0.46555793285369873 0.46555793285369873
0.58448326587677002 0.58448326587677002 0.58448326587677002
0.67645633220672607 0.67645633220672607 0.67645633220672607
0.74695980548858643 0.74695980548858643 0.74695980548858643
0.35743030905723572 0.35743030905723572 0.35743030905723572
0.38256877660751343 0.38256877660751343 0.38256877660751343
0.45728579163551331 0.45728579163551331 0.45728579163551331
0.54658704996109009 0.54658704996109009 0.54658704996109009
0.6349526047706604 0.6349526047706604 0.6349526047706604
0.72092294692993164 0.72092294692993164 0.72092294692993164
0.7904927134513855 0.7904927134513855 0.7904927134513855
0.42810055613517761 0.42810055613517761 0.42810055613517761
0.49149975180625916 0.49149975180625916 0.49149975180625916
0.54676294326782227 0.54676294326782227 0.54676294326782227
0.62199288606643677 0.62199288606643677 0.62199288606643677
0.69672054052352905 0.69672054052352905 0.69672054052352905
0.77493190765380859 0.77493190765380859 0.77493190765380859
0.83994060754776001 0.83994060754776001 0.83994060754776001
0.53065556287765503 0.53065556287765503 0.53065556287765503
0.5505974292755127 0.5505974292755127 0.5505974292755127
0.59730750322341919 0.59730750322341919 0.59730750322341919
0.67487633228302002 0.67487633228302002 0.67487633228302002
0.75970327854156494 0.75970327854156494 0.75970327854156494
0.82722222805023193 0.82722222805023193 0.82722222805023193
0.88221752643585205 0.88221752643585205 0.88221752643585205
0.5435367226600647 0.5435367226600647 0.5435367226600647
0.55985265970230103 0.55985265970230103 0.55985265970230103
0.63412284851074219 0.63412284851074219 0.63412284851074219
0.7034912109375 0.7034912109375 0.7034912109375
0.76213616132736206 0.76213616132736206 0.76213616132736206
0.86209195852279663 0.86209195852279663 0.86209195852279663
0.89813899993896484 0.89813899993896484 0.89813899993896484
0.18196746706962585 0.18196746706962585 0.18196746706962585
0.23922720551490784 0.23922720551490784 0.23922720551490784
0.32669106125831604 0.32669106125831604 0.32669106125831604
0.4351801872253418 0.4351801872253418 0.4351801872253418
0.55924046039581299 0.55924046039581299 0.55924046039581299
0.67010188102722168 0.67010188102722168 0.67010188102722168
0.74308162927627563 0.74308162927627563 0.74308162927627563
0.18987461924552917 0.18987461924552917 0.18987461924552917
0.24541178345680237 0.24541178345680237 0.24541178345680237
0.34827300906181335 0.34827300906181335 0.34827300906181335
0.46768811345100403 0.46768811345100403 0.46768811345100403
0.58379095792770386 0.58379095792770386 0.58379095792770386
0.67859739065170288 0.67859739065170288 0.67859739065170288
0.75668400526046753 0.75668400526046753 0.75668400526046753
0.28202259540557861 0.28202259540557861 0.28202259540557861
0.32849994301795959 0.32849994301795959 0.32849994301795959
0.41037219762802124 0.41037219762802124 0.41037219762802124
0.51785159111022949 0.51785159111022949 0.51785159111022949
0.6172148585319519 0.6172148585319519 0.6172148585319519
0.70728546380996704 0.70728546380996704 0.70728546380996704
0.77805304527282715 0.77805304527282715 0.77805304527282715
0.40074914693832397 0.40074914693832397 0.40074914693832397
0.43437838554382324 0.43437838554382324 0.43437838554382324
0.50115448236465454 0.50115448236465454 0.50115448236465454
0.57558709383010864 0.57558709383010864 0.57558709383010864
0.65721583366394043 0.65721583366394043 0.65721583366394043
0.74766796827316284 0.74766796827316284 0.74766796827316284
0.81053763628005981 0.81053763628005981 0.81053763628005981
0.50556808710098267 0.50556808710098267 0.50556808710098267
0.52122777700424194 0.52122777700424194 0.52122777700424194
0.57896119356155396 0.57896119356155396 0.57897639274597168
0.6435171365737915 0.6435171365737915 0.6435171365737915
0.7164795994758606 0.7164795994758606 0.7164795994758606
0.79753214120864868 0.79753214120864868 0.79753214120864868
0.85838562250137329 0.85838562250137329 0.85838562250137329
0.56707155704498291 0.56707155704498291 0.56707155704498291
0.59617668390274048 0.59617668390274048 0.59617668390274048
0.64137762784957886 0.64137762784957886 0.64137762784957886
0.70545470714569092 0.70545470714569092 0.70545470714569092
0.77227544784545898 0.77227544784545898 0.77227544784545898
0.85755914449691772 0.85755914449691772 0.85755914449691772
0.92839950323104858 0.92839950323104858 0.92839950323104858
0.58457207679748535 0.58457207679748535 0.58457207679748535
0.61748576164245605 0.61748576164245605 0.61748576164245605
0.66026788949966431 0.66026788949966431 0.66026788949966431
0.7109711766242981 0.7109711766242981 0.7109711766242981
0.79196745157241821 0.79196745157241821 0.79196745157241821
0.89606589078903198 0.89606589078903198 0.89606589078903198
0.9435654878616333 0.9435654878616333 0.9435654878616333
0.28494831919670105 0.28494831919670105 0.28494831919670105
0.33433502912521362 0.33433502912521362 0.33433502912521362
0.39682617783546448 0.39682617783546448 0.39682617783546448
0.49002087116241455 0.49002087116241455 0.49002087116241455
0.60232853889465332 0.60232853889465332 0.60232853889465332
0.70562100410461426 0.70562100410461426 0.70562100410461426
0.77546977996826172 0.77546977996826172 0.77546977996826172
0.28362762928009033 0.28362762928009033 0.28362762928009033
0.33899995684623718 0.33899995684623718 0.33899995684623718
0.41335844993591309 0.41335844993591309 0.41335844993591309
0.52015072107315063 0.52015072107315063 0.52015072107315063
0.62296175956726074 0.62296175956726074 0.62296175956726074
0.71532136201858521 0.71532136201858521 0.71532136201858521
0.78942394256591797 0.78942394256591797 0.78942394256591797
0.34661495685577393 0.34661495685577393 0.34661495685577393
0.40408271551132202 0.40408271551132202 0.40408271551132202
0.47262075543403625 0.47262075543403625 0.47262075543403625
0.55813878774642944 0.55813878774642944 0.55813878774642944
0.64803600311279297 0.64803600311279297 0.64803600311279297
0.7351001501083374 0.7351001501083374 0.7351001501083374
0.80265122652053833 0.80265122652053833 0.80265122652053833
0.43837574124336243 0.43837574124336243 0.43837574124336243
0.47917699813842773 0.47917699813842773 0.47917699813842773
0.54440188407897949 0.54440188407897949 0.54440188407897949
0.61623501777648926 0.61623501777648926 0.61623501777648926
0.68772304058074951 0.68772304058074951 0.68772304058074951
0.77129358053207397 0.77129358053207397 0.77129358053207397
0.84742099046707153 0.84742099046707153 0.84742099046707153
0.53814053535461426 0.53814053535461426 0.53814053535461426
0.56358075141906738 0.56358075141906738 0.56358075141906738
0.61562073230743408 0.61562073230743408 0.61562073230743408
0.68165880441665649 0.68165880441665649 0.68165880441665649
0.74642980098724365 0.74642980098724365 0.74642980098724365
0.81894004344940186 0.81894004344940186 0.81894004344940186
0.88328051567077637 0.88328051567077637 0.88328051567077637
0.62519770860671997 0.62519770860671997 0.62519770860671997
0.63275927305221558 0.63275927305221558 0.63275927305221558
0.67736554145812988 0.67736554145812988 0.67736554145812988
0.73864257335662842 0.73864257335662842 0.73864257335662842
0.80738389492034912 0.80738389492034912 0.80738389492034912
0.87484896183013916 0.87484896183013916 0.87484896183013916
0.94773495197296143 0.94773495197296143 0.94773495197296143
0.63482022285461426 0.63482022285461426 0.63482022285461426
0.68035757541656494 0.68035757541656494 0.68035757541656494
0.71640169620513916 0.71640169620513916 0.71640169620513916
0.78439247608184814 0.78439247608184814 0.78439247608184814
0.8425021767616272 0.8425021767616272 0.8425021767616272
0.91689324378967285 0.91689324378967285 0.91689324378967285
0.96467578411102295 0.96467578411102295 0.96467578411102295
0.39016517996788025 0.39016517996788025 0.39016517996788025
0.42226389050483704 0.42226389050483704 0.42226389050483704
0.47470641136169434 0.47470641136169434 0.47470641136169434
0.55958801507949829 0.55958801507949829 0.55958801507949829
0.65375363826751709 0.65375363826751709 0.65375363826751709
0.74769294261932373 0.74769294261932373 0.74769294261932373
0.80379188060760498 0.80379188060760498 0.80379188060760498
0.38671895861625671 0.38671895861625671 0.38671895861625671
0.4307594895362854 0.4307594895362854 0.4307594895362854
0.49281033873558044 0.49281033873558044 0.49281033873558044
0.57437753677368164 0.57437753677368164 0.57437753677368164
0.66615754365921021 0.66615754365921021 0.66615754365921021
0.75286483764648438 0.75286483764648438 0.75286483764648438
0.81752616167068481 0.81752616167068481 0.81752616167068481
0.41604498028755188 0.41604498028755188 0.41604498028755188
0.47605422139167786 0.47605422139167786 0.47605422139167786
0.5297391414642334 0.5297391414642334 0.5297391414642334
0.60320085287094116 0.60320085287094116 0.60320085287094116
0.68585634231567383 0.68585634231567383 0.68585634231567383
0.76912564039230347 0.76912564039230347 0.76912564039230347
0.83694404363632202 0.83694404363632202 0.83694404363632202
0.49347621202468872 0.49347621202468872 0.49347621202468872
0.54171848297119141 0.54171848297119141 0.54171848297119141
0.59601998329162598 0.59601998329162598 0.59601998329162598
0.66059809923171997 0.66059809923171997 0.66059809923171997
0.72904175519943237 0.72904175519943237 0.72904175519943237
0.79933947324752808 0.79933947324752808 0.79933947324752808
0.86216360330581665 0.86216360330581665 0.86216360330581665
0.58710485696792603 0.58710485696792603 0.58710485696792603
0.61830365657806396 0.61830365657806396 0.61830365657806396
0.6626703143119812 0.6626703143119812 0.6626703143119812
0.72121435403823853 0.72121435403823853 0.72121435403823853
0.78244650363922119 0.78244650363922119 0.78244650363922119
0.84461826086044312 0.84461826086044312 0.84461826086044312
0.90566128492355347 0.90566128492355347 0.90566128492355347
0.65518712997436523 0.65518712997436523 0.65518712997436523
0.68322879076004028 0.68322879076004028 0.68322879076004028
0.72212821245193481 0.72212821245193481 0.72212821245193481
0.775462806224823 0.775462806224823 0.775462806224823
0.83458620309829712 0.83458620309829712 0.83458620309829712
0.89574408531188965 0.89574408531188965 0.89574408531188965
0.96660983562469482 0.96660983562469482 0.96660983562469482
0.73404806852340698 0.73404806852340698 0.73404806852340698
0.71358895301818848 0.71358895301818848 0.71358895301818848
0.74731004238128662 0.74731004238128662 0.74731004238128662
0.80987036228179932 0.80987036228179932 0.80987036228179932
0.86536866426467896 0.86536866426467896 0.86536866426467896
0.92822784185409546 0.92822784185409546 0.92822784185409546
0.97497791051864624 0.97497791051864624 0.97497791051864624
0.4905543327331543 0.4905543327331543 0.4905543327331543
0.51138389110565186 0.51138389110565186 0.51138389110565186
0.55677920579910278 0.55677920579910278 0.55677920579910278
0.62823045253753662 0.62823045253753662 0.62823045253753662
0.69862645864486694 0.69862645864486694 0.69862645864486694
0.78290712833404541 0.78290712833404541 0.78290712833404541
0.81816697120666504 0.81816697120666504 0.81816697120666504
0.49146214127540588 0.49146214127540588 0.49146214127540588
0.53369605541229248 0.53369605541229248 0.53369605541229248
0.5751994252204895 0.5751994252204895 0.5751994252204895
0.64575350284576416 0.64575350284576416 0.64575350284576416
0.71613603830337524 0.71613603830337524 0.71613603830337524
0.78741979598999023 0.78741979598999023 0.78741979598999023
0.823597252368927 0.823597252368927 0.823597252368927
0.48090142011642456 0.48090142011642456 0.48090142011642456
0.54546761512756348 0.54546761512756348 0.54546761512756348
0.59348249435424805 0.59348249435424805 0.59348249435424805
0.66713410615921021 0.66713410615921021 0.66713410615921021
0.73899555206298828 0.73899555206298828 0.73899555206298828
0.80447566509246826 0.80447566509246826 0.80447566509246826
0.85158061981201172 0.85158061981201172 0.85158061981201172
0.54066962003707886 0.54066962003707886 0.54066962003707886
0.5816693902015686 0.5816693902015686 0.5816693902015686
0.65376043319702148 0.65376043319702148 0.65376043319702148
0.71470886468887329 0.71470886468887329 0.71470886468887329
0.77730059623718262 0.77730059623718262 0.77730059623718262
0.82954263687133789 0.82954263687133789 0.82954263687133789
0.88440543413162231 0.88440543413162231 0.88440543413162231
0.63935202360153198 0.63935202360153198 0.63935202360153198
0.65609031915664673 0.65609031915664673 0.65609031915664673
0.71039223670959473 0.71039223670959473 0.71039223670959473
0.77098947763442993 0.77098947763442993 0.77098947763442993
0.82343846559524536 0.82343846559524536 0.82343846559524536
0.875041663646698 0.875041663646698 0.875041663646698
0.92587828636169434 0.92587828636169434 0.92587828636169434
0.71893805265426636 0.71893805265426636 0.71893805265426636
0.72878259420394897 0.72878259420394897 0.72878259420394897
0.76664799451828003 0.76664799451828003 0.76664799451828003
0.81219983100891113 0.81219983100891113 0.81219983100891113
0.87461072206497192 0.87461072206497192 0.87461072206497192
0.9254906177520752 0.9254906177520752 0.9254906177520752
0.97708809375762939 0.97708809375762939 0.97708809375762939
0.74735879898071289 0.74735879898071289 0.74735879898071289
0.73283189535140991 0.73283189535140991 0.73283189535140991
0.77401918172836304 0.77401918172836304 0.77401918172836304
0.82595223188400269 0.82595223188400269 0.82595223188400269
0.89616453647613525 0.89616453647613525 0.89616453647613525
0.95480656623840332 0.95480656623840332 0.95480656623840332
0.98454123735427856 0.98454123735427856 0.98454123735427856
