luts/fujixtransiii/fuji_xtrans_iii_provia.cube
# Created by: G'MIC (https://gmic.eu)
TITLE "fuji_xtrans_iii_provia"
# LUT size
LUT_3D_SIZE 13
# Data domain
DOMAIN_MIN 0.0 0.0 0.0
DOMAIN_MAX 1.0 1.0 1.0
# LUT data points
0.0061420663259923458 0.011740964837372303 0.011889333836734295
0.035477865487337112 0.013216773979365826 0.011420650407671928
0.10050717741250992 0.017459720373153687 0.012214017100632191
0.21550808846950531 0.028568806126713753 0.016031362116336823
0.33717134594917297 0.036929111927747726 0.012959604151546955
0.45532700419425964 0.062343969941139221 0.019696881994605064
0.57586705684661865 0.10539426654577255 0.040306899696588516
0.70808804035186768 0.14532943069934845 0.066412217915058136
0.78728842735290527 0.16954962909221649 0.093118168413639069
0.8451995849609375 0.19001577794551849 0.12198258936405182
0.87524044513702393 0.20466913282871246 0.13417188823223114
0.89536154270172119 0.217105433344841 0.16185472905635834
0.91340166330337524 0.23359829187393188 0.17910660803318024
0.005510382354259491 0.028784075751900673 0.01265767402946949
0.032409802079200745 0.034365247935056686 0.011997297406196594
0.10744093358516693 0.039168864488601685 0.012310462072491646
0.22051100432872772 0.057833444327116013 0.01742401160299778
0.34486183524131775 0.076221868395805359 0.021642124280333519
0.46969857811927795 0.094984196126461029 0.02720845490694046
0.59513986110687256 0.13003575801849365 0.043862510472536087
0.7122119665145874 0.15683268010616302 0.065354153513908386
0.79508954286575317 0.17803585529327393 0.085643574595451355
0.86202389001846313 0.20390124619007111 0.11907655000686646
0.89072138071060181 0.22000810503959656 0.13728412985801697
0.90805155038833618 0.23487456142902374 0.14901499450206757
0.94310712814331055 0.27183166146278381 0.18685692548751831
0.0096466811373829842 0.090385422110557556 0.012057480402290821
0.023566840216517448 0.089303500950336456 0.0085702929645776749
0.095262162387371063 0.095965318381786346 0.010601342655718327
0.2190706878900528 0.11454795300960541 0.014231767505407333
0.35222360491752625 0.13390915095806122 0.018356144428253174
0.47559404373168945 0.15502177178859711 0.022478155791759491
0.59533506631851196 0.17967630922794342 0.033248975872993469
0.70450860261917114 0.20565469563007355 0.054630622267723083
0.79433375597000122 0.22735230624675751 0.069453835487365723
0.86837172508239746 0.24782514572143555 0.089196972548961639
0.9115327000617981 0.25766009092330933 0.11910030990839005
0.94557768106460571 0.28902080655097961 0.14643844962120056
0.97391432523727417 0.32412239909172058 0.16129997372627258
0.0078919949010014534 0.17416220903396606 0.0059152189642190933
0.019218729808926582 0.17893221974372864 0.0052519403398036957
0.070311330258846283 0.18363548815250397 0.0061550214886665344
0.20170226693153381 0.20673955976963043 0.009394926019012928
0.33954581618309021 0.22027681767940521 0.010352235287427902
0.46646112203598022 0.2328387051820755 0.016539674252271652
0.58595943450927734 0.25104233622550964 0.021524406969547272
0.69492065906524658 0.27230545878410339 0.036317128688097
0.79022949934005737 0.29450395703315735 0.047598998993635178
0.87590241432189941 0.3138028085231781 0.062318015843629837
0.95825088024139404 0.33467346429824829 0.11615630239248276
0.97762370109558105 0.34298497438430786 0.12990351021289825
0.98322200775146484 0.34693855047225952 0.13845095038414001
0.0043827281333506107 0.27315250039100647 0.0012351690093055367
0.013286590576171875 0.29613450169563293 0.0014988469192758203
0.04134286567568779 0.30779376626014709 0.0022077222820371389
0.15457737445831299 0.32352757453918457 0.0028191958554089069
0.31401601433753967 0.33167228102684021 0.0043398239649832249
0.44675180315971375 0.32621568441390991 0.010095887817442417
0.56686341762542725 0.34130319952964783 0.016555022448301315
0.68143951892852783 0.35635653138160706 0.021299324929714203
0.78479218482971191 0.37220883369445801 0.026379110291600227
0.86544835567474365 0.38184300065040588 0.040794193744659424
0.94026046991348267 0.39003384113311768 0.086117714643478394
0.97825038433074951 0.37039685249328613 0.1094089150428772
0.9911004900932312 0.38536909222602844 0.1251232773065567
0.00093316473066806793 0.36691516637802124 0
0.010523014701902866 0.40166503190994263 6.1214668676257133e-05
0.031004572287201881 0.40523979067802429 0.00015779382374603301
0.10667600482702255 0.42229795455932617 0.0003059835871681571
0.27431023120880127 0.43630689382553101 0.0018677356420084834
0.42438229918479919 0.43167221546173096 0.0052225152030587196
0.54761397838592529 0.43883630633354187 0.0099937589839100838
0.6638062596321106 0.44883188605308533 0.012900916859507561
0.7715381383895874 0.45994517207145691 0.013409887440502644
0.84429657459259033 0.47011718153953552 0.024061344563961029
0.88667035102844238 0.47180619835853577 0.040585864335298538
0.93725138902664185 0.46269813179969788 0.085240431129932404
0.98149234056472778 0.4998423159122467 0.14594483375549316
0.00056756712729111314 0.43908989429473877 0.0012682597152888775
0.0057255765423178673 0.46836736798286438 0.00015996297588571906
0.019669461995363235 0.4806729257106781 0
0.079277098178863525 0.49946281313896179 0
0.22783289849758148 0.51756554841995239 3.6621095205191523e-05
0.38961493968963623 0.51877224445343018 0.0007474113954231143
0.53249263763427734 0.51932454109191895 0.0040836557745933533
0.64594608545303345 0.53423511981964111 0.0074035045690834522
0.75210148096084595 0.54244095087051392 0.0084012644365429878
0.83360856771469116 0.55231249332427979 0.011526040732860565
0.87949180603027344 0.55902183055877686 0.036657296121120453
0.90582531690597534 0.56419086456298828 0.064832113683223724
0.95276308059692383 0.58297181129455566 0.12259035557508469
0.0020073535852134228 0.46638986468315125 0.003597065107896924
0.002889296505600214 0.49845179915428162 0.0010730070061981678
0.010475981049239635 0.54513359069824219 0.00067354092607274652
0.073902174830436707 0.54236966371536255 5.609848813037388e-06
0.2129310816526413 0.56852161884307861 0
0.31564289331436157 0.5759769082069397 0
0.51628679037094116 0.59691399335861206 0.00072878669016063213
0.63299894332885742 0.60581046342849731 0.0040772231295704842
0.74370265007019043 0.60635197162628174 0.00521062221378088
0.82945269346237183 0.62358152866363525 0.0075196507386863232
0.87271660566329956 0.62430042028427124 0.029788058251142502
0.9000316858291626 0.63972902297973633 0.059022355824708939
0.94212144613265991 0.65348291397094727 0.11277481913566589
0.0018311594612896442 0.49945893883705139 0.015631208196282387
0.0026882097590714693 0.51479923725128174 0.0011688531376421452
0.010820216499269009 0.58729970455169678 0.0049003004096448421
0.055182125419378281 0.56462728977203369 0.0032357608433812857
0.18482254445552826 0.58929598331451416 0.001160356099717319
0.28375029563903809 0.62371683120727539 0.00015197454195003957
0.4998379647731781 0.66145259141921997 0.0013287712354212999
0.62990063428878784 0.66259473562240601 0.0031468260567635298
0.74470090866088867 0.65898078680038452 0.0062163257971405983
0.83136099576950073 0.66724848747253418 0.0068254657089710236
0.87108784914016724 0.67382287979125977 0.021379956975579262
0.8969343900680542 0.69595807790756226 0.043493233621120453
0.93105399608612061 0.71350592374801636 0.10025331377983093
0.0020900052040815353 0.53284758329391479 0.029743194580078125
0.0025193009059876204 0.51801389455795288 0.0012493208050727844
0.010407870635390282 0.57686847448348999 0.01132125873118639
0.043383236974477768 0.61305254697799683 0.027967624366283417
0.17443500459194183 0.6344839334487915 0.014315661042928696
0.2908642590045929 0.66097825765609741 0.0017468919977545738
0.48692589998245239 0.67618370056152344 0.0025390924420207739
0.60913515090942383 0.67968297004699707 0.0050508538261055946
0.71813970804214478 0.67552554607391357 0.0082958294078707695
0.83129286766052246 0.67696768045425415 0.010744311846792698
0.885265052318573 0.69587153196334839 0.039431553333997726
0.9287676215171814 0.72067523002624512 0.097478769719600677
0.95982038974761963 0.73843330144882202 0.14677044749259949
0.0024742875248193741 0.53645342588424683 0.028292158618569374
0.0034602445084601641 0.52830636501312256 0.0078562870621681213
0.014177958481013775 0.67104083299636841 0.048517100512981415
0.03082478791475296 0.70863324403762817 0.064206503331661224
0.14982880651950836 0.70203483104705811 0.034712277352809906
0.27193188667297363 0.70095384120941162 0.0059094447642564774
0.50291746854782104 0.70943111181259155 0.010156893171370029
0.59133505821228027 0.7054402232170105 0.0163255725055933
0.68740665912628174 0.7012670636177063 0.02921561524271965
0.8256831169128418 0.69345760345458984 0.033841270953416824
0.90559715032577515 0.71953189373016357 0.08977363258600235
0.95745736360549927 0.74096971750259399 0.15233923494815826
0.96645963191986084 0.74509656429290771 0.1636539101600647
0.0039215688593685627 0.5699884295463562 0.01077505387365818
0.005182318389415741 0.57372742891311646 0.010544451884925365
0.015472291968762875 0.70427322387695312 0.059620995074510574
0.033834509551525116 0.73258322477340698 0.072820134460926056
0.13109661638736725 0.73090893030166626 0.044878028333187103
0.25862857699394226 0.73343044519424438 0.010518855415284634
0.5217750072479248 0.73389214277267456 0.018219681456685066
0.57714700698852539 0.73602491617202759 0.042717460542917252
0.67852449417114258 0.7411578893661499 0.062213163822889328
0.80704665184020996 0.74078840017318726 0.10806412249803543
0.87816256284713745 0.75557076930999756 0.14200578629970551
0.94594007730484009 0.75625985860824585 0.17448891699314117
0.96136975288391113 0.75830787420272827 0.18528325855731964
0.0039215688593685627 0.58050942420959473 0.013285692781209946
0.0064775203354656696 0.583141028881073 0.012952407822012901
0.016167644411325455 0.70640194416046143 0.062998034060001373
0.035786662250757217 0.73629170656204224 0.078455217182636261
0.12864910066127777 0.73830997943878174 0.049903914332389832
0.25728550553321838 0.74216645956039429 0.015666631981730461
0.51258903741836548 0.74298512935638428 0.0296491589397192
0.52904075384140015 0.77165448665618896 0.084426760673522949
0.68234485387802124 0.77710217237472534 0.11160004884004593
0.80430275201797485 0.78387743234634399 0.17229144275188446
0.86667841672897339 0.79721486568450928 0.20430025458335876
0.91917741298675537 0.79537409543991089 0.22790563106536865
0.94513404369354248 0.79387682676315308 0.23982459306716919
0.0062798894941806793 0.014577873051166534 0.035131879150867462
0.026670567691326141 0.017601117491722107 0.035127092152833939
0.10930377990007401 0.028540518134832382 0.050468027591705322
0.21758575737476349 0.043791197240352631 0.061918310821056366
0.30032920837402344 0.051026858389377594 0.061068560928106308
0.44310951232910156 0.086461655795574188 0.070713356137275696
0.59605717658996582 0.12743319571018219 0.095748826861381531
0.71497732400894165 0.15447227656841278 0.12513403594493866
0.82650917768478394 0.17686600983142853 0.17010502517223358
0.87720340490341187 0.19847942888736725 0.19834297895431519
0.8956189751625061 0.20922166109085083 0.21196757256984711
0.91179060935974121 0.22245849668979645 0.22820301353931427
0.95384341478347778 0.26248815655708313 0.28900179266929626
0.0080002425238490105 0.044023938477039337 0.044861752539873123
0.035436742007732391 0.046294372528791428 0.042918890714645386
0.10781155526638031 0.055471055209636688 0.049058172851800919
0.21501156687736511 0.070585407316684723 0.055590804666280746
0.3311113715171814 0.084170818328857422 0.062040846794843674
0.46543788909912109 0.10872412472963333 0.074127122759819031
0.59576553106307983 0.13548338413238525 0.089407317340373993
0.70637446641921997 0.16805745661258698 0.11231758445501328
0.80463343858718872 0.19027139246463776 0.14184832572937012
0.87733209133148193 0.21287332475185394 0.18572981655597687
0.90783387422561646 0.22996345162391663 0.20442545413970947
0.94409263134002686 0.25991353392601013 0.2416749894618988
0.97775530815124512 0.29099678993225098 0.30125606060028076
0.0066818688064813614 0.096412673592567444 0.043935485184192657
0.029258998110890388 0.10034528374671936 0.041087355464696884
0.09783376008272171 0.11639361083507538 0.040063325315713882
0.21299454569816589 0.12694042921066284 0.045465685427188873
0.3459218442440033 0.14325845241546631 0.054557021707296371
0.47719031572341919 0.1630418449640274 0.064494296908378601
0.59563887119293213 0.18359467387199402 0.079383388161659241
0.70359396934509277 0.20855028927326202 0.10376426577568054
0.80287367105484009 0.23094047605991364 0.12505550682544708
0.88205772638320923 0.25561249256134033 0.15995188057422638
0.94063401222229004 0.27788266539573669 0.20542724430561066
0.96620100736618042 0.29785466194152832 0.23016701638698578
0.98154568672180176 0.31057694554328918 0.279876708984375
0.006274533923715353 0.19103112816810608 0.029811844229698181
0.021439226344227791 0.19448299705982208 0.031475771218538284
0.069024510681629181 0.20308755338191986 0.026147954165935516
0.19040058553218842 0.21421903371810913 0.031665638089179993
0.33567297458648682 0.226828932762146 0.038151402026414871
0.4684731662273407 0.23884789645671844 0.048685934394598007
0.58778893947601318 0.2544625997543335 0.063187360763549805
0.69623112678527832 0.2768307626247406 0.086745932698249817
0.79681551456451416 0.29983407258987427 0.10748874396085739
0.8817560076713562 0.32168132066726685 0.13689331710338593
0.94911670684814453 0.33393889665603638 0.17498289048671722
0.96948057413101196 0.34292998909950256 0.1886630654335022
0.98094666004180908 0.35421788692474365 0.23896895349025726
0.0041006649844348431 0.30082228779792786 0.015589396469295025
0.015180999413132668 0.30853971838951111 0.015338823199272156
0.037912465631961823 0.31124597787857056 0.011831470765173435
0.14604237675666809 0.32146152853965759 0.015859447419643402
0.3079131543636322 0.32956022024154663 0.020123276859521866
0.44681289792060852 0.33688747882843018 0.030873676761984825
0.56915515661239624 0.3482879102230072 0.0457027368247509
0.68334555625915527 0.36229631304740906 0.062039721757173538
0.78599578142166138 0.38060206174850464 0.082186393439769745
0.87041205167770386 0.39835023880004883 0.10534500330686569
0.93987727165222168 0.40195432305335999 0.1489325612783432
0.97109812498092651 0.4061952531337738 0.16726267337799072
0.98842883110046387 0.4396108090877533 0.19971644878387451
0.00087384990183636546 0.40047535300254822 0.0088056828826665878
0.0077104158699512482 0.41553720831871033 0.0091422433033585548
0.023330703377723694 0.41486063599586487 0.0071762236766517162
0.10201354324817657 0.42214497923851013 0.0073399562388658524
0.26458734273910522 0.43026894330978394 0.015313751064240932
0.4205288290977478 0.43802854418754578 0.022069819271564484
0.54849326610565186 0.44695630669593811 0.027496278285980225
0.66863453388214111 0.45581486821174622 0.035169802606105804
0.77171909809112549 0.46869829297065735 0.051521405577659607
0.85006660223007202 0.47947496175765991 0.077749110758304596
0.91588830947875977 0.48611024022102356 0.11589547246694565
0.97618776559829712 0.49842306971549988 0.15863747894763947
0.99414676427841187 0.53139185905456543 0.18427984416484833
0.00015412873472087085 0.46203839778900146 0.013420643284916878
0.0055137486197054386 0.50073724985122681 0.010413719341158867
0.019967276602983475 0.50820320844650269 0.0066563324071466923
0.070115499198436737 0.51187002658843994 0.0036386826541274786
0.2109735906124115 0.52217459678649902 0.0070906397886574268
0.38176596164703369 0.52832239866256714 0.0097665674984455109
0.52865409851074219 0.52860015630722046 0.013482201844453812
0.65171593427658081 0.54083317518234253 0.017155874520540237
0.75497806072235107 0.55072188377380371 0.028526963666081429
0.83562630414962769 0.55942791700363159 0.056117530912160873
0.90635842084884644 0.56578272581100464 0.09666665643453598
0.9552314281463623 0.57457667589187622 0.1284700483083725
0.98483526706695557 0.59587615728378296 0.17548534274101257
0.0021868387702852488 0.53612852096557617 0.050294090062379837
0.0044069327414035797 0.55740505456924438 0.0081776492297649384
0.011956144124269485 0.57406556606292725 0.0050958222709596157
0.052557658404111862 0.57614457607269287 0.0031352920923382044
0.16938948631286621 0.58907395601272583 0.0022894616704434156
0.31574252247810364 0.59902834892272949 0.0024832333438098431
0.49828621745109558 0.60978460311889648 0.0069920560345053673
0.62960278987884521 0.61580830812454224 0.013777654618024826
0.73730027675628662 0.62073558568954468 0.019105395302176476
0.82345306873321533 0.63229209184646606 0.035558588802814484
0.89945864677429199 0.6424483060836792 0.078063681721687317
0.95310753583908081 0.65217822790145874 0.13121715188026428
0.97415482997894287 0.67170697450637817 0.17114497721195221
0.0035510940942913294 0.56938362121582031 0.037559464573860168
0.0049391952343285084 0.58912563323974609 0.0050741755403578281
0.010660448111593723 0.61205214262008667 0.010523163713514805
0.03237292543053627 0.62593913078308105 0.013977155089378357
0.13966678082942963 0.6339496374130249 0.0099268145859241486
0.28033441305160522 0.65440374612808228 0.0077316435053944588
0.47795480489730835 0.67326748371124268 0.0084767062216997147
0.61770105361938477 0.6801379919052124 0.013397695496678352
0.72679251432418823 0.67575061321258545 0.026747476309537888
0.81575918197631836 0.69130629301071167 0.046194907277822495
0.88574373722076416 0.70332670211791992 0.071067363023757935
0.94187426567077637 0.7160642147064209 0.12428981065750122
0.96495121717453003 0.7328764796257019 0.16770981252193451
0.0039215688593685627 0.58249759674072266 0.024469966068863869
0.0046886219643056393 0.59463042020797729 0.0077729467302560806
0.011615454219281673 0.66780978441238403 0.040193416178226471
0.031784281134605408 0.69949489831924438 0.05543619766831398
0.13196484744548798 0.7008245587348938 0.03522828221321106
0.26450648903846741 0.70541393756866455 0.012201960198581219
0.50078189373016357 0.71043908596038818 0.013547366484999657
0.60680025815963745 0.71554887294769287 0.026238340884447098
0.71322047710418701 0.70718228816986084 0.042439866811037064
0.80777037143707275 0.72419899702072144 0.078810058534145355
0.88462173938751221 0.73616611957550049 0.11154071241617203
0.94860285520553589 0.74683022499084473 0.15650823712348938
0.96308469772338867 0.7545357346534729 0.17253504693508148
0.0038371665868908167 0.58595693111419678 0.035746347159147263
0.0060712625272572041 0.60168123245239258 0.013850492425262928
0.014102037996053696 0.70300304889678955 0.061956264078617096
0.029727891087532043 0.73021990060806274 0.079924337565898895
0.13274575769901276 0.73293107748031616 0.050203420221805573
0.25617390871047974 0.73601901531219482 0.017230898141860962
0.5161203145980835 0.73739320039749146 0.023775408044457436
0.5820351243019104 0.75095504522323608 0.047451302409172058
0.68522781133651733 0.74602645635604858 0.071801520884037018
0.80177199840545654 0.75283646583557129 0.12354869395494461
0.88693147897720337 0.76779508590698242 0.16939252614974976
0.94779843091964722 0.76087355613708496 0.179735466837883
0.96061247587203979 0.75888079404830933 0.18234296143054962
0.0026621499564498663 0.6067802906036377 0.13807007670402527
0.0056815952993929386 0.60115951299667358 0.020229728892445564
0.014851663261651993 0.71267664432525635 0.073552601039409637
0.027957497164607048 0.74924206733703613 0.10958041250705719
0.12102711945772171 0.74990439414978027 0.08467470109462738
0.24549195170402527 0.74698746204376221 0.036752291023731232
0.50038880109786987 0.74666666984558105 0.043166201561689377
0.52782291173934937 0.77340406179428101 0.087955713272094727
0.67582172155380249 0.77638167142868042 0.10831301659345627
0.80131077766418457 0.78084635734558105 0.16909186542034149
0.86828052997589111 0.79726988077163696 0.20828886330127716
0.91366338729858398 0.80142217874526978 0.23631851375102997
0.93957757949829102 0.79872298240661621 0.24334938824176788
0.0021242329385131598 0.61964529752731323 0.19915838539600372
0.0059739653952419758 0.60983437299728394 0.051100920885801315
0.01916300505399704 0.73428130149841309 0.11565206199884415
0.032850407063961029 0.77352738380432129 0.16058580577373505
0.097074352204799652 0.77294719219207764 0.15221185982227325
0.24075606465339661 0.76097959280014038 0.095714151859283447
0.49876198172569275 0.75031143426895142 0.056634657084941864
0.51316553354263306 0.78001654148101807 0.098597504198551178
0.6701769232749939 0.78646957874298096 0.12092673778533936
0.80116158723831177 0.79162871837615967 0.18310123682022095
0.86881637573242188 0.80390596389770508 0.21694402396678925
0.91510921716690063 0.82715064287185669 0.27982324361801147
0.93002527952194214 0.83791357278823853 0.30986154079437256
0.010060867294669151 0.022454893216490746 0.13142126798629761
0.050175432115793228 0.031154079362750053 0.12364949285984039
0.13625301420688629 0.043622873723506927 0.12582798302173615
0.27041122317314148 0.063767887651920319 0.14071723818778992
0.35324794054031372 0.079796962440013885 0.15903237462043762
0.47016769647598267 0.11449076235294342 0.18407569825649261
0.60690867900848389 0.14353732764720917 0.20434996485710144
0.72623121738433838 0.16526685655117035 0.2358393669128418
0.82870978116989136 0.1777852475643158 0.24243780970573425
0.88302922248840332 0.19666391611099243 0.25468140840530396
0.91341447830200195 0.21762576699256897 0.2748752236366272
0.95253545045852661 0.25286620855331421 0.32938599586486816
0.98982924222946167 0.29093867540359497 0.40310570597648621
0.01350052747875452 0.059113774448633194 0.12438303977251053
0.052491206675767899 0.064132139086723328 0.12042791396379471
0.12807977199554443 0.074749723076820374 0.1274273693561554
0.24036553502082825 0.090197831392288208 0.13993586599826813
0.35678955912590027 0.10747050493955612 0.15409936010837555
0.48110973834991455 0.13627819716930389 0.16802018880844116
0.60446286201477051 0.15468989312648773 0.18457643687725067
0.71423435211181641 0.18018710613250732 0.20591121912002563
0.81380933523178101 0.20034430921077728 0.21917681396007538
0.89048969745635986 0.22904074192047119 0.24471795558929443
0.94327622652053833 0.25716686248779297 0.27354928851127625
0.9749409556388855 0.28199458122253418 0.31825697422027588
0.99440968036651611 0.30460935831069946 0.36326503753662109
0.0099167618900537491 0.11917084455490112 0.12810297310352325
0.040488462895154953 0.12203084677457809 0.12537494301795959
0.11179453879594803 0.13952900469303131 0.12297620624303818
0.22091631591320038 0.15047304332256317 0.13082586228847504
0.35361126065254211 0.16331645846366882 0.14382894337177277
0.48494583368301392 0.18255476653575897 0.1573210209608078
0.59989732503890991 0.20019626617431641 0.17214676737785339
0.70543253421783447 0.22240419685840607 0.19261687994003296
0.80515092611312866 0.24668596684932709 0.21157371997833252
0.88915443420410156 0.27651351690292358 0.23824042081832886
0.94901430606842041 0.29675528407096863 0.27121695876121521
0.98098933696746826 0.30776432156562805 0.30896648764610291
0.99433845281600952 0.32341751456260681 0.35386818647384644
0.005221931729465723 0.20865826308727264 0.11435315012931824
0.027425937354564667 0.21426516771316528 0.11037372052669525
0.081812523305416107 0.22125883400440216 0.10203145444393158
0.19604162871837616 0.23294584453105927 0.1106196865439415
0.33943143486976624 0.24100716412067413 0.13005006313323975
0.47479662299156189 0.25270849466323853 0.14069919288158417
0.59035289287567139 0.26864174008369446 0.15498833358287811
0.69579458236694336 0.28935852646827698 0.17470875382423401
0.80013769865036011 0.30931660532951355 0.19237892329692841
0.88541948795318604 0.33036854863166809 0.21747420728206635
0.94430017471313477 0.34892597794532776 0.25802868604660034
0.98564273118972778 0.36977723240852356 0.31387746334075928
0.99412596225738525 0.37978565692901611 0.34671369194984436
0.0050492379814386368 0.31159994006156921 0.096600659191608429
0.013395181857049465 0.31990793347358704 0.082190163433551788
