luts/fujixtransiii/fuji_xtrans_iii_acros+ye.cube
# Created by: G'MIC (https://gmic.eu)
TITLE "fuji_xtrans_iii_acros+ye"
# LUT size
LUT_3D_SIZE 5
# Data domain
DOMAIN_MIN 0.0 0.0 0.0
DOMAIN_MAX 1.0 1.0 1.0
# LUT data points
0.014691311866044998 0.014691311866044998 0.014691311866044998
0.10969851911067963 0.10969851911067963 0.10969851911067963
0.32424843311309814 0.32424843311309814 0.32424843311309814
0.51284569501876831 0.51284569501876831 0.51284569501876831
0.56505477428436279 0.56505477428436279 0.56505477428436279
0.090672992169857025 0.090672992169857025 0.090672992169857025
0.1871931403875351 0.1871931403875351 0.1871931403875351
0.38938835263252258 0.38938835263252258 0.38938835263252258
0.55674207210540771 0.55674207210540771 0.55674207210540771
0.62431138753890991 0.62431138753890991 0.62431138753890991
0.25404414534568787 0.25404414534568787 0.25404414534568787
0.34953010082244873 0.34953010082244873 0.34902817010879517
0.50794869661331177 0.50794869661331177 0.50794869661331177
0.63921177387237549 0.63921177387237549 0.63921177387237549
0.71693062782287598 0.71693062782287598 0.71693062782287598
0.34880095720291138 0.34880095720291138 0.34880095720291138
0.43154895305633545 0.43154895305633545 0.43154895305633545
0.58853566646575928 0.58853566646575928 0.58853566646575928
0.7078586220741272 0.7078586220741272 0.7078586220741272
0.80056613683700562 0.80056613683700562 0.80056613683700562
0.39312922954559326 0.39312922954559326 0.39312922954559326
0.52530211210250854 0.52530211210250854 0.52530211210250854
0.65068995952606201 0.65068995952606201 0.65068995952606201
0.77390915155410767 0.77390915155410767 0.77390915155410767
0.83529490232467651 0.83529490232467651 0.83529490232467651
0.044634412974119186 0.044634412974119186 0.044634412974119186
0.19019192457199097 0.19019192457199097 0.19019192457199097
0.37707167863845825 0.37707167863845825 0.37707167863845825
0.56792813539505005 0.56792813539505005 0.56792813539505005
0.67773497104644775 0.67773497104644775 0.67773497104644775
0.14034616947174072 0.14034616947174072 0.14034616947174072
0.23497499525547028 0.23497499525547028 0.23497499525547028
0.4141802191734314 0.4141802191734314 0.4141802191734314
0.59890204668045044 0.59890204668045044 0.59890204668045044
0.72598439455032349 0.72598439455032349 0.72598439455032349
0.33860239386558533 0.33860239386558533 0.33860239386558533
0.39751598238945007 0.39751598238945007 0.39751598238945007
0.53393340110778809 0.53393340110778809 0.53393340110778809
0.66964179277420044 0.66964179277420044 0.66964179277420044
0.77536320686340332 0.77536320686340332 0.77536320686340332
0.42843425273895264 0.42843425273895264 0.42843425273895264
0.52919542789459229 0.52919542789459229 0.52919542789459229
0.64770764112472534 0.64770764112472534 0.64770764112472534
0.75979363918304443 0.75979363918304443 0.75979363918304443
0.84807664155960083 0.84807664155960083 0.84807664155960083
0.47961485385894775 0.47961485385894775 0.47961485385894775
0.58618402481079102 0.58618402481079102 0.58618402481079102
0.6760825514793396 0.6760825514793396 0.6760825514793396
0.79067516326904297 0.79067516326904297 0.79067516326904297
0.88173061609268188 0.88173061609268188 0.88173061609268188
0.18196746706962585 0.18196746706962585 0.18196746706962585
0.27939048409461975 0.27939048409461975 0.27939048409461975
0.4351801872253418 0.4351801872253418 0.4351801872253418
0.61642718315124512 0.61642718315124512 0.61642718315124512
0.74308162927627563 0.74308162927627563 0.74308162927627563
0.23083028197288513 0.23083028197288513 0.23083028197288513
0.32189607620239258 0.32189607620239258 0.32189607620239258
0.4918915331363678 0.4918915331363678 0.4918915331363678
0.64501821994781494 0.64501821994781494 0.64501821994781494
0.76722222566604614 0.76722222566604614 0.76722222566604614
0.40074914693832397 0.40074914693832397 0.40074914693832397
0.46462547779083252 0.46462547779083252 0.46462547779083252
0.57558709383010864 0.57558709383010864 0.57558709383010864
0.70279997587203979 0.70279997587203979 0.70279997587203979
0.81053763628005981 0.81053763628005981 0.81053763628005981
0.53774392604827881 0.53774392604827881 0.53774392604827881
0.57612520456314087 0.57612520456314087 0.57612520456314087
0.67795687913894653 0.67795687913894653 0.67795687913894653
0.78632164001464844 0.78632164001464844 0.78632164001464844
0.89617973566055298 0.89617973566055298 0.89617973566055298
0.58457207679748535 0.58457207679748535 0.58457207679748535
0.63796257972717285 0.63796257972717285 0.63796257972717285
0.7109711766242981 0.7109711766242981 0.7109711766242981
0.84840840101242065 0.84840840101242065 0.84840840101242065
0.9435654878616333 0.9435654878616333 0.9435654878616333
0.33651146292686462 0.33651146292686462 0.33651146292686462
0.40314272046089172 0.40314272046089172 0.40314272046089172
0.52260935306549072 0.52260935306549072 0.52260935306549072
0.67680805921554565 0.67680805921554565 0.67680805921554565
0.79524117708206177 0.79524117708206177 0.79524117708206177
0.3450341522693634 0.3450341522693634 0.3450341522693634
0.43544659018516541 0.43544659018516541 0.43544659018516541
0.5563998818397522 0.5563998818397522 0.5563998818397522
0.69547015428543091 0.69547015428543091 0.69547015428543091
0.80959784984588623 0.80959784984588623 0.80959784984588623
0.4635193943977356 0.4635193943977356 0.4635193943977356
0.53481227159500122 0.53481227159500122 0.53481227159500122
0.63857579231262207 0.63857579231262207 0.63857579231262207
0.74542427062988281 0.74542427062988281 0.74542427062988281
0.85735040903091431 0.85735040903091431 0.85735040903091431
0.61225438117980957 0.61225438117980957 0.61225438117980957
0.64399993419647217 0.64399993419647217 0.64399993419647217
0.72897285223007202 0.72897285223007202 0.72897285223007202
0.8229602575302124 0.8229602575302124 0.8229602575302124
0.93625015020370483 0.93625015020370483 0.93625015020370483
0.66781234741210938 0.66781234741210938 0.66781234741210938
0.70923733711242676 0.70923733711242676 0.70923733711242676
0.80883270502090454 0.80883270502090454 0.80883270502090454
0.89830237627029419 0.89830237627029419 0.89830237627029419
0.97054380178451538 0.97054380178451538 0.97054380178451538
0.4905543327331543 0.4905543327331543 0.4905543327331543
0.53090345859527588 0.53090345859527588 0.53090345859527588
0.62823045253753662 0.62823045253753662 0.62823045253753662
0.74145400524139404 0.74145400524139404 0.74145400524139404
0.81816697120666504 0.81816697120666504 0.81816697120666504
0.48006293177604675 0.48006293177604675 0.48006293177604675
0.55688661336898804 0.55688661336898804 0.55688661336898804
0.65519791841506958 0.65519791841506958 0.65519791841506958
0.75924831628799438 0.75924831628799438 0.75924831628799438
0.83423715829849243 0.83423715829849243 0.83423715829849243
0.54066962003707886 0.54066962003707886 0.54066962003707886
0.62373250722885132 0.62373250722885132 0.62373250722885132
0.71470886468887329 0.71470886468887329 0.71470886468887329
0.80415171384811401 0.80415171384811401 0.80415171384811401
0.88440543413162231 0.88440543413162231 0.88440543413162231
0.67819243669509888 0.67819243669509888 0.67819243669509888
0.71431344747543335 0.71431344747543335 0.71431344747543335
0.79527866840362549 0.79527866840362549 0.79527866840362549
0.86926513910293579 0.86926513910293579 0.86926513910293579
0.95358163118362427 0.95358163118362427 0.95358163118362427
0.74735879898071289 0.74735879898071289 0.74735879898071289
0.74707484245300293 0.74707484245300293 0.74707484245300293
0.82595223188400269 0.82595223188400269 0.82595223188400269
0.92998707294464111 0.92998707294464111 0.92998707294464111
0.98454123735427856 0.98454123735427856 0.98454123735427856
