luts/fujixtransiii/fuji_xtrans_iii_velvia.cube
# Created by: G'MIC (https://gmic.eu)
TITLE "fuji_xtrans_iii_velvia"
# LUT size
LUT_3D_SIZE 7
# Data domain
DOMAIN_MIN 0.0 0.0 0.0
DOMAIN_MAX 1.0 1.0 1.0
# LUT data points
0.0072196363471448421 0.0075772753916680813 0.004986871499568224
0.077997364103794098 0.010213948786258698 0.0040285447612404823
0.34803208708763123 0.018106512725353241 0.0070408391766250134
0.64179867506027222 0.065724194049835205 0.0061477660201489925
0.86309224367141724 0.13120268285274506 0.011467877775430679
0.93579542636871338 0.16891995072364807 0.047291386872529984
0.96349549293518066 0.19746480882167816 0.081859081983566284
0.0058276006020605564 0.077949151396751404 0.0052850912325084209
0.083525672554969788 0.080236725509166718 0.0036645028740167618
0.36438184976577759 0.12233299016952515 0.0078137563541531563
0.65123128890991211 0.14335526525974274 0.0053221308626234531
0.85999453067779541 0.19318477809429169 0.0064458060078322887
0.96437358856201172 0.24122174084186554 0.018914645537734032
0.99757969379425049 0.31856104731559753 0.043338071554899216
0.00039212097181007266 0.29952776432037354 0.0029395308811217546
0.029266521334648132 0.32598415017127991 6.2650789914187044e-05
0.3035428524017334 0.35311612486839294 0.002796367509290576
0.60425150394439697 0.3649202287197113 0.0044148764573037624
0.8134276270866394 0.37862136960029602 0.005434761755168438
0.95826601982116699 0.39574962854385376 0.0025744868908077478
0.99889457225799561 0.39060401916503906 0.0084103457629680634
0.00051700370386242867 0.48140749335289001 2.8004365958622657e-05
0.014895196072757244 0.52572727203369141 0
0.18257881700992584 0.55973082780838013 3.6621095205191523e-05
0.54038071632385254 0.55283099412918091 0.00022645837452728301
0.75798046588897705 0.56475740671157837 0.00043376846588216722
0.90823262929916382 0.57240903377532959 0.00032909619039855897
0.98034453392028809 0.59174126386642456 0.011136926710605621
0.0020596671383827925 0.54522490501403809 0.002439162228256464
0.007405898068100214 0.62602436542510986 0.00015058330609463155
0.13815668225288391 0.62884479761123657 6.4326268329750746e-05
0.4918702244758606 0.68246960639953613 0
0.74828135967254639 0.67177695035934448 0
0.89715355634689331 0.67419648170471191 0.00076138367876410484
0.96176552772521973 0.71365553140640259 0.0058009577915072441
0.0018669427372515202 0.5824732780456543 0.013515652157366276
0.010324201546609402 0.70496553182601929 0.0089856013655662537
0.12036526203155518 0.72746312618255615 0.0066257701255381107
0.48401448130607605 0.72327899932861328 1.4002182979311328e-05
0.68517142534255981 0.70994389057159424 0.0022454503923654556
0.93608897924423218 0.72394567728042603 0.010565783828496933
0.99494677782058716 0.74184668064117432 0.011248046532273293
0.0039215688593685627 0.62810617685317993 0.016411485150456429
0.012426040135324001 0.73648184537887573 0.014189312234520912
0.096986524760723114 0.75957703590393066 0.014491990208625793
0.48921138048171997 0.75714224576950073 0.0034639546647667885
0.66873049736022949 0.78937309980392456 0.019495047628879547
0.88463741540908813 0.80261743068695068 0.063711784780025482
0.9832797646522522 0.80400615930557251 0.092060893774032593
0.0081451712176203728 0.011090132407844067 0.14018794894218445
0.1198376789689064 0.023901263251900673 0.12008741497993469
0.36942571401596069 0.040411107242107391 0.15323843061923981
0.66495305299758911 0.091595940291881561 0.17754672467708588
0.88251727819442749 0.1235537976026535 0.18991857767105103
0.96433728933334351 0.16433992981910706 0.21120303869247437
0.99765092134475708 0.25535798072814941 0.38025608658790588
0.0058511472307145596 0.10131733864545822 0.11256945878267288
0.10018650442361832 0.11354165524244308 0.10840654373168945
0.37789055705070496 0.13744732737541199 0.10640973597764969
0.65454769134521484 0.16447006165981293 0.11109477281570435
0.85668396949768066 0.21488514542579651 0.1354902982711792
0.98566389083862305 0.26955509185791016 0.18538685142993927
1 0.30405580997467041 0.30254644155502319
0.0014286414952948689 0.33466437458992004 0.051864653825759888
0.028566218912601471 0.3412262499332428 0.03595835343003273
0.30812975764274597 0.34841901063919067 0.041828665882349014
0.60570764541625977 0.36760276556015015 0.044331345707178116
0.8220098614692688 0.39054355025291443 0.063333339989185333
0.97618949413299561 0.41730925440788269 0.10508161038160324
0.99994289875030518 0.44123706221580505 0.21728061139583588
3.0158547815517522e-05 0.53827720880508423 0.018433859571814537
0.011717807501554489 0.55862748622894287 0.015008320100605488
0.16880835592746735 0.56529712677001953 0.015915201976895332
0.53148776292800903 0.56212538480758667 0.030129706487059593
0.76065665483474731 0.57230174541473389 0.026944583281874657
0.93914783000946045 0.57973384857177734 0.041828140616416931
0.99881875514984131 0.5952223539352417 0.079476647078990936
0.0016363105969503522 0.62680280208587646 0.10862917453050613
0.0086148427799344063 0.68421608209609985 0.018457060679793358
0.076968744397163391 0.70960116386413574 0.01512380875647068
0.43740054965019226 0.70793229341506958 0.013804311864078045
0.70912718772888184 0.70269167423248291 0.022280525416135788
0.91007417440414429 0.71849137544631958 0.027307847514748573
0.99822485446929932 0.7396281361579895 0.049157384783029556
0.0014722038758918643 0.65508079528808594 0.19297991693019867
0.010709545575082302 0.75489646196365356 0.056072205305099487
0.063802130520343781 0.78339856863021851 0.073711022734642029
0.43551421165466309 0.77231675386428833 0.036307990550994873
0.64707744121551514 0.78409743309020996 0.019134955480694771
0.88842260837554932 0.80376768112182617 0.069366723299026489
0.98553436994552612 0.80660319328308105 0.085408933460712433
7.7041928307153285e-05 0.67465090751647949 0.3328668475151062
0.013266559690237045 0.78766697645187378 0.12908357381820679
0.05609753355383873 0.81288880109786987 0.12784774601459503
0.34985637664794922 0.79901063442230225 0.094766728579998016
0.63145667314529419 0.80901682376861572 0.05750732496380806
0.89898884296417236 0.83013159036636353 0.10737596452236176
0.98281389474868774 0.87184315919876099 0.19422255456447601
0.038538001477718353 0.04217325896024704 0.51433730125427246
0.22388742864131927 0.036488626152276993 0.53649693727493286
0.43873217701911926 0.053129382431507111 0.54060244560241699
0.66652041673660278 0.088479027152061462 0.55994200706481934
0.86394006013870239 0.14502613246440887 0.52281105518341064
0.97959393262863159 0.20573724806308746 0.5336424708366394
0.99967950582504272 0.24571754038333893 0.59694778919219971
0.019255828112363815 0.13944870233535767 0.45425271987915039
0.16892682015895844 0.14548079669475555 0.45676553249359131
0.42475950717926025 0.17211221158504486 0.46797236800193787
0.65472209453582764 0.20112401247024536 0.45923340320587158
0.84642326831817627 0.24577628076076508 0.45976567268371582
0.9773252010345459 0.29256916046142578 0.45964786410331726
0.99998563528060913 0.34999653697013855 0.44696110486984253
0.005615623202174902 0.3559848964214325 0.376373291015625
0.06470208615064621 0.3641604483127594 0.35843655467033386
0.34792587161064148 0.36626192927360535 0.35854640603065491
0.61314976215362549 0.38292837142944336 0.35450518131256104
0.81602072715759277 0.40135875344276428 0.37737178802490234
0.96161192655563354 0.42506664991378784 0.39121371507644653
0.99762916564941406 0.43677660822868347 0.40152940154075623
0.0034522262867540121 0.55883371829986572 0.31655988097190857
0.020477937534451485 0.56676506996154785 0.26817780733108521
0.20835545659065247 0.56713318824768066 0.26232758164405823
0.54137659072875977 0.56432062387466431 0.25716167688369751
0.76143550872802734 0.57790791988372803 0.26835590600967407
0.9318879246711731 0.58549672365188599 0.30120047926902771
0.99814826250076294 0.59283101558685303 0.35391083359718323
6.1274513427633792e-05 0.65452301502227783 0.33933794498443604
0.0092119406908750534 0.7099120020866394 0.25644424557685852
0.090938255190849304 0.7261236310005188 0.19795575737953186
0.4235137403011322 0.71683204174041748 0.2076454758644104
0.70144081115722656 0.71908700466156006 0.21692289412021637
0.90078818798065186 0.72372782230377197 0.2439199686050415
0.99332743883132935 0.7373117208480835 0.2559245228767395
0.0035973940975964069 0.78775215148925781 0.31055426597595215
0.0077923345379531384 0.80971318483352661 0.25662693381309509
0.048883907496929169 0.81880295276641846 0.20786412060260773
0.33332747220993042 0.81790459156036377 0.21226228773593903
0.61822187900543213 0.83885836601257324 0.24603298306465149
0.87984257936477661 0.83045428991317749 0.22401793301105499
0.99276793003082275 0.86471843719482422 0.24600982666015625
0.0039215688593685627 0.8050416111946106 0.28960832953453064
0.0081495102494955063 0.82108467817306519 0.27358940243721008
0.038255173712968826 0.86450475454330444 0.32132908701896667
0.25832933187484741 0.87683695554733276 0.31851226091384888
0.58049625158309937 0.86765998601913452 0.27840563654899597
0.90586906671524048 0.88744872808456421 0.26520058512687683
0.99248015880584717 0.90754330158233643 0.29150167107582092
0.14341336488723755 0.039008479565382004 0.80551135540008545
0.3479708731174469 0.046837706118822098 0.8088575005531311
0.52829289436340332 0.072057507932186127 0.80198037624359131
0.69642335176467896 0.12596753239631653 0.78145182132720947
0.85842490196228027 0.17924197018146515 0.76121664047241211
0.96762180328369141 0.23884674906730652 0.74892622232437134
0.99900275468826294 0.29551991820335388 0.74928385019302368
0.093246489763259888 0.19359524548053741 0.77582591772079468
0.28945976495742798 0.20812271535396576 0.78099614381790161
0.4801514744758606 0.22743041813373566 0.7597230076789856
0.67496317625045776 0.25399976968765259 0.73477649688720703
0.84496563673019409 0.28924888372421265 0.70761370658874512
0.97819644212722778 0.33322179317474365 0.69814217090606689
0.99861019849777222 0.36523371934890747 0.7069469690322876
0.026934904977679253 0.38689285516738892 0.67090994119644165
0.17457914352416992 0.39594539999961853 0.67896980047225952
0.42349886894226074 0.40077170729637146 0.66524046659469604
0.63448292016983032 0.40877625346183777 0.65951454639434814
0.82323658466339111 0.42801296710968018 0.65173661708831787
0.96804821491241455 0.44996124505996704 0.64097374677658081
0.99545174837112427 0.47385087609291077 0.65720540285110474
0.0084382146596908569 0.56610184907913208 0.59779947996139526
0.056228518486022949 0.57770133018493652 0.5769113302230835
0.30036213994026184 0.57190501689910889 0.57614302635192871
0.56790703535079956 0.57110464572906494 0.57375311851501465
0.76719582080841064 0.58492588996887207 0.56297910213470459
0.93817257881164551 0.5931815505027771 0.57096105813980103
0.99606603384017944 0.59915351867675781 0.58301115036010742
0.0021366793662309647 0.70431351661682129 0.57120013236999512
0.016986697912216187 0.72113269567489624 0.51598858833312988
0.1563953310251236 0.72500431537628174 0.49675911664962769
0.46510240435600281 0.72091805934906006 0.49731996655464172
0.70281302928924561 0.72647780179977417 0.49552914500236511
0.90166229009628296 0.72876691818237305 0.50212222337722778
0.99255675077438354 0.75209975242614746 0.50474292039871216
0 0.80906099081039429 0.59571582078933716
0.0083559667691588402 0.84354043006896973 0.50010389089584351
0.055973440408706665 0.85867184400558472 0.45525527000427246
0.29756313562393188 0.86048495769500732 0.44045782089233398
0.62899911403656006 0.85124647617340088 0.43478873372077942
0.87791323661804199 0.86924964189529419 0.44087967276573181
0.9922301173210144 0.90380823612213135 0.44181013107299805
0 0.82806462049484253 0.60995924472808838
0.0091097662225365639 0.86539608240127563 0.52407032251358032
0.052385382354259491 0.87851411104202271 0.46453037858009338
0.27955812215805054 0.87967216968536377 0.44358304142951965
0.62529832124710083 0.87592107057571411 0.43849396705627441
0.90105152130126953 0.93869411945343018 0.45054170489311218
0.99428308010101318 0.95520579814910889 0.43662455677986145
0.32325395941734314 0.017747601494193077 0.89359456300735474
0.45428323745727539 0.044317416846752167 0.90005481243133545
0.5959208607673645 0.094346500933170319 0.90994536876678467
0.74360936880111694 0.14536008238792419 0.91687721014022827
0.8805546760559082 0.20771549642086029 0.91930598020553589
0.96408027410507202 0.26607576012611389 0.92364001274108887
0.99748909473419189 0.31034916639328003 0.9523700475692749
0.20704543590545654 0.24050348997116089 0.9517485499382019
0.41128328442573547 0.26921564340591431 0.95971733331680298
0.54983872175216675 0.28736823797225952 0.95552122592926025
0.70206570625305176 0.30938011407852173 0.94025719165802002
0.86002546548843384 0.34037172794342041 0.91756057739257812
0.98137593269348145 0.37601158022880554 0.90833753347396851
0.99913042783737183 0.4046691358089447 0.92865514755249023
0.13886168599128723 0.41922697424888611 0.90111607313156128
0.34015047550201416 0.42946848273277283 0.90633976459503174
0.4986308217048645 0.43636658787727356 0.89628827571868896
0.6630130410194397 0.44830909371376038 0.88596034049987793
0.83064335584640503 0.46556541323661804 0.87297260761260986
0.97023779153823853 0.48352128267288208 0.85834068059921265
0.99638277292251587 0.50532591342926025 0.86545741558074951
0.056010153144598007 0.58279579877853394 0.81860733032226562
0.21076454222202301 0.58635300397872925 0.81757855415344238
0.42099094390869141 0.58446139097213745 0.81656581163406372
0.61037349700927734 0.59167695045471191 0.81209051609039307
0.78125238418579102 0.60119378566741943 0.80275845527648926
0.95220321416854858 0.60546159744262695 0.80145233869552612
0.99619543552398682 0.62662827968597412 0.79949921369552612
0.011011041700839996 0.72427082061767578 0.75747561454772949
0.070875264704227448 0.73050856590270996 0.74418365955352783
0.28863430023193359 0.72796672582626343 0.74496805667877197
0.52376264333724976 0.7272382378578186 0.74149978160858154
0.72004073858261108 0.73742151260375977 0.72807520627975464
0.91067403554916382 0.73883837461471558 0.73351091146469116
0.99364358186721802 0.76683908700942993 0.73668491840362549
0.00099614460486918688 0.87269830703735352 0.71902996301651001
0.018904084339737892 0.86509007215499878 0.69027376174926758
0.13099084794521332 0.86433148384094238 0.68103981018066406
0.39920541644096375 0.8657991886138916 0.68412864208221436
0.66111236810684204 0.86325973272323608 0.67613661289215088
0.88168555498123169 0.87932932376861572 0.66481387615203857
0.99149012565612793 0.92316418886184692 0.67552751302719116
3.8117053918540478e-05 0.88527184724807739 0.71460187435150146
0.012898927554488182 0.92137974500656128 0.76633650064468384
0.1306476891040802 0.92561048269271851 0.75069171190261841
0.41367539763450623 0.9293096661567688 0.76545840501785278
0.66432708501815796 0.93048727512359619 0.72511494159698486
0.91551899909973145 0.94340729713439941 0.65681391954421997
0.99021416902542114 0.96822845935821533 0.65193569660186768
0.46983012557029724 0.017545377835631371 0.97783201932907104
0.56085652112960815 0.035423696041107178 0.97371035814285278
0.67419123649597168 0.090814165771007538 0.9693673849105835
0.80116736888885498 0.15043805539608002 0.96801507472991943
0.91475975513458252 0.21746447682380676 0.96846312284469604
0.98074615001678467 0.2774164080619812 0.97595787048339844
0.99920445680618286 0.35352838039398193 0.98677557706832886
0.36347877979278564 0.24831478297710419 0.9767645001411438
0.51691049337387085 0.30795711278915405 0.98639374971389771
0.62661278247833252 0.33398535847663879 0.98079007863998413
0.75123804807662964 0.35643661022186279 0.9822806715965271
0.88179194927215576 0.38352155685424805 0.98642301559448242
0.98391419649124146 0.42285150289535522 0.99154901504516602
1 0.44941011071205139 0.98767894506454468
0.23364432156085968 0.45718112587928772 0.99328970909118652
0.4610411524772644 0.47967201471328735 0.99189871549606323
0.57149165868759155 0.4840865433216095 0.99105888605117798
0.70419728755950928 0.49144136905670166 0.99085348844528198
0.850117027759552 0.50950926542282104 0.9902147650718689
0.97662436962127686 0.52447032928466797 0.99064403772354126
0.99896872043609619 0.53548437356948853 0.99114084243774414
0.19248199462890625 0.60193014144897461 0.98384422063827515
0.38316783308982849 0.60336101055145264 0.98290932178497314
0.51282632350921631 0.60535556077957153 0.97691446542739868
0.66211789846420288 0.61465227603912354 0.97685980796813965
0.81453102827072144 0.62180870771408081 0.97809439897537231
0.96277058124542236 0.62866294384002686 0.97921240329742432
0.99827170372009277 0.63052654266357422 0.977028489112854
0.097102239727973938 0.7390366792678833 0.96046793460845947
0.24761152267456055 0.7386171817779541 0.95933449268341064
0.41493737697601318 0.73906207084655762 0.95385026931762695
0.5957837700843811 0.74387830495834351 0.94349366426467896
0.76724410057067871 0.74727487564086914 0.94154959917068481
0.93063795566558838 0.75764542818069458 0.94475537538528442
0.99617385864257812 0.7801281213760376 0.95374089479446411
0.014433528296649456 0.87626892328262329 0.92955976724624634
0.06763070821762085 0.88610672950744629 0.92648541927337646
0.24402022361755371 0.89288359880447388 0.9150804877281189
0.4891287088394165 0.88986760377883911 0.91609477996826172
0.71665561199188232 0.88469922542572021 0.9064827561378479
0.9055941104888916 0.89282220602035522 0.90525764226913452
0.99477493762969971 0.93438273668289185 0.92169427871704102
0.0018465827452018857 0.96424692869186401 0.96853494644165039
0.027081701904535294 0.95132195949554443 0.92016708850860596
0.17984628677368164 0.95536965131759644 0.91069090366363525
0.44441777467727661 0.95812028646469116 0.93353158235549927
0.69917327165603638 0.95078223943710327 0.89429092407226562
0.90976095199584961 0.95347541570663452 0.89689338207244873
0.99480205774307251 0.97728776931762695 0.91230291128158569
0.58811920881271362 0.17999905347824097 0.99997413158416748
0.65679967403411865 0.20581625401973724 0.99838817119598389
0.73826819658279419 0.23708783090114594 0.99767154455184937
0.84304869174957275 0.31212720274925232 0.99753367900848389
0.9385678768157959 0.40529641509056091 0.9968191385269165
0.99117428064346313 0.43866989016532898 0.99665099382400513
1 0.44025763869285583 0.99780303239822388
0.52803605794906616 0.26925119757652283 0.99575376510620117
0.6325032114982605 0.31551387906074524 0.99671441316604614
0.71622121334075928 0.38202515244483948 0.99474692344665527
0.81999266147613525 0.42996293306350708 0.99510437250137329
0.93130201101303101 0.49313309788703918 0.99463093280792236
0.99259066581726074 0.48681402206420898 0.99547725915908813
1 0.4773097038269043 0.99489587545394897
0.31013703346252441 0.49900710582733154 0.99996340274810791
0.52202099561691284 0.53159517049789429 0.99864214658737183
0.66375374794006348 0.54485547542572021 0.99701523780822754
0.77783024311065674 0.55798918008804321 0.99608778953552246
0.9145817756652832 0.58164000511169434 0.99782240390777588
0.99113726615905762 0.56876111030578613 0.99999856948852539
1 0.58076262474060059 0.99995404481887817
0.28630930185317993 0.63890475034713745 1
0.45929482579231262 0.65337210893630981 0.99974727630615234
0.6073603630065918 0.66846174001693726 0.99759203195571899
0.73769593238830566 0.67408615350723267 0.99545466899871826
0.88516676425933838 0.68096274137496948 0.99661409854888916
0.98113381862640381 0.67365872859954834 1
0.99979805946350098 0.67303979396820068 1
0.23099514842033386 0.7727121114730835 1
0.37849438190460205 0.78080153465270996 0.9998239278793335
0.54014432430267334 0.79523634910583496 0.99672520160675049
0.68651324510574341 0.80092495679855347 0.99681150913238525
0.83832263946533203 0.80169397592544556 0.99563878774642944
0.9603956937789917 0.80869829654693604 0.99567574262619019
0.99725115299224854 0.81824260950088501 0.99748420715332031
0.080618657171726227 0.9272385835647583 1
0.23321399092674255 0.93627089262008667 0.999980628490448
0.40251275897026062 0.93556851148605347 0.99765586853027344
0.59879380464553833 0.92397522926330566 0.99854838848114014
0.77925360202789307 0.92587506771087646 0.9974902868270874
0.94597035646438599 0.9306412935256958 0.99407434463500977
0.99751633405685425 0.94834071397781372 0.99510836601257324
0.038270600140094757 0.97788619995117188 0.99916374683380127
0.10136032104492188 0.96525734663009644 0.98952615261077881
0.30870971083641052 0.96430701017379761 0.98976665735244751
0.54312944412231445 0.96579289436340332 0.99892675876617432
0.75397324562072754 0.97497725486755371 0.99745041131973267
0.95568060874938965 0.97327995300292969 0.9952051043510437
0.99829882383346558 0.98620271682739258 0.99143099784851074
