luts/fujixtransiii/fuji_xtrans_iii_acros+r.cube
# Created by: G'MIC (https://gmic.eu)
TITLE "fuji_xtrans_iii_acros+r"
# LUT size
LUT_3D_SIZE 5
# Data domain
DOMAIN_MIN 0.0 0.0 0.0
DOMAIN_MAX 1.0 1.0 1.0
# LUT data points
0.016029298305511475 0.016029298305511475 0.016029298305511475
0.14590013027191162 0.14590013027191162 0.14590013027191162
0.39981129765510559 0.39981129765510559 0.39981129765510559
0.61572146415710449 0.61572146415710449 0.61572146415710449
0.6669655442237854 0.6669655442237854 0.6669655442237854
0.07690759003162384 0.07690759003162384 0.07690759003162384
0.20694057643413544 0.20694057643413544 0.20694057643413544
0.44979459047317505 0.44979459047317505 0.44979459047317505
0.65839475393295288 0.65839475393295288 0.65839475393295288
0.72305881977081299 0.72305881977081299 0.72305881977081299
0.22682584822177887 0.22682584822177887 0.22682584822177887
0.34366500377655029 0.34366500377655029 0.34366500377655029
0.5456884503364563 0.5456884503364563 0.5456884503364563
0.70115739107131958 0.70115739107131958 0.70115739107131958
0.78942537307739258 0.78942537307739258 0.78942537307739258
0.31407719850540161 0.31407719850540161 0.31407719850540161
0.41165044903755188 0.41165044903755188 0.41165044903755188
0.60535269975662231 0.60535269975662231 0.60535269975662231
0.74675410985946655 0.74675410985946655 0.74675410985946655
0.85315144062042236 0.85315144062042236 0.85315144062042236
0.36002042889595032 0.36002042889595032 0.36002042889595032
0.48908105492591858 0.48908105492591858 0.48908105492591858
0.65909779071807861 0.65909779071807861 0.65909779071807861
0.80616289377212524 0.80616289377212524 0.80616289377212524
0.87849730253219604 0.87849730253219604 0.87849730253219604
0.020440435037016869 0.020440435037016869 0.020440435037016869
0.21228921413421631 0.21228921413421631 0.21228921413421631
0.44472265243530273 0.44472265243530273 0.44472265243530273
0.66928648948669434 0.66928648948669434 0.66928648948669434
0.78091919422149658 0.78091919422149658 0.78091919422149658
0.10607635229825974 0.10607635229825974 0.10607635229825974
0.23727723956108093 0.23727723956108093 0.23727723956108093
0.47397255897521973 0.47397255897521973 0.47397255897521973
0.68274366855621338 0.68274366855621338 0.68274366855621338
0.82126790285110474 0.82126790285110474 0.82126790285110474
0.28631222248077393 0.28631222248077393 0.28631222248077393
0.37210467457771301 0.37210467457771301 0.37210467457771301
0.55425161123275757 0.55425161123275757 0.55425161123275757
0.72656154632568359 0.72656154632568359 0.72656154632568359
0.84578275680541992 0.84578275680541992 0.84578275680541992
0.37546929717063904 0.37546929717063904 0.37546929717063904
0.49018669128417969 0.49018669128417969 0.49018669128417969
0.64069056510925293 0.64069056510925293 0.64069056510925293
0.79020661115646362 0.79020661115646362 0.79020661115646362
0.89640611410140991 0.89640611410140991 0.89640611410140991
0.42471501231193542 0.42471501231193542 0.42471501231193542
0.54510760307312012 0.54510760307312012 0.54510760307312012
0.66662764549255371 0.66662764549255371 0.66662764549255371
0.81391030550003052 0.81391030550003052 0.81391030550003052
0.9214281439781189 0.9214281439781189 0.9214281439781189
0.13043224811553955 0.13043224811553955 0.13043224811553955
0.23816995322704315 0.23816995322704315 0.23816995322704315
0.46314325928688049 0.46314325928688049 0.46314325928688049
0.69297808408737183 0.69297808408737183 0.69297808408737183
0.83468908071517944 0.83468908071517944 0.83468908071517944
0.15258266031742096 0.15258266031742096 0.15258266031742096
0.2819957435131073 0.2819957435131073 0.2819957435131073
0.50414139032363892 0.50414139032363892 0.50414139032363892
0.70393067598342896 0.70393067598342896 0.70393067598342896
0.84238052368164062 0.84238052368164062 0.84238052368164062
0.31979241967201233 0.31979241967201233 0.31979241967201233
0.40811780095100403 0.40811780095100403 0.40811780095100403
0.57945007085800171 0.57945007085800171 0.57945007085800171
0.73672032356262207 0.73672032356262207 0.73672032356262207
0.87406462430953979 0.87406462430953979 0.87406462430953979
0.4556519091129303 0.4556519091129303 0.4556519091129303
0.52005183696746826 0.52005183696746826 0.52005183696746826
0.66558563709259033 0.66558563709259033 0.66558563709259033
0.80420750379562378 0.80420750379562378 0.80420750379562378
0.93575835227966309 0.93575835227966309 0.93575835227966309
0.50042140483856201 0.50042140483856201 0.50042140483856201
0.57595503330230713 0.57595503330230713 0.57595503330230713
0.68323981761932373 0.68323981761932373 0.68323981761932373
0.86373865604400635 0.86373865604400635 0.86373865604400635
0.96181535720825195 0.96181535720825195 0.96181535720825195
0.26857578754425049 0.26857578754425049 0.26857578754425049
0.33212146162986755 0.33212146162986755 0.33212146162986755
0.48201781511306763 0.48201781511306763 0.48201781511306763
0.70216012001037598 0.70216012001037598 0.70216012001037598
0.85733765363693237 0.85733765363693237 0.85733765363693237
0.21548709273338318 0.21548709273338318 0.21548709273338318
0.32629084587097168 0.32629084587097168 0.32629084587097168
0.52065485715866089 0.52065485715866089 0.52065485715866089
0.72396719455718994 0.72396719455718994 0.72396719455718994
0.86281591653823853 0.86281591653823853 0.86281591653823853
0.35028734803199768 0.35028734803199768 0.35028734803199768
0.4436514675617218 0.4436514675617218 0.4436514675617218
0.59878635406494141 0.59878635406494141 0.59878635406494141
0.75246882438659668 0.75246882438659668 0.75246882438659668
0.8999285101890564 0.8999285101890564 0.8999285101890564
0.5007748007774353 0.5007748007774353 0.5007748007774353
0.55744326114654541 0.55744326114654541 0.55744326114654541
0.68811416625976562 0.68811416625976562 0.68811416625976562
0.820842444896698 0.820842444896698 0.820842444896698
0.95658653974533081 0.95658653974533081 0.95658653974533081
0.5667378306388855 0.5667378306388855 0.5667378306388855
0.61758053302764893 0.61758053302764893 0.61758053302764893
0.75825124979019165 0.75825124979019165 0.75825124979019165
0.89205652475357056 0.89205652475357056 0.89205652475357056
0.98266506195068359 0.98266506195068359 0.98266506195068359
0.42035269737243652 0.42035269737243652 0.42035269737243652
0.46196961402893066 0.46196961402893066 0.46196961402893066
0.5763242244720459 0.5763242244720459 0.5763242244720459
0.72847956418991089 0.72847956418991089 0.72847956418991089
0.82484710216522217 0.82484710216522217 0.82484710216522217
0.33916059136390686 0.33916059136390686 0.33916059136390686
0.42390391230583191 0.42390391230583191 0.42390391230583191
0.56985282897949219 0.56985282897949219 0.56985282897949219
0.74034351110458374 0.74034351110458374 0.74034351110458374
0.85034024715423584 0.85034024715423584 0.85034024715423584
0.38022124767303467 0.38022124767303467 0.38022124767303467
0.48069021105766296 0.48069021105766296 0.48069021105766296
0.6370471715927124 0.6370471715927124 0.6370471715927124
0.78671449422836304 0.78671449422836304 0.78671449422836304
0.90496814250946045 0.90496814250946045 0.90496814250946045
0.53659325838088989 0.53659325838088989 0.53659325838088989
0.59379202127456665 0.59379202127456665 0.59379202127456665
0.71942037343978882 0.71942037343978882 0.71942037343978882
0.85472315549850464 0.85472315549850464 0.85472315549850464
0.96290260553359985 0.96290260553359985 0.96290260553359985
0.62940186262130737 0.62940186262130737 0.62940186262130737
0.65050840377807617 0.65050840377807617 0.65050840377807617
0.7646183967590332 0.7646183967590332 0.7646183967590332
0.90569156408309937 0.90569156408309937 0.90569156408309937
0.98195236921310425 0.98195236921310425 0.98195236921310425
