luts/fujixtransiii/fuji_xtrans_iii_pro_neg_hi.cube
# Created by: G'MIC (https://gmic.eu)
TITLE "fuji_xtrans_iii_pro_neg_hi"
# LUT size
LUT_3D_SIZE 7
# Data domain
DOMAIN_MIN 0.0 0.0 0.0
DOMAIN_MAX 1.0 1.0 1.0
# LUT data points
0.0067676766775548458 0.008514823392033577 0.0066762738861143589
0.073248274624347687 0.017416052520275116 0.012131650000810623
0.2814088761806488 0.049236282706260681 0.027907159179449081
0.52167922258377075 0.11967634409666061 0.078849717974662781
0.72654068470001221 0.1925264298915863 0.15785205364227295
0.80995285511016846 0.23540407419204712 0.19474112987518311
0.840748131275177 0.2596774697303772 0.23414605855941772
0.0055510429665446281 0.06709396094083786 0.0086027253419160843
0.084454663097858429 0.084223397076129913 0.011983743868768215
0.29697445034980774 0.12565760314464569 0.032156806439161301
0.54371064901351929 0.17981113493442535 0.062198206782341003
0.73984068632125854 0.24114042520523071 0.13206939399242401
0.84633320569992065 0.28707796335220337 0.18695200979709625
0.90768992900848389 0.35859370231628418 0.23334477841854095
0.0060262195765972137 0.24642275273799896 0.0030391020700335503
0.053614776581525803 0.27691212296485901 0.0021468517370522022
0.30511704087257385 0.30770000815391541 0.0063866111449897289
0.55005174875259399 0.34479144215583801 0.030350120738148689
0.72957545518875122 0.38354867696762085 0.079824693500995636
0.87902325391769409 0.41581061482429504 0.16818293929100037
0.92906945943832397 0.41422301530838013 0.20235580205917358
0.0025124943349510431 0.40939939022064209 0.0010203043930232525
0.037100400775671005 0.45715871453285217 0.00010483685764484107
0.27849739789962769 0.49594250321388245 0.00045188455260358751
0.54573643207550049 0.5091862678527832 0.0067440406419336796
0.72714024782180786 0.53957545757293701 0.039536137133836746
0.85543280839920044 0.5632317066192627 0.12609405815601349
0.92959719896316528 0.58981192111968994 0.21896329522132874
0.009308280423283577 0.47793659567832947 0.013310675509274006
0.025547761470079422 0.5654914379119873 0.011054708622395992
0.26200711727142334 0.56810617446899414 0.0037178487982600927
0.54476273059844971 0.64276063442230225 0.0099665923044085503
0.74440914392471313 0.65137535333633423 0.05854593962430954
0.86356472969055176 0.66731506586074829 0.13653509318828583
0.92917680740356445 0.71130222082138062 0.2196105569601059
0.01141750905662775 0.51166969537734985 0.028936708346009254
0.044074501842260361 0.64852088689804077 0.095686905086040497
0.24118001759052277 0.6768718957901001 0.077501945197582245
0.54550564289093018 0.68494725227355957 0.056679055094718933
0.70674973726272583 0.6904950737953186 0.10416097939014435
0.90748131275177002 0.71522718667984009 0.20490285754203796
0.9698445200920105 0.74575930833816528 0.26499059796333313
0.016598151996731758 0.55826431512832642 0.023037854582071304
0.051280573010444641 0.67846548557281494 0.11535539478063583
0.23857386410236359 0.71162724494934082 0.10315287113189697
0.55624055862426758 0.72696214914321899 0.1144360676407814
0.70404881238937378 0.7666008472442627 0.20999813079833984
0.8723529577255249 0.78599560260772705 0.28641393780708313
0.95434170961380005 0.7922406792640686 0.31973320245742798
0.0089977635070681572 0.01986256055533886 0.10094288736581802
0.10200107097625732 0.044584043323993683 0.10602521896362305
0.29032695293426514 0.087531745433807373 0.16166239976882935
0.54381376504898071 0.15296992659568787 0.22481644153594971
0.75991106033325195 0.2087472677230835 0.28964143991470337
0.8427308201789856 0.2502838671207428 0.3198397159576416
0.96011883020401001 0.33759656548500061 0.45512217283248901
0.014255224727094173 0.098909236490726471 0.10571842640638351
0.1011781245470047 0.1206565722823143 0.11075535416603088
0.31280243396759033 0.1550130695104599 0.15479347109794617
0.54691237211227417 0.20159967243671417 0.19219879806041718
0.73818165063858032 0.26502415537834167 0.26021352410316467
0.88632023334503174 0.32954460382461548 0.33101150393486023
0.96492689847946167 0.37029415369033813 0.41456738114356995
0.0071453619748353958 0.28556323051452637 0.077706418931484222
0.062029805034399033 0.29645222425460815 0.068033181130886078
0.30583545565605164 0.32451725006103516 0.093769624829292297
0.54770392179489136 0.35767596960067749 0.14747384190559387
0.72748231887817383 0.40521985292434692 0.21148310601711273
0.89445626735687256 0.44007384777069092 0.29299235343933105
0.98012250661849976 0.4795336127281189 0.38189646601676941
0.0027669421397149563 0.47468265891075134 0.046730145812034607
0.041039783507585526 0.50169873237609863 0.039918038994073868
0.26336851716041565 0.51053118705749512 0.057149671018123627
0.52874100208282471 0.52936667203903198 0.10607758909463882
0.7231215238571167 0.55127507448196411 0.17695051431655884
0.89218366146087646 0.58002066612243652 0.25625890493392944
0.97711843252182007 0.60089361667633057 0.30176618695259094
0.0063068913295865059 0.56437206268310547 0.1304095983505249
0.03060302697122097 0.61641043424606323 0.055144499987363815
0.20634874701499939 0.65583628416061401 0.094727553427219391
0.50947123765945435 0.67585116624832153 0.12518607079982758
0.71825182437896729 0.68256813287734985 0.17864061892032623
0.8862798810005188 0.71104472875595093 0.24562114477157593
0.98396295309066772 0.74677342176437378 0.30233767628669739
0.0081629734486341476 0.59585940837860107 0.19546873867511749
0.049910765141248703 0.70130699872970581 0.151026651263237
0.20176063477993011 0.73704808950424194 0.18315519392490387
0.52498972415924072 0.74128139019012451 0.15869574248790741
0.68637329339981079 0.76942402124404907 0.20960547029972076
0.87879419326782227 0.79148858785629272 0.29745256900787354
0.9630352258682251 0.78963732719421387 0.32063722610473633
0.0052152299322187901 0.62612426280975342 0.34086605906486511
0.082681514322757721 0.74021130800247192 0.2135625034570694
0.192172572016716 0.76855266094207764 0.2403268963098526
0.47647327184677124 0.76639068126678467 0.23393504321575165
0.68403607606887817 0.78612756729125977 0.24418722093105316
0.88780856132507324 0.80961078405380249 0.32213294506072998
0.95767611265182495 0.84585201740264893 0.39548838138580322
0.042711865156888962 0.08548099547624588 0.38759523630142212
0.19413034617900848 0.10384895652532578 0.41230323910713196
0.3698476254940033 0.14092910289764404 0.43139240145683289
0.5696028470993042 0.1885950118303299 0.48336482048034668
0.75701510906219482 0.24497212469577789 0.49323037266731262
0.89541411399841309 0.3091728687286377 0.54436647891998291
0.99202340841293335 0.35112765431404114 0.60807573795318604
0.034589041024446487 0.15858876705169678 0.3425687849521637
0.16247460246086121 0.18150246143341064 0.35303783416748047
0.36372405290603638 0.21240796148777008 0.3948664665222168
0.56452429294586182 0.25807785987854004 0.43188008666038513
0.74414730072021484 0.31476020812988281 0.46755826473236084
0.90407580137252808 0.37013807892799377 0.50246667861938477
0.99270975589752197 0.41845756769180298 0.52190572023391724
0.012020335532724857 0.32550328969955444 0.32483017444610596
0.10735169798135757 0.3450811505317688 0.32569903135299683
0.34690988063812256 0.36712843179702759 0.36167028546333313
0.55563807487487793 0.39383587241172791 0.39576432108879089
0.74031996726989746 0.42915534973144531 0.42826604843139648
0.90000796318054199 0.46338269114494324 0.47590363025665283
0.98967111110687256 0.48106852173805237 0.50440108776092529
0.011740471236407757 0.51268547773361206 0.32451269030570984
0.061376951634883881 0.5229872465133667 0.29663282632827759
0.30674654245376587 0.52902042865753174 0.32032766938209534
0.53889560699462891 0.54723513126373291 0.35538426041603088
0.7315518856048584 0.57184088230133057 0.39391887187957764
0.88565433025360107 0.59707403182983398 0.43498915433883667
0.99103933572769165 0.62096387147903442 0.47248703241348267
0.005448315292596817 0.60641783475875854 0.35421302914619446
0.046415768563747406 0.66814780235290527 0.31166321039199829
0.23117069900035858 0.68093025684356689 0.28843557834625244
0.49896028637886047 0.69139319658279419 0.32353430986404419
0.71717476844787598 0.70640945434570312 0.35744965076446533
0.87583988904953003 0.72147238254547119 0.3951663076877594
0.98559057712554932 0.75927400588989258 0.42636695504188538
0.020907847210764885 0.74386239051818848 0.3472912609577179
0.043414201587438583 0.76313799619674683 0.31680837273597717
0.1945984810590744 0.77471703290939331 0.29788219928741455
0.46371915936470032 0.78822296857833862 0.32577082514762878
0.68514734506607056 0.81370532512664795 0.3787786066532135
0.87732130289077759 0.81142228841781616 0.39746075868606567
0.98707622289657593 0.83888918161392212 0.43255177140235901
0.023134373128414154 0.75710093975067139 0.33615788817405701
0.05435466393828392 0.77147692441940308 0.3309912383556366
0.20079779624938965 0.81424641609191895 0.38841456174850464
0.45069387555122375 0.83098143339157104 0.40390703082084656
0.66482299566268921 0.83090901374816895 0.397563636302948
0.9020124077796936 0.85739386081695557 0.43829572200775146
0.97964358329772949 0.87579452991485596 0.47388800978660583
0.16690947115421295 0.13569875061511993 0.66640961170196533
0.31478878855705261 0.15574882924556732 0.67936933040618896
0.4666563868522644 0.19460336863994598 0.68099045753479004
0.62133520841598511 0.24611590802669525 0.68803602457046509
0.77600586414337158 0.29908713698387146 0.70321834087371826
0.90837126970291138 0.35422518849372864 0.71535056829452515
0.99264800548553467 0.39527425169944763 0.73358219861984253
0.10598458349704742 0.23456649482250214 0.61902439594268799
0.25828266143798828 0.25256738066673279 0.62086111307144165
0.42392009496688843 0.29259061813354492 0.63549602031707764
0.59954041242599487 0.32674369215965271 0.65031754970550537
0.76961994171142578 0.37580153346061707 0.67556393146514893
0.89919674396514893 0.419533371925354 0.69576537609100342
0.99080651998519897 0.45112419128417969 0.71955221891403198
0.061967380344867706 0.3841225802898407 0.57583975791931152
0.22455509006977081 0.40157046914100647 0.58799856901168823
0.40798854827880859 0.42013487219810486 0.60675209760665894
0.59559935331344604 0.44506087899208069 0.62652409076690674
0.76402932405471802 0.46964755654335022 0.64639770984649658
0.89444750547409058 0.49779525399208069 0.66541683673858643
0.987537682056427 0.53016811609268188 0.6814083456993103
0.036191932857036591 0.54505771398544312 0.54513561725616455
0.16195006668567657 0.5559314489364624 0.54646670818328857
0.37867468595504761 0.56238585710525513 0.56518042087554932
0.56940782070159912 0.57982546091079712 0.58309966325759888
0.74591559171676636 0.59550875425338745 0.59791558980941772
0.88983798027038574 0.61611711978912354 0.62427741289138794
0.99050337076187134 0.64281511306762695 0.6435551643371582
0.025409279391169548 0.67984366416931152 0.54908901453018188
0.10768008977174759 0.69881421327590942 0.50726413726806641
0.30869454145431519 0.70219069719314575 0.51644504070281982
0.52274096012115479 0.71261149644851685 0.5287703275680542
0.72821056842803955 0.72366940975189209 0.54919856786727905
0.87641412019729614 0.74120146036148071 0.58045262098312378
0.9859434962272644 0.77228647470474243 0.61348575353622437
0.040997523814439774 0.77634841203689575 0.59558212757110596
0.08716563880443573 0.79681563377380371 0.52299702167510986
0.23388276994228363 0.80810213088989258 0.49358400702476501
0.46324649453163147 0.81835043430328369 0.50579547882080078
0.7067456841468811 0.81922680139541626 0.52457702159881592
0.88177144527435303 0.85226678848266602 0.56537932157516479
0.98497903347015381 0.88376200199127197 0.59580540657043457
0.042782578617334366 0.7942814826965332 0.61115568876266479
0.10288383811712265 0.82414340972900391 0.5561102032661438
0.23123891651630402 0.83262640237808228 0.50637853145599365
0.45229610800743103 0.83792567253112793 0.50642013549804688
0.70708632469177246 0.84514349699020386 0.53618979454040527
0.90092438459396362 0.90014439821243286 0.58906608819961548
0.98747217655181885 0.92440581321716309 0.6162717342376709
0.31474956870079041 0.1611885279417038 0.84739428758621216
0.41947919130325317 0.18670903146266937 0.84916746616363525
0.54662936925888062 0.24240444600582123 0.85977619886398315
0.6855732798576355 0.28819689154624939 0.86050701141357422
0.81821483373641968 0.34465578198432922 0.87488418817520142
0.92553615570068359 0.39965382218360901 0.88447177410125732
0.99293786287307739 0.43152335286140442 0.92671471834182739
0.22473360598087311 0.30719232559204102 0.83209091424942017
0.37483471632003784 0.34210821986198425 0.82989203929901123
0.50878256559371948 0.36656558513641357 0.83848565816879272
0.64494079351425171 0.39296558499336243 0.84330731630325317
0.78613924980163574 0.43169018626213074 0.85673904418945312
0.90673094987869263 0.47121492028236389 0.87449854612350464
0.99389821290969849 0.49952805042266846 0.89005708694458008
0.17752012610435486 0.44421058893203735 0.79257279634475708
0.35631737112998962 0.46800529956817627 0.80237686634063721
0.47784346342086792 0.47653251886367798 0.80672609806060791
0.63042479753494263 0.49732121825218201 0.81827360391616821
0.77740961313247681 0.52229189872741699 0.82599538564682007
0.9020351767539978 0.54708373546600342 0.84134000539779663
0.99105656147003174 0.58442503213882446 0.85714125633239746
0.14704565703868866 0.58523660898208618 0.75426065921783447
0.31022518873214722 0.60258334875106812 0.76343929767608643
0.4504181444644928 0.60826784372329712 0.76487636566162109
0.60841017961502075 0.61562693119049072 0.76963180303573608
0.77219176292419434 0.62996912002563477 0.77777159214019775
0.8968927264213562 0.64794343709945679 0.80174225568771362
0.99354732036590576 0.67913156747817993 0.82036912441253662
0.10281828045845032 0.71437913179397583 0.7164226770401001
0.23131844401359558 0.72668606042861938 0.71727591753005981
0.40299946069717407 0.73083966970443726 0.71973580121994019
0.56773406267166138 0.73748189210891724 0.72586113214492798
0.75194692611694336 0.74358928203582764 0.74622249603271484
0.88881713151931763 0.76173663139343262 0.76382732391357422
0.99007457494735718 0.80118286609649658 0.78836476802825928
0.099763728678226471 0.83659380674362183 0.7155534029006958
0.18069055676460266 0.82483536005020142 0.69870692491531372
0.34148749709129333 0.82684677839279175 0.69895178079605103
0.53459042310714722 0.84004384279251099 0.71108150482177734
0.73290461301803589 0.84547829627990723 0.72444796562194824
0.88472557067871094 0.8648374080657959 0.73864704370498657
0.988231360912323 0.91425949335098267 0.76719802618026733
0.10785369575023651 0.8504757285118103 0.71848046779632568
0.22400817275047302 0.87694090604782104 0.75392639636993408
0.35527825355529785 0.8868899941444397 0.75549602508544922
0.56743311882019043 0.89794015884399414 0.77977877855300903
0.74173218011856079 0.90118640661239624 0.76182621717453003
0.91816341876983643 0.91774636507034302 0.73797529935836792
0.98456364870071411 0.94782179594039917 0.76620978116989136
0.46632543206214905 0.14357604086399078 0.95662552118301392
0.53714621067047119 0.20420779287815094 0.95335286855697632
0.63192331790924072 0.27281224727630615 0.95169293880462646
0.75088977813720703 0.33203068375587463 0.95517581701278687
0.86339062452316284 0.38723501563072205 0.96603286266326904
0.95240557193756104 0.4435541033744812 0.97451746463775635
0.99638372659683228 0.50256991386413574 0.98974907398223877
0.37346658110618591 0.3518480658531189 0.9570426344871521
0.4943845272064209 0.39772406220436096 0.96630507707595825
0.59010648727416992 0.43362268805503845 0.96721959114074707
0.70844113826751709 0.46106305718421936 0.96967244148254395
0.820942223072052 0.49313592910766602 0.98105347156524658
0.92852210998535156 0.53042793273925781 0.98384463787078857
0.99377608299255371 0.54420298337936401 0.98999112844467163
0.24800445139408112 0.50559628009796143 0.94978725910186768
0.46093320846557617 0.53710484504699707 0.95619851350784302
0.56256592273712158 0.54531675577163696 0.9617425799369812
0.67959392070770264 0.56259024143218994 0.96243607997894287
0.80632132291793823 0.58003813028335571 0.95807677507400513
0.92545115947723389 0.60075092315673828 0.96275490522384644
0.99275338649749756 0.62228524684906006 0.97872191667556763
0.25409737229347229 0.62915432453155518 0.92190659046173096
0.43506008386611938 0.64605116844177246 0.92954415082931519
0.53777396678924561 0.6538509726524353 0.92962539196014404
0.66090017557144165 0.65741866827011108 0.93192321062088013
0.79182368516921997 0.67033118009567261 0.93740308284759521
0.90997064113616943 0.69068384170532227 0.94941705465316772
0.99507170915603638 0.71368777751922607 0.97103136777877808
0.25108075141906738 0.74998104572296143 0.89052927494049072
0.37313127517700195 0.75959986448287964 0.88789784908294678
0.49623066186904907 0.76634842157363892 0.88744485378265381
0.63205915689468384 0.76681238412857056 0.8974916934967041
0.77760934829711914 0.77605259418487549 0.91027045249938965
0.9029463529586792 0.79343032836914062 0.9224669337272644
0.98805528879165649 0.81596344709396362 0.94087570905685425
0.22917932271957397 0.8512452244758606 0.87347006797790527
0.31627815961837769 0.86435294151306152 0.87042057514190674
0.44089052081108093 0.87105482816696167 0.87090134620666504
0.605327308177948 0.86967378854751587 0.88972795009613037
0.76631361246109009 0.88094568252563477 0.8954651951789856
0.89875203371047974 0.89228498935699463 0.90567398071289062
0.98890173435211182 0.9368901252746582 0.93477880954742432
0.34577262401580811 0.92967766523361206 0.92013370990753174
0.31275039911270142 0.91196155548095703 0.88232481479644775
0.41844111680984497 0.9189683198928833 0.87747132778167725
0.60517305135726929 0.92795997858047485 0.9019891619682312
0.76816117763519287 0.93233394622802734 0.88657659292221069
0.91932326555252075 0.94111484289169312 0.89962035417556763
0.98858773708343506 0.96880924701690674 0.92909723520278931
0.59117138385772705 0.21028082072734833 0.9998786449432373
0.63790899515151978 0.26665553450584412 0.99806654453277588
0.71670132875442505 0.33028930425643921 0.99540579319000244
0.81607037782669067 0.40687182545661926 0.99618768692016602
0.89879977703094482 0.50317394733428955 0.99522584676742554
0.97161078453063965 0.57165610790252686 0.9978635311126709
0.99929547309875488 0.59661686420440674 0.99950194358825684
0.53266698122024536 0.35736498236656189 0.99461233615875244
0.61975157260894775 0.42389127612113953 0.99424082040786743
0.69251406192779541 0.48704040050506592 0.99342983961105347
0.79414433240890503 0.53297066688537598 0.99171417951583862
0.89012187719345093 0.58277463912963867 0.99468213319778442
0.96724724769592285 0.61270511150360107 0.99598759412765503
0.99732017517089844 0.60899931192398071 0.99986642599105835
0.29581192135810852 0.56045103073120117 0.99831563234329224
0.52511072158813477 0.60215288400650024 0.99857276678085327
0.64986598491668701 0.62062704563140869 0.99128139019012451
0.75287491083145142 0.63345998525619507 0.9912867546081543
0.85933524370193481 0.65793091058731079 0.99449121952056885
0.95501184463500977 0.6708759069442749 0.9965519905090332
0.99846559762954712 0.68636465072631836 1
0.22924803197383881 0.67772877216339111 0.99559080600738525
0.44290843605995178 0.70047920942306519 0.99859446287155151
0.62202602624893188 0.71668440103530884 0.99044215679168701
0.73253488540649414 0.72378724813461304 0.99064618349075317
0.84285449981689453 0.74013334512710571 0.99650746583938599
0.94333940744400024 0.74426352977752686 0.99779558181762695
0.99575775861740112 0.7404170036315918 1
0.30284404754638672 0.79420650005340576 0.99443453550338745
0.42359602451324463 0.80477225780487061 0.99648767709732056
0.60208475589752197 0.8149101734161377 0.99345856904983521
0.71164041757583618 0.82182180881500244 0.99157619476318359
0.82312297821044922 0.83203244209289551 0.99005204439163208
0.93661117553710938 0.8442615270614624 0.99197351932525635
0.99792414903640747 0.85535126924514771 0.99901264905929565
0.39155092835426331 0.91251063346862793 0.99232184886932373
0.45729592442512512 0.91735070943832397 0.991932213306427
0.55990433692932129 0.91887038946151733 0.98869961500167847
0.6787523627281189 0.91412109136581421 0.99057918787002563
0.8182339072227478 0.93088161945343018 0.99070388078689575
0.94597733020782471 0.94006145000457764 0.99311012029647827
0.99609816074371338 0.9646872878074646 0.99751901626586914
0.39552035927772522 0.94241493940353394 0.96074479818344116
0.37910181283950806 0.93323177099227905 0.94523388147354126
0.51217293739318848 0.93831974267959595 0.96014177799224854
0.6692967414855957 0.94503599405288696 0.99198687076568604
0.82710033655166626 0.95969021320343018 0.98908454179763794
0.95366215705871582 0.97058546543121338 0.99034273624420166
0.99065804481506348 0.98163020610809326 0.98299932479858398
