luts/fujixtransiii/fuji_xtrans_iii_classic_chrome.cube
# Created by: G'MIC (https://gmic.eu)
TITLE "fuji_xtrans_iii_classic_chrome"
# LUT size
LUT_3D_SIZE 7
# Data domain
DOMAIN_MIN 0.0 0.0 0.0
DOMAIN_MAX 1.0 1.0 1.0
# LUT data points
0.0082612279802560806 0.011854329146444798 0.0083617717027664185
0.08526090532541275 0.021145390346646309 0.012905913405120373
0.28569233417510986 0.062421523034572601 0.038381028920412064
0.52182662487030029 0.13519838452339172 0.093779392540454865
0.72467023134231567 0.21065658330917358 0.16314388811588287
0.79387819766998291 0.24838224053382874 0.19921380281448364
0.82593792676925659 0.27689754962921143 0.23481503129005432
0.0077289058826863766 0.063755437731742859 0.013259544037282467
0.091708630323410034 0.083500757813453674 0.022606285288929939
0.31018120050430298 0.13956427574157715 0.052552629262208939
0.540965735912323 0.19124029576778412 0.097876362502574921
0.73171544075012207 0.25425595045089722 0.1572754979133606
0.82793402671813965 0.29762172698974609 0.20601150393486023
0.88312768936157227 0.35704818367958069 0.25173959136009216
0.0098184626549482346 0.20838735997676849 0.014800606295466423
0.065215587615966797 0.25204741954803467 0.024241682142019272
0.31327137351036072 0.29451572895050049 0.061417538672685623
0.55070364475250244 0.33102649450302124 0.084046199917793274
0.74033898115158081 0.38287371397018433 0.15189209580421448
0.86153674125671387 0.41604596376419067 0.21586468815803528
0.9005357027053833 0.41649141907691956 0.23671409487724304
0.0043468698859214783 0.3712860643863678 0.016933979466557503
0.047562200576066971 0.42073768377304077 0.021832320839166641
0.29368495941162109 0.47164049744606018 0.049260832369327545
0.55574303865432739 0.49805906414985657 0.098177485167980194
0.73239660263061523 0.53353822231292725 0.15257912874221802
0.84021198749542236 0.56423890590667725 0.20974919199943542
0.90145695209503174 0.60085278749465942 0.28367689251899719
0.013052278198301792 0.45026975870132446 0.065901525318622589
0.03024781122803688 0.5344359278678894 0.09624742716550827
0.27768966555595398 0.54935121536254883 0.071179397404193878
0.5615425705909729 0.6332659125328064 0.14050370454788208
0.75662314891815186 0.6517987847328186 0.1969289630651474
0.84808659553527832 0.6664544939994812 0.23386204242706299
0.90139484405517578 0.71340733766555786 0.30754169821739197
0.017750818282365799 0.48533126711845398 0.086813874542713165
0.052968598902225494 0.62096565961837769 0.17694076895713806
0.26017451286315918 0.65938401222229004 0.18487131595611572
0.56938868761062622 0.67217713594436646 0.18457919359207153
0.72143101692199707 0.68532842397689819 0.22210434079170227
0.88829141855239868 0.72170388698577881 0.30344530940055847
0.93272298574447632 0.74828439950942993 0.35146191716194153
0.024728348478674889 0.52900415658950806 0.090704821050167084
0.064362332224845886 0.6534043550491333 0.20987400412559509
0.25806471705436707 0.69039535522460938 0.21808235347270966
0.59252738952636719 0.71281701326370239 0.23150689899921417
0.72735261917114258 0.75689196586608887 0.31274181604385376
0.86816209554672241 0.78139775991439819 0.38458722829818726
0.9281582236289978 0.7878342866897583 0.41206571459770203
0.0092568490654230118 0.028734050691127777 0.087752863764762878
0.10809444636106491 0.054283574223518372 0.097133606672286987
0.29687029123306274 0.10054725408554077 0.1409304141998291
0.54785549640655518 0.177167609333992 0.21094898879528046
0.75803500413894653 0.23361177742481232 0.25909614562988281
0.82904928922653198 0.27394780516624451 0.29339933395385742
0.92831277847290039 0.3570665717124939 0.41114076972007751
0.019063733518123627 0.1081121414899826 0.10599127411842346
0.1065470352768898 0.11743754893541336 0.1136164665222168
0.31053504347801208 0.16650384664535522 0.15405221283435822
0.54628437757492065 0.21830938756465912 0.20023968815803528
0.73796939849853516 0.28538721799850464 0.25388956069946289
0.87066531181335449 0.34216129779815674 0.32103797793388367
0.9387277364730835 0.39303305745124817 0.39203989505767822
0.0082397907972335815 0.25479328632354736 0.12715762853622437
0.075966313481330872 0.28034967184066772 0.13470156490802765
0.30670946836471558 0.30633625388145447 0.16252362728118896
0.55098408460617065 0.35170704126358032 0.19972538948059082
0.74712753295898438 0.40772700309753418 0.25064665079116821
0.88021349906921387 0.45039203763008118 0.32023271918296814
0.95194822549819946 0.48496860265731812 0.38903549313545227
0.005054054781794548 0.44628426432609558 0.14124324917793274
0.038766209036111832 0.46912437677383423 0.13241131603717804
0.2617855966091156 0.48921170830726624 0.15745489299297333
0.54663193225860596 0.5167052149772644 0.2058984786272049
0.74477779865264893 0.55397278070449829 0.25621217489242554
0.87204110622406006 0.58925646543502808 0.31461724638938904
0.94303297996520996 0.61818403005599976 0.35581046342849731
0.0077219195663928986 0.53886860609054565 0.21434849500656128
0.034672979265451431 0.59629827737808228 0.17158479988574982
0.22310967743396759 0.63932865858078003 0.2061086893081665
0.53642398118972778 0.66504824161529541 0.23781847953796387
0.73559415340423584 0.67909681797027588 0.28129655122756958
0.86836433410644531 0.71557790040969849 0.33740204572677612
0.96312963962554932 0.75123512744903564 0.38741058111190796
0.0098307142034173012 0.57923752069473267 0.27267143130302429
0.054395068436861038 0.6682698130607605 0.24351048469543457
0.22776331007480621 0.71301501989364624 0.28092464804649353
0.56219303607940674 0.72434240579605103 0.26556882262229919
0.71783244609832764 0.75372606515884399 0.31054490804672241
0.87038981914520264 0.79024618864059448 0.40043896436691284
0.92598599195480347 0.79123944044113159 0.41481056809425354
0.0052765938453376293 0.61494487524032593 0.39296913146972656
0.097609259188175201 0.70860552787780762 0.30214065313339233
0.22094541788101196 0.73928558826446533 0.32831135392189026
0.51882785558700562 0.7459341287612915 0.32691305875778198
0.70976847410202026 0.77268075942993164 0.34636101126670837
0.87554466724395752 0.80390852689743042 0.42380398511886597
0.92905116081237793 0.83763021230697632 0.49305468797683716
0.044506102800369263 0.10577008128166199 0.31290864944458008
0.18984603881835938 0.13361157476902008 0.34516146779060364
0.36080202460289001 0.1674715131521225 0.36138072609901428
0.57554197311401367 0.22657780349254608 0.40825483202934265
0.76222342252731323 0.27847254276275635 0.42804145812988281
0.8815726637840271 0.34069541096687317 0.48949262499809265
0.96369284391403198 0.39050060510635376 0.55908948183059692
0.033199489116668701 0.17006237804889679 0.29353377223014832
0.15887764096260071 0.18894663453102112 0.3093445897102356
0.35714742541313171 0.23125547170639038 0.34567800164222717
0.56956160068511963 0.28005614876747131 0.37981066107749939
0.758686363697052 0.33005058765411377 0.41928064823150635
0.88621354103088379 0.39023399353027344 0.46203476190567017
0.98509490489959717 0.44223523139953613 0.50067716836929321
0.022002605721354485 0.31258213520050049 0.31548479199409485
0.11303206533193588 0.33223319053649902 0.32557013630867004
0.34811946749687195 0.36214181780815125 0.34897634387016296
0.56123393774032593 0.39909929037094116 0.38977590203285217
0.75741583108901978 0.44661518931388855 0.43251004815101624
0.88970518112182617 0.48327800631523132 0.47376978397369385
0.97835886478424072 0.51324135065078735 0.49881592392921448
0.0098657496273517609 0.49535626173019409 0.35458186268806458
0.060780826956033707 0.5049481987953186 0.3351970911026001
0.29980325698852539 0.52770167589187622 0.3585241436958313
0.55499356985092163 0.55059802532196045 0.40258997678756714
0.74576783180236816 0.57967901229858398 0.43699422478675842
0.87154924869537354 0.6091303825378418 0.47267603874206543
0.96949124336242676 0.64380627870559692 0.51492118835449219
0.0042763357050716877 0.59736227989196777 0.40738299489021301
0.052667282521724701 0.6518210768699646 0.37535980343818665
0.23951572179794312 0.6699833869934082 0.35769584774971008
0.53692883253097534 0.68630468845367432 0.40236237645149231
0.7334829568862915 0.70549368858337402 0.43705257773399353
0.86729663610458374 0.73465406894683838 0.4742133617401123
0.96357917785644531 0.76518625020980835 0.49538812041282654
0.023196650668978691 0.71540588140487671 0.42214533686637878
0.050167713314294815 0.73294967412948608 0.39484027028083801
0.22257207334041595 0.74794155359268188 0.38647443056106567
0.51260983943939209 0.76932543516159058 0.41781967878341675
0.72144514322280884 0.79575377702713013 0.46542471647262573
0.8694729208946228 0.80664169788360596 0.49274334311485291
0.95069330930709839 0.83721691370010376 0.53722065687179565
0.027205882593989372 0.73104137182235718 0.41424152255058289
0.064705945551395416 0.74090784788131714 0.4054056704044342
0.23942208290100098 0.78781688213348389 0.48038992285728455
0.50617462396621704 0.80872189998626709 0.49785315990447998
0.71208995580673218 0.81735342741012573 0.49365001916885376
0.89307659864425659 0.84788727760314941 0.54005962610244751
0.95138460397720337 0.86686050891876221 0.57943284511566162
0.18527328968048096 0.18091319501399994 0.52769744396209717
0.30571025609970093 0.2076314240694046 0.5487978458404541
0.47228804230690002 0.25196570158004761 0.5646626353263855
0.62640959024429321 0.29750058054924011 0.58468794822692871
0.77614825963973999 0.34951087832450867 0.61683589220046997
0.89669561386108398 0.40479758381843567 0.64063853025436401
0.98805767297744751 0.44817396998405457 0.67128676176071167
0.083213686943054199 0.2495366632938385 0.51974642276763916
0.23203456401824951 0.27593168616294861 0.53524899482727051
0.41095685958862305 0.3151918351650238 0.5513070821762085
0.601723313331604 0.35855779051780701 0.56865715980529785
0.77155923843383789 0.40372312068939209 0.60395675897598267
0.88991248607635498 0.45133340358734131 0.62924683094024658
0.98627966642379761 0.49108919501304626 0.66184115409851074
0.037270281463861465 0.38636809587478638 0.53332912921905518
0.17999054491519928 0.40194582939147949 0.53821921348571777
0.38868555426597595 0.43151658773422241 0.55568844079971313
0.59481596946716309 0.47161239385604858 0.58497089147567749
0.76860743761062622 0.50045531988143921 0.61116611957550049
0.88989585638046265 0.53805327415466309 0.63677990436553955
0.9810558557510376 0.5814824104309082 0.66892820596694946
0.022477826103568077 0.54881048202514648 0.5537300705909729
0.12182319164276123 0.55673724412918091 0.54535305500030518
0.36250987648963928 0.57739913463592529 0.56755995750427246
0.57998216152191162 0.59939825534820557 0.5984492301940918
0.75347912311553955 0.61625468730926514 0.62243545055389404
0.87505084276199341 0.64885032176971436 0.64613974094390869
0.97825336456298828 0.67951697111129761 0.67279928922653198
0.019188361242413521 0.67757713794708252 0.60037380456924438
0.098237581551074982 0.68424278497695923 0.55008304119110107
0.3074568510055542 0.6987338662147522 0.55963468551635742
0.56409674882888794 0.71381908655166626 0.59181183576583862
0.73833632469177246 0.7305302619934082 0.61915791034698486
0.86928898096084595 0.75469470024108887 0.63577771186828613
0.97141063213348389 0.78792434930801392 0.66732144355773926
0.037761926651000977 0.75680315494537354 0.65174335241317749
0.10097695142030716 0.77293306589126587 0.59170925617218018
0.26637321710586548 0.79219526052474976 0.58156907558441162
0.50730353593826294 0.8001701831817627 0.59248393774032593
0.73734873533248901 0.81028538942337036 0.62134593725204468
0.87578070163726807 0.84071743488311768 0.65634983777999878
0.97042131423950195 0.8819347620010376 0.69578015804290771
0.042993299663066864 0.77368366718292236 0.66282486915588379
0.12461429834365845 0.79452693462371826 0.61963909864425659
0.27110183238983154 0.80742555856704712 0.59205025434494019
0.50069922208786011 0.81942546367645264 0.59325742721557617
0.74018138647079468 0.83425348997116089 0.62012791633605957
0.90170824527740479 0.88643604516983032 0.68086415529251099
0.96605473756790161 0.90510481595993042 0.69929522275924683
0.35999587178230286 0.23968903720378876 0.70452088117599487
0.43959805369377136 0.27623182535171509 0.71120190620422363
0.54565376043319702 0.32224825024604797 0.71830719709396362
0.68176311254501343 0.37660467624664307 0.73047488927841187
0.80616253614425659 0.42583790421485901 0.75036156177520752
0.91087228059768677 0.47933483123779297 0.77617073059082031
0.9844624400138855 0.5193982720375061 0.81075870990753174
0.21510760486125946 0.34021991491317749 0.70059490203857422
0.33593091368675232 0.37680095434188843 0.70730680227279663
0.48898279666900635 0.40414229035377502 0.72662621736526489
0.63634079694747925 0.44264519214630127 0.74049484729766846
0.78233796358108521 0.48391541838645935 0.75399184226989746
0.89535301923751831 0.53273904323577881 0.7771766185760498
0.98612046241760254 0.56549715995788574 0.80031818151473999
0.1234409287571907 0.46314164996147156 0.70828092098236084
0.28068390488624573 0.48931428790092468 0.71097910404205322
0.45218417048454285 0.50843751430511475 0.72477185726165771
0.62506943941116333 0.53752744197845459 0.74150103330612183
0.77084058523178101 0.57526391744613647 0.75575155019760132
0.88886779546737671 0.60530579090118408 0.77748781442642212
0.97766077518463135 0.63226079940795898 0.79313784837722778
0.067110948264598846 0.59832775592803955 0.71499955654144287
0.22204788029193878 0.61146306991577148 0.71549302339553833
0.43136405944824219 0.62389123439788818 0.72624748945236206
0.62041503190994263 0.64703816175460815 0.74317061901092529
0.76327115297317505 0.67263394594192505 0.76191252470016479
0.88291782140731812 0.69702446460723877 0.78159540891647339
0.97930639982223511 0.72640812397003174 0.79558050632476807
0.059667997062206268 0.7071765661239624 0.72009271383285522
0.19231249392032623 0.71621304750442505 0.71755433082580566
0.39805746078491211 0.73133856058120728 0.72637826204299927
0.60296428203582764 0.74597543478012085 0.74931126832962036
0.75235235691070557 0.763957679271698 0.7669101357460022
0.87753629684448242 0.78534048795700073 0.7799031138420105
0.97640180587768555 0.82419729232788086 0.80483901500701904
0.095612905919551849 0.8011665940284729 0.74749255180358887
0.18807782232761383 0.80201983451843262 0.73190575838088989
0.36512830853462219 0.8180992603302002 0.73856127262115479
0.57579177618026733 0.82637101411819458 0.75991195440292358
0.7563788890838623 0.84204888343811035 0.77501547336578369
0.88495045900344849 0.86366927623748779 0.78753447532653809
0.97551292181015015 0.90561288595199585 0.82163339853286743
0.10409330576658249 0.82410532236099243 0.75295150279998779
0.245637446641922 0.8518296480178833 0.7865566611289978
0.39242345094680786 0.86271947622299194 0.79019904136657715
0.61543244123458862 0.88015389442443848 0.8157341480255127
0.77243846654891968 0.88568717241287231 0.80400431156158447
0.90383464097976685 0.90139883756637573 0.80354762077331543
0.97665655612945557 0.93617832660675049 0.8305436372756958
0.53193008899688721 0.28896036744117737 0.85331171751022339
0.57864105701446533 0.33177831768989563 0.85254043340682983
0.64230877161026001 0.38794839382171631 0.84825813770294189
0.74654781818389893 0.44198501110076904 0.85471034049987793
0.85413509607315063 0.50047391653060913 0.86539149284362793
0.94078212976455688 0.55581778287887573 0.89223575592041016
0.99403840303421021 0.59680616855621338 0.90067225694656372
0.38491681218147278 0.42090421915054321 0.83982688188552856
0.46013391017913818 0.4671490490436554 0.84475141763687134
0.57740026712417603 0.49412548542022705 0.84623456001281738
0.69589352607727051 0.5282936692237854 0.85211020708084106
0.81724256277084351 0.56861346960067749 0.86224472522735596
0.91925191879272461 0.6104578971862793 0.8825259804725647
0.98640674352645874 0.62955003976821899 0.8956788182258606
0.22631058096885681 0.54165869951248169 0.83395373821258545
0.39907136559486389 0.57237780094146729 0.8402521014213562
0.53378009796142578 0.59407049417495728 0.84583151340484619
0.668415367603302 0.61257010698318481 0.85331141948699951
0.79513895511627197 0.65047681331634521 0.86888343095779419
0.90235698223114014 0.67878741025924683 0.88390535116195679
0.98658913373947144 0.6914789080619812 0.89148885011672974
0.19646136462688446 0.65483355522155762 0.83929586410522461
0.37390050292015076 0.67306828498840332 0.83912301063537598
0.51766091585159302 0.68875545263290405 0.84893321990966797
0.65938454866409302 0.70170611143112183 0.85936987400054932
0.7795063853263855 0.72311985492706299 0.87286889553070068
0.89492958784103394 0.74090278148651123 0.89123386144638062
0.98629629611968994 0.7664681077003479 0.90726381540298462
0.18123456835746765 0.75478094816207886 0.84336084127426147
0.33506128191947937 0.76413679122924805 0.84333735704421997
0.49943813681602478 0.77508199214935303 0.85477316379547119
0.64313775300979614 0.78986275196075439 0.86492127180099487
0.77763175964355469 0.8068884015083313 0.87673109769821167
0.89729559421539307 0.82438051700592041 0.89151632785797119
0.98022699356079102 0.84912192821502686 0.90877717733383179
0.20076274871826172 0.83791685104370117 0.85595816373825073
0.31154656410217285 0.85024231672286987 0.85951370000839233
0.45929619669914246 0.85907459259033203 0.86740332841873169
0.63415157794952393 0.86458849906921387 0.87381649017333984
0.78388553857803345 0.88030022382736206 0.88521993160247803
0.9022555947303772 0.89513307809829712 0.90406531095504761
0.98166859149932861 0.93175959587097168 0.92957359552383423
0.36027011275291443 0.90128135681152344 0.9013250470161438
0.32541650533676147 0.8853379487991333 0.86968863010406494
0.44442096352577209 0.89189279079437256 0.87321358919143677
0.63965368270874023 0.90862441062927246 0.89752137660980225
0.79757308959960938 0.91992861032485962 0.90386390686035156
0.90923595428466797 0.93620723485946655 0.91318321228027344
0.98280084133148193 0.96180582046508789 0.93597304821014404
0.6512942910194397 0.34755885601043701 0.95289260149002075
0.68392664194107056 0.38414102792739868 0.9528576135635376
0.74149250984191895 0.42538630962371826 0.95564651489257812
0.82587474584579468 0.48253354430198669 0.96777951717376709
0.9082685112953186 0.55060750246047974 0.97097879648208618
0.96914869546890259 0.61484771966934204 0.97583627700805664
0.99603605270385742 0.64984852075576782 0.97270077466964722
0.56769967079162598 0.4539063572883606 0.94905322790145874
0.62514108419418335 0.50702208280563354 0.95698040723800659
0.69205600023269653 0.55559653043746948 0.95641613006591797
0.78110545873641968 0.58809393644332886 0.95945996046066284
0.8753511905670166 0.62557613849639893 0.96468496322631836
0.94919753074645996 0.67633557319641113 0.96898508071899414
0.9864775538444519 0.68566244840621948 0.9673125147819519
0.29097896814346313 0.6091611385345459 0.93296951055526733
0.48349735140800476 0.64808279275894165 0.94770103693008423
0.61483544111251831 0.67839771509170532 0.94710803031921387
0.72877436876296997 0.69565117359161377 0.95146232843399048
0.84391707181930542 0.71056044101715088 0.95887154340744019
0.933491051197052 0.73482209444046021 0.96877902746200562
0.98920392990112305 0.75140547752380371 0.97698652744293213
0.20194533467292786 0.70644950866699219 0.93309730291366577
0.3693183958530426 0.73351138830184937 0.94787657260894775
0.58925575017929077 0.76050412654876709 0.94672662019729614
0.70592963695526123 0.76983749866485596 0.94578194618225098
0.81918531656265259 0.7853095531463623 0.95277649164199829
0.92458653450012207 0.8041718602180481 0.96659594774246216
0.98528808355331421 0.80427771806716919 0.96914577484130859
0.27860227227210999 0.80432075262069702 0.94140177965164185
0.37190437316894531 0.81790751218795776 0.9536818265914917
0.57920664548873901 0.83618199825286865 0.95162540674209595
0.6994171142578125 0.84239381551742554 0.95195662975311279
0.81725054979324341 0.85547077655792236 0.95818215608596802
0.91835498809814453 0.86924475431442261 0.96771371364593506
0.99243897199630737 0.88744562864303589 0.98056089878082275
0.36602726578712463 0.8975643515586853 0.96042203903198242
0.43299248814582825 0.90282571315765381 0.96630138158798218
0.55779409408569336 0.90917342901229858 0.96366077661514282
0.70022273063659668 0.9161493182182312 0.96491122245788574
0.83016163110733032 0.92676037549972534 0.97284221649169922
0.9340701699256897 0.93673598766326904 0.97524577379226685
0.98661011457443237 0.95668840408325195 0.98280119895935059
0.40365943312644958 0.91640812158584595 0.94547182321548462
0.38414928317070007 0.90678000450134277 0.92637032270431519
0.529094398021698 0.91628187894821167 0.9418451189994812
0.6930239200592041 0.93029391765594482 0.95636922121047974
0.83895933628082275 0.94671237468719482 0.97018539905548096
0.94068461656570435 0.96332252025604248 0.9786149263381958
0.98986876010894775 0.9763023853302002 0.97810721397399902
