luts/fujixtransiii/fuji_xtrans_iii_astia.cube
# Created by: G'MIC (https://gmic.eu)
TITLE "fuji_xtrans_iii_astia"
# LUT size
LUT_3D_SIZE 5
# Data domain
DOMAIN_MIN 0.0 0.0 0.0
DOMAIN_MAX 1.0 1.0 1.0
# LUT data points
0.0087847542017698288 0.013076214119791985 0.010874370113015175
0.20156353712081909 0.026252446696162224 0.011245098896324635
0.58837759494781494 0.10019179433584213 0.023304928094148636
0.84173732995986938 0.17702215909957886 0.14939136803150177
0.89530777931213379 0.21622961759567261 0.20672595500946045
0.0071937711909413338 0.18724469840526581 0.006663887295871973
0.21033857762813568 0.20592665672302246 0.0058539598248898983
0.59559017419815063 0.25750768184661865 0.020285272970795631
0.85341787338256836 0.31046831607818604 0.10169731825590134
0.9426390528678894 0.34239694476127625 0.18344798684120178
0.0026896607596427202 0.4479350745677948 0.0015300227096304297
0.13180665671825409 0.52001643180847168 0
0.56305146217346191 0.54519325494766235 0.00044081444502808154
0.80234271287918091 0.5683666467666626 0.024089379236102104
0.91349130868911743 0.59849804639816284 0.16770042479038239
0.013423396274447441 0.54706156253814697 0.024788904935121536
0.11101152002811432 0.62616503238677979 0.028439704328775406
0.54524940252304077 0.69663459062576294 0.0068075293675065041
0.80569887161254883 0.68905270099639893 0.024591917172074318
0.92561417818069458 0.74124884605407715 0.21651840209960938
0.023412726819515228 0.59984362125396729 0.013392250053584576
0.12487954646348953 0.738045334815979 0.083189927041530609
0.57597190141677856 0.74953508377075195 0.038979146629571915
0.80195105075836182 0.78172487020492554 0.21723455190658569
0.91837817430496216 0.78875178098678589 0.29016029834747314
0.013480526395142078 0.050884425640106201 0.31468504667282104
0.31414467096328735 0.086248107254505157 0.29187634587287903
0.61934548616409302 0.15082372725009918 0.35337615013122559
0.88136166334152222 0.2083921879529953 0.40370789170265198
0.99538350105285645 0.28185969591140747 0.52314764261245728
0.0099303750321269035 0.23130053281784058 0.25930541753768921
0.22865530848503113 0.25469940900802612 0.24099966883659363
0.59872889518737793 0.28676867485046387 0.25759485363960266
0.86192846298217773 0.33727118372917175 0.34363853931427002
0.99644094705581665 0.38911792635917664 0.4310796856880188
0.0066744484938681126 0.53451400995254517 0.18736819922924042
0.13642363250255585 0.54868686199188232 0.14106571674346924
0.55397939682006836 0.56628727912902832 0.16743725538253784
0.81148862838745117 0.578407883644104 0.25190705060958862
0.97790980339050293 0.59212881326675415 0.36936324834823608
0.0085772350430488586 0.64215195178985596 0.37464430928230286
0.12943089008331299 0.74546283483505249 0.15738634765148163
0.51429033279418945 0.75794488191604614 0.18362307548522949
0.78447014093399048 0.76465129852294922 0.25220277905464172
0.94235360622406006 0.7966577410697937 0.33204329013824463
0.031104113906621933 0.70074021816253662 0.37949663400650024
0.18673065304756165 0.79125553369522095 0.26301532983779907
0.50504034757614136 0.80233782529830933 0.28720948100090027
0.77444189786911011 0.82578456401824951 0.34635317325592041
0.93224316835403442 0.84637624025344849 0.39957574009895325
0.085071727633476257 0.14042085409164429 0.73954015970230103
0.35958045721054077 0.17600172758102417 0.73417860269546509
0.63659477233886719 0.23379577696323395 0.69413191080093384
0.8732912540435791 0.29790610074996948 0.68643534183502197
0.99749267101287842 0.35452479124069214 0.7108311653137207
0.022552849724888802 0.31780359148979187 0.70396828651428223
0.29180628061294556 0.34644979238510132 0.68822425603866577
0.60834330320358276 0.37746575474739075 0.65775567293167114
0.85673230886459351 0.42222794890403748 0.65827471017837524
0.99227571487426758 0.45384478569030762 0.67844575643539429
0.014985177665948868 0.56517887115478516 0.62348365783691406
0.21945956349372864 0.56879401206970215 0.60189640522003174
0.57343250513076782 0.58098083734512329 0.57706177234649658
0.82202398777008057 0.60278439521789551 0.59795999526977539
0.98829150199890137 0.6333814263343811 0.61830753087997437
0.033694818615913391 0.73329949378967285 0.65430790185928345
0.2164057195186615 0.7550233006477356 0.53282654285430908
0.53429359197616577 0.77090167999267578 0.52990263700485229
0.79194480180740356 0.7814367413520813 0.53140091896057129
0.97503674030303955 0.82161170244216919 0.57581526041030884
0.065067708492279053 0.78481948375701904 0.68786072731018066
0.24461895227432251 0.82288604974746704 0.54761278629302979
0.50467288494110107 0.83105885982513428 0.52587485313415527
0.81645148992538452 0.85758054256439209 0.5483129620552063
0.97162330150604248 0.90031701326370239 0.59731709957122803
0.30444306135177612 0.16359364986419678 0.90922015905380249
0.47094464302062988 0.23875118792057037 0.91763055324554443
0.68927681446075439 0.32278627157211304 0.92124021053314209
0.87808436155319214 0.39440995454788208 0.90663546323776245
0.99593204259872437 0.45951768755912781 0.94585716724395752
0.10263384878635406 0.4196942150592804 0.95778006315231323
0.3722844123840332 0.45760786533355713 0.95994263887405396
0.62936079502105713 0.48612239956855774 0.91814607381820679
0.84706413745880127 0.51672226190567017 0.89666354656219482
0.99122661352157593 0.53732919692993164 0.88687443733215332
0.066343419253826141 0.60824871063232422 0.90992635488510132
0.33256685733795166 0.62404137849807739 0.8909185528755188
0.61174023151397705 0.63757646083831787 0.86834287643432617
0.8238976001739502 0.65425252914428711 0.85887634754180908
0.99009007215499878 0.68176335096359253 0.85618174076080322
0.13834379613399506 0.7814631462097168 0.8625914454460144
0.33146393299102783 0.78339916467666626 0.84452164173126221
0.58295869827270508 0.79267418384552002 0.81663656234741211
0.8047795295715332 0.79684638977050781 0.80679726600646973
0.98088932037353516 0.85179984569549561 0.82065671682357788
0.21363003551959991 0.84877395629882812 0.87839561700820923
0.32978525757789612 0.87626934051513672 0.8673585057258606
0.60304713249206543 0.89086908102035522 0.84766131639480591
0.83692395687103271 0.89564204216003418 0.80675941705703735
0.97753053903579712 0.92806422710418701 0.8142661452293396
0.50054782629013062 0.21992906928062439 1
0.60198712348937988 0.28688672184944153 0.9992368221282959
0.76744323968887329 0.39867469668388367 0.99552208185195923
0.91873443126678467 0.51892071962356567 0.99419182538986206
0.98818683624267578 0.57402873039245605 0.99849849939346313
0.25178492069244385 0.48735398054122925 0.99654817581176758
0.49663850665092468 0.56337743997573853 0.99581217765808105
0.69891887903213501 0.59049946069717407 0.99343025684356689
0.89115118980407715 0.6232646107673645 0.9942050576210022
0.98285377025604248 0.63046520948410034 0.99964350461959839
0.18499036133289337 0.67346179485321045 0.99940162897109985
0.45563498139381409 0.71116465330123901 0.99826520681381226
0.66676783561706543 0.72155922651290894 0.99405252933502197
0.85732924938201904 0.73163729906082153 0.98889505863189697
0.99136531352996826 0.74020558595657349 0.99868166446685791
0.22494520246982574 0.82992184162139893 0.9998658299446106
0.43710604310035706 0.84323966503143311 0.99754089117050171
0.65149569511413574 0.84997880458831787 0.98812371492385864
0.84293860197067261 0.85832411050796509 0.99085581302642822
0.99152642488479614 0.88401967287063599 0.98472344875335693
0.35823604464530945 0.90914070606231689 0.9865339994430542
0.41629019379615784 0.90607422590255737 0.9913446307182312
0.63889563083648682 0.91244912147521973 0.9860222339630127
0.8583340048789978 0.93148899078369141 0.99377334117889404
0.98821878433227539 0.95587754249572754 0.98148626089096069
