luts/fujixtransiii/fuji_xtrans_iii_pro_neg_std.cube
# Created by: G'MIC (https://gmic.eu)
TITLE "fuji_xtrans_iii_pro_neg_std"
# LUT size
LUT_3D_SIZE 7
# Data domain
DOMAIN_MIN 0.0 0.0 0.0
DOMAIN_MAX 1.0 1.0 1.0
# LUT data points
0.019616371020674706 0.02780468575656414 0.026512609794735909
0.11042680591344833 0.042192734777927399 0.03619028627872467
0.28524571657180786 0.080437816679477692 0.074079237878322601
0.49925112724304199 0.14991948008537292 0.12913291156291962
0.6890907883644104 0.21197356283664703 0.19750161468982697
0.77219527959823608 0.2446940541267395 0.23334325850009918
0.80815988779067993 0.26906061172485352 0.26101222634315491
0.016632873564958572 0.10898102074861526 0.027390453964471817
0.12168446183204651 0.12270528823137283 0.043862778693437576
0.30526906251907349 0.16615661978721619 0.071733780205249786
0.51894575357437134 0.20697297155857086 0.11840610951185226
0.7066110372543335 0.25733548402786255 0.18113479018211365
0.80463117361068726 0.28704887628555298 0.22320982813835144
0.85959959030151367 0.34643501043319702 0.25906047224998474
0.011655725538730621 0.26320388913154602 0.011328094638884068
0.083992980420589447 0.30106016993522644 0.01848970353603363
0.31146785616874695 0.32363653182983398 0.046452660113573074
0.52106046676635742 0.34375110268592834 0.077370539307594299
0.7012665867805481 0.37185347080230713 0.14313560724258423
0.83172160387039185 0.40381285548210144 0.20741501450538635
0.87515103816986084 0.4074072539806366 0.2427537739276886
0.0052686803974211216 0.41102951765060425 0.0049074511043727398
0.058495212346315384 0.4585806131362915 0.0064848056063055992
0.28490740060806274 0.49747192859649658 0.017433255910873413
0.51872903108596802 0.51345515251159668 0.056279245764017105
0.69369149208068848 0.53471356630325317 0.11135569214820862
0.80618518590927124 0.56033098697662354 0.17517045140266418
0.87551665306091309 0.58769696950912476 0.24334344267845154
0.020320607349276543 0.48164153099060059 0.035506319254636765
0.042302209883928299 0.55633211135864258 0.049599234014749527
0.28046342730522156 0.57236891984939575 0.030698992311954498
0.51990050077438354 0.64781534671783447 0.085411041975021362
0.70366954803466797 0.65350967645645142 0.13770905137062073
0.80904287099838257 0.6662629246711731 0.17592531442642212
0.86909419298171997 0.70814567804336548 0.24361389875411987
0.024053476750850677 0.51625978946685791 0.057071894407272339
0.06432795524597168 0.65337711572647095 0.14119809865951538
0.25814637541770935 0.68349480628967285 0.13883757591247559
0.52137100696563721 0.68805021047592163 0.12898029386997223
0.66952717304229736 0.6937289834022522 0.16519343852996826
0.84886848926544189 0.71724075078964233 0.23723912239074707
0.90098994970321655 0.74385738372802734 0.28569233417510986
0.036518514156341553 0.55682790279388428 0.038845989853143692
0.070757113397121429 0.68098980188369751 0.16252720355987549
0.2522788941860199 0.71500164270401001 0.1725783497095108
0.53514355421066284 0.73085618019104004 0.18175627291202545
0.67611831426620483 0.77169948816299438 0.25452390313148499
0.82933944463729858 0.78476262092590332 0.31489503383636475
0.89517545700073242 0.78999060392379761 0.3436913788318634
0.029457855969667435 0.058699276298284531 0.13171261548995972
0.14519131183624268 0.08690846711397171 0.14609883725643158
0.31097236275672913 0.1251801997423172 0.19556234776973724
0.53269147872924805 0.19000442326068878 0.25536894798278809
0.7358890175819397 0.22849880158901215 0.3000132143497467
0.81302100419998169 0.26133975386619568 0.33341124653816223
0.919525146484375 0.32810491323471069 0.44396975636482239
0.034640457481145859 0.14477886259555817 0.13954921066761017
0.14828631281852722 0.16199694573879242 0.15066848695278168
0.32424655556678772 0.19542795419692993 0.18786443769931793
0.52811795473098755 0.23296129703521729 0.23312313854694366
0.71418780088424683 0.27886685729026794 0.28623047471046448
0.85029035806655884 0.32478627562522888 0.34031936526298523
0.92527979612350464 0.3607381284236908 0.40869322419166565
0.016898853704333305 0.29788830876350403 0.13115221261978149
0.12580610811710358 0.31924384832382202 0.13873367011547089
0.31527197360992432 0.33643597364425659 0.16596174240112305
0.52401471138000488 0.36276552081108093 0.21114160120487213
0.71013957262039185 0.40141871571540833 0.2569834291934967
0.84913969039916992 0.43411546945571899 0.31335821747779846
0.94136589765548706 0.45799225568771362 0.38187688589096069
0.0075824512168765068 0.47672274708747864 0.1213923916220665
0.068614572286605835 0.5008968710899353 0.10159261524677277
0.27235078811645508 0.51066237688064575 0.13672676682472229
0.51062703132629395 0.52982956171035767 0.1838625967502594
0.70042330026626587 0.55738669633865356 0.22428387403488159
0.84301298856735229 0.57768213748931885 0.27266594767570496
0.92417508363723755 0.59583693742752075 0.31420242786407471
0.010304798372089863 0.56389003992080688 0.17701101303100586
0.049487918615341187 0.62013840675354004 0.12801432609558105
0.22452880442142487 0.66330122947692871 0.16405047476291656
0.49326550960540771 0.67822134494781494 0.18942546844482422
0.68689465522766113 0.68962883949279785 0.22843837738037109
0.83313852548599243 0.7154533863067627 0.27152189612388611
0.93188685178756714 0.74494028091430664 0.31557890772819519
0.015106186270713806 0.59727621078491211 0.22937875986099243
0.068468295037746429 0.69687718152999878 0.20281288027763367
0.22615507245063782 0.7401084303855896 0.2347455769777298
0.51805871725082397 0.74338066577911377 0.21496905386447906
0.66760706901550293 0.76510536670684814 0.25027447938919067
0.83305710554122925 0.792854905128479 0.32618227601051331
0.8929029107093811 0.79470276832580566 0.3468758761882782
0.013940983451902866 0.62961781024932861 0.35550552606582642
0.11107181012630463 0.74198466539382935 0.25776708126068115
0.21993266046047211 0.76974457502365112 0.28143450617790222
0.47683030366897583 0.76790481805801392 0.27618175745010376
0.65717160701751709 0.78639227151870728 0.28181445598602295
0.84180307388305664 0.80988401174545288 0.35519778728485107
0.89906984567642212 0.84440261125564575 0.42266190052032471
0.088809847831726074 0.1309918612241745 0.37798097729682922
0.23144060373306274 0.15259431302547455 0.4096381664276123
0.37877967953681946 0.1844685822725296 0.42378038167953491
0.56714862585067749 0.22272865474224091 0.4716208279132843
0.74664825201034546 0.26329821348190308 0.48398688435554504
0.87627649307250977 0.31006675958633423 0.53391814231872559
0.96710026264190674 0.34121188521385193 0.59911298751831055
0.080231688916683197 0.20396611094474792 0.34712678194046021
0.20559138059616089 0.22241231799125671 0.35980105400085449
0.36986199021339417 0.24579347670078278 0.38926893472671509
0.55824011564254761 0.28216788172721863 0.42486986517906189
0.7346687912940979 0.32081371545791626 0.46257457137107849
0.87369453907012939 0.36239498853683472 0.49760857224464417
0.98561948537826538 0.40295860171318054 0.51720976829528809
0.043747276067733765 0.34557345509529114 0.33537441492080688
0.17207795381546021 0.35600310564041138 0.33924561738967896
0.36034905910491943 0.37648013234138489 0.36698099970817566
0.55588221549987793 0.40209859609603882 0.39953157305717468
0.73442506790161133 0.43247345089912415 0.43486008048057556
0.87380093336105347 0.45868062973022461 0.473348468542099
0.97661155462265015 0.4724891185760498 0.4952787458896637
0.020737592130899429 0.51428002119064331 0.33398878574371338
0.1135394498705864 0.52333438396453857 0.31538540124893188
0.31931838393211365 0.53882580995559692 0.33742058277130127
0.53500986099243164 0.55577558279037476 0.37463647127151489
0.71772640943527222 0.58127772808074951 0.4085271954536438
0.86320787668228149 0.59303927421569824 0.44013798236846924
0.9595450758934021 0.61057019233703613 0.46958774328231812
0.012769332155585289 0.61148941516876221 0.37017852067947388
0.07001311331987381 0.66952705383300781 0.32169494032859802
0.25310805439949036 0.68853992223739624 0.31498664617538452
0.50382590293884277 0.6952749490737915 0.34599012136459351
0.6993945837020874 0.71113330125808716 0.38681179285049438
0.84231173992156982 0.72530061006546021 0.41481584310531616
0.94839596748352051 0.74577802419662476 0.43312367796897888
0.039023395627737045 0.74137032032012939 0.37247732281684875
0.06248759850859642 0.76316076517105103 0.34409317374229431
0.22621393203735352 0.77596986293792725 0.32972604036331177
0.47367674112319946 0.78886193037033081 0.3573225736618042
0.67555654048919678 0.81416076421737671 0.41097155213356018
0.83509308099746704 0.81586748361587524 0.42681947350502014
0.93160909414291382 0.83662235736846924 0.45509505271911621
0.043850064277648926 0.76014167070388794 0.35918363928794861
0.078886382281780243 0.76890558004379272 0.35206547379493713
0.24556897580623627 0.81469523906707764 0.4161742627620697
0.4678102433681488 0.83129012584686279 0.43532529473304749
0.65976876020431519 0.83478850126266479 0.43398928642272949
0.86122184991836548 0.85440289974212646 0.46666032075881958
0.92927283048629761 0.87181544303894043 0.50522035360336304
0.20461614429950714 0.16913504898548126 0.63033336400985718
0.32759964466094971 0.19464650750160217 0.64354610443115234
0.46958249807357788 0.22429431974887848 0.65736621618270874
0.62632006406784058 0.27109435200691223 0.67574751377105713
0.77455192804336548 0.3174346387386322 0.69427019357681274
0.90732491016387939 0.36105120182037354 0.71095389127731323
0.99040859937667847 0.39480143785476685 0.733967125415802
0.14693713188171387 0.26527932286262512 0.58847934007644653
0.28773871064186096 0.29371950030326843 0.59600710868835449
0.43142563104629517 0.31266632676124573 0.61936032772064209
0.6044192910194397 0.34718233346939087 0.64471817016601562
0.76593732833862305 0.37858849763870239 0.66476130485534668
0.89276707172393799 0.41022318601608276 0.68359780311584473
0.98979860544204712 0.43848711252212524 0.70637065172195435
0.10940352827310562 0.39673975110054016 0.5584293007850647
0.25227817893028259 0.41242149472236633 0.56696122884750366
0.41928291320800781 0.43186047673225403 0.59374552965164185
0.59261196851730347 0.45597335696220398 0.61355364322662354
0.75485789775848389 0.47843870520591736 0.63713139295578003
0.88904410600662231 0.49837499856948853 0.6604849100112915
0.98861813545227051 0.51848256587982178 0.68046492338180542
0.068505078554153442 0.54885244369506836 0.53490746021270752
0.19233888387680054 0.56179934740066528 0.53582489490509033
0.39600116014480591 0.56864422559738159 0.55938005447387695
0.57595729827880859 0.5839308500289917 0.57804912328720093
0.74071425199508667 0.5986400842666626 0.60646039247512817
0.87957870960235596 0.61674892902374268 0.62420499324798584
0.9783744215965271 0.63487082719802856 0.63867175579071045
0.057994991540908813 0.68183439970016479 0.54849410057067871
0.14763367176055908 0.69767409563064575 0.51200211048126221
0.33186110854148865 0.70648550987243652 0.52310431003570557
0.54308623075485229 0.71437937021255493 0.54834991693496704
0.7207755446434021 0.72185790538787842 0.57037919759750366
0.86111009120941162 0.73580926656723022 0.5910637378692627
0.95693093538284302 0.76239120960235596 0.61320763826370239
0.071583859622478485 0.77503317594528198 0.5953795313835144
0.14163269102573395 0.79447478055953979 0.52790957689285278
0.28240537643432617 0.81504243612289429 0.51776480674743652
0.48373746871948242 0.81873863935470581 0.53101187944412231
0.70075792074203491 0.82245492935180664 0.54730337858200073
0.85337346792221069 0.84191560745239258 0.58582103252410889
0.96087110042572021 0.87605154514312744 0.61939769983291626
0.082828164100646973 0.79218065738677979 0.61378055810928345
0.16882786154747009 0.81925421953201294 0.561756432056427
0.28576943278312683 0.82924515008926392 0.52443212270736694
0.47713389992713928 0.83704870939254761 0.52854412794113159
0.69941169023513794 0.8435094952583313 0.55796116590499878
0.8707917332649231 0.8893735408782959 0.61261695623397827
0.95187610387802124 0.90820908546447754 0.62744033336639404
0.34544879198074341 0.18503959476947784 0.81929230690002441
0.43507963418960571 0.22654175758361816 0.81781858205795288
0.55358982086181641 0.27816587686538696 0.83217191696166992
0.6828916072845459 0.32476416230201721 0.84604603052139282
0.80652517080307007 0.37136217951774597 0.85706973075866699
0.92068642377853394 0.41411516070365906 0.87021583318710327
0.98728048801422119 0.44291916489601135 0.90744596719741821
0.2483174055814743 0.33116614818572998 0.79304111003875732
0.38286212086677551 0.36994090676307678 0.79547923803329468
0.50341230630874634 0.38891705870628357 0.80441004037857056
0.65585589408874512 0.41375601291656494 0.82032680511474609
0.79531240463256836 0.44660249352455139 0.83486723899841309
0.91071343421936035 0.47617658972740173 0.85434955358505249
0.99475079774856567 0.49667173624038696 0.87595999240875244
0.20052966475486755 0.45791652798652649 0.75981813669204712
0.35918232798576355 0.48085212707519531 0.76894646883010864
0.48679059743881226 0.49950635433197021 0.78438019752502441
0.63555192947387695 0.51478368043899536 0.799396812915802
0.78077107667922974 0.53194814920425415 0.8124421238899231
0.90372991561889648 0.55446392297744751 0.83446711301803589
0.99277544021606445 0.57914966344833374 0.8467332124710083
0.18111248314380646 0.59170377254486084 0.72735905647277832
0.32169589400291443 0.604358971118927 0.73758256435394287
0.45473554730415344 0.61084294319152832 0.74871516227722168
0.61590063571929932 0.62658059597015381 0.75974100828170776
0.77046793699264526 0.63799947500228882 0.76964837312698364
0.89289534091949463 0.65459811687469482 0.79705613851547241
0.98695063591003418 0.67505717277526855 0.81881588697433472
0.14976246654987335 0.71964389085769653 0.70079612731933594
0.2574465274810791 0.72899621725082397 0.70209062099456787
0.41475644707679749 0.7304115891456604 0.71832180023193359
0.58751147985458374 0.74348986148834229 0.72439515590667725
0.75086289644241333 0.74287241697311401 0.74195826053619385
0.87756544351577759 0.76127445697784424 0.76446348428726196
0.96912270784378052 0.78927510976791382 0.7891649603843689
0.16595537960529327 0.83154594898223877 0.70954656600952148
0.24025984108448029 0.81916588544845581 0.6908414363861084
0.38022202253341675 0.82726955413818359 0.69750785827636719
0.56299823522567749 0.83638238906860352 0.71944385766983032
0.73506969213485718 0.8410487174987793 0.73093211650848389
0.87356734275817871 0.85793149471282959 0.74932724237442017
0.97474902868270874 0.89951246976852417 0.77707290649414062
0.1711629182100296 0.84685242176055908 0.71162998676300049
0.29112085700035095 0.87051695585250854 0.74920594692230225
0.40844026207923889 0.87548846006393433 0.7505033016204834
0.60129404067993164 0.88678538799285889 0.7812536358833313
0.75217390060424805 0.89132934808731079 0.77363079786300659
0.89223664999008179 0.90328443050384521 0.75726968050003052
0.9769890308380127 0.93648457527160645 0.78006458282470703
0.50422757863998413 0.19153718650341034 0.94112378358840942
0.55592805147171021 0.2455882728099823 0.93899059295654297
0.64352262020111084 0.3147621750831604 0.94062614440917969
0.74727684259414673 0.37094557285308838 0.94786953926086426
0.85400044918060303 0.42564207315444946 0.95589029788970947
0.94485324621200562 0.4767281711101532 0.97160142660140991
0.99571651220321655 0.53228628635406494 0.99559831619262695
0.38727676868438721 0.38120827078819275 0.93332231044769287
0.48699381947517395 0.4361245334148407 0.94035589694976807
0.57947498559951782 0.46583151817321777 0.94565826654434204
0.70046341419219971 0.48642659187316895 0.94776368141174316
0.82310205698013306 0.51857119798660278 0.96287041902542114
0.92957013845443726 0.54409754276275635 0.97396248579025269
0.99275410175323486 0.5650293231010437 0.98863214254379272
0.26427057385444641 0.52785611152648926 0.91319650411605835
0.45102718472480774 0.55746150016784668 0.91988873481750488
0.55759948492050171 0.56932723522186279 0.92917525768280029
0.6783021092414856 0.58202129602432251 0.93219989538192749
0.80588656663894653 0.59797322750091553 0.94416409730911255
0.91652590036392212 0.62312990427017212 0.95817047357559204
0.99349772930145264 0.63485389947891235 0.97087222337722778
0.27085068821907043 0.64402663707733154 0.88253772258758545
0.42341473698616028 0.6618419885635376 0.88098019361495972
0.53182387351989746 0.66627448797225952 0.88882756233215332
0.66263693571090698 0.6730160117149353 0.90562015771865845
0.79702192544937134 0.68550843000411987 0.91857492923736572
0.90713822841644287 0.6974530816078186 0.93381917476654053
0.99264514446258545 0.7176586389541626 0.95381063222885132
0.27725318074226379 0.75468331575393677 0.85792118310928345
0.3838142454624176 0.76851588487625122 0.85271531343460083
0.50791937112808228 0.77120029926300049 0.86366546154022217
0.64855504035949707 0.77694183588027954 0.87549573183059692
0.78029888868331909 0.78026503324508667 0.89265358448028564
0.89854264259338379 0.79646390676498413 0.9136892557144165
0.98732984066009521 0.8176567554473877 0.93330878019332886
0.29499006271362305 0.84043830633163452 0.84978115558624268
0.36327347159385681 0.85841292142868042 0.8478814959526062
0.48219060897827148 0.86610919237136841 0.85833561420440674
0.62635082006454468 0.86564183235168457 0.86773383617401123
0.77474468946456909 0.87015753984451294 0.87968486547470093
0.89353001117706299 0.88663220405578613 0.89986556768417358
0.98288071155548096 0.92172831296920776 0.92396491765975952
0.40080296993255615 0.91688686609268188 0.88732904195785522
0.36334291100502014 0.9000391960144043 0.84957289695739746
0.4649834930896759 0.90540099143981934 0.85609233379364014
0.627846360206604 0.9139028787612915 0.88658100366592407
0.78160780668258667 0.91591125726699829 0.87663203477859497
0.8986973762512207 0.92873799800872803 0.89554202556610107
0.9818231463432312 0.95212393999099731 0.92046195268630981
0.62452644109725952 0.24407395720481873 0.99316364526748657
0.66431576013565063 0.2896750271320343 0.99616044759750366
0.73381656408309937 0.34764879941940308 0.99561816453933716
0.82108896970748901 0.42288678884506226 0.99526304006576538
0.90674835443496704 0.51641386747360229 0.99555373191833496
0.96955740451812744 0.5848584771156311 0.99600374698638916
0.99610644578933716 0.61450016498565674 1
0.55724084377288818 0.38807907700538635 0.99258232116699219
0.63062024116516113 0.45817673206329346 0.99049180746078491
0.69574272632598877 0.51625186204910278 0.9910549521446228
0.7936253547668457 0.54794061183929443 0.99046266078948975
0.88180291652679443 0.60766953229904175 0.99251347780227661
0.9643586277961731 0.63568794727325439 0.99599897861480713
0.99774837493896484 0.62604677677154541 1
0.30461180210113525 0.58497399091720581 0.99222636222839355
0.5251198410987854 0.62508314847946167 0.99555575847625732
0.63591897487640381 0.65020322799682617 0.99234598875045776
0.74484634399414062 0.66278350353240967 0.99384218454360962
0.84995174407958984 0.67995709180831909 0.99463921785354614
0.94875651597976685 0.69456911087036133 0.99345928430557251
0.99740827083587646 0.70314532518386841 1
0.22751353681087494 0.69614535570144653 0.98505330085754395
0.42085719108581543 0.71969312429428101 0.99178636074066162
0.61376786231994629 0.73536509275436401 0.99147647619247437
0.72629165649414062 0.74365067481994629 0.9898034930229187
0.83745890855789185 0.75604826211929321 0.99049508571624756
0.93451923131942749 0.76209253072738647 0.98954367637634277
0.99410301446914673 0.76918488740921021 0.99871087074279785
0.32687744498252869 0.80035209655761719 0.97617018222808838
0.41610240936279297 0.81444954872131348 0.9825204610824585
0.6006438136100769 0.82213407754898071 0.98281723260879517
0.71525305509567261 0.82867991924285889 0.98711872100830078
0.82524955272674561 0.83565396070480347 0.98631018400192261
0.92535734176635742 0.84389770030975342 0.99281889200210571
0.99593472480773926 0.85930114984512329 0.99829238653182983
0.42281368374824524 0.9022185206413269 0.97287017107009888
0.47976624965667725 0.90905630588531494 0.97823572158813477
0.58178472518920898 0.91327232122421265 0.98042011260986328
0.70413744449615479 0.9079088568687439 0.984264075756073
0.82329797744750977 0.91888928413391113 0.98599511384963989
0.93001806735992432 0.92574316263198853 0.99054348468780518
0.98945391178131104 0.94160085916519165 0.99011528491973877
0.43822839856147766 0.92823952436447144 0.94107592105865479
0.43059936165809631 0.92108088731765747 0.92235898971557617
0.54461824893951416 0.92436355352401733 0.93981426954269409
0.69193214178085327 0.93290251493453979 0.95933049917221069
0.8257756233215332 0.94351816177368164 0.98632991313934326
0.9392208456993103 0.95265716314315796 0.98964357376098633
0.9830288290977478 0.96429479122161865 0.98357647657394409
