luts/fujixtransiii/fuji_xtrans_iii_provia.cube
# Created by: G'MIC (https://gmic.eu)
TITLE "fuji_xtrans_iii_provia"
# LUT size
LUT_3D_SIZE 5
# Data domain
DOMAIN_MIN 0.0 0.0 0.0
DOMAIN_MAX 1.0 1.0 1.0
# LUT data points
0.0061420663259923458 0.011740964837372303 0.011889333836734295
0.21550808846950531 0.028568806126713753 0.016031362116336823
0.57586705684661865 0.10539426654577255 0.040306899696588516
0.8451995849609375 0.19001577794551849 0.12198258936405182
0.91340166330337524 0.23359829187393188 0.17910660803318024
0.0078919949010014534 0.17416220903396606 0.0059152189642190933
0.20170226693153381 0.20673955976963043 0.009394926019012928
0.58595943450927734 0.25104233622550964 0.021524406969547272
0.87590241432189941 0.3138028085231781 0.062318015843629837
0.98322200775146484 0.34693855047225952 0.13845095038414001
0.00056756712729111314 0.43908989429473877 0.0012682597152888775
0.079277098178863525 0.49946281313896179 0
0.53249263763427734 0.51932454109191895 0.0040836557745933533
0.83360856771469116 0.55231249332427979 0.011526040732860565
0.95276308059692383 0.58297181129455566 0.12259035557508469
0.0020900052040815353 0.53284758329391479 0.029743194580078125
0.043383236974477768 0.61305254697799683 0.027967624366283417
0.48692589998245239 0.67618370056152344 0.0025390924420207739
0.83129286766052246 0.67696768045425415 0.010744311846792698
0.95982038974761963 0.73843330144882202 0.14677044749259949
0.0039215688593685627 0.58050942420959473 0.013285692781209946
0.035786662250757217 0.73629170656204224 0.078455217182636261
0.51258903741836548 0.74298512935638428 0.0296491589397192
0.80430275201797485 0.78387743234634399 0.17229144275188446
0.94513404369354248 0.79387682676315308 0.23982459306716919
0.029790662229061127 0.052358560264110565 0.27914157509803772
0.32552093267440796 0.088227033615112305 0.28474259376525879
0.61718070507049561 0.1553303599357605 0.35404801368713379
0.8975139856338501 0.2170630544424057 0.38037171959877014
0.99736577272415161 0.29072925448417664 0.4819677472114563
0.009722122922539711 0.22746503353118896 0.23080003261566162
0.22627687454223633 0.25652787089347839 0.23605720698833466
0.59738802909851074 0.2861139178276062 0.27539092302322388
0.88527071475982666 0.34640112519264221 0.31822776794433594
0.99933367967605591 0.39234763383865356 0.38952198624610901
0.0032367631793022156 0.52512460947036743 0.18823523819446564
0.081641390919685364 0.53496038913726807 0.15456032752990723
0.52400839328765869 0.55142605304718018 0.19297397136688232
0.83449757099151611 0.57333290576934814 0.24578659236431122
0.99516230821609497 0.59025979042053223 0.33607196807861328
0.00013499541091732681 0.63929760456085205 0.34501305222511292
0.024537747725844383 0.74724233150482178 0.14638465642929077
0.40319365262985229 0.75852423906326294 0.17475247383117676
0.78688728809356689 0.76706242561340332 0.22205257415771484
0.96377617120742798 0.80153661966323853 0.27708172798156738
0.0022522869985550642 0.70304548740386963 0.34684312343597412
0.032202806323766708 0.8002656102180481 0.2397993803024292
0.37244868278503418 0.81218415498733521 0.27449631690979004
0.75853639841079712 0.83586090803146362 0.32018947601318359
0.94464558362960815 0.85593938827514648 0.35928046703338623
0.19599926471710205 0.12716658413410187 0.6771169900894165
0.42704355716705322 0.15272051095962524 0.68292725086212158
0.67389011383056641 0.21848307549953461 0.67732781171798706
0.8973085880279541 0.28428104519844055 0.68317419290542603
0.99811017513275146 0.35084754228591919 0.70159673690795898
0.082350112497806549 0.31239008903503418 0.6216731071472168
0.34471428394317627 0.33606928586959839 0.62912476062774658
0.63487893342971802 0.36073800921440125 0.62795543670654297
0.88925337791442871 0.40883970260620117 0.64289635419845581
0.99608635902404785 0.44610518217086792 0.67694187164306641
0.013165672309696674 0.56190049648284912 0.57059299945831299
0.18237783014774323 0.56908774375915527 0.5637432336807251
0.56017398834228516 0.57539659738540649 0.57276207208633423
0.83569103479385376 0.59669440984725952 0.59661322832107544
0.99093413352966309 0.6229250431060791 0.6065937876701355
0.00075469672447070479 0.7585253119468689 0.60353285074234009
0.055852208286523819 0.77678018808364868 0.50507509708404541
0.44020852446556091 0.78314638137817383 0.51412546634674072
0.78950220346450806 0.79012089967727661 0.53258079290390015
0.97864788770675659 0.83159166574478149 0.56322979927062988
0.0012977151200175285 0.81260472536087036 0.63828855752944946
0.045261263847351074 0.84476560354232788 0.5149763822555542
0.36370849609375 0.85070580244064331 0.50325989723205566
0.80966067314147949 0.87360495328903198 0.5450667142868042
0.96419441699981689 0.91260677576065063 0.57622045278549194
0.43834257125854492 0.097089566290378571 0.90599274635314941
0.57499819993972778 0.18005944788455963 0.9085351824760437
0.76183217763900757 0.27131813764572144 0.91179907321929932
0.93074017763137817 0.35123077034950256 0.90397113561630249
0.99795627593994141 0.42700764536857605 0.95552587509155273
0.22366037964820862 0.39905604720115662 0.91101604700088501
0.48052608966827393 0.43053331971168518 0.90831202268600464
0.69614690542221069 0.45628643035888672 0.89968860149383545
0.90137302875518799 0.4916156530380249 0.90012693405151367
0.99467825889587402 0.52706396579742432 0.90954065322875977
0.12435893714427948 0.61242473125457764 0.8621864914894104
0.37944543361663818 0.62176430225372314 0.85570460557937622
0.64695471525192261 0.62875711917877197 0.86252236366271973
0.85365515947341919 0.65035867691040039 0.8546941876411438
0.99388563632965088 0.68275159597396851 0.8711276650428772
0.031251855194568634 0.80280518531799316 0.82045888900756836
0.21185259521007538 0.80237674713134766 0.81117600202560425
0.55259174108505249 0.80621683597564697 0.81402397155761719
0.81637537479400635 0.81453710794448853 0.81608098745346069
0.98156046867370605 0.86886042356491089 0.84458166360855103
0.068870857357978821 0.87703859806060791 0.83682328462600708
0.13757595419883728 0.90346390008926392 0.8375999927520752
0.53711134195327759 0.91269505023956299 0.84668838977813721
0.83975857496261597 0.91241085529327393 0.82191997766494751
0.97505366802215576 0.94124257564544678 0.84294819831848145
0.63979113101959229 0.15272288024425507 0.99932289123535156
0.71645700931549072 0.24150015413761139 0.9974789023399353
0.84812921285629272 0.35920524597167969 0.99492055177688599
0.96628600358963013 0.48550692200660706 0.99660181999206543
0.99986213445663452 0.54044419527053833 0.9986223578453064
0.43480786681175232 0.45867633819580078 0.99699723720550537
0.63866651058197021 0.53823757171630859 0.99548912048339844
0.79395437240600586 0.56710469722747803 0.99512749910354614
0.93828535079956055 0.61784356832504272 0.99202644824981689
0.99878478050231934 0.60155355930328369 0.99916785955429077
0.21991755068302155 0.67626577615737915 0.99658691883087158
0.54997533559799194 0.71301543712615967 0.99557626247406006
0.73252826929092407 0.72119122743606567 0.99145668745040894
0.89940440654754639 0.73271393775939941 0.99270856380462646
0.99501961469650269 0.72343438863754272 0.99742090702056885
0.21863450109958649 0.85171759128570557 0.9958500862121582
0.44510847330093384 0.8623194694519043 0.99360156059265137
0.68120181560516357 0.86552035808563232 0.98709440231323242
0.87265843152999878 0.8717460036277771 0.98095917701721191
0.9934881329536438 0.88893610239028931 0.99535602331161499
0.26772350072860718 0.93334132432937622 0.97086137533187866
0.33296200633049011 0.931770920753479 0.96485358476638794
0.63798564672470093 0.93214559555053711 0.9806143045425415
0.88403826951980591 0.94433403015136719 0.99017453193664551
0.98639500141143799 0.96309655904769897 0.98536932468414307
