luts/fujixtransiii/fuji_xtrans_iii_velvia.cube
# Created by: G'MIC (https://gmic.eu)
TITLE "fuji_xtrans_iii_velvia"
# LUT size
LUT_3D_SIZE 5
# Data domain
DOMAIN_MIN 0.0 0.0 0.0
DOMAIN_MAX 1.0 1.0 1.0
# LUT data points
0.0072196363471448421 0.0075772753916680813 0.004986871499568224
0.18674898147583008 0.014917724765837193 0.0082734497264027596
0.64179867506027222 0.065724194049835205 0.0061477660201489925
0.91197216510772705 0.15317586064338684 0.033311266452074051
0.96349549293518066 0.19746480882167816 0.081859081983566284
0.0033366333227604628 0.17751260101795197 0.0013122408417984843
0.1837274581193924 0.20341628789901733 0.0022356519475579262
0.63004511594772339 0.24373778700828552 0.0050419974140822887
0.91504430770874023 0.30832949280738831 0.0064574000425636768
0.99867159128189087 0.34985530376434326 0.018809225410223007
0.00051700370386242867 0.48140749335289001 2.8004365958622657e-05
0.05387604609131813 0.54651278257369995 0
0.54038071632385254 0.55283099412918091 0.00022645837452728301
0.84856641292572021 0.56992757320404053 0.00038483564276248217
0.98034453392028809 0.59174126386642456 0.011136926710605621
0.0014256795402616262 0.57490807771682739 0.0075450222939252853
0.029324296861886978 0.6529160737991333 0.0046369363553822041
0.48021641373634338 0.69843465089797974 0
0.84434020519256592 0.68578863143920898 0.00066422106465324759
0.98906964063644409 0.73611718416213989 0.0082469116896390915
0.0039215688593685627 0.62810617685317993 0.016411485150456429
0.025747770443558693 0.76027858257293701 0.021947704255580902
0.48921138048171997 0.75714224576950073 0.0034639546647667885
0.80957841873168945 0.79194307327270508 0.042256731539964676
0.9832797646522522 0.80400615930557251 0.092060893774032593
0.022502554580569267 0.026496797800064087 0.32979577779769897
0.34107211232185364 0.037924148142337799 0.32228860259056091
0.66851085424423218 0.083527535200119019 0.39964905381202698
0.94408184289932251 0.15529629588127136 0.38551276922225952
1 0.24447712302207947 0.50550413131713867
0.006405550055205822 0.22585926949977875 0.23355093598365784
0.2233642041683197 0.23976923525333405 0.22380316257476807
0.63781368732452393 0.27549725770950317 0.2339419424533844
0.92371106147766113 0.3275800347328186 0.26341357827186584
0.9999854564666748 0.38200533390045166 0.33191397786140442
0.0015720741357654333 0.55862951278686523 0.11775773018598557
0.047536872327327728 0.56977581977844238 0.083611041307449341
0.53185302019119263 0.56367683410644531 0.10140253603458405
0.85267096757888794 0.57992184162139893 0.13604368269443512
0.99956583976745605 0.58070313930511475 0.24552059173583984
7.0010914896556642e-06 0.66791647672653198 0.32429808378219604
0.018212949857115746 0.76633518934249878 0.081680238246917725
0.36355328559875488 0.77446144819259644 0.086513012647628784
0.7855486273765564 0.7806742787361145 0.087311536073684692
0.98986268043518066 0.80980861186981201 0.13917712867259979
0.0013480392517521977 0.72294157743453979 0.32337459921836853
0.021111581474542618 0.82711255550384521 0.16766718029975891
0.30973342061042786 0.83303487300872803 0.19057345390319824
0.7413630485534668 0.85547357797622681 0.21008381247520447
0.98758441209793091 0.88132822513580322 0.22298407554626465
0.14341336488723755 0.039008479565382004 0.80551135540008545
0.44235807657241821 0.060411892831325531 0.8038400411605835
0.69642335176467896 0.12596753239631653 0.78145182132720947
0.92392635345458984 0.2044096440076828 0.74823802709579468
0.99900275468826294 0.29551991820335388 0.74928385019302368
0.062383808195590973 0.28824716806411743 0.72264271974563599
0.35219535231590271 0.3038494884967804 0.72575032711029053
0.65773916244506836 0.32741731405258179 0.69916123151779175
0.91506952047348022 0.37201330065727234 0.67423456907272339
0.99638068675994873 0.41839933395385742 0.6861993670463562
0.0084382146596908569 0.56610184907913208 0.59779947996139526
0.14916780591011047 0.5768616795539856 0.57634550333023071
0.56790703535079956 0.57110464572906494 0.57375311851501465
0.85641980171203613 0.59015107154846191 0.56359541416168213
0.99606603384017944 0.59915351867675781 0.58301115036010742
0.00015065810293890536 0.76192677021026611 0.58459895849227905
0.036095038056373596 0.78771328926086426 0.47114542126655579
0.39778527617454529 0.7925114631652832 0.46578860282897949
0.78035682439804077 0.79549920558929443 0.45885646343231201
0.99136447906494141 0.83564972877502441 0.46375960111618042
0 0.82806462049484253 0.60995924472808838
0.020388344302773476 0.87724912166595459 0.44936954975128174
0.27955812215805054 0.87967216968536377 0.44358304142951965
0.79510784149169922 0.90245389938354492 0.44385421276092529
0.99428308010101318 0.95520579814910889 0.43662455677986145
0.40248733758926392 0.014564499258995056 0.93583184480667114
0.56780344247817993 0.06454341858625412 0.93748873472213745
0.77189737558364868 0.14792825281620026 0.94643837213516235
0.94394987821578979 0.24182026088237762 0.95104920864105225
0.99812591075897217 0.33422121405601501 0.97823417186737061
0.21344892680644989 0.35599407553672791 0.98051899671554565
0.49702173471450806 0.3850841224193573 0.98456436395645142
0.70181769132614136 0.39917877316474915 0.97477340698242188
0.92226302623748779 0.43747588992118835 0.96559351682662964
0.99896758794784546 0.46780073642730713 0.97324389219284058
0.1250002384185791 0.59102910757064819 0.92485743761062622
0.39020630717277527 0.59089714288711548 0.91894447803497314
0.63371062278747559 0.60023647546768188 0.91815513372421265
0.87789005041122437 0.61134630441665649 0.90549367666244507
0.99613767862319946 0.62613797187805176 0.9228242039680481
0.012880048714578152 0.8038366436958313 0.84305882453918457
0.15080787241458893 0.80682080984115601 0.82619762420654297
0.51048582792282104 0.80187356472015381 0.81923156976699829
0.80922508239746094 0.81129318475723267 0.80858749151229858
0.99156147241592407 0.86604505777359009 0.8346017599105835
0.0013963737292215228 0.90338104963302612 0.84163743257522583
0.026687696576118469 0.94723564386367798 0.83985435962677002
0.44116634130477905 0.95327752828598022 0.84330856800079346
0.82748353481292725 0.94580519199371338 0.79631316661834717
0.99558770656585693 0.973491370677948 0.79572290182113647
0.58811920881271362 0.17999905347824097 0.99997413158416748
0.69425046443939209 0.22145138680934906 0.99801230430603027
0.84304869174957275 0.31212720274925232 0.99753367900848389
0.97013354301452637 0.44080105423927307 0.99626106023788452
1 0.44025763869285583 0.99780303239822388
0.40409576892852783 0.39483988285064697 0.99713587760925293
0.64036518335342407 0.46265912055969238 0.99547469615936279
0.79976701736450195 0.50219690799713135 0.99606817960739136
0.96914422512054443 0.54152202606201172 0.99810302257537842
1 0.52442580461502075 0.99722516536712646
0.28630930185317993 0.63890475034713745 1
0.5515599250793457 0.66475266218185425 0.99795311689376831
0.73769593238830566 0.67408615350723267 0.99545466899871826
0.94594722986221313 0.67758548259735107 0.99892735481262207
0.99979805946350098 0.67303979396820068 1
0.15219604969024658 0.85254025459289551 1
0.40410700440406799 0.85937345027923584 0.99933165311813354
0.64510822296142578 0.86685097217559814 0.99793922901153564
0.89184832572937012 0.87041205167770386 0.99441981315612793
0.99607843160629272 0.88655203580856323 0.99511772394180298
0.038270600140094757 0.97788619995117188 0.99916374683380127
0.20239128172397614 0.97061175107955933 0.99770545959472656
0.54312944412231445 0.96579289436340332 0.99892675876617432
0.87956750392913818 0.97284817695617676 0.99838125705718994
0.99829882383346558 0.98620271682739258 0.99143099784851074
