luts/fujixtransiii/fuji_xtrans_iii_sepia.cube
# Created by: G'MIC (https://gmic.eu)
TITLE "fuji_xtrans_iii_sepia"
# LUT size
LUT_3D_SIZE 5
# Data domain
DOMAIN_MIN 0.0 0.0 0.0
DOMAIN_MAX 1.0 1.0 1.0
# LUT data points
0.064660392701625824 0.0047428207471966743 0
0.15455538034439087 0.049070529639720917 0.0077467523515224457
0.32042661309242249 0.20271150767803192 0.12080672383308411
0.45940092206001282 0.33817762136459351 0.25362285971641541
0.50566643476486206 0.37774884700775146 0.29774746298789978
0.19126801192760468 0.081764668226242065 0.029735609889030457
0.27388018369674683 0.15911617875099182 0.086982771754264832
0.41148597002029419 0.29115921258926392 0.20917923748493195
0.53863239288330078 0.41153344511985779 0.33518549799919128
0.58631652593612671 0.45728984475135803 0.38235569000244141
0.38411441445350647 0.25960949063301086 0.17423421144485474
0.46620392799377441 0.34314736723899841 0.26124757528305054
0.57471591234207153 0.45560666918754578 0.38003399968147278
0.66960203647613525 0.54758596420288086 0.47027528285980225
0.72753125429153442 0.60340827703475952 0.52460366487503052
0.47135534882545471 0.34805667400360107 0.26377689838409424
0.54491335153579712 0.41976332664489746 0.33862915635108948
0.67122548818588257 0.55217862129211426 0.47514081001281738
0.75310593843460083 0.63035279512405396 0.55079668760299683
0.83328992128372192 0.70469135046005249 0.62247180938720703
0.51030957698822021 0.38855850696563721 0.30581894516944885
0.64556270837783813 0.51622116565704346 0.43745195865631104
0.72925353050231934 0.60167461633682251 0.51968598365783691
0.83449631929397583 0.70878612995147705 0.62694287300109863
0.88178211450576782 0.75070106983184814 0.66691285371780396
0.1628551185131073 0.05197061225771904 0.0085561713203787804
0.27136188745498657 0.15475766360759735 0.077088676393032074
0.39416182041168213 0.27532365918159485 0.18986622989177704
0.51650398969650269 0.39352688193321228 0.31263276934623718
0.59812366962432861 0.47269824147224426 0.39479589462280273
0.2768714427947998 0.16374945640563965 0.08743567019701004
0.34652161598205566 0.23121814429759979 0.15002015233039856
0.46145302057266235 0.34081688523292542 0.25760599970817566
0.58189070224761963 0.45731320977210999 0.37813308835029602
0.65755116939544678 0.53439229726791382 0.45516535639762878
0.47240328788757324 0.35244396328926086 0.26936519145965576
0.51837790012359619 0.39489719271659851 0.31489419937133789
0.62111836671829224 0.49979859590530396 0.42107981443405151
0.7083585262298584 0.58519506454467773 0.50534594058990479
0.77062159776687622 0.64389902353286743 0.56269830465316772
0.57296937704086304 0.44975593686103821 0.37094199657440186
0.654774010181427 0.52646231651306152 0.44620212912559509
0.74057549238204956 0.61295181512832642 0.5308423638343811
0.82635492086410522 0.69993549585342407 0.61907339096069336
0.89885139465332031 0.76558166742324829 0.68300235271453857
0.62202483415603638 0.49719735980033875 0.41625857353210449
0.70730960369110107 0.57721918821334839 0.49351665377616882
0.78484737873077393 0.65116745233535767 0.56687480211257935
0.87383061647415161 0.7416226863861084 0.65822649002075195
0.93734681606292725 0.80204808712005615 0.7178691029548645
0.31255519390106201 0.22025600075721741 0.15789888799190521
0.39399558305740356 0.28669783473014832 0.21216894686222076
0.48982474207878113 0.37196260690689087 0.28944337368011475
0.59487539529800415 0.4730934202671051 0.39281934499740601
0.67518091201782227 0.55101650953292847 0.46998199820518494
0.40836542844772339 0.29167807102203369 0.20867128670215607
0.47204145789146423 0.35346841812133789 0.27054721117019653
0.56142735481262207 0.44132059812545776 0.36119988560676575
0.66063100099563599 0.53803980350494385 0.46034315228462219
0.72371131181716919 0.59931868314743042 0.51932477951049805
0.57202816009521484 0.45051121711730957 0.37130507826805115
0.60440868139266968 0.48205214738845825 0.40114602446556091
0.6850583553314209 0.56232255697250366 0.48384937644004822
0.76451247930526733 0.64032799005508423 0.5616377592086792
0.82865339517593384 0.70181608200073242 0.62065303325653076
0.70208877325057983 0.58100765943527222 0.50063633918762207
0.73374241590499878 0.60586726665496826 0.52340757846832275
0.81112360954284668 0.67850291728973389 0.59435194730758667
0.87624520063400269 0.7451966404914856 0.66272145509719849
0.95334732532501221 0.81974893808364868 0.73562932014465332
0.74840015172958374 0.62188994884490967 0.54057055711746216
0.78315615653991699 0.64933270215988159 0.56495147943496704
0.83919990062713623 0.70276814699172974 0.61740916967391968
0.93929457664489746 0.79947924613952637 0.71547037363052368
0.99215143918991089 0.86549174785614014 0.7804485559463501
0.46130567789077759 0.3651658296585083 0.31084063649177551
0.52306246757507324 0.41844847798347473 0.35486671328544617
0.60755711793899536 0.49119707942008972 0.42134502530097961
0.69147825241088867 0.57065695524215698 0.49360460042953491
0.7629210352897644 0.63911205530166626 0.55952972173690796
0.55068445205688477 0.43056753277778625 0.35722368955612183
0.61200863122940063 0.49381744861602783 0.41932681202888489
0.66629457473754883 0.54435902833938599 0.46568107604980469
0.74034321308135986 0.61633425951004028 0.53774726390838623
0.79755634069442749 0.6711534857749939 0.59138768911361694
0.67005616426467896 0.54690444469451904 0.46794643998146057
0.70856314897537231 0.58425700664520264 0.50374686717987061
0.76240640878677368 0.63611292839050293 0.55513459444046021
0.82753711938858032 0.70076435804367065 0.62118995189666748
0.88820832967758179 0.7573094367980957 0.6770053505897522
0.79761749505996704 0.66976040601730347 0.58805185556411743
0.81957513093948364 0.68674951791763306 0.6027722954750061
0.87273073196411133 0.7365729808807373 0.65112769603729248
0.92405122518539429 0.79197841882705688 0.70938938856124878
0.98655217885971069 0.87136667966842651 0.78905355930328369
0.849467933177948 0.71511280536651611 0.63239049911499023
0.88927054405212402 0.74973189830780029 0.66385608911514282
0.95979577302932739 0.81375199556350708 0.72576057910919189
0.99531137943267822 0.86911976337432861 0.78326702117919922
0.99846720695495605 0.9144405722618103 0.83209121227264404
0.60257208347320557 0.48650902509689331 0.41656920313835144
0.65182334184646606 0.5331311821937561 0.45764338970184326
0.72623991966247559 0.6027408242225647 0.52705115079879761
0.79792141914367676 0.672873854637146 0.59368079900741577
0.83887028694152832 0.71149629354476929 0.6293632984161377
0.68043816089630127 0.55971831083297729 0.48440125584602356
0.73559379577636719 0.61223900318145752 0.53238224983215332
0.78058397769927979 0.65622150897979736 0.57602602243423462
0.83138960599899292 0.70600777864456177 0.62477439641952515
0.86823242902755737 0.73908758163452148 0.65620559453964233
0.76716369390487671 0.64530020952224731 0.5652955174446106
0.81258398294448853 0.68455022573471069 0.60043519735336304
0.8527674674987793 0.72433102130889893 0.63948017358779907
0.90145021677017212 0.77424973249435425 0.68951767683029175
0.95269006490707397 0.81789791584014893 0.73405736684799194
0.87554937601089478 0.74162817001342773 0.65667009353637695
0.90856820344924927 0.76975852251052856 0.68089526891708374
0.94072484970092773 0.8086857795715332 0.71844708919525146
0.97724694013595581 0.85773646831512451 0.77102875709533691
0.99552613496780396 0.90254884958267212 0.82347577810287476
0.93865299224853516 0.79495608806610107 0.70529347658157349
0.93570041656494141 0.79374110698699951 0.7071300745010376
0.99449223279953003 0.85631740093231201 0.76956427097320557
0.99607843160629272 0.89921432733535767 0.81566846370697021
1 0.94429486989974976 0.86891847848892212
