luts/fujixtransiii/fuji_xtrans_iii_classic_chrome.cube
# Created by: G'MIC (https://gmic.eu)
TITLE "fuji_xtrans_iii_classic_chrome"
# LUT size
LUT_3D_SIZE 5
# Data domain
DOMAIN_MIN 0.0 0.0 0.0
DOMAIN_MAX 1.0 1.0 1.0
# LUT data points
0.0082612279802560806 0.011854329146444798 0.0083617717027664185
0.17281056940555573 0.035617411136627197 0.022710073739290237
0.52182662487030029 0.13519838452339172 0.093779392540454865
0.77490222454071045 0.23587237298488617 0.18921513855457306
0.82593792676925659 0.27689754962921143 0.23481503129005432
0.011085630394518375 0.12986257672309875 0.01613222062587738
0.19247004389762878 0.17341503500938416 0.039229150861501694
0.5465509295463562 0.25369265675544739 0.089775457978248596
0.80884993076324463 0.3344879150390625 0.18291883170604706
0.89220142364501953 0.38135015964508057 0.23725150525569916
0.0043468698859214783 0.3712860643863678 0.016933979466557503
0.14044597744941711 0.44369524717330933 0.032259594649076462
0.55574303865432739 0.49805906414985657 0.098177485167980194
0.79550206661224365 0.55346697568893433 0.17978963255882263
0.90145695209503174 0.60085278749465942 0.28367689251899719
0.01554291695356369 0.47630578279495239 0.084360189735889435
0.10334023833274841 0.5604284405708313 0.11625218391418457
0.55158489942550659 0.64664590358734131 0.15348570048809052
0.82142090797424316 0.67193686962127686 0.22076927125453949
0.92534029483795166 0.73939639329910278 0.33907142281532288
0.024728348478674889 0.52900415658950806 0.090704821050167084
0.099654272198677063 0.68297076225280762 0.23720830678939819
0.59252738952636719 0.71281701326370239 0.23150689899921417
0.82396113872528076 0.7682376503944397 0.35839143395423889
0.9281582236289978 0.7878342866897583 0.41206571459770203
0.018658043816685677 0.061059419065713882 0.19809982180595398
0.27635255455970764 0.11667653918266296 0.22988075017929077
0.56427013874053955 0.20045597851276398 0.31662896275520325
0.82103359699249268 0.28365719318389893 0.3751545250415802
0.94833946228027344 0.36841562390327454 0.48290559649467468
0.018771631643176079 0.20122241973876953 0.2017606794834137
0.21317431330680847 0.24066230654716492 0.2311350405216217
0.55510681867599487 0.29661917686462402 0.28495016694068909
0.81888377666473389 0.38081005215644836 0.36347565054893494
0.97393345832824707 0.45001500844955444 0.43535348773002625
0.0070940502919256687 0.48050165176391602 0.24669748544692993
0.13168281316757202 0.4967990517616272 0.23248833417892456
0.54731428623199463 0.53029519319534302 0.29886811971664429
0.81482750177383423 0.58158522844314575 0.36086413264274597
0.96389091014862061 0.62098664045333862 0.44340234994888306
0.0055433535017073154 0.60470855236053467 0.38771212100982666
0.096859999001026154 0.68962466716766357 0.27794286608695984
0.5162850022315979 0.73098313808441162 0.33397603034973145
0.80301535129547119 0.75836575031280518 0.38663321733474731
0.94288873672485352 0.79731601476669312 0.44692862033843994
0.013056916184723377 0.65711110830307007 0.40627759695053101
0.13930730521678925 0.74573713541030884 0.35533374547958374
0.50827598571777344 0.77334588766098022 0.40144163370132446
0.79512143135070801 0.81523609161376953 0.46984964609146118
0.93938541412353516 0.84721219539642334 0.52038860321044922
0.18527328968048096 0.18091319501399994 0.52769744396209717
0.38877236843109131 0.2282254546880722 0.55700385570526123
0.62640959024429321 0.29750058054924011 0.58468794822692871
0.84135919809341431 0.37763786315917969 0.62439364194869995
0.98805767297744751 0.44817396998405457 0.67128676176071167
0.058524772524833679 0.3117833137512207 0.52559381723403931
0.29906269907951355 0.34261634945869446 0.54306018352508545
0.60118561983108521 0.40772014856338501 0.57486945390701294
0.83235698938369751 0.47019550204277039 0.61906403303146362
0.98245835304260254 0.53597486019134521 0.66965663433074951
0.022477826103568077 0.54881048202514648 0.5537300705909729
0.23330298066139221 0.5653148889541626 0.55103355646133423
0.57998216152191162 0.59939825534820557 0.5984492301940918
0.81578385829925537 0.63224440813064575 0.63353615999221802
0.97825336456298828 0.67951697111129761 0.67279928922653198
0.020255668088793755 0.72233933210372925 0.6262555718421936
0.16926409304141998 0.73335880041122437 0.55287748575210571
0.54308658838272095 0.76391428709030151 0.58905082941055298
0.80404150485992432 0.78517502546310425 0.62740767002105713
0.97127890586853027 0.84234058856964111 0.67798811197280884
0.042993299663066864 0.77368366718292236 0.66282486915588379
0.19596733152866364 0.80114638805389404 0.58156991004943848
0.50069922208786011 0.81942546367645264 0.59325742721557617
0.83995932340621948 0.8595854640007019 0.65011757612228394
0.96605473756790161 0.90510481595993042 0.69929522275924683
0.44555401802062988 0.26215773820877075 0.78172361850738525
0.54421728849411011 0.33183664083480835 0.78288763761520386
0.71139419078826904 0.41026076674461365 0.79253119230270386
0.88108956813812256 0.49113491177558899 0.81811738014221191
0.99380052089691162 0.57071042060852051 0.87048006057739258
0.21292015910148621 0.4422280490398407 0.77384167909622192
0.42793279886245728 0.48677331209182739 0.78671276569366455
0.64767038822174072 0.52738428115844727 0.79933953285217285
0.844074547290802 0.5883752703666687 0.8217771053314209
0.98035043478012085 0.62745624780654907 0.84516537189483643
0.12781341373920441 0.62571007013320923 0.78295743465423584
0.38569539785385132 0.64619219303131104 0.78572976589202881
0.63766062259674072 0.67141425609588623 0.80752003192901611
0.82820314168930054 0.70978116989135742 0.83220911026000977
0.98175585269927979 0.74707663059234619 0.85276442766189575
0.1182829886674881 0.77813756465911865 0.79101026058197021
0.33859071135520935 0.79405730962753296 0.79231953620910645
0.60095751285552979 0.80943554639816284 0.81389695405960083
0.82418698072433472 0.83104401826858521 0.83577144145965576
0.97719061374664307 0.88704013824462891 0.8738284707069397
0.18749332427978516 0.84863501787185669 0.82031989097595215
0.32619449496269226 0.87675070762634277 0.83798271417617798
0.63719260692596436 0.8984534740447998 0.85928249359130859
0.86659365892410278 0.91216552257537842 0.86099821329116821
0.97969430685043335 0.94754123687744141 0.89045065641403198
0.6512942910194397 0.34755885601043701 0.95289260149002075
0.71142816543579102 0.40099769830703735 0.95447593927383423
0.82587474584579468 0.48253354430198669 0.96777951717376709
0.94195729494094849 0.5796583890914917 0.97225236892700195
0.99603605270385742 0.64984852075576782 0.97270077466964722
0.4258970320224762 0.54851359128952026 0.9390752911567688
0.59159165620803833 0.61769944429397583 0.94951242208480835
0.7483031153678894 0.65214371681213379 0.95487487316131592
0.90001481771469116 0.68824315071105957 0.96475648880004883
0.98239070177078247 0.71079909801483154 0.968719482421875
0.20194533467292786 0.70644950866699219 0.93309730291366577
0.51246351003646851 0.7521129846572876 0.94719254970550537
0.70592963695526123 0.76983749866485596 0.94578194618225098
0.8711467981338501 0.7945370078086853 0.95815771818161011
0.98528808355331421 0.80427771806716919 0.96914577484130859
0.33111810684204102 0.85402393341064453 0.95203953981399536
0.49329110980033875 0.86775606870651245 0.95925283432006836
0.70204681158065796 0.88245981931686401 0.96071475744247437
0.87973618507385254 0.89630544185638428 0.96794456243515015
0.98744136095046997 0.92319416999816895 0.98104691505432129
0.40365943312644958 0.91640812158584595 0.94547182321548462
0.4565618634223938 0.91658669710159302 0.94429433345794678
0.6930239200592041 0.93029391765594482 0.95636922121047974
0.9015500545501709 0.9541090726852417 0.97632551193237305
0.98986876010894775 0.9763023853302002 0.97810721397399902
