luts/fujixtransiii/fuji_xtrans_iii_mono+g.cube
# Created by: G'MIC (https://gmic.eu)
TITLE "fuji_xtrans_iii_mono+g"
# LUT size
LUT_3D_SIZE 7
# Data domain
DOMAIN_MIN 0.0 0.0 0.0
DOMAIN_MAX 1.0 1.0 1.0
# LUT data points
0.011997641995549202 0.011997641995549202 0.011997641995549202
0.029853880405426025 0.029853880405426025 0.029853880405426025
0.073980830609798431 0.073980830609798431 0.073980830609798431
0.15994809567928314 0.15994809567928314 0.15994809567928314
0.23576758801937103 0.23576758801937103 0.23576758801937103
0.2646537721157074 0.2646537721157074 0.2646537721157074
0.28431537747383118 0.28431537747383118 0.28431537747383118
0.057016722857952118 0.057016722857952118 0.057016722857952118
0.081677846610546112 0.081677846610546112 0.081677846610546112
0.15100699663162231 0.15100699663162231 0.15100699663162231
0.21147693693637848 0.21147693693637848 0.21147693693637848
0.26772856712341309 0.26772856712341309 0.26772856712341309
0.30432003736495972 0.30432003736495972 0.30432003736495972
0.35231298208236694 0.35231298208236694 0.35231298208236694
0.20157304406166077 0.20157304406166077 0.20157304406166077
0.23944516479969025 0.23944516479969025 0.23944516479969025
0.2893100380897522 0.2893100380897522 0.2893100380897522
0.32793369889259338 0.32793369889259338 0.32793369889259338
0.37982028722763062 0.37982028722763062 0.37982028722763062
0.40294182300567627 0.40294182300567627 0.40294182300567627
0.40138107538223267 0.40138107538223267 0.40138107538223267
0.33015045523643494 0.33015045523643494 0.33015045523643494
0.37112075090408325 0.37112075090408325 0.37112075090408325
0.43402913212776184 0.43402913212776184 0.43402913212776184
0.46544995903968811 0.46544995903968811 0.46544995903968811
0.50499039888381958 0.50499039888381958 0.50499039888381958
0.52781558036804199 0.52781558036804199 0.52781558036804199
0.55100244283676147 0.55100244283676147 0.55100244283676147
0.39945229887962341 0.39945229887962341 0.39945229887962341
0.47037103772163391 0.47037103772163391 0.47037103772163391
0.49688199162483215 0.49688199162483215 0.49688199162483215
0.57472735643386841 0.57472735643386841 0.57472735643386841
0.59429681301116943 0.59429681301116943 0.59429681301116943
0.60736119747161865 0.60736119747161865 0.60736119747161865
0.64630264043807983 0.64630264043807983 0.64630264043807983
0.43240725994110107 0.43240725994110107 0.43240725994110107
0.54416877031326294 0.54416877031326294 0.54416877031326294
0.58555102348327637 0.58555102348327637 0.58555102348327637
0.61433941125869751 0.61433941125869751 0.61433941125869751
0.62096840143203735 0.62096840143203735 0.62096840143203735
0.64463621377944946 0.64463621377944946 0.64463621377944946
0.67551290988922119 0.67551290988922119 0.67551290988922119
0.4658263623714447 0.4658263623714447 0.4658263623714447
0.57127243280410767 0.57127243280410767 0.57127243280410767
0.61512935161590576 0.61512935161590576 0.61512935161590576
0.65266633033752441 0.65266633033752441 0.65266633033752441
0.69165724515914917 0.69165724515914917 0.69165724515914917
0.72417974472045898 0.72417974472045898 0.72417974472045898
0.72490459680557251 0.72490459680557251 0.72490459680557251
0.035432823002338409 0.035432823002338409 0.035432823002338409
0.066078290343284607 0.066078290343284607 0.066078290343284607
0.12115379422903061 0.12115379422903061 0.12115379422903061
0.21183286607265472 0.21183286607265472 0.21183286607265472
0.24525661766529083 0.24525661766529083 0.24525661766529083
0.27489742636680603 0.27489742636680603 0.27489742636680603
0.33173412084579468 0.33173412084579468 0.33173412084579468
0.10511677712202072 0.10511677712202072 0.10511677712202072
0.12612670660018921 0.12612670660018921 0.12612670660018921
0.17309673130512238 0.17309673130512238 0.17309673130512238
0.23531049489974976 0.23531049489974976 0.23531049489974976
0.28718239068984985 0.28718239068984985 0.28718239068984985
0.33064872026443481 0.33064872026443481 0.33064872026443481
0.35581415891647339 0.35581415891647339 0.35581415891647339
0.25025525689125061 0.25025525689125061 0.25025525689125061
0.26965081691741943 0.26965081691741943 0.26965081691741943
0.3094501793384552 0.3094501793384552 0.3094501793384552
0.34852659702301025 0.34852659702301025 0.34852659702301025
0.38842931389808655 0.38842931389808655 0.38842931389808655
0.43270081281661987 0.43270081281661987 0.43270081281661987
0.44868814945220947 0.44868814945220947 0.44868814945220947
0.39598122239112854 0.39598122239112854 0.39598122239112854
0.42888009548187256 0.42888009548187256 0.42888009548187256
0.45568755269050598 0.45568755269050598 0.45568755269050598
0.49326285719871521 0.49326285719871521 0.49326285719871521
0.52397006750106812 0.52397006750106812 0.52397006750106812
0.54431957006454468 0.54431957006454468 0.54431957006454468
0.55698621273040771 0.55698621273040771 0.55698621273040771
0.47017785906791687 0.47017785906791687 0.47017785906791687
0.52782672643661499 0.52782672643661499 0.52782672643661499
0.57367181777954102 0.57367181777954102 0.57367181777954102
0.60502642393112183 0.60502642393112183 0.60502642393112183
0.6263425350189209 0.6263425350189209 0.6263425350189209
0.658363938331604 0.658363938331604 0.658363938331604
0.68056857585906982 0.68056857585906982 0.68056857585906982
0.50710499286651611 0.50710499286651611 0.50710499286651611
0.59006834030151367 0.59006834030151367 0.59006834030151367
0.6353689432144165 0.6353689432144165 0.6353689432144165
0.66596341133117676 0.66596341133117676 0.66596341133117676
0.69322866201400757 0.69322866201400757 0.69322866201400757
0.73348891735076904 0.73348891735076904 0.73348891735076904
0.72478747367858887 0.72478747367858887 0.72478747367858887
0.53996449708938599 0.53996449708938599 0.53996449708938599
0.62751716375350952 0.62751716375350952 0.62751716375350952
0.66210740804672241 0.66210740804672241 0.66210740804672241
0.68411499261856079 0.68411499261856079 0.68411499261856079
0.71756941080093384 0.71756941080093384 0.71756941080093384
0.74556958675384521 0.74556958675384521 0.74556958675384521
0.78496485948562622 0.78496485948562622 0.78496485948562622
0.13049298524856567 0.13049298524856567 0.13051320612430573
0.16837140917778015 0.16837140917778015 0.16837140917778015
0.20475487411022186 0.20475487411022186 0.20475487411022186
0.2593042254447937 0.2593042254447937 0.2593042254447937
0.28386044502258301 0.28386044502258301 0.28386044502258301
0.32145696878433228 0.32145696878433228 0.32145696878433228
0.34689629077911377 0.34689629077911377 0.34689629077911377
0.18189932405948639 0.18189932405948639 0.18189932405948639
0.20890213549137115 0.20890213549137115 0.20890213549137115
0.25825434923171997 0.25825434923171997 0.25825434923171997
0.29980948567390442 0.29980948567390442 0.29980948567390442
0.33485934138298035 0.33485934138298035 0.33485934138298035
0.36649444699287415 0.36649444699287415 0.36649444699287415
0.39654955267906189 0.39654955267906189 0.39654955267906189
0.30790111422538757 0.30790111422538757 0.30790111422538757
0.32447856664657593 0.32447856664657593 0.32447856664657593
0.36051228642463684 0.36051228642463684 0.36051228642463684
0.40340763330459595 0.40340763330459595 0.40340763330459595
0.43470323085784912 0.43470323085784912 0.43470323085784912
0.46137538552284241 0.46137538552284241 0.46137538552284241
0.4613393247127533 0.4613393247127533 0.4613393247127533
0.4441666305065155 0.4441666305065155 0.4441666305065155
0.45946004986763 0.45946004986763 0.45946004986763
0.49729046225547791 0.49729046225547791 0.49731069803237915
0.53103160858154297 0.53103160858154297 0.53103160858154297
0.55804884433746338 0.55804884433746338 0.55804884433746338
0.56942272186279297 0.56942272186279297 0.56942272186279297
0.58352231979370117 0.58352231979370117 0.58352231979370117
0.52841734886169434 0.52841734886169434 0.52841734886169434
0.57903802394866943 0.57903802394866943 0.57907086610794067
0.60594087839126587 0.60594087839126587 0.60594087839126587
0.64004111289978027 0.64004111289978027 0.64004111289978027
0.66887617111206055 0.66887617111206055 0.66887617111206055
0.67888325452804565 0.67888325452804565 0.67888325452804565
0.69370067119598389 0.69370067119598389 0.69370067119598389
0.63172674179077148 0.63172674179077148 0.63172674179077148
0.64730507135391235 0.64730507135391235 0.64730507135391235
0.6778377890586853 0.6778377890586853 0.6778377890586853
0.70705544948577881 0.70705544948577881 0.70705544948577881
0.75299841165542603 0.75299841165542603 0.75299841165542603
0.75921666622161865 0.75921666622161865 0.75921666622161865
0.77893102169036865 0.77893102169036865 0.77893102169036865
0.64557868242263794 0.64557868242263794 0.64557868242263794
0.65747809410095215 0.65747809410095215 0.65747809410095215
0.70936399698257446 0.70936399698257446 0.70936399698257446
0.74835532903671265 0.74835532903671265 0.74835532903671265
0.76850080490112305 0.76850080490112305 0.76850080490112305
0.79890346527099609 0.79890346527099609 0.79890346527099609
0.81833308935165405 0.81833308935165405 0.81833308935165405
0.23189780116081238 0.23189780116081238 0.23301592469215393
0.25906798243522644 0.25906798243522644 0.25910592079162598
0.29793927073478699 0.29793927073478699 0.29793927073478699
0.34148728847503662 0.34148728847503662 0.34148728847503662
0.38285830616950989 0.38285830616950989 0.38285830616950989
0.3924487829208374 0.3924487829208374 0.3924487829208374
0.40048471093177795 0.40048471093177795 0.40048471093177795
0.27497905492782593 0.27497905492782593 0.27502942085266113
0.30554375052452087 0.30554375052452087 0.30559819936752319
0.34734007716178894 0.34734007716178894 0.34734007716178894
0.39244547486305237 0.39244547486305237 0.39244547486305237
0.42857986688613892 0.42857986688613892 0.42857986688613892
0.44079497456550598 0.44079497456550598 0.44079497456550598
0.44346672296524048 0.44346672296524048 0.44346672296524048
0.38159036636352539 0.38159036636352539 0.38162320852279663
0.40043875575065613 0.40043875575065613 0.40047416090965271
0.42964202165603638 0.42964202165603638 0.42964202165603638
0.46996650099754333 0.46996650099754333 0.46996650099754333
0.51034212112426758 0.51034212112426758 0.51034212112426758
0.52596926689147949 0.52596926689147949 0.52596926689147949
0.53343647718429565 0.53343647718429565 0.53343647718429565
0.5020255446434021 0.5020255446434021 0.5020255446434021
0.51885497570037842 0.51885497570037842 0.51885497570037842
0.54736733436584473 0.54736733436584473 0.54737383127212524
0.58450478315353394 0.58450478315353394 0.58450478315353394
0.61660629510879517 0.61660629510879517 0.61660629510879517
0.61870688199996948 0.61870688199996948 0.61870688199996948
0.62632054090499878 0.62632054090499878 0.62632054090499878
0.61114490032196045 0.61114490032196045 0.61114490032196045
0.62024980783462524 0.62024980783462524 0.62024980783462524
0.64576584100723267 0.64576584100723267 0.64576584100723267
0.67829245328903198 0.67829245328903198 0.67829245328903198
0.70903521776199341 0.70903521776199341 0.70903521776199341
0.72023177146911621 0.72023177146911621 0.72023177146911621
0.74111807346343994 0.74111807346343994 0.74111807346343994
0.6832432746887207 0.6832432746887207 0.6832432746887207
0.69663947820663452 0.69663947820663452 0.69663947820663452
0.72330689430236816 0.72330689430236816 0.72330689430236816
0.750957190990448 0.750957190990448 0.750957190990448
0.78398853540420532 0.78398853540420532 0.78398853540420532
0.80956065654754639 0.80956065654754639 0.80956065654754639
0.84357321262359619 0.84357321262359619 0.84357321262359619
0.6989096999168396 0.6989096999168396 0.6989096999168396
0.71442693471908569 0.71442693471908569 0.71442693471908569
0.73595714569091797 0.73595714569091797 0.73595714569091797
0.76630693674087524 0.76630693674087524 0.76630693674087524
0.79576390981674194 0.79576390981674194 0.79576390981674194
0.85111081600189209 0.85111081600189209 0.85111081600189209
0.87149679660797119 0.87149679660797119 0.87149679660797119
0.30905941128730774 0.30905941128730774 0.31010490655899048
0.34068655967712402 0.34068655967712402 0.34068655967712402
0.38685727119445801 0.38685727119445801 0.38685727119445801
0.43724456429481506 0.43724456429481506 0.43724456429481506
0.47435376048088074 0.47435376048088074 0.47435376048088074
0.49351203441619873 0.49351203441619873 0.49351203441619873
0.51794975996017456 0.51794975996017456 0.51794975996017456
0.3828417956829071 0.3828417956829071 0.38303720951080322
0.40757036209106445 0.40757036209106445 0.40766218304634094
0.43862909078598022 0.43862909078598022 0.43862909078598022
0.48481360077857971 0.48481360077857971 0.48481360077857971
0.51565361022949219 0.51565361022949219 0.51565361022949219
0.53132843971252441 0.53132843971252441 0.53132843971252441
0.54166674613952637 0.54166674613952637 0.54166674613952637
0.45694783329963684 0.45694783329963684 0.45700091123580933
0.48374471068382263 0.48374471068382263 0.48374471068382263
0.50451087951660156 0.50451087951660156 0.50451087951660156
0.5426943302154541 0.5426943302154541 0.5426943302154541
0.57656234502792358 0.57656234502792358 0.57656234502792358
0.60047954320907593 0.60047954320907593 0.60047954320907593
0.60948753356933594 0.60948753356933594 0.60948753356933594
0.55959761142730713 0.55959761142730713 0.55961275100708008
0.57961046695709229 0.57961046695709229 0.5796244740486145
0.59935814142227173 0.59935814142227173 0.59935814142227173
0.63097363710403442 0.63097363710403442 0.63097363710403442
0.66456031799316406 0.66456031799316406 0.66456031799316406
0.68009489774703979 0.68009489774703979 0.68009489774703979
0.69705337285995483 0.69705337285995483 0.69705337285995483
0.65564191341400146 0.65564191341400146 0.65564191341400146
0.67054182291030884 0.67054182291030884 0.67054182291030884
0.68255138397216797 0.68255138397216797 0.68255138397216797
0.71044296026229858 0.71044296026229858 0.71044296026229858
0.74512773752212524 0.74512773752212524 0.74512773752212524
0.77331274747848511 0.77331274747848511 0.77331274747848511
0.79628491401672363 0.79628491401672363 0.79628491401672363
0.74158501625061035 0.74158501625061035 0.74158501625061035
0.73554468154907227 0.73554468154907227 0.7355506420135498
0.75110065937042236 0.75110065937042236 0.75110065937042236
0.78603947162628174 0.78603947162628174 0.78603947162628174
0.81747221946716309 0.81747221946716309 0.81747221946716309
0.8485788106918335 0.8485788106918335 0.8485788106918335
0.88383018970489502 0.88383018970489502 0.88383018970489502
0.75493514537811279 0.75493514537811279 0.75493514537811279
0.78403329849243164 0.78403329849243164 0.78403329849243164
0.80264729261398315 0.80264729261398315 0.80264729261398315
0.83692800998687744 0.83692800998687744 0.83692800998687744
0.85996919870376587 0.85996919870376587 0.85996919870376587
0.88593947887420654 0.88593947887420654 0.88593947887420654
0.90587669610977173 0.90587669610977173 0.90587669610977173
0.37493491172790527 0.37493491172790527 0.37500062584877014
0.40939214825630188 0.40939214825630188 0.40942248702049255
0.45032170414924622 0.45032170414924622 0.4503294825553894
0.50871151685714722 0.50871151685714722 0.50871151685714722
0.55181950330734253 0.55181950330734253 0.55181950330734253
0.57972937822341919 0.57972937822341919 0.57972937822341919
0.59733396768569946 0.59733396768569946 0.59733396768569946
0.46004435420036316 0.46004435420036316 0.46004903316497803
0.49243223667144775 0.49243223667144775 0.49246510863304138
0.52211999893188477 0.52211999893188477 0.52214521169662476
0.56475293636322021 0.56475293636322021 0.56475293636322021
0.59177279472351074 0.59177279472351074 0.59177279472351074
0.61444121599197388 0.61444121599197388 0.61444121599197388
0.61813342571258545 0.61813342571258545 0.61813342571258545
0.53460836410522461 0.53460836410522461 0.53460836410522461
0.56595444679260254 0.56595444679260254 0.56598740816116333
0.58509248495101929 0.58509248495101929 0.58509248495101929
0.61568987369537354 0.61568987369537354 0.61571007966995239
0.64884895086288452 0.64884895086288452 0.64884895086288452
0.67820215225219727 0.67820215225219727 0.67820215225219727
0.6816064715385437 0.6816064715385437 0.6816064715385437
0.61404252052307129 0.61404252052307129 0.61404252052307129
0.64412599802017212 0.64412599802017212 0.64412599802017212
0.65252500772476196 0.65252500772476196 0.65252500772476196
0.67679983377456665 0.67679983377456665 0.67679983377456665
0.71337968111038208 0.71337968111038208 0.71337968111038208
0.73499053716659546 0.73499053716659546 0.73499053716659546
0.76041680574417114 0.76041680574417114 0.76041680574417114
0.70208430290222168 0.70208430290222168 0.70208430290222168
0.72118568420410156 0.72118568420410156 0.72118568420410156
0.73409509658813477 0.73409509658813477 0.73409509658813477
0.75222253799438477 0.75222253799438477 0.75222253799438477
0.78545761108398438 0.78545761108398438 0.78545761108398438
0.81538486480712891 0.81538486480712891 0.81538486480712891
0.84221673011779785 0.84221673011779785 0.84221673011779785
0.76863420009613037 0.76863420009613037 0.76863420009613037
0.79082274436950684 0.79082274436950684 0.79082274436950684
0.81846374273300171 0.81846374273300171 0.81846374273300171
0.82872903347015381 0.82872903347015381 0.82872903347015381
0.86317151784896851 0.86317151784896851 0.86317151784896851
0.88389623165130615 0.88389623165130615 0.88389623165130615
0.91983973979949951 0.91983973979949951 0.91983973979949951
0.84327191114425659 0.84327191114425659 0.84327191114425659
0.82606709003448486 0.82606709003448486 0.82606709003448486
0.84664773941040039 0.84664773941040039 0.84664773941040039
0.87308204174041748 0.87308204174041748 0.87308204174041748
0.90135473012924194 0.90135473012924194 0.90135473012924194
0.91935211420059204 0.91935211420059204 0.91935211420059204
0.94044190645217896 0.94044190645217896 0.94044190645217896
0.42362833023071289 0.42362833023071289 0.42362833023071289
0.44574418663978577 0.44574418663978577 0.44589352607727051
0.50231879949569702 0.50231879949569702 0.50233745574951172
0.55355507135391235 0.55355507135391235 0.55355507135391235
0.61034142971038818 0.61034142971038818 0.61034142971038818
0.66041791439056396 0.66041791439056396 0.66041791439056396
0.67618012428283691 0.67618012428283691 0.67618012428283691
0.49728554487228394 0.49728554487228394 0.49728554487228394
0.53374218940734863 0.53374218940734863 0.53390073776245117
0.58296382427215576 0.58296382427215576 0.58299672603607178
0.61968666315078735 0.61968666315078735 0.61968666315078735
0.65753430128097534 0.65753430128097534 0.65753430128097534
0.6907687783241272 0.6907687783241272 0.6907687783241272
0.69538378715515137 0.69538378715515137 0.69538378715515137
0.60753577947616577 0.60753577947616577 0.60753577947616577
0.6420588493347168 0.6420588493347168 0.6420588493347168
0.66386502981185913 0.66386502981185913 0.66386812925338745
0.69118392467498779 0.69118392467498779 0.69118392467498779
0.7161937952041626 0.7161937952041626 0.7161937952041626
0.73827439546585083 0.73827439546585083 0.73827439546585083
0.7512742280960083 0.7512742280960083 0.7512742280960083
0.67500931024551392 0.67500931024551392 0.67500931024551392
0.70383560657501221 0.70383560657501221 0.70383560657501221
0.72059088945388794 0.72059088945388794 0.72059088945388794
0.74609255790710449 0.74609255790710449 0.74609255790710449
0.76855194568634033 0.76855194568634033 0.76855194568634033
0.79205566644668579 0.79205566644668579 0.79205566644668579
0.80577486753463745 0.80577486753463745 0.80577486753463745
0.7453879714012146 0.7453879714012146 0.7453879714012146
0.7681814432144165 0.7681814432144165 0.7681814432144165
0.78564953804016113 0.78564953804016113 0.78564953804016113
0.8081812858581543 0.8081812858581543 0.8081812858581543
0.83171373605728149 0.83171373605728149 0.83171373605728149
0.85791468620300293 0.85791468620300293 0.85791468620300293
0.88309240341186523 0.88309240341186523 0.88309240341186523
0.82893335819244385 0.82893335819244385 0.82893335819244385
0.83399879932403564 0.83399879932403564 0.83399879932403564
0.85572618246078491 0.85572618246078491 0.85572618246078491
0.87577360868453979 0.87577360868453979 0.87577360868453979
0.9004206657409668 0.9004206657409668 0.9004206657409668
0.91911828517913818 0.91911828517913818 0.91911828517913818
0.94261866807937622 0.94261866807937622 0.94261866807937622
0.86067235469818115 0.86067235469818115 0.86067235469818115
0.84673190116882324 0.84673190116882324 0.84673190116882324
0.86284780502319336 0.86284780502319336 0.86284780502319336
0.88884389400482178 0.88884389400482178 0.88884389400482178
0.91416013240814209 0.91416013240814209 0.91416013240814209
0.94026601314544678 0.94026601314544678 0.94026601314544678
0.9568067193031311 0.9568067193031311 0.9568067193031311
