luts/fujixtransiii/fuji_xtrans_iii_mono+r.cube
# Created by: G'MIC (https://gmic.eu)
TITLE "fuji_xtrans_iii_mono+r"
# LUT size
LUT_3D_SIZE 7
# Data domain
DOMAIN_MIN 0.0 0.0 0.0
DOMAIN_MAX 1.0 1.0 1.0
# LUT data points
0.011329052038490772 0.011329052038490772 0.011329052038490772
0.068507596850395203 0.068507596850395203 0.068507596850395203
0.22343245148658752 0.22343245148658752 0.22343245148658752
0.41009131073951721 0.41009131073951721 0.41009131073951721
0.55983483791351318 0.55986517667770386 0.55986517667770386
0.62780886888504028 0.62780886888504028 0.62780886888504028
0.66147452592849731 0.66147452592849731 0.66147452592849731
0.038863372057676315 0.038863372057676315 0.038863372057676315
0.10659199208021164 0.10659199208021164 0.10659199208021164
0.26277008652687073 0.26277008652687073 0.26277008652687073
0.43249571323394775 0.43249571323394775 0.43249571323394775
0.58238494396209717 0.58238494396209717 0.58238494396209717
0.65671223402023315 0.65671223402023315 0.65671223402023315
0.70491588115692139 0.70491588115692139 0.70491588115692139
0.12869042158126831 0.12869042158126831 0.12869042158126831
0.19999226927757263 0.19999226927757263 0.19999226927757263
0.34620130062103271 0.34620130062103271 0.34620130062103271
0.47654587030410767 0.47654587030410767 0.47654587030410767
0.60693353414535522 0.60693353414535522 0.60693353414535522
0.69748097658157349 0.69748097658157349 0.69748097658157349
0.72299861907958984 0.72299861907958984 0.72299861907958984
0.23649753630161285 0.23649753630161285 0.23649753630161285
0.30280151963233948 0.30280151963233948 0.30280151963233948
0.41917216777801514 0.41917216777801514 0.41917216777801514
0.53869801759719849 0.53869801759719849 0.53869801759719849
0.64671832323074341 0.64671832323074341 0.64671832323074341
0.71865737438201904 0.71865737438201904 0.71865737438201904
0.76802587509155273 0.76802587509155273 0.76802587509155273
0.29735508561134338 0.29735508561134338 0.29735508561134338
0.36766207218170166 0.36766207218170166 0.36766207218170166
0.45483788847923279 0.45483788847923279 0.45483788847923279
0.59094381332397461 0.59094381332397461 0.59094381332397461
0.6920623779296875 0.6920623779296875 0.6920623779296875
0.74703454971313477 0.74703454971313477 0.74703454971313477
0.80052077770233154 0.80052077770233154 0.80052077770233154
0.32542851567268372 0.32542851567268372 0.32542851567268372
0.42866486310958862 0.42866486310958862 0.42866486310958862
0.51439571380615234 0.51439571380615234 0.51439571380615234
0.61500489711761475 0.61500489711761475 0.61500489711761475
0.68942779302597046 0.68942779302597046 0.68942779302597046
0.79229152202606201 0.79229152202606201 0.79229152202606201
0.83366215229034424 0.83366215229034424 0.83366215229034424
0.36214640736579895 0.36214640736579895 0.36214640736579895
0.45154890418052673 0.45154890418052673 0.45154890418052673
0.52978241443634033 0.52978241443634033 0.52978241443634033
0.64276468753814697 0.64276468753814697 0.64276468753814697
0.72729682922363281 0.72729682922363281 0.72729682922363281
0.81539428234100342 0.81539428234100342 0.81539428234100342
0.84656310081481934 0.84656310081481934 0.84656310081481934
0.017141200602054596 0.017141200602054596 0.017141200602054596
0.094098798930644989 0.094098798930644989 0.094098798930644989
0.24416422843933105 0.24416422843933105 0.24416422843933105
0.43439352512359619 0.43439352512359619 0.43439352512359619
0.59549176692962646 0.59549176692962646 0.59549176692962646
0.6627231240272522 0.6627231240272522 0.6627231240272522
0.74343985319137573 0.74343985319137573 0.74343985319137573
0.056497551500797272 0.056497551500797272 0.056497551500797272
0.12877427041530609 0.12877427041530609 0.12877427041530609
0.28266888856887817 0.28266888856887817 0.28266888856887817
0.44319146871566772 0.44319146871566772 0.44319146871566772
0.59020215272903442 0.59020215272903442 0.59020215272903442
0.70116227865219116 0.70116227865219116 0.70116227865219116
0.75815212726593018 0.75815212726593018 0.75815212726593018
0.15171852707862854 0.15171852707862854 0.15171852707862854
0.22100695967674255 0.22100695967674255 0.22100695967674255
0.34690535068511963 0.34690535068511963 0.34690535068511963
0.48809555172920227 0.48809555172920227 0.48809555172920227
0.61828112602233887 0.61828112602233887 0.61828112602233887
0.72543597221374512 0.72543597221374512 0.72543597221374512
0.78717136383056641 0.78717136383056641 0.78717136383056641
0.26917383074760437 0.26917383074760437 0.26917383074760437
0.32616150379180908 0.32616150379180908 0.32616150379180908
0.41749471426010132 0.41749471426010132 0.41749471426010132
0.54295241832733154 0.54295241832733154 0.54295241832733154
0.66049343347549438 0.66049343347549438 0.66049343347549438
0.75161528587341309 0.75161528587341309 0.75161528587341309
0.80023562908172607 0.80023562908172607 0.80023562908172607
0.33998614549636841 0.33998614549636841 0.33998614549636841
0.40786194801330566 0.40786194801330566 0.40786194801330566
0.48601570725440979 0.48601570725440979 0.48601570725440979
0.60582840442657471 0.60582840442657471 0.60582840442657471
0.6998785138130188 0.6998785138130188 0.6998785138130188
0.79022705554962158 0.79022705554962158 0.79022705554962158
0.85516571998596191 0.85516571998596191 0.85516571998596191
0.36869397759437561 0.36869397759437561 0.36869397759437561
0.46148049831390381 0.46148049831390381 0.46148049831390381
0.53572326898574829 0.53572326898574829 0.53572326898574829
0.64091283082962036 0.64091283082962036 0.64091283082962036
0.72554188966751099 0.72554188966751099 0.72554188966751099
0.81232070922851562 0.81232070922851562 0.81232070922851562
0.84928363561630249 0.84928363561630249 0.84928363561630249
0.39066708087921143 0.39066708087921143 0.39066708087921143
0.50071483850479126 0.50071483850479126 0.50071483850479126
0.55473476648330688 0.55473476648330688 0.55473476648330688
0.64262717962265015 0.64262717962265015 0.64262717962265015
0.73338115215301514 0.73338115215301514 0.73338115215301514
0.82910370826721191 0.82910370826721191 0.82910370826721191
0.87191402912139893 0.87191402912139893 0.87191402912139893
0.027194257825613022 0.02735353447496891 0.02735353447496891
0.1282770037651062 0.12840594351291656 0.12840594351291656
0.27233150601387024 0.27233150601387024 0.27233150601387024
0.4439551830291748 0.4439551830291748 0.4439551830291748
0.60304170846939087 0.60304170846939087 0.60304170846939087
0.71210086345672607 0.71210086345672607 0.71210086345672607
0.77789485454559326 0.77789485454559326 0.77789485454559326
0.075859099626541138 0.075859099626541138 0.075859099626541138
0.16066165268421173 0.16066165268421173 0.16066165268421173
0.29897215962409973 0.29897215962409973 0.29897215962409973
0.45845258235931396 0.45845258235931396 0.45845258235931396
0.60131436586380005 0.60131436586380005 0.60131436586380005
0.71765291690826416 0.71765291690826416 0.71765291690826416
0.80457115173339844 0.80457115173339844 0.80457115173339844
0.18151263892650604 0.18151263892650604 0.18151263892650604
0.25074824690818787 0.25074824690818787 0.25074824690818787
0.36898356676101685 0.36898356676101685 0.36898356676101685
0.50466740131378174 0.50466740131378174 0.50466740131378174
0.62776046991348267 0.62776046991348267 0.62776046991348267
0.73519361019134521 0.73519361019134521 0.73519361019134521
0.81190687417984009 0.81190687417984009 0.81190687417984009
0.30878755450248718 0.30878755450248718 0.30878755450248718
0.34910711646080017 0.34910711646080017 0.34910711646080017
0.44386747479438782 0.44386747479438782 0.44386747479438782
0.55482667684555054 0.55482667684555054 0.55482667684555054
0.66802400350570679 0.66802400350570679 0.66802400350570679
0.76329845190048218 0.76329845190048218 0.76329845190048218
0.83568000793457031 0.83568000793457031 0.83568000793457031
0.37195739150047302 0.37195739150047302 0.37195739150047302
0.44189026951789856 0.44189026951789856 0.44189026951789856
0.51595807075500488 0.51595807075500488 0.51595807075500488
0.61258125305175781 0.61258125305175781 0.61258125305175781
0.71196460723876953 0.71196460723876953 0.71196460723876953
0.80224597454071045 0.80224597454071045 0.80224597454071045
0.87091296911239624 0.87091296911239624 0.87091296911239624
0.47417411208152771 0.47417411208152771 0.47417411208152771
0.4925999641418457 0.4925999641418457 0.4925999641418457
0.55904370546340942 0.55904370546340942 0.55904370546340942
0.64827752113342285 0.64827752113342285 0.64827752113342285
0.74877190589904785 0.74877190589904785 0.74877190589904785
0.83857244253158569 0.83857244253158569 0.83857244253158569
0.89480501413345337 0.89480501413345337 0.89480501413345337
0.48715648055076599 0.48715648055076599 0.48715648055076599
0.50842154026031494 0.50842154026031494 0.50842154026031494
0.58535653352737427 0.58535653352737427 0.58535653352737427
0.67804509401321411 0.67804509401321411 0.67804509401321411
0.75368821620941162 0.75368821620941162 0.75368821620941162
0.86099255084991455 0.86099255084991455 0.86099255084991455
0.90835428237915039 0.90835428237915039 0.90835428237915039
0.064179964363574982 0.066255681216716766 0.066255681216716766
0.15916556119918823 0.15933828055858612 0.15933828055858612
0.29681122303009033 0.29681122303009033 0.29681122303009033
0.45753267407417297 0.45754784345626831 0.45754784345626831
0.60830128192901611 0.60830128192901611 0.60830128192901611
0.72198927402496338 0.72198927402496338 0.72198927402496338
0.80793839693069458 0.80793839693069458 0.80793839693069458
0.081661850214004517 0.081675857305526733 0.081675857305526733
0.18603703379631042 0.18608507513999939 0.18608507513999939
0.32628443837165833 0.32628443837165833 0.32628443837165833
0.47676739096641541 0.47676739096641541 0.47676739096641541
0.60577523708343506 0.60577523708343506 0.60577523708343506
0.72662603855133057 0.72662603855133057 0.72662603855133057
0.82135993242263794 0.82135993242263794 0.82135993242263794
0.19297267496585846 0.19297267496585846 0.19297267496585846
0.27702847123146057 0.27702847123146057 0.27702847123146057
0.40037006139755249 0.40037006139755249 0.40037006139755249
0.51942735910415649 0.51942735910415649 0.51942735910415649
0.63829320669174194 0.63829320669174194 0.63829320669174194
0.74596947431564331 0.74596947431564331 0.74596947431564331
0.82608342170715332 0.82608342170715332 0.82608342170715332
0.32528451085090637 0.32528451085090637 0.32528451085090637
0.37487971782684326 0.37487971782684326 0.37487971782684326
0.47272014617919922 0.47268730401992798 0.47268730401992798
0.57806706428527832 0.57806706428527832 0.57806706428527832
0.67784351110458374 0.67784351110458374 0.67784351110458374
0.77235108613967896 0.77235108613967896 0.77235108613967896
0.84966325759887695 0.84966325759887695 0.84966325759887695
0.43544784188270569 0.43544784188270569 0.43544784188270569
0.47019481658935547 0.47019481658935547 0.47019481658935547
0.54742681980133057 0.54742681980133057 0.54742681980133057
0.63536721467971802 0.63536721467971802 0.63536721467971802
0.72131717205047607 0.72131717205047607 0.72131717205047607
0.81286072731018066 0.81286072731018066 0.81286072731018066
0.87745946645736694 0.87745946645736694 0.87745946645736694
0.49196118116378784 0.49196118116378784 0.49196118116378784
0.53169369697570801 0.53169369697570801 0.53169369697570801
0.59413093328475952 0.59413093328475952 0.59413093328475952
0.67478615045547485 0.67478615045547485 0.67478615045547485
0.76664835214614868 0.76664835214614868 0.76664835214614868
0.86157041788101196 0.86157041788101196 0.86157041788101196
0.9369654655456543 0.9369654655456543 0.9369654655456543
0.50842177867889404 0.50842177867889404 0.50842177867889404
0.55013221502304077 0.55013221502304077 0.55013221502304077
0.59963417053222656 0.59963417053222656 0.59963417053222656
0.67745745182037354 0.67745745182037354 0.67745745182037354
0.77692526578903198 0.77692526578903198 0.77692526578903198
0.89126133918762207 0.89126133918762207 0.89126133918762207
0.93621981143951416 0.93621981143951416 0.93621981143951416
0.14228633046150208 0.14258717000484467 0.14258717000484467
0.19592013955116272 0.19595047831535339 0.19595047831535339
0.30254238843917847 0.3025524914264679 0.3025524914264679
0.45426225662231445 0.45426225662231445 0.45426225662231445
0.61403530836105347 0.61403530836105347 0.61403530836105347
0.7315899133682251 0.7315899133682251 0.7315899133682251
0.81114983558654785 0.81114983558654785 0.81114983558654785
0.11425381898880005 0.11425381898880005 0.11425381898880005
0.20867624878883362 0.20867624878883362 0.20867624878883362
0.33508563041687012 0.33508563041687012 0.33508563041687012
0.48920026421546936 0.48920026421546936 0.48920026421546936
0.62999993562698364 0.62999993562698364 0.62999993562698364
0.74295705556869507 0.74295705556869507 0.74295705556869507
0.82751238346099854 0.82751238346099854 0.82751238346099854
0.19852574169635773 0.19852574169635773 0.19852574169635773
0.29119387269020081 0.29119387269020081 0.29119387269020081
0.40560409426689148 0.40560409426689148 0.40560409426689148
0.53207439184188843 0.53207439184188843 0.53207439184188843
0.65541505813598633 0.65541505813598633 0.65541505813598633
0.75953388214111328 0.75953388214111328 0.75953388214111328
0.84273004531860352 0.84273004531860352 0.84273004531860352
0.3351936936378479 0.3351936936378479 0.3351936936378479
0.4010922908782959 0.4010922908782959 0.4010922908782959
0.48214679956436157 0.48214679956436157 0.48214679956436157
0.59389883279800415 0.59389883279800415 0.59389883279800415
0.69158089160919189 0.69158089160919189 0.69158089160919189
0.78447014093399048 0.78447014093399048 0.78447014093399048
0.8772309422492981 0.8772309422492981 0.8772309422492981
0.45008143782615662 0.45008143782615662 0.45008143782615662
0.49590358138084412 0.49590358138084412 0.49590358138084412
0.55891764163970947 0.55891764163970947 0.55891764163970947
0.64912515878677368 0.64912515878677368 0.64912515878677368
0.73697882890701294 0.73695856332778931 0.73695856332778931
0.82685166597366333 0.82685166597366333 0.82685166597366333
0.90523964166641235 0.90523964166641235 0.90523964166641235
0.53328990936279297 0.53328990936279297 0.53328990936279297
0.56526052951812744 0.56526052951812744 0.56526052951812744
0.61482858657836914 0.61482858657836914 0.61482858657836914
0.70501923561096191 0.70501923561096191 0.70501923561096191
0.78795701265335083 0.78795701265335083 0.78795701265335083
0.87463200092315674 0.87463200092315674 0.87463200092315674
0.95005959272384644 0.95005959272384644 0.95005959272384644
0.55002027750015259 0.55002027750015259 0.55002027750015259
0.60318046808242798 0.60318046808242798 0.60318046808242798
0.65473556518554688 0.65473556518554688 0.65473556518554688
0.74083459377288818 0.74083459377288818 0.74083459377288818
0.82110786437988281 0.82110786437988281 0.82110786437988281
0.91016381978988647 0.91016381978988647 0.91016381978988647
0.96041864156723022 0.96041864156723022 0.96041864156723022
0.23365673422813416 0.23365673422813416 0.23365673422813416
0.25916779041290283 0.25916779041290283 0.25916779041290283
0.3304838240146637 0.33051666617393494 0.33051666617393494
0.46484404802322388 0.46484911441802979 0.46484911441802979
0.61718130111694336 0.61718130111694336 0.61718130111694336
0.73195004463195801 0.73195004463195801 0.73195004463195801
0.81910628080368042 0.81910628080368042 0.81910628080368042
0.15897347033023834 0.15897347033023834 0.15897347033023834
0.23693621158599854 0.23693621158599854 0.23693621158599854
0.34898102283477783 0.34898102283477783 0.34898102283477783
0.49618044495582581 0.49618551135063171 0.49618551135063171
0.63586199283599854 0.63586199283599854 0.63586199283599854
0.74786591529846191 0.74786591529846191 0.74786591529846191
0.82850474119186401 0.82850474119186401 0.82850474119186401
0.19838263094425201 0.19838263094425201 0.19838263094425201
0.3108653724193573 0.3108653724193573 0.3108653724193573
0.41254952549934387 0.41254952549934387 0.41254952549934387
0.53944629430770874 0.53944629430770874 0.53944629430770874
0.65759360790252686 0.65759360790252686 0.65759360790252686
0.76665025949478149 0.76665025949478149 0.76665025949478149
0.85186076164245605 0.85186076164245605 0.85186076164245605
0.33079800009727478 0.33079800009727478 0.33079800009727478
0.42055478692054749 0.42055478692054749 0.42055478692054749
0.49844661355018616 0.49844661355018616 0.49844661355018616
0.60266762971878052 0.60266762971878052 0.60266762971878052
0.70048004388809204 0.70048004388809204 0.70048004388809204
0.79726094007492065 0.79726094007492065 0.79726094007492065
0.87484276294708252 0.87484276294708252 0.87484276294708252
0.45927229523658752 0.45927229523658752 0.45927229523658752
0.51511389017105103 0.51511389017105103 0.51511389017105103
0.57449007034301758 0.57449007034301758 0.57449007034301758
0.66497957706451416 0.66497957706451416 0.66497957706451416
0.75108796358108521 0.75108796358108521 0.75108796358108521
0.84072089195251465 0.84072089195251465 0.84072089195251465
0.91407179832458496 0.91407179832458496 0.91407179832458496
0.54726946353912354 0.54726946353912354 0.54726946353912354
0.5948866605758667 0.5948866605758667 0.5948866605758667
0.64702916145324707 0.64702916145324707 0.64702916145324707
0.72584438323974609 0.72584438323974609 0.72584438323974609
0.80743587017059326 0.80743587017059326 0.80743587017059326
0.88862556219100952 0.88862556219100952 0.88862556219100952
0.96073102951049805 0.96073102951049805 0.96073102951049805
0.64845603704452515 0.64845603704452515 0.64845603704452515
0.63116776943206787 0.63116776943206787 0.63116776943206787
0.68113476037979126 0.68113476037979126 0.68113476037979126
0.75815367698669434 0.75815367698669434 0.75815367698669434
0.83795654773712158 0.83795654773712158 0.83795654773712158
0.9124370813369751 0.9124370813369751 0.9124370813369751
0.96958452463150024 0.96958452463150024 0.96958452463150024
0.35104727745056152 0.35104727745056152 0.35104727745056152
0.36556592583656311 0.36556592583656311 0.36556592583656311
0.41540694236755371 0.41565275192260742 0.41565275192260742
0.49996492266654968 0.49999779462814331 0.49999779462814331
0.61864900588989258 0.61864900588989258 0.61864900588989258
0.73902666568756104 0.73902666568756104 0.73902666568756104
0.78497183322906494 0.78497183322906494 0.78497183322906494
0.28418400883674622 0.28418400883674622 0.28418400883674622
0.32670110464096069 0.32670110464096069 0.32670110464096069
0.38969883322715759 0.39067915081977844 0.39067915081977844
0.50323975086212158 0.50327259302139282 0.50327259302139282
0.6393660306930542 0.63939893245697021 0.63939893245697021
0.74924772977828979 0.74924772977828979 0.74924772977828979
0.8121417760848999 0.8121417760848999 0.8121417760848999
0.19278900325298309 0.19278900325298309 0.19278900325298309
0.28620451688766479 0.28620451688766479 0.28620451688766479
0.4037497341632843 0.4037497341632843 0.4037497341632843
0.53139787912368774 0.53141653537750244 0.53141653537750244
0.65241855382919312 0.65241855382919312 0.65241855382919312
0.76819700002670288 0.76819700002670288 0.76819700002670288
0.83917528390884399 0.83917528390884399 0.83917528390884399
0.28367772698402405 0.28367772698402405 0.28367772698402405
0.3701496422290802 0.3701496422290802 0.3701496422290802
0.49361410737037659 0.49361410737037659 0.49361410737037659
0.60090458393096924 0.60090458393096924 0.60090458393096924
0.70680022239685059 0.70680022239685059 0.70680022239685059
0.80168753862380981 0.80168753862380981 0.80168753862380981
0.87623590230941772 0.87623590230941772 0.87623590230941772
0.44475394487380981 0.44475394487380981 0.44475394487380981
0.48267880082130432 0.48267880082130432 0.48267880082130432
0.58659815788269043 0.58659815788269043 0.58659815788269043
0.67853826284408569 0.67853826284408569 0.67853826284408569
0.76084434986114502 0.76084434986114502 0.76084434986114502
0.85004317760467529 0.85004317760467529 0.85004317760467529
0.92276126146316528 0.92276126146316528 0.92276126146316528
0.57069152593612671 0.57069152593612671 0.57069152593612671
0.60288834571838379 0.60288834571838379 0.60288834571838379
0.65987539291381836 0.65987539291381836 0.65987539291381836
0.72925305366516113 0.72925305366516113 0.72925305366516113
0.81354629993438721 0.81354629993438721 0.81354629993438721
0.89261800050735474 0.89261800050735474 0.89261800050735474
0.9539448618888855 0.9539448618888855 0.9539448618888855
0.63618952035903931 0.63618952035903931 0.63618952035903931
0.62654489278793335 0.62654489278793335 0.62654489278793335
0.68689274787902832 0.68689274787902832 0.68689274787902832
0.78002399206161499 0.78002399206161499 0.78002399206161499
0.8480338454246521 0.8480338454246521 0.8480338454246521
0.92797988653182983 0.92797988653182983 0.92797988653182983
0.96663880348205566 0.96663880348205566 0.96663880348205566
