luts/fujixtransiii/fuji_xtrans_iii_pro_neg_hi.cube
# Created by: G'MIC (https://gmic.eu)
TITLE "fuji_xtrans_iii_pro_neg_hi"
# LUT size
LUT_3D_SIZE 5
# Data domain
DOMAIN_MIN 0.0 0.0 0.0
DOMAIN_MAX 1.0 1.0 1.0
# LUT data points
0.0067676766775548458 0.008514823392033577 0.0066762738861143589
0.16128964722156525 0.029495524242520332 0.019424602389335632
0.52167922258377075 0.11967634409666061 0.078849717974662781
0.7801395058631897 0.21664535999298096 0.18186502158641815
0.840748131275177 0.2596774697303772 0.23414605855941772
0.0061834747903048992 0.15825106203556061 0.0060781738720834255
0.18140734732151031 0.18643586337566376 0.013241307809948921
0.54879754781723022 0.25200465321540833 0.043800383806228638
0.81943327188491821 0.32661211490631104 0.14338284730911255
0.91731297969818115 0.38039976358413696 0.21109472215175629
0.0025124943349510431 0.40939939022064209 0.0010203043930232525
0.11773984134197235 0.47898757457733154 0
0.54573643207550049 0.5091862678527832 0.0067440406419336796
0.80546891689300537 0.55284196138381958 0.080600455403327942
0.92959719896316528 0.58981192111968994 0.21896329522132874
0.011322110891342163 0.50483345985412598 0.022927960380911827
0.088402800261974335 0.58934199810028076 0.052454181015491486
0.5315479040145874 0.65523785352706909 0.017479287460446358
0.82319539785385132 0.66995656490325928 0.1072579026222229
0.96249735355377197 0.73708969354629517 0.25130939483642578
0.016598151996731758 0.55826431512832642 0.023037854582071304
0.089046075940132141 0.7071724534034729 0.13782624900341034
0.55624055862426758 0.72696214914321899 0.1144360676407814
0.81666111946105957 0.77526140213012695 0.26153546571731567
0.95434170961380005 0.7922406792640686 0.31973320245742798
0.01932079903781414 0.046047613024711609 0.23019653558731079
0.2725737988948822 0.095287710428237915 0.2665371298789978
0.5584723949432373 0.16862663626670837 0.36930391192436218
0.82478713989257812 0.25876456499099731 0.43144902586936951
0.98174607753753662 0.34043470025062561 0.53483706712722778
0.015202989801764488 0.20712487399578094 0.20549800992012024
0.20712025463581085 0.23654931783676147 0.21944126486778259
0.5551639199256897 0.29001745581626892 0.28929850459098816
0.81792646646499634 0.36873209476470947 0.37330347299575806
0.99057787656784058 0.43867698311805725 0.45384132862091064
0.0069187087938189507 0.4898151159286499 0.17365315556526184
0.13202057778835297 0.51783472299575806 0.16174240410327911
0.52920055389404297 0.53733575344085693 0.22776040434837341
0.81268692016601562 0.57438927888870239 0.31608247756958008
0.98512625694274902 0.60024893283843994 0.39918237924575806
0.0047357897274196148 0.61709290742874146 0.33575206995010376
0.08246263861656189 0.71888166666030884 0.18958540260791779
0.47496667504310608 0.74212121963500977 0.2370360791683197
0.79311490058898926 0.75534850358963013 0.29181310534477234
0.98025542497634888 0.79945248365402222 0.35805293917655945
0.011875586584210396 0.68045705556869507 0.34492990374565125
0.11258302628993988 0.7757304310798645 0.27194255590438843
0.46339687705039978 0.79243248701095581 0.30387786030769348
0.78141301870346069 0.82722759246826172 0.37240731716156006
0.96820282936096191 0.85471820831298828 0.41882121562957764
0.16690947115421295 0.13569875061511993 0.66640961170196533
0.38847190141677856 0.17004974186420441 0.67385333776473999
0.62133520841598511 0.24611590802669525 0.68803602457046509
0.84180611371994019 0.32615438103675842 0.70494502782821655
0.99264800548553467 0.39527425169944763 0.73358219861984253
0.082211934030056 0.30470651388168335 0.59730583429336548
0.32504549622535706 0.34090033173561096 0.61219561100006104
0.5957760214805603 0.37920317053794861 0.63842356204986572
0.83405798673629761 0.43792012333869934 0.67150533199310303
0.9888681173324585 0.48717346787452698 0.70848381519317627
0.036191932857036591 0.54505771398544312 0.54513561725616455
0.2678317129611969 0.55704355239868164 0.55615079402923584
0.56940782070159912 0.57982546091079712 0.58309966325759888
0.82102417945861816 0.60383707284927368 0.6097111701965332
0.99050337076187134 0.64281511306762695 0.6435551643371582
0.02601388655602932 0.73466497659683228 0.57135152816772461
0.15303115546703339 0.7613033652305603 0.49162745475769043
0.5028611421585083 0.77132880687713623 0.51098752021789551
0.79528015851974487 0.78814435005187988 0.54540270566940308
0.9835020899772644 0.83809632062911987 0.59996277093887329
0.042782578617334366 0.7942814826965332 0.61115568876266479
0.16020588576793671 0.82833290100097656 0.50049883127212524
0.45229610800743103 0.83792567253112793 0.50642013549804688
0.82889163494110107 0.87251830101013184 0.56058305501937866
0.98747217655181885 0.92440581321716309 0.6162717342376709
0.39070647954940796 0.15032070875167847 0.9081798791885376
0.52803760766983032 0.23193378746509552 0.91004568338394165
0.71481955051422119 0.31023699045181274 0.91911131143569946
0.88878679275512695 0.39443239569664001 0.93531894683837891
0.99604535102844238 0.4747251570224762 0.9750598669052124
0.22894397377967834 0.40894266963005066 0.90041238069534302
0.46959954500198364 0.45156770944595337 0.90630471706390381
0.65845257043838501 0.47954496741294861 0.91402798891067505
0.85383081436157227 0.5178876519203186 0.92063415050506592
0.99013030529022217 0.56238448619842529 0.94571030139923096
0.21220174431800842 0.60624456405639648 0.84414660930633545
0.43470236659049988 0.62924998998641968 0.85076671838760376
0.63215309381484985 0.63564366102218628 0.85595732927322388
0.84387081861495972 0.65815848112106323 0.87049031257629395
0.99333071708679199 0.69893252849578857 0.90044170618057251
0.16391089558601379 0.78979581594467163 0.79499530792236328
0.33864608407020569 0.79824560880661011 0.79316693544387817
0.57759326696395874 0.80496042966842651 0.80511331558227539
0.82490170001983643 0.81931537389755249 0.82283180952072144
0.99192589521408081 0.87076109647750854 0.86045354604721069
0.20042282342910767 0.87413537502288818 0.81719434261322021
0.29071682691574097 0.90230906009674072 0.8184431791305542
0.60233479738235474 0.91946673393249512 0.84418833255767822
0.85762107372283936 0.92514520883560181 0.82446163892745972
0.9871523380279541 0.95735353231430054 0.85708987712860107
0.59117138385772705 0.21028082072734833 0.9998786449432373
0.6722068190574646 0.29618015885353088 0.99689912796020508
0.81607037782669067 0.40687182545661926 0.99618768692016602
0.93934905529022217 0.54676955938339233 0.99679392576217651
0.99929547309875488 0.59661686420440674 0.99950194358825684
0.41935521364212036 0.47712457180023193 0.99583178758621216
0.61830508708953857 0.55688881874084473 0.99454623460769653
0.7687498927116394 0.59187620878219604 0.99360710382461548
0.91971153020858765 0.63884758949279785 0.99458390474319458
0.99835914373397827 0.63737624883651733 0.99996554851531982
0.22924803197383881 0.67772877216339111 0.99559080600738525
0.56380563974380493 0.71618759632110596 0.99426960945129395
0.73253488540649414 0.72378724813461304 0.99064618349075317
0.89627057313919067 0.74545043706893921 0.99669015407562256
0.99575775861740112 0.7404170036315918 1
0.35544446110725403 0.8545042872428894 0.9960295557975769
0.51844960451126099 0.86480599641799927 0.99482876062393188
0.69530922174453735 0.86934739351272583 0.99046820402145386
0.87692892551422119 0.88918471336364746 0.98930126428604126
0.99572235345840454 0.91298896074295044 0.99858611822128296
0.39552035927772522 0.94241493940353394 0.96074479818344116
0.44259068369865417 0.94012129306793213 0.96575289964675903
0.6692967414855957 0.94503599405288696 0.99198687076568604
0.9044421911239624 0.96427774429321289 0.99412542581558228
0.99065804481506348 0.98163020610809326 0.98299932479858398
