luts/fujixtransiii/fuji_xtrans_iii_mono+g.cube
# Created by: G'MIC (https://gmic.eu)
TITLE "fuji_xtrans_iii_mono+g"
# LUT size
LUT_3D_SIZE 5
# Data domain
DOMAIN_MIN 0.0 0.0 0.0
DOMAIN_MAX 1.0 1.0 1.0
# LUT data points
0.011997641995549202 0.011997641995549202 0.011997641995549202
0.042447004467248917 0.042447004467248917 0.042447004467248917
0.15994809567928314 0.15994809567928314 0.15994809567928314
0.25225082039833069 0.25225082039833069 0.25225082039833069
0.28431537747383118 0.28431537747383118 0.28431537747383118
0.12574233114719391 0.12574233114719391 0.12574233114719391
0.1804797500371933 0.1804797500371933 0.1804797500371933
0.26356244087219238 0.26356244087219238 0.26356244087219238
0.33594432473182678 0.33594432473182678 0.33594432473182678
0.36725002527236938 0.36725002527236938 0.36725002527236938
0.33015045523643494 0.33015045523643494 0.33015045523643494
0.40122807025909424 0.40122807025909424 0.40122807025909424
0.46544995903968811 0.46544995903968811 0.46544995903968811
0.51766782999038696 0.51766782999038696 0.51766782999038696
0.55100244283676147 0.55100244283676147 0.55100244283676147
0.42200717329978943 0.42200717329978943 0.42200717329978943
0.49497941136360168 0.49497941136360168 0.49497941136360168
0.58402246236801147 0.58402246236801147 0.58402246236801147
0.60933452844619751 0.60933452844619751 0.60933452844619751
0.66865456104278564 0.66865456104278564 0.66865456104278564
0.4658263623714447 0.4658263623714447 0.4658263623714447
0.60301733016967773 0.60301733016967773 0.60301733016967773
0.65266633033752441 0.65266633033752441 0.65266633033752441
0.70895242691040039 0.70895242691040039 0.70895242691040039
0.72490459680557251 0.72490459680557251 0.72490459680557251
0.079778365790843964 0.079778365790843964 0.079778365790843964
0.14269173145294189 0.14269173145294189 0.14269173145294189
0.2264755517244339 0.2264755517244339 0.2264755517244339
0.27757540345191956 0.27757540345191956 0.27757540345191956
0.33230376243591309 0.33230376243591309 0.33230376243591309
0.20673000812530518 0.20673000812530518 0.20673000812530518
0.23838964104652405 0.23838964104652405 0.23838964104652405
0.31299257278442383 0.31299257278442383 0.31299257278442383
0.37257599830627441 0.37257599830627441 0.37257599830627441
0.41377070546150208 0.41377070546150208 0.41377070546150208
0.42599135637283325 0.42599135637283325 0.42599135637283325
0.45876643061637878 0.45876643061637878 0.45876643061637878
0.5108039379119873 0.5108039379119873 0.5108039379119873
0.54746407270431519 0.54746407270431519 0.54746407270431519
0.56635081768035889 0.56635081768035889 0.56635081768035889
0.52727407217025757 0.52727407217025757 0.52727407217025757
0.61042183637619019 0.61042183637619019 0.61042183637619019
0.66460210084915161 0.66460210084915161 0.66460210084915161
0.7073860764503479 0.7073860764503479 0.7073860764503479
0.73287928104400635 0.73287928104400635 0.73287928104400635
0.57934284210205078 0.57934284210205078 0.57934284210205078
0.67020630836486816 0.67020630836486816 0.67020630836486816
0.70938432216644287 0.70938432216644287 0.70938432216644287
0.76463770866394043 0.76463770866394043 0.76463770866394043
0.79596012830734253 0.79596012830734253 0.79596012830734253
0.23189780116081238 0.23189780116081238 0.23301592469215393
0.27836847305297852 0.27836847305297852 0.27836847305297852
0.34148728847503662 0.34148728847503662 0.34148728847503662
0.38529917597770691 0.38529917597770691 0.38529917597770691
0.40048471093177795 0.40048471093177795 0.40048471093177795
0.3252599835395813 0.3252599835395813 0.32529285550117493
0.36171320080757141 0.36171320080757141 0.3617318868637085
0.42351964116096497 0.42351964116096497 0.42351964116096497
0.47191506624221802 0.47191506624221802 0.47191506624221802
0.48752865195274353 0.48752865195274353 0.48752865195274353
0.5020255446434021 0.5020255446434021 0.5020255446434021
0.5305677056312561 0.5305677056312561 0.53060543537139893
0.58450478315353394 0.58450478315353394 0.58450478315353394
0.61739480495452881 0.61739480495452881 0.61739480495452881
0.62632054090499878 0.62632054090499878 0.62632054090499878
0.65369969606399536 0.65369969606399536 0.65369969606399536
0.67024469375610352 0.67024469375610352 0.67024469375610352
0.71862637996673584 0.71862637996673584 0.71862637996673584
0.75964212417602539 0.75964212417602539 0.75964212417602539
0.80235576629638672 0.80235576629638672 0.80235576629638672
0.6989096999168396 0.6989096999168396 0.6989096999168396
0.72332668304443359 0.72332668304443359 0.72332668304443359
0.76630693674087524 0.76630693674087524 0.76630693674087524
0.82476556301116943 0.82476556301116943 0.82476556301116943
0.87149679660797119 0.87149679660797119 0.87149679660797119
0.33944270014762878 0.33944270014762878 0.33953371644020081
0.39923292398452759 0.39923292398452759 0.39927104115486145
0.47298890352249146 0.47298890352249146 0.47298890352249146
0.5259239673614502 0.5259239673614502 0.5259239673614502
0.56606376171112061 0.56606376171112061 0.56606376171112061
0.45580300688743591 0.45580300688743591 0.45583587884902954
0.497213214635849 0.497213214635849 0.49722835421562195
0.5503385066986084 0.5503385066986084 0.5503385066986084
0.59239047765731812 0.59239047765731812 0.59239047765731812
0.61257636547088623 0.61257636547088623 0.61257636547088623
0.58555740118026733 0.58555740118026733 0.58558773994445801
0.61822491884231567 0.61822491884231567 0.61825776100158691
0.64959824085235596 0.64959824085235596 0.64959824085235596
0.69881981611251831 0.69881981611251831 0.69881981611251831
0.7284812331199646 0.7284812331199646 0.7284812331199646
0.72690171003341675 0.72690171003341675 0.72690171003341675
0.73864078521728516 0.73864078521728516 0.73864203691482544
0.76774090528488159 0.76774090528488159 0.76774090528488159
0.81295633316040039 0.81295633316040039 0.81295633316040039
0.87388473749160767 0.87388473749160767 0.87388473749160767
0.78230339288711548 0.78230339288711548 0.78230339288711548
0.81852573156356812 0.81852573156356812 0.81852573156356812
0.86397433280944824 0.86397433280944824 0.86397433280944824
0.89503717422485352 0.89503717422485352 0.89503717422485352
0.92327380180358887 0.92327380180358887 0.92327380180358887
0.42362833023071289 0.42362833023071289 0.42362833023071289
0.47309941053390503 0.47309941053390503 0.47313985228538513
0.55355507135391235 0.55355507135391235 0.55355507135391235
0.63837528228759766 0.63837528228759766 0.63837528228759766
0.67618012428283691 0.67618012428283691 0.67618012428283691
0.56582045555114746 0.56582045555114746 0.56582045555114746
0.61488848924636841 0.61488848924636841 0.61490422487258911
0.65961027145385742 0.65961027145385742 0.65961027145385742
0.69904035329818726 0.69904035329818726 0.69904035329818726
0.71142864227294922 0.71142864227294922 0.71142864227294922
0.67500931024551392 0.67500931024551392 0.67500931024551392
0.71200251579284668 0.71200251579284668 0.71200251579284668
0.74609255790710449 0.74609255790710449 0.74609255790710449
0.77973383665084839 0.77973383665084839 0.77973383665084839
0.80577486753463745 0.80577486753463745 0.80577486753463745
0.78818005323410034 0.78818005323410034 0.78818005323410034
0.81155717372894287 0.81155717372894287 0.81155717372894287
0.84282505512237549 0.84282505512237549 0.84282505512237549
0.87953430414199829 0.87953430414199829 0.87953430414199829
0.91703915596008301 0.91703915596008301 0.91703915596008301
0.86067235469818115 0.86067235469818115 0.86067235469818115
0.85361963510513306 0.85361963510513306 0.85361963510513306
0.88884389400482178 0.88884389400482178 0.88884389400482178
0.92701059579849243 0.92701059579849243 0.92701059579849243
0.9568067193031311 0.9568067193031311 0.9568067193031311
