luts/fujixtransiii/fuji_xtrans_iii_sepia.cube
# Created by: G'MIC (https://gmic.eu)
TITLE "fuji_xtrans_iii_sepia"
# LUT size
LUT_3D_SIZE 13
# Data domain
DOMAIN_MIN 0.0 0.0 0.0
DOMAIN_MAX 1.0 1.0 1.0
# LUT data points
0.064660392701625824 0.0047428207471966743 0
0.079911895096302032 0.0082504423335194588 0.00018686032854020596
0.11551927775144577 0.022736897692084312 0.001823919010348618
0.15455538034439087 0.049070529639720917 0.0077467523515224457
0.20073504745960236 0.090720966458320618 0.02342071570456028
0.25824415683746338 0.14403146505355835 0.067544721066951752
0.32042661309242249 0.20271150767803192 0.12080672383308411
0.38877999782562256 0.26881307363510132 0.18357247114181519
0.42782753705978394 0.30832397937774658 0.22253064811229706
0.45940092206001282 0.33817762136459351 0.25362285971641541
0.47176867723464966 0.3494507372379303 0.26566126942634583
0.49152714014053345 0.36534303426742554 0.28391268849372864
0.50566643476486206 0.37774884700775146 0.29774746298789978
0.096282303333282471 0.013727988116443157 7.7371034421958029e-05
0.10729061812162399 0.023270551115274429 0.0025366689078509808
0.13928578794002533 0.039782565087080002 0.0040660933591425419
0.17732472717761993 0.068439915776252747 0.01356976106762886
0.22556832432746887 0.11367956548929214 0.043463628739118576
0.27912759780883789 0.16348132491111755 0.087499417364597321
0.33287739753723145 0.21502107381820679 0.13429152965545654
0.39037448167800903 0.27175039052963257 0.18699988722801208
0.43313005566596985 0.31325232982635498 0.22806420922279358
0.46704131364822388 0.34393766522407532 0.26102247834205627
0.48647791147232056 0.36112809181213379 0.27947178483009338
0.50649607181549072 0.37829840183258057 0.29848086833953857
0.54281467199325562 0.41223743557929993 0.33499503135681152
0.13512915372848511 0.033934753388166428 0.0064065819606184959
0.14905990660190582 0.047746621072292328 0.0087660094723105431
0.17349429428577423 0.067171193659305573 0.013713701628148556
0.21779665350914001 0.10630913823843002 0.041459072381258011
0.27010086178779602 0.15513293445110321 0.081826545298099518
0.31850758194923401 0.20053000748157501 0.12222390621900558
0.36302083730697632 0.24414560198783875 0.16320843994617462
0.41135990619659424 0.29258349537849426 0.20849604904651642
0.4555763304233551 0.33411210775375366 0.25088268518447876
0.49174681305885315 0.36563858389854431 0.28579813241958618
0.51743292808532715 0.38865157961845398 0.31007805466651917
0.54569703340530396 0.41627728939056396 0.33920377492904663
0.57660055160522461 0.44706138968467712 0.37119376659393311
0.19126801192760468 0.081764668226242065 0.029735609889030457
0.21018040180206299 0.098823711276054382 0.038315895944833755
0.22954125702381134 0.11697182804346085 0.049337513744831085
0.27388018369674683 0.15911617875099182 0.086982771754264832
0.32180607318878174 0.20368930697441101 0.12588506937026978
0.36701056361198425 0.24674965441226959 0.16521866619586945
0.41148597002029419 0.29115921258926392 0.20917923748493195
0.45605388283729553 0.33581110835075378 0.25356635451316833
0.4991004467010498 0.37534442543983459 0.29589813947677612
0.53863239288330078 0.41153344511985779 0.33518549799919128
0.56973958015441895 0.44115382432937622 0.36589711904525757
0.57799124717712402 0.4484805166721344 0.37338525056838989
0.58631652593612671 0.45728984475135803 0.38235569000244141
0.25233668088912964 0.13612669706344604 0.061870094388723373
0.29057580232620239 0.17321082949638367 0.097177393734455109
0.31101313233375549 0.19435854256153107 0.11724723130464554
0.34802091121673584 0.23006740212440491 0.15089890360832214
0.39255607128143311 0.27227321267127991 0.19133363664150238
0.42502328753471375 0.30394637584686279 0.22337336838245392
0.46715494990348816 0.3461051881313324 0.26636612415313721
0.50760918855667114 0.38653501868247986 0.3074488639831543
0.54119443893432617 0.41781225800514221 0.34094718098640442
0.57132565975189209 0.44727683067321777 0.37110164761543274
0.59767740964889526 0.47225716710090637 0.39602962136268616
0.5924953818321228 0.46302896738052368 0.38809928297996521
0.6096150279045105 0.4805334210395813 0.40525919198989868
0.33059996366500854 0.20733301341533661 0.12528595328330994
0.36960017681121826 0.24812452495098114 0.16435442864894867
0.38051000237464905 0.26053938269615173 0.17766363918781281
0.41561254858970642 0.29462048411369324 0.21248140931129456
0.45983156561851501 0.3382008969783783 0.25727179646492004
0.48895594477653503 0.36793768405914307 0.28929981589317322
0.52528458833694458 0.40456697344779968 0.32737958431243896
0.55978375673294067 0.43888354301452637 0.36211973428726196
0.58938717842102051 0.46766418218612671 0.39138805866241455
0.62126493453979492 0.49947616457939148 0.42226380109786987
0.64082598686218262 0.51932477951049805 0.44196596741676331
0.64416593313217163 0.52072244882583618 0.44391173124313354
0.67810088396072388 0.55209696292877197 0.47399121522903442
0.38411441445350647 0.25960949063301086 0.17423421144485474
0.41207477450370789 0.28989598155021667 0.20406875014305115
0.42941483855247498 0.30663913488388062 0.22263070940971375
0.46620392799377441 0.34314736723899841 0.26124757528305054
0.51182651519775391 0.38902586698532104 0.3097413182258606
0.53716045618057251 0.41638356447219849 0.33878329396247864
0.57471591234207153 0.45560666918754578 0.38003399968147278
0.60903918743133545 0.48955258727073669 0.41411629319190979
0.6412922739982605 0.52099859714508057 0.44477346539497375
0.66960203647613525 0.54758596420288086 0.47027528285980225
0.68407762050628662 0.56238859891891479 0.48510774970054626
0.69933575391769409 0.57754170894622803 0.49995124340057373
0.72753125429153442 0.60340827703475952 0.52460366487503052
0.41013035178184509 0.28786519169807434 0.20305301249027252
0.4336494505405426 0.3110099732875824 0.2258259654045105
0.48016625642776489 0.35637959837913513 0.27342399954795837
0.49474087357521057 0.37172156572341919 0.29063820838928223
0.54838770627975464 0.42493709921836853 0.3468720018863678
0.5720629096031189 0.45087075233459473 0.37347438931465149
0.62191963195800781 0.50383830070495605 0.42822051048278809
0.65695101022720337 0.53937631845474243 0.46428260207176208
0.68747967481613159 0.56800055503845215 0.49225330352783203
0.71745425462722778 0.59435069561004639 0.5167655348777771
0.73437005281448364 0.61020708084106445 0.53209227323532104
0.75336813926696777 0.62869107723236084 0.54993927478790283
0.77133309841156006 0.64536577463150024 0.56521856784820557
0.44781386852264404 0.32450345158576965 0.24110756814479828
0.45756626129150391 0.33313873410224915 0.24876287579536438
0.51615893840789795 0.3910057544708252 0.30925685167312622
0.50979042053222656 0.38489720225334167 0.30396106839179993
0.56145548820495605 0.43604671955108643 0.35782298445701599
0.60404396057128906 0.4822629988193512 0.40515244007110596
0.66484403610229492 0.54649490118026733 0.47006306052207947
0.69297635555267334 0.57538139820098877 0.49957215785980225
0.7191307544708252 0.59968876838684082 0.52323508262634277
0.74997037649154663 0.62599819898605347 0.5474587082862854
0.76139044761657715 0.63560312986373901 0.55664503574371338
0.7894134521484375 0.6631428599357605 0.58282613754272461
0.81003862619400024 0.68269133567810059 0.60086894035339355
0.47135534882545471 0.34805667400360107 0.26377689838409424
0.4568943977355957 0.33228093385696411 0.24779032170772552
0.50561952590942383 0.38206964731216431 0.29916977882385254
0.54491335153579712 0.41976332664489746 0.33862915635108948
0.59234261512756348 0.46757417917251587 0.38812065124511719
0.62696188688278198 0.50509566068649292 0.42854160070419312
0.67122548818588257 0.55217862129211426 0.47514081001281738
0.69944638013839722 0.58150744438171387 0.50441944599151611
0.72427433729171753 0.60659509897232056 0.52862250804901123
0.75310593843460083 0.63035279512405396 0.55079668760299683
0.78118443489074707 0.65517723560333252 0.57491058111190796
0.8119470477104187 0.68424010276794434 0.60350269079208374
0.83328992128372192 0.70469135046005249 0.62247180938720703
0.47816312313079834 0.35600993037223816 0.27114805579185486
0.47119647264480591 0.34632587432861328 0.26208806037902832
0.5826343297958374 0.45624342560768127 0.37502577900886536
0.61780184507369995 0.49029326438903809 0.41060712933540344
0.64057707786560059 0.51552379131317139 0.43647187948226929
0.65633904933929443 0.53418081998825073 0.45559123158454895
0.69659423828125 0.57527583837509155 0.49676156044006348
0.70811820030212402 0.58972370624542236 0.51211225986480713
0.73156344890594482 0.61281502246856689 0.53520625829696655
0.76217269897460938 0.63859027624130249 0.55777209997177124
0.80688643455505371 0.67952436208724976 0.5980679988861084
0.83586692810058594 0.70693886280059814 0.62512189149856567
0.84292405843734741 0.71354013681411743 0.63129919767379761
0.50809508562088013 0.38598817586898804 0.30341744422912598
0.50218689441680908 0.3791128396987915 0.29497072100639343
0.60627198219299316 0.47881722450256348 0.39843133091926575
0.63804006576538086 0.50925415754318237 0.43028604984283447
0.66165018081665039 0.53453266620635986 0.4544118344783783
0.68569833040237427 0.5607379674911499 0.47901448607444763
0.72099059820175171 0.59695577621459961 0.51594823598861694
0.73755782842636108 0.61469650268554688 0.53422480821609497
0.76977258920669556 0.64696168899536133 0.56641840934753418
0.79681122303009033 0.67336416244506836 0.5926210880279541
0.824421226978302 0.69715654850006104 0.6158137321472168
0.84737026691436768 0.71798378229141235 0.63584083318710327
0.85736685991287231 0.72749078273773193 0.64465522766113281
0.51030957698822021 0.38855850696563721 0.30581894516944885
0.50515377521514893 0.38261651992797852 0.29844152927398682
0.61136829853057861 0.48407867550849915 0.40308660268783569
0.64556270837783813 0.51622116565704346 0.43745195865631104
0.66263508796691895 0.53421938419342041 0.45441797375679016
0.68965178728103638 0.56286656856536865 0.48129081726074219
0.72925353050231934 0.60167461633682251 0.51968598365783691
0.76405215263366699 0.63505649566650391 0.55297905206680298
0.80204892158508301 0.67608118057250977 0.59441179037094116
0.83449631929397583 0.70878612995147705 0.62694287300109863
0.85962402820587158 0.73191863298416138 0.64962637424468994
0.8745119571685791 0.74392443895339966 0.66136026382446289
0.88178211450576782 0.75070106983184814 0.66691285371780396
0.081248387694358826 0.0071680555120110512 0
0.091658182442188263 0.014710519462823868 0.0016564462566748261
0.13590329885482788 0.038627415895462036 0.0065701501443982124
0.17469900846481323 0.066741645336151123 0.015235212631523609
0.20458365976810455 0.094498038291931152 0.025702742859721184
0.26920005679130554 0.15547357499599457 0.077783025801181793
0.34495517611503601 0.2279076874256134 0.14508248865604401
0.40082821249961853 0.28298279643058777 0.19738107919692993
0.44795915484428406 0.3286716639995575 0.24360547959804535
0.47780537605285645 0.35423338413238525 0.2716972827911377
0.49466666579246521 0.36911603808403015 0.28742063045501709
0.50767457485198975 0.38162297010421753 0.30052551627159119
0.54711687564849854 0.42044147849082947 0.34202802181243896
0.11398548632860184 0.022204380482435226 0.0024689617566764355
0.12729929387569427 0.035299144685268402 0.0047472636215388775
0.16010951995849609 0.056888744235038757 0.011279042810201645
0.1958933025598526 0.086063727736473083 0.024655226618051529
0.23701438307762146 0.12400949746370316 0.051512114703655243
0.29376688599586487 0.17737066745758057 0.099540188908576965
0.34727254509925842 0.22955118119716644 0.14741924405097961
0.39547646045684814 0.27712851762771606 0.19185838103294373
0.44032144546508789 0.31904134154319763 0.23542144894599915
0.47665572166442871 0.35191714763641357 0.27067852020263672
0.5049818754196167 0.37748473882675171 0.29789638519287109
0.54038172960281372 0.41220864653587341 0.33487609028816223
0.57146209478378296 0.44318529963493347 0.36644995212554932
0.15999861061573029 0.056837942451238632 0.013908714987337589
0.16675116121768951 0.062691494822502136 0.014075455255806446
0.19189973175525665 0.083701714873313904 0.023960083723068237
0.22912141680717468 0.1175239235162735 0.04873434454202652
0.28128907084465027 0.1661025732755661 0.090900644659996033
0.33079096674919128 0.21241456270217896 0.13267971575260162
0.37428715825080872 0.25500738620758057 0.17342124879360199
0.42056733369827271 0.30019673705101013 0.21687209606170654
0.46385151147842407 0.34040173888206482 0.25881430506706238
0.50443100929260254 0.37720432877540588 0.29842099547386169
0.54431819915771484 0.41399440169334412 0.337606281042099
0.56654006242752075 0.43641862273216248 0.36113396286964417
0.58283209800720215 0.45434367656707764 0.37783095240592957
0.21704825758934021 0.10554520785808563 0.040960349142551422
0.22766435146331787 0.11458916962146759 0.046661946922540665
0.24987417459487915 0.13554725050926208 0.064100660383701324
0.29018837213516235 0.17473220825195312 0.1001175194978714
0.33438685536384583 0.21711148321628571 0.13800939917564392
0.37852436304092407 0.25926986336708069 0.17682932317256927
0.42021322250366211 0.29971775412559509 0.21744731068611145
0.46065500378608704 0.33907455205917358 0.25757321715354919
0.50144445896148682 0.37783476710319519 0.29788687825202942
0.54360121488571167 0.41692966222763062 0.33922398090362549
0.57338958978652954 0.44530144333839417 0.3691619336605072
0.58562850952148438 0.45715343952178955 0.38209930062294006
0.6043434739112854 0.47798129916191101 0.40187576413154602
0.28782007098197937 0.17090079188346863 0.093591861426830292
0.30302098393440247 0.18556123971939087 0.10858859121799469
0.32268598675727844 0.20500850677490234 0.12767156958580017
0.3570064902305603 0.23846323788166046 0.15852722525596619
0.39909094572067261 0.27955517172813416 0.19814293086528778
0.43676057457923889 0.31670263409614563 0.23552329838275909
0.47683554887771606 0.35606706142425537 0.27613112330436707
0.51283937692642212 0.39136964082717896 0.31188955903053284
0.5457688570022583 0.42324033379554749 0.34413579106330872
0.58165037631988525 0.45824322104454041 0.37975859642028809
0.60973751544952393 0.48527142405509949 0.40737226605415344
0.62064510583877563 0.49414432048797607 0.41716289520263672
0.65294212102890015 0.52716279029846191 0.44940555095672607
0.35871833562850952 0.23720216751098633 0.1536870151758194
0.37820661067962646 0.25757339596748352 0.17465245723724365
0.39477998018264771 0.27451813220977783 0.19240505993366241
0.42125561833381653 0.29982033371925354 0.21848593652248383
0.46218955516815186 0.34132218360900879 0.26059183478355408
0.49827978014945984 0.37765228748321533 0.29894611239433289
0.53424572944641113 0.41318708658218384 0.33564284443855286
0.56641775369644165 0.44486483931541443 0.36757954955101013
0.5975881814956665 0.47585365176200867 0.39807620644569397
0.63097912073135376 0.50907593965530396 0.43097224831581116
0.66074252128601074 0.53847885131835938 0.45898085832595825
0.68255048990249634 0.55911350250244141 0.47894006967544556
0.70582884550094604 0.5806584358215332 0.50122445821762085
0.40517628192901611 0.28189796209335327 0.19622592628002167
0.43478819727897644 0.31466847658157349 0.22894002497196198
0.45808202028274536 0.33603090047836304 0.25338283181190491
0.47699233889579773 0.35398322343826294 0.27379214763641357
0.52264833450317383 0.40065222978591919 0.32173329591751099
0.5549008846282959 0.43324565887451172 0.35616183280944824
0.58571791648864746 0.4649035632610321 0.38921722769737244
0.61552435159683228 0.49520272016525269 0.418995201587677
0.65022963285446167 0.52955484390258789 0.45255944132804871
0.68198400735855103 0.55995076894760132 0.48179799318313599
0.71030145883560181 0.58723849058151245 0.50751966238021851
0.72537863254547119 0.60191398859024048 0.52164250612258911
0.74099951982498169 0.6163032054901123 0.53623181581497192
0.46933424472808838 0.34958010911941528 0.26433315873146057
0.47691071033477783 0.35535326600074768 0.27031779289245605
0.5088423490524292 0.38446784019470215 0.30338779091835022
0.52154934406280518 0.39588660001754761 0.31751897931098938
0.56485193967819214 0.44081827998161316 0.36291307210922241
0.59245032072067261 0.47038987278938293 0.39344525337219238
0.63196593523025513 0.51279151439666748 0.43580198287963867
0.66576790809631348 0.54678255319595337 0.47039574384689331
0.70123684406280518 0.58096009492874146 0.50423836708068848
0.73066562414169312 0.60741883516311646 0.52945375442504883
0.75741076469421387 0.63234001398086548 0.55283063650131226
0.77495825290679932 0.64855396747589111 0.56804484128952026
0.79459226131439209 0.66629844903945923 0.58475470542907715
0.50206965208053589 0.38046962022781372 0.29737722873687744
0.51593822240829468 0.39174801111221313 0.30947098135948181
0.54354828596115112 0.41789934039115906 0.33757269382476807
0.55614495277404785 0.42890581488609314 0.34897860884666443
0.5940781831741333 0.46856391429901123 0.39005863666534424
0.62048649787902832 0.49776259064674377 0.42092686891555786
0.67005288600921631 0.54956620931625366 0.47138857841491699
0.70765680074691772 0.58664143085479736 0.50782567262649536
0.73166263103485107 0.60986548662185669 0.53193527460098267
0.7676275372505188 0.64285683631896973 0.56382697820663452
0.79763567447662354 0.67093569040298462 0.59040528535842896
0.82115018367767334 0.69223415851593018 0.61056977510452271
0.83905589580535889 0.70808702707290649 0.62590581178665161
0.51528465747833252 0.39167115092277527 0.30905723571777344
0.52379167079925537 0.3986106812953949 0.31638684868812561
0.58091104030609131 0.4536813497543335 0.37375003099441528
0.6147836446762085 0.48734036087989807 0.4071352481842041
0.64254963397979736 0.51693177223205566 0.43622764945030212
0.66433095932006836 0.54034614562988281 0.46055275201797485
0.70101231336593628 0.57789051532745361 0.49805563688278198
0.72539108991622925 0.6027827262878418 0.52340406179428101
0.75007587671279907 0.62731969356536865 0.54813510179519653
0.78827452659606934 0.66345047950744629 0.58342510461807251
0.82058417797088623 0.69299620389938354 0.61224520206451416
0.84011989831924438 0.71061664819717407 0.6293366551399231
0.84724444150924683 0.71726143360137939 0.63491106033325195
0.52006614208221436 0.39642578363418579 0.31338191032409668
0.52925294637680054 0.40363588929176331 0.32198056578636169
0.61061245203018188 0.48236209154129028 0.40314111113548279
0.63726794719696045 0.50944876670837402 0.42948991060256958
0.66605621576309204 0.53975123167037964 0.45898133516311646
0.6873096227645874 0.56188541650772095 0.4809393584728241
0.72320425510406494 0.59786635637283325 0.51744675636291504
0.744942307472229 0.62102210521697998 0.54134762287139893
0.77569931745529175 0.6520305871963501 0.57296293973922729
0.80887192487716675 0.68326044082641602 0.60326004028320312
0.84103989601135254 0.71335762739181519 0.63285404443740845
0.84944719076156616 0.71985316276550293 0.63939762115478516
0.85148006677627563 0.7215266227722168 0.63940471410751343
0.5407448410987854 0.41761565208435059 0.33703631162643433
0.53251349925994873 0.40741336345672607 0.32567235827445984
0.61968904733657837 0.49293226003646851 0.41172850131988525
0.65440922975540161 0.52683401107788086 0.44531381130218506
0.6800462007522583 0.55226236581802368 0.4707811176776886
0.69834995269775391 0.57195335626602173 0.48979631066322327
0.73304808139801025 0.60719412565231323 0.52509021759033203
0.76129829883575439 0.63536214828491211 0.55316793918609619
0.80059385299682617 0.67475348711013794 0.59391266107559204
0.83543688058853149 0.70841050148010254 0.62739229202270508
0.86382722854614258 0.7343718409538269 0.6517632007598877
0.88194578886032104 0.75038772821426392 0.66664379835128784
0.88252502679824829 0.75094336271286011 0.66717791557312012
0.55275613069534302 0.4294467568397522 0.35005199909210205
0.53534317016601562 0.41145163774490356 0.32933861017227173
0.6429140567779541 0.51525479555130005 0.43206140398979187
0.68015050888061523 0.55085194110870361 0.46888655424118042
0.69731134176254272 0.56804162263870239 0.48622435331344604
0.71103560924530029 0.58302628993988037 0.50091254711151123
0.74073159694671631 0.6132436990737915 0.5307498574256897
0.76854234933853149 0.63955473899841309 0.55674028396606445
0.8067471981048584 0.6785123348236084 0.59556061029434204
0.84323841333389282 0.71450799703598022 0.63224393129348755
0.86777228116989136 0.7383454442024231 0.65578275918960571
0.90326923131942749 0.7713242769241333 0.68704932928085327
0.91523832082748413 0.78185546398162842 0.69650626182556152
0.11122774332761765 0.016932349652051926 0.0012509663356468081
0.13345055282115936 0.037048250436782837 0.006816190667450428
0.16749323904514313 0.061079047620296478 0.014633612707257271
0.21254968643188477 0.10004258900880814 0.03661181777715683
0.24683919548988342 0.1314106285572052 0.055862907320261002
0.31079620122909546 0.19464552402496338 0.11372929066419601
0.37254816293716431 0.25615021586418152 0.17193391919136047
0.42213788628578186 0.3055177628993988 0.22026503086090088
0.4569118320941925 0.33746078610420227 0.25353717803955078
0.48397260904312134 0.36065095663070679 0.27917289733886719
0.50894761085510254 0.38274934887886047 0.30312809348106384
0.54562973976135254 0.41899898648262024 0.34041866660118103
0.58425813913345337 0.45872324705123901 0.38092425465583801
0.13872359693050385 0.039370249956846237 0.0088860904797911644
0.16091334819793701 0.057523839175701141 0.013444982469081879
0.18756444752216339 0.079075753688812256 0.022034782916307449
0.22619457542896271 0.11301202327013016 0.043617114424705505
0.26775661110877991 0.15112793445587158 0.073487073183059692
0.32018968462944031 0.20221860706806183 0.12240126729011536
0.37047079205513 0.25220128893852234 0.16969481110572815
0.41874992847442627 0.29955470561981201 0.21517688035964966
0.4602399468421936 0.33803889155387878 0.25542056560516357
0.50296813249588013 0.37766367197036743 0.29813855886459351
0.54066371917724609 0.41274851560592651 0.33619841933250427
0.56452995538711548 0.43682816624641418 0.36046639084815979
0.58515781164169312 0.45916101336479187 0.38264614343643188
0.18414679169654846 0.078221641480922699 0.02142709493637085
0.19590471684932709 0.088129155337810516 0.026984913274645805
0.22029784321784973 0.1099247932434082 0.040633212774991989
0.2601989209651947 0.14650082588195801 0.071662411093711853
0.30415293574333191 0.18729741871356964 0.10784855484962463
0.34864845871925354 0.23030745983123779 0.14839884638786316
0.39432099461555481 0.27427995204925537 0.19164209067821503
0.44068285822868347 0.31869411468505859 0.23599131405353546
0.48437854647636414 0.35972470045089722 0.27893221378326416
0.52913826704025269 0.40176132321357727 0.32352334260940552
0.5672793984413147 0.43889197707176208 0.36268487572669983
0.58235996961593628 0.45413053035736084 0.37879195809364319
0.60575491189956665 0.48010021448135376 0.40332800149917603
0.24153207242488861 0.12936262786388397 0.056084189563989639
0.25312617421150208 0.1398794949054718 0.067467361688613892
0.27613615989685059 0.16202749311923981 0.087594948709011078
0.31319260597229004 0.19754347205162048 0.11959315091371536
0.3530501127243042 0.23598061501979828 0.1540566086769104
0.39257863163948059 0.2741909921169281 0.18977063894271851
0.43491652607917786 0.31498527526855469 0.2316083163022995
0.47756776213645935 0.35582500696182251 0.27371177077293396
0.51738494634628296 0.39372199773788452 0.31309336423873901
0.56061744689941406 0.43482705950737 0.35629421472549438
0.59844142198562622 0.47382581233978271 0.39577379822731018
0.62304580211639404 0.49916267395019531 0.42145004868507385
0.64187067747116089 0.51720923185348511 0.43845880031585693
0.3132627010345459 0.19668024778366089 0.11742653697729111
0.32361257076263428 0.2069258987903595 0.12865240871906281
0.34327805042266846 0.22613267600536346 0.14686833322048187
0.37598991394042969 0.25759419798851013 0.17603498697280884
0.41251647472381592 0.29386928677558899 0.2108532041311264
0.45072835683822632 0.33139190077781677 0.24901658296585083
0.48887905478477478 0.36880958080291748 0.28717291355133057
